create_logik_projekt/setups/Syncolor/transforms/r3d/IPP2-Cubes-SDR-Core-V1_13/REC2020/RWG_Log3G10 to REC2020_BT1886 with LOW_CONTRAST and R_1_Hard size_33 v1.13.cube
# RED Digital Cinema Output Transform LUT for IPP2
# LUT Name = RWG_Log3G10 to REC2020_BT1886 with LOW_CONTRAST and R_1_Hard size_33 v1.13
# Generated by version 1.13
# Settings used in creation of this LUT are:
# Development Color Space = REC2020
# Output Gamma Curve = BT1886
# Output Tonemap = LOW_CONTRAST
# Highlight Rolloff = Rolloff 1 - hard
# Resolution = 33 x 33 x 33
TITLE "RED IPP2 LUT to map REDWideGamutRGB/Log3G10 to REC2020/BT1886/LOW_CONTRAST/Rolloff 1 - hard"
LUT_3D_SIZE 9
0.000000 0.000000 0.000000
0.073460 0.003505 0.003505
0.273703 0.023274 0.015653
0.604964 0.086202 0.061315
0.918084 0.229414 0.171832
0.988883 0.513482 0.445428
0.999033 0.860184 0.827934
1.000002 0.967621 0.960689
1.000002 0.992962 0.991508
0.003505 0.091562 0.003505
0.079280 0.089014 0.003505
0.276641 0.080698 0.012129
0.610825 0.117567 0.058345
0.920130 0.244807 0.171649
0.989259 0.523831 0.450468
0.999086 0.864283 0.832363
1.000002 0.968663 0.961924
1.000002 0.993222 0.991818
0.027079 0.324595 0.004909
0.059939 0.323642 0.004945
0.292059 0.318532 0.005161
0.636102 0.308529 0.040248
0.928491 0.359524 0.161672
0.990831 0.593702 0.470927
0.999309 0.883923 0.851456
1.000002 0.973297 0.967274
1.000002 0.994351 0.993156
0.133020 0.708978 0.024467
0.150767 0.708064 0.024497
0.281998 0.702529 0.024318
0.631852 0.692742 0.026555
0.929407 0.672951 0.122105
0.991387 0.753037 0.456650
0.999420 0.907039 0.859256
1.000002 0.976936 0.970414
1.000002 0.995136 0.994018
0.339551 0.935222 0.103411
0.343376 0.935010 0.103238
0.390364 0.933800 0.101871
0.612865 0.931590 0.098974
0.904534 0.928117 0.116803
0.989579 0.920746 0.383690
0.999283 0.943667 0.834854
1.000002 0.979819 0.967914
1.000002 0.995250 0.993748
0.664125 0.987862 0.365436
0.664661 0.987818 0.364786
0.676208 0.987581 0.361141
0.748332 0.987205 0.354501
0.896588 0.986613 0.349094
0.978876 0.985655 0.402901
0.998766 0.983482 0.775329
1.000002 0.988012 0.957992
1.000002 0.995673 0.992342
0.893650 0.998015 0.747291
0.893477 0.998006 0.746590
0.893420 0.997958 0.742869
0.900289 0.997888 0.737361
0.931446 0.997796 0.730044
0.976374 0.997643 0.728439
0.995557 0.997399 0.778136
1.000002 0.996787 0.940211
1.000002 0.997634 0.989229
0.966999 0.999902 0.925142
0.966910 0.999900 0.924906
0.966529 0.999890 0.923668
0.966760 0.999876 0.921952
0.970631 0.999859 0.919973
0.982713 0.999835 0.917656
0.994847 0.999795 0.918745
0.999223 0.999734 0.934414
1.000002 0.999558 0.984120
0.989698 1.000002 0.977319
0.989664 1.000002 0.977242
0.989499 1.000002 0.976836
0.989362 1.000002 0.976286
0.989691 1.000002 0.975700
0.991710 1.000002 0.975036
0.995901 1.000002 0.974417
0.999026 1.000002 0.975216
1.000002 1.000002 0.980096
0.003505 0.003505 0.083310
0.068098 0.003505 0.082895
0.272694 0.017502 0.056118
0.604331 0.081017 0.082716
0.918036 0.226829 0.186406
0.988889 0.512815 0.449772
0.999035 0.860228 0.828671
1.000002 0.967659 0.960776
1.000002 0.992974 0.991525
0.003505 0.073802 0.076676
0.074292 0.074292 0.074292
0.275432 0.064339 0.046815
0.609865 0.110255 0.079451
0.919987 0.242076 0.186510
0.989249 0.522855 0.454678
0.999085 0.864169 0.832903
1.000002 0.968658 0.961958
1.000002 0.993222 0.991821
0.025000 0.320085 0.009614
0.056086 0.320182 0.009232
0.290936 0.314833 0.011098
0.635204 0.305255 0.053284
0.928371 0.357494 0.173854
0.990823 0.592838 0.474697
0.999308 0.883843 0.851874
1.000002 0.973295 0.967301
1.000002 0.994352 0.993160
0.131500 0.706672 0.029314
0.149510 0.706904 0.029117
0.281216 0.701223 0.029327
0.631515 0.691315 0.032278
0.929309 0.671778 0.129650
0.991381 0.752618 0.460046
0.999420 0.906991 0.859613
1.000002 0.976936 0.970439
1.000002 0.995138 0.994021
0.338795 0.934898 0.106855
0.343242 0.934985 0.106823
0.390182 0.933762 0.105734
0.612722 0.931535 0.103121
0.904583 0.928055 0.121766
0.989574 0.920706 0.386811
0.999283 0.943659 0.835268
1.000002 0.979821 0.967940
1.000002 0.995252 0.993752
0.663285 0.987810 0.366557
0.664905 0.987831 0.366830
0.676412 0.987592 0.363342
0.748445 0.987215 0.356923
0.896642 0.986623 0.351689
0.978900 0.985666 0.405316
0.998766 0.983493 0.775926
1.000002 0.988017 0.958028
1.000002 0.995675 0.992347
0.893344 0.998005 0.746936
0.893606 0.998010 0.747281
0.893544 0.997962 0.743600
0.900393 0.997892 0.738151
0.931504 0.997799 0.730903
0.976396 0.997646 0.729326
0.995564 0.997404 0.778822
1.000002 0.996791 0.940277
1.000002 0.997636 0.989235
0.966895 0.999900 0.924931
0.966958 0.999901 0.925052
0.966576 0.999891 0.923816
0.966805 0.999876 0.922107
0.970667 0.999860 0.920135
0.982732 0.999836 0.917825
0.994853 0.999796 0.918911
0.999225 0.999735 0.934546
1.000002 0.999559 0.984134
0.989662 1.000002 0.977242
0.989681 1.000002 0.977282
0.989515 1.000002 0.976877
0.989379 1.000002 0.976328
0.989706 1.000002 0.975743
0.991721 1.000002 0.975080
0.995906 1.000002 0.974462
0.999027 1.000002 0.975259
1.000002 1.000002 0.980131
0.011016 0.004360 0.298339
0.029488 0.004377 0.298636
0.262886 0.004494 0.298045
0.595769 0.046010 0.280766
0.916355 0.199108 0.301825
0.988732 0.502330 0.490850
0.999022 0.858556 0.833737
1.000002 0.967471 0.960989
1.000002 0.992950 0.991524
0.010359 0.008131 0.298550
0.030238 0.008014 0.297950
0.265522 0.008997 0.297216
0.601137 0.064147 0.278923
0.918324 0.215824 0.301881
0.989095 0.512426 0.495357
0.999073 0.862547 0.837730
1.000002 0.968473 0.962153
1.000002 0.993198 0.991820
0.013675 0.274175 0.280541
0.027115 0.279152 0.285255
0.279669 0.279669 0.279669
0.624142 0.273905 0.257968
0.926307 0.335843 0.293247
0.990604 0.581036 0.513159
0.999287 0.881744 0.854920
1.000002 0.972936 0.967198
1.000002 0.994282 0.993097
0.114893 0.685284 0.171846
0.134208 0.685539 0.170828
0.272799 0.686192 0.163146
0.624030 0.671438 0.198509
0.927467 0.657972 0.235379
0.991180 0.746599 0.495084
0.999402 0.905568 0.862079
1.000002 0.976653 0.970331
1.000002 0.995081 0.993968
0.332399 0.932335 0.161682
0.337079 0.932426 0.161381
0.387153 0.932795 0.158952
0.609936 0.930371 0.162050
0.904433 0.926799 0.194199
0.989378 0.919811 0.419565
0.999263 0.943163 0.838174
1.000002 0.979620 0.967829
1.000002 0.995201 0.993699
0.658146 0.987480 0.385428
0.659849 0.987501 0.385600
0.676787 0.987601 0.386173
0.748479 0.987210 0.382349
0.896720 0.986605 0.379200
0.978992 0.985647 0.430979
0.998743 0.983495 0.780598
1.000002 0.987975 0.957911
1.000002 0.995642 0.992285
0.891688 0.997950 0.747900
0.891956 0.997955 0.748214
0.894112 0.997977 0.749734
0.900859 0.997907 0.744963
0.931758 0.997813 0.738486
0.976495 0.997660 0.737292
0.995596 0.997418 0.784868
1.000002 0.996807 0.940382
1.000002 0.997634 0.989156
0.966346 0.999889 0.924087
0.966410 0.999890 0.924204
0.966810 0.999895 0.924788
0.967026 0.999881 0.923143
0.970842 0.999864 0.921248
0.982821 0.999840 0.919016
0.994885 0.999800 0.920095
0.999234 0.999740 0.935458
1.000002 0.999565 0.984094
0.989474 1.000002 0.976870
0.989494 1.000002 0.976910
0.989600 1.000002 0.977109
0.989462 1.000002 0.976567
0.989783 1.000002 0.975992
0.991777 1.000002 0.975339
0.995933 1.000002 0.974729
0.999036 1.000002 0.975516
1.000002 1.000002 0.980335
0.029113 0.006849 0.642197
0.038494 0.006854 0.643265
0.219994 0.006942 0.646013
0.549112 0.008938 0.641114
0.904714 0.104055 0.604434
0.987162 0.443392 0.655211
0.998850 0.842306 0.849716
1.000002 0.964489 0.959828
1.000002 0.992320 0.990932
0.028609 0.009230 0.645982
0.038578 0.009163 0.645624
0.220976 0.009365 0.648293
0.553518 0.012766 0.643394
0.906763 0.115645 0.606212
0.987553 0.453453 0.658846
0.998905 0.846704 0.852889
1.000002 0.965559 0.960963
1.000002 0.992584 0.991238
0.026951 0.147660 0.652030
0.035880 0.146924 0.651723
0.226514 0.144073 0.647321
0.574772 0.160706 0.643808
0.914995 0.251645 0.606208
0.989177 0.522945 0.672443
0.999138 0.868018 0.866667
1.000002 0.970333 0.965899
1.000002 0.993735 0.992561
0.057314 0.602057 0.619225
0.070028 0.602233 0.619029
0.239486 0.602523 0.615546
0.602836 0.602836 0.602836
0.915063 0.593313 0.568235
0.989598 0.708824 0.658818
0.999243 0.894337 0.871571
1.000002 0.974071 0.968632
1.000002 0.994513 0.993377
0.306517 0.922690 0.472695
0.311684 0.922794 0.472275
0.366424 0.923226 0.468968
0.593823 0.923254 0.459302
0.901760 0.919044 0.486921
0.987768 0.913516 0.575891
0.999084 0.938952 0.849601
1.000002 0.977720 0.965985
1.000002 0.994678 0.993088
0.644647 0.986539 0.508826
0.646520 0.986562 0.508723
0.665252 0.986671 0.507819
0.744504 0.986755 0.504305
0.895365 0.986070 0.511535
0.978869 0.985084 0.558117
0.998525 0.983091 0.800203
1.000002 0.987399 0.955681
1.000002 0.995263 0.991552
0.888842 0.997839 0.771490
0.889125 0.997844 0.771680
0.891429 0.997867 0.772573
0.900936 0.997892 0.773213
0.931712 0.997792 0.770494
0.976501 0.997633 0.771386
0.995616 0.997392 0.810631
1.000002 0.996794 0.938998
1.000002 0.997539 0.988189
0.965555 0.999871 0.925161
0.965620 0.999872 0.925263
0.966035 0.999877 0.925774
0.967252 0.999883 0.926363
0.971011 0.999866 0.924862
0.982902 0.999842 0.923035
0.994915 0.999802 0.924182
0.999244 0.999742 0.938504
1.000002 0.999568 0.983206
0.989219 1.000002 0.976608
0.989238 1.000002 0.976646
0.989347 1.000002 0.976837
0.989562 1.000002 0.977070
0.989874 1.000002 0.976538
0.991842 1.000002 0.975933
0.995964 1.000002 0.975364
0.999047 1.000002 0.976135
1.000002 1.000002 0.980807
0.038461 0.008275 0.911134
0.043557 0.008268 0.911591
0.133244 0.008229 0.913144
0.492370 0.009093 0.912949
0.857202 0.019399 0.907875
0.982369 0.271020 0.888849
0.998298 0.781177 0.906756
1.000002 0.954760 0.960978
1.000002 0.990389 0.989592
0.038023 0.009598 0.912905
0.043440 0.009557 0.912886
0.133107 0.009510 0.914409
0.494756 0.010683 0.914179
0.859715 0.022176 0.909254
0.982849 0.281977 0.890325
0.998369 0.787216 0.908333
1.000002 0.956082 0.961939
1.000002 0.990705 0.989917
0.035488 0.040735 0.918124
0.040180 0.040509 0.918124
0.131235 0.039255 0.917323
0.504475 0.041583 0.917316
0.871222 0.063462 0.913845
0.984830 0.359054 0.896356
0.998666 0.817063 0.915394
1.000002 0.962002 0.966182
1.000002 0.992085 0.991333
0.046655 0.430726 0.916060
0.051894 0.430211 0.916070
0.132272 0.427087 0.915586
0.518595 0.424212 0.912825
0.882507 0.446543 0.910572
0.985135 0.577254 0.896539
0.998785 0.856688 0.919088
1.000002 0.966743 0.968654
1.000002 0.993008 0.992200
0.217734 0.892411 0.900206
0.224673 0.892518 0.900267
0.294066 0.892923 0.900195
0.576794 0.889306 0.894344
0.892645 0.892645 0.892645
0.982773 0.888635 0.879553
0.998507 0.923150 0.910231
1.000002 0.971762 0.966132
1.000002 0.993118 0.991715
0.602757 0.983491 0.841121
0.604849 0.983519 0.841050
0.626728 0.983651 0.840465
0.721871 0.983755 0.838236
0.888837 0.983670 0.832361
0.977911 0.982511 0.849207
0.997847 0.980980 0.883440
1.000002 0.985551 0.956647
1.000002 0.994161 0.989917
0.882591 0.997533 0.862688
0.882903 0.997539 0.862692
0.885474 0.997566 0.862656
0.896178 0.997595 0.862225
0.930036 0.997602 0.860436
0.975990 0.997414 0.865329
0.995541 0.997165 0.884430
0.999969 0.996638 0.943735
1.000002 0.997262 0.986109
0.964398 0.999836 0.936530
0.964466 0.999837 0.936587
0.964904 0.999842 0.936862
0.966225 0.999849 0.937157
0.970911 0.999853 0.937221
0.982817 0.999826 0.936863
0.994893 0.999784 0.938340
0.999243 0.999724 0.949116
1.000002 0.999561 0.981670
0.988922 1.000002 0.977589
0.988942 1.000002 0.977620
0.989053 1.000002 0.977777
0.989279 1.000002 0.977968
0.989927 1.000002 0.978120
0.991874 1.000002 0.977715
0.995976 1.000002 0.977322
0.999052 1.000002 0.978069
1.000002 1.000002 0.982248
0.033314 0.006741 0.983529
0.035719 0.006725 0.983652
0.073181 0.006609 0.984112
0.401876 0.006652 0.984181
0.830692 0.009186 0.983330
0.962638 0.039718 0.980401
0.997131 0.578544 0.972962
1.000002 0.929664 0.976575
1.000002 0.986360 0.989717
0.032752 0.007126 0.984017
0.035352 0.007106 0.984025
0.072597 0.006975 0.984474
0.402786 0.007029 0.984535
0.832796 0.010004 0.983680
0.963441 0.042039 0.980832
0.997232 0.588492 0.973461
1.000002 0.931674 0.977056
1.000002 0.986790 0.989999
0.029115 0.016657 0.985615
0.031258 0.016563 0.985626
0.068520 0.016024 0.985510
0.402609 0.016443 0.985524
0.841226 0.024363 0.984686
0.967156 0.066939 0.982584
0.997653 0.645162 0.975780
1.000002 0.940702 0.979274
1.000002 0.988664 0.991246
0.027685 0.170945 0.985454
0.029554 0.170135 0.985466
0.062053 0.164932 0.985373
0.400385 0.158878 0.984799
0.848704 0.175129 0.984385
0.970818 0.287179 0.983155
0.997789 0.734365 0.977844
1.000002 0.948096 0.981082
1.000002 0.989898 0.992088
0.088941 0.812406 0.982950
0.092004 0.812252 0.982970
0.131802 0.811130 0.982991
0.419396 0.808493 0.982634
0.857189 0.806805 0.981575
0.973165 0.822723 0.980776
0.997307 0.878809 0.977147
1.000002 0.957690 0.980971
1.000002 0.990101 0.991831
0.493372 0.975416 0.977812
0.495641 0.975448 0.977838
0.520160 0.975597 0.977938
0.645502 0.975692 0.977818
0.872867 0.975548 0.976969
0.975449 0.975449 0.975449
0.996420 0.974173 0.972184
0.999949 0.980683 0.977761
1.000002 0.991927 0.990401
0.864944 0.996615 0.964399
0.865322 0.996622 0.964401
0.868493 0.996656 0.964394
0.881887 0.996693 0.964250
0.923062 0.996703 0.963581
0.974140 0.996658 0.962055
0.995228 0.996365 0.966053
0.999757 0.995973 0.971563
1.000002 0.996693 0.987252
0.961805 0.999730 0.967387
0.961879 0.999732 0.967394
0.962367 0.999739 0.967421
0.963866 0.999747 0.967416
0.969194 0.999752 0.967252
0.982184 0.999749 0.966682
0.994705 0.999697 0.968304
0.999207 0.999635 0.972729
1.000002 0.999501 0.984428
0.988446 1.000002 0.982809
0.988467 1.000002 0.982824
0.988584 1.000002 0.982897
0.988828 1.000002 0.982983
0.989539 1.000002 0.983038
0.991785 1.000002 0.983000
0.995923 1.000002 0.983083
0.999036 1.000002 0.983767
1.000002 1.000002 0.986566
0.015746 0.004360 0.998095
0.016457 0.004352 0.998120
0.026735 0.004288 0.998224
0.206380 0.004188 0.998214
0.792149 0.004352 0.998097
0.957429 0.007597 0.997560
0.990519 0.080825 0.996267
0.999765 0.858932 0.993593
1.000002 0.977577 0.994201
0.015185 0.004385 0.998196
0.016013 0.004385 0.998199
0.026054 0.004316 0.998300
0.204976 0.004208 0.998289
0.794192 0.004377 0.998172
0.958165 0.007885 0.997640
0.990757 0.083346 0.996379
0.999786 0.862894 0.993739
1.000002 0.978258 0.994342
0.012103 0.005061 0.998567
0.012716 0.005052 0.998570
0.022171 0.004970 0.998563
0.194822 0.004774 0.998544
0.801663 0.005121 0.998425
0.961252 0.013865 0.997891
0.991871 0.105414 0.996865
0.999874 0.880756 0.994437
1.000002 0.981222 0.994995
0.007451 0.052191 0.998344
0.007722 0.051859 0.998348
0.012977 0.049936 0.998346
0.166799 0.046104 0.998176
0.794247 0.049913 0.998068
0.963507 0.078379 0.997774
0.993008 0.226378 0.997194
0.999910 0.895804 0.995209
1.000002 0.983075 0.995592
0.011281 0.624593 0.997861
0.011754 0.623596 0.997864
0.019373 0.616925 0.997859
0.165570 0.599785 0.997700
0.796778 0.591257 0.997480
0.965054 0.626736 0.997295
0.993725 0.733832 0.996963
0.999832 0.920534 0.995624
1.000002 0.983423 0.995847
0.223797 0.958076 0.996737
0.226052 0.958071 0.996744
0.255593 0.958005 0.996769
0.431690 0.957709 0.996745
0.815525 0.957005 0.996576
0.967220 0.956652 0.996234
0.994128 0.960171 0.996010
0.999631 0.969785 0.995157
1.000002 0.987375 0.995642
0.815024 0.994618 0.995310
0.815567 0.994627 0.995317
0.820413 0.994669 0.995352
0.841846 0.994712 0.995371
0.903983 0.994713 0.995289
0.970782 0.994648 0.995001
0.994616 0.994616 0.994616
0.999376 0.994251 0.993834
1.000002 0.995360 0.994696
0.955578 0.999458 0.992310
0.955666 0.999460 0.992314
0.956252 0.999469 0.992329
0.958115 0.999480 0.992335
0.964777 0.999487 0.992285
0.980393 0.999484 0.992068
0.994214 0.999467 0.991688
0.999109 0.999393 0.992568
1.000002 0.999293 0.993342
0.987430 1.000002 0.992423
0.987453 1.000002 0.992426
0.987583 1.000002 0.992439
0.987858 1.000002 0.992452
0.988673 1.000002 0.992444
0.991228 1.000002 0.992376
0.995710 1.000002 0.992202
0.998971 1.000002 0.992661
1.000002 1.000002 0.993680
0.004592 0.003505 1.000002
0.004624 0.003505 1.000002
0.005214 0.003505 1.000002
0.023408 0.003505 1.000002
0.704870 0.003505 1.000002
0.954902 0.003505 1.000002
0.989912 0.006360 0.999983
0.997660 0.165059 0.999524
1.000002 0.957000 0.998568
0.004494 0.003505 1.000002
0.004544 0.003505 1.000002
0.005085 0.003505 1.000002
0.022297 0.003505 1.000002
0.706721 0.003505 1.000002
0.955692 0.003505 1.000002
0.990136 0.006434 0.999998
0.997733 0.169005 0.999551
1.000002 0.958266 0.998612
0.004079 0.003505 1.000002
0.004092 0.003505 1.000002
0.004509 0.003505 1.000002
0.016778 0.003505 1.000002
0.712138 0.003505 1.000002
0.959077 0.003505 1.000002
0.991107 0.008372 1.000002
0.998072 0.198124 0.999673
1.000002 0.963735 0.998821
0.003663 0.003990 1.000002
0.003721 0.003990 1.000002
0.003793 0.003917 1.000002
0.009356 0.003850 1.000002
0.687261 0.003793 1.000002
0.959418 0.004377 1.000002
0.991686 0.047759 1.000002
0.998428 0.313112 0.999775
1.000002 0.966860 0.999064
0.003505 0.255265 1.000002
0.003505 0.253943 1.000002
0.003505 0.246241 1.000002
0.004571 0.228779 1.000002
0.599997 0.202986 1.000002
0.954040 0.227429 0.999982
0.992080 0.370191 0.999908
0.998664 0.700086 0.999775
1.000002 0.967573 0.999257
0.004711 0.930203 0.999940
0.004746 0.930099 0.999941
0.005422 0.929327 0.999942
0.037058 0.926335 0.999904
0.628390 0.922242 0.999833
0.955406 0.920856 0.999761
0.992322 0.927748 0.999703
0.998782 0.944162 0.999622
1.000002 0.977554 0.999306
0.609641 0.991033 0.999544
0.610561 0.991036 0.999546
0.622218 0.991049 0.999554
0.685651 0.991042 0.999558
0.840904 0.990958 0.999537
0.959687 0.990774 0.999471
0.992823 0.990707 0.999370
0.998846 0.991407 0.999311
1.000002 0.992896 0.999106
0.940633 0.998960 0.999164
0.940749 0.998963 0.999166
0.941550 0.998974 0.999176
0.944342 0.998988 0.999186
0.954470 0.998995 0.999183
0.976430 0.998988 0.999143
0.993531 0.998964 0.999052
0.998956 0.998956 0.998956
1.000002 0.998856 0.998761
0.985351 1.000002 0.998437
0.985378 1.000002 0.998438
0.985529 1.000002 0.998445
0.985860 1.000002 0.998452
0.986870 1.000002 0.998451
0.990011 1.000002 0.998428
0.995282 1.000002 0.998357
0.998842 1.000002 0.998262
1.000002 1.000002 0.998470
0.003505 0.003505 1.000002
0.003505 0.003505 1.000002
0.003505 0.003505 1.000002
0.003663 0.003505 1.000002
0.107012 0.003505 1.000002
0.955815 0.003505 1.000002
0.991793 0.003505 1.000002
0.997735 0.005907 1.000002
0.999596 0.367987 1.000002
0.003505 0.003505 1.000002
0.003505 0.003505 1.000002
0.003505 0.003505 1.000002
0.003663 0.003505 1.000002
0.100707 0.003505 1.000002
0.956745 0.003505 1.000002
0.992028 0.003505 1.000002
0.997804 0.005888 1.000002
0.999618 0.377309 1.000002
0.003505 0.003505 1.000002
0.003505 0.003505 1.000002
0.003505 0.003505 1.000002
0.003505 0.003505 1.000002
0.071960 0.003505 1.000002
0.960868 0.003505 1.000002
0.993070 0.003505 1.000002
0.998103 0.006546 1.000002
0.999723 0.432091 1.000002
0.003505 0.003505 1.000002
0.003505 0.003505 1.000002
0.003505 0.003505 1.000002
0.003505 0.003505 1.000002
0.041097 0.003505 1.000002
0.962595 0.003505 1.000002
0.993677 0.003505 1.000002
0.998253 0.032244 1.000002
0.999833 0.548128 1.000002
0.003505 0.005188 1.000002
0.003505 0.005116 1.000002
0.003505 0.004774 1.000002
0.003505 0.004410 1.000002
0.012558 0.004037 1.000002
0.943926 0.004334 1.000002
0.990821 0.037274 1.000002
0.998342 0.206598 1.000002
0.999911 0.772946 1.000002
0.003505 0.876751 1.000002
0.003505 0.876386 1.000002
0.003505 0.874047 1.000002
0.003505 0.867280 1.000002
0.006403 0.838415 1.000002
0.928270 0.818102 1.000002
0.990047 0.837801 1.000002
0.998382 0.883827 1.000002
0.999951 0.937864 1.000002
0.004571 0.986601 1.000002
0.004564 0.986594 1.000002
0.004830 0.986519 1.000002
0.016753 0.986089 1.000002
0.416077 0.985188 1.000002
0.934249 0.984604 1.000002
0.990460 0.984405 1.000002
0.998414 0.985605 1.000002
0.999965 0.988249 1.000002
0.886619 0.998143 1.000002
0.886733 0.998145 1.000002
0.887955 0.998152 1.000002
0.894545 0.998158 1.000002
0.919718 0.998154 1.000002
0.964565 0.998124 1.000002
0.991296 0.998074 1.000002
0.998534 0.998061 1.000002
0.999975 0.998216 1.000002
0.980779 1.000002 1.000002
0.980812 1.000002 1.000002
0.981004 1.000002 1.000002
0.981460 1.000002 1.000002
0.982942 1.000002 1.000002
0.987473 1.000002 1.000002
0.994454 1.000002 1.000002
0.998689 1.000002 1.000002
1.000002 1.000002 1.000002
