create_logik_projekt/setups/Syncolor/transforms/r3d/IPP2-Cubes-SDR-Core-V1_13/REC2020/RWG_Log3G10 to REC2020_BT1886 with LOW_CONTRAST and R_1_Hard size_33 v1.13.cube
# RED Digital Cinema Output Transform LUT for IPP2
# LUT Name = RWG_Log3G10 to REC2020_BT1886 with LOW_CONTRAST and R_1_Hard size_33 v1.13
# Generated by version 1.13
# Settings used in creation of this LUT are:
# Development Color Space = REC2020
# Output Gamma Curve = BT1886
# Output Tonemap = LOW_CONTRAST
# Highlight Rolloff = Rolloff 1 - hard
# Resolution = 33 x 33 x 33
TITLE "RED IPP2 LUT to map REDWideGamutRGB/Log3G10 to REC2020/BT1886/LOW_CONTRAST/Rolloff 1 - hard"
LUT_3D_SIZE 5
0.000000 0.000000 0.000000
0.273703 0.023274 0.015653
0.918084 0.229414 0.171832
0.999033 0.860184 0.827934
1.000002 0.992962 0.991508
0.027079 0.324595 0.004909
0.292059 0.318532 0.005161
0.928491 0.359524 0.161672
0.999309 0.883923 0.851456
1.000002 0.994351 0.993156
0.339551 0.935222 0.103411
0.390364 0.933800 0.101871
0.904534 0.928117 0.116803
0.999283 0.943667 0.834854
1.000002 0.995250 0.993748
0.893650 0.998015 0.747291
0.893420 0.997958 0.742869
0.931446 0.997796 0.730044
0.995557 0.997399 0.778136
1.000002 0.997634 0.989229
0.989698 1.000002 0.977319
0.989499 1.000002 0.976836
0.989691 1.000002 0.975700
0.995901 1.000002 0.974417
1.000002 1.000002 0.980096
0.011016 0.004360 0.298339
0.262886 0.004494 0.298045
0.916355 0.199108 0.301825
0.999022 0.858556 0.833737
1.000002 0.992950 0.991524
0.013675 0.274175 0.280541
0.279669 0.279669 0.279669
0.926307 0.335843 0.293247
0.999287 0.881744 0.854920
1.000002 0.994282 0.993097
0.332399 0.932335 0.161682
0.387153 0.932795 0.158952
0.904433 0.926799 0.194199
0.999263 0.943163 0.838174
1.000002 0.995201 0.993699
0.891688 0.997950 0.747900
0.894112 0.997977 0.749734
0.931758 0.997813 0.738486
0.995596 0.997418 0.784868
1.000002 0.997634 0.989156
0.989474 1.000002 0.976870
0.989600 1.000002 0.977109
0.989783 1.000002 0.975992
0.995933 1.000002 0.974729
1.000002 1.000002 0.980335
0.038461 0.008275 0.911134
0.133244 0.008229 0.913144
0.857202 0.019399 0.907875
0.998298 0.781177 0.906756
1.000002 0.990389 0.989592
0.035488 0.040735 0.918124
0.131235 0.039255 0.917323
0.871222 0.063462 0.913845
0.998666 0.817063 0.915394
1.000002 0.992085 0.991333
0.217734 0.892411 0.900206
0.294066 0.892923 0.900195
0.892645 0.892645 0.892645
0.998507 0.923150 0.910231
1.000002 0.993118 0.991715
0.882591 0.997533 0.862688
0.885474 0.997566 0.862656
0.930036 0.997602 0.860436
0.995541 0.997165 0.884430
1.000002 0.997262 0.986109
0.988922 1.000002 0.977589
0.989053 1.000002 0.977777
0.989927 1.000002 0.978120
0.995976 1.000002 0.977322
1.000002 1.000002 0.982248
0.015746 0.004360 0.998095
0.026735 0.004288 0.998224
0.792149 0.004352 0.998097
0.990519 0.080825 0.996267
1.000002 0.977577 0.994201
0.012103 0.005061 0.998567
0.022171 0.004970 0.998563
0.801663 0.005121 0.998425
0.991871 0.105414 0.996865
1.000002 0.981222 0.994995
0.011281 0.624593 0.997861
0.019373 0.616925 0.997859
0.796778 0.591257 0.997480
0.993725 0.733832 0.996963
1.000002 0.983423 0.995847
0.815024 0.994618 0.995310
0.820413 0.994669 0.995352
0.903983 0.994713 0.995289
0.994616 0.994616 0.994616
1.000002 0.995360 0.994696
0.987430 1.000002 0.992423
0.987583 1.000002 0.992439
0.988673 1.000002 0.992444
0.995710 1.000002 0.992202
1.000002 1.000002 0.993680
0.003505 0.003505 1.000002
0.003505 0.003505 1.000002
0.107012 0.003505 1.000002
0.991793 0.003505 1.000002
0.999596 0.367987 1.000002
0.003505 0.003505 1.000002
0.003505 0.003505 1.000002
0.071960 0.003505 1.000002
0.993070 0.003505 1.000002
0.999723 0.432091 1.000002
0.003505 0.005188 1.000002
0.003505 0.004774 1.000002
0.012558 0.004037 1.000002
0.990821 0.037274 1.000002
0.999911 0.772946 1.000002
0.004571 0.986601 1.000002
0.004830 0.986519 1.000002
0.416077 0.985188 1.000002
0.990460 0.984405 1.000002
0.999965 0.988249 1.000002
0.980779 1.000002 1.000002
0.981004 1.000002 1.000002
0.982942 1.000002 1.000002
0.994454 1.000002 1.000002
1.000002 1.000002 1.000002
