create_logik_projekt/setups/Syncolor/transforms/r3d/IPP2-Cubes-SDR-Core-V1_13/REC2020/RWG_Log3G10 to REC2020_BT1886 with NO_CONTRAST and R_1_Hard size_33 v1.13.cube
# RED Digital Cinema Output Transform LUT for IPP2
# LUT Name = RWG_Log3G10 to REC2020_BT1886 with NO_CONTRAST and R_1_Hard size_33 v1.13
# Generated by version 1.13
# Settings used in creation of this LUT are:
# Development Color Space = REC2020
# Output Gamma Curve = BT1886
# Output Tonemap = NO_CONTRAST
# Highlight Rolloff = Rolloff 1 - hard
# Resolution = 33 x 33 x 33
TITLE "RED IPP2 LUT to map REDWideGamutRGB/Log3G10 to REC2020/BT1886/NO_CONTRAST/Rolloff 1 - hard"
LUT_3D_SIZE 9
0.000000 0.000000 0.000000
0.114955 0.003505 0.003505
0.306808 0.005674 0.004617
0.574756 0.044409 0.030183
0.873045 0.150924 0.107458
0.975142 0.371422 0.308655
0.996926 0.741945 0.681796
1.000002 0.946248 0.934429
1.000002 0.991985 0.990330
0.003505 0.161052 0.003505
0.135657 0.157380 0.003505
0.323975 0.150426 0.003972
0.605886 0.165697 0.025624
0.888165 0.235335 0.108545
0.978979 0.422718 0.329030
0.997559 0.777961 0.718711
1.000002 0.954578 0.944340
1.000002 0.993436 0.992068
0.012327 0.386745 0.003825
0.121106 0.382417 0.003825
0.340624 0.377220 0.003825
0.629104 0.364526 0.017933
0.898247 0.384155 0.098333
0.981647 0.515170 0.337999
0.998006 0.813734 0.745541
1.000002 0.961247 0.951752
1.000002 0.994531 0.993361
0.096054 0.704073 0.015686
0.169182 0.699517 0.015485
0.324909 0.693474 0.014969
0.621161 0.685343 0.016357
0.897507 0.664388 0.076690
0.982036 0.703822 0.312983
0.998148 0.854199 0.748193
1.000002 0.965623 0.954745
1.000002 0.995109 0.993985
0.279904 0.911605 0.071231
0.302564 0.910135 0.070408
0.380108 0.908343 0.068847
0.596318 0.905785 0.067164
0.872014 0.902043 0.078147
0.979298 0.892552 0.257128
0.997906 0.914542 0.709904
1.000002 0.970101 0.951891
1.000002 0.995230 0.993861
0.537127 0.978787 0.250156
0.542985 0.978402 0.247019
0.572768 0.977971 0.243005
0.683939 0.977419 0.236857
0.860375 0.976573 0.233972
0.964791 0.975240 0.284208
0.997043 0.971936 0.629359
1.000002 0.980736 0.940449
1.000002 0.995383 0.992927
0.834987 0.996021 0.604889
0.834191 0.995936 0.600044
0.836785 0.995844 0.594853
0.852543 0.995739 0.588672
0.899112 0.995597 0.580520
0.960935 0.995363 0.578886
0.991957 0.994969 0.647589
0.999976 0.993999 0.916902
1.000002 0.996736 0.990609
0.955055 0.999658 0.896764
0.954465 0.999643 0.895087
0.954104 0.999626 0.893324
0.954849 0.999609 0.891416
0.959617 0.999588 0.889161
0.973484 0.999558 0.886316
0.990875 0.999505 0.886289
0.998686 0.999409 0.908686
1.000002 0.999172 0.985575
0.989752 1.000002 0.977438
0.989577 1.000002 0.977030
0.989409 1.000002 0.976606
0.989307 1.000002 0.976160
0.989490 1.000002 0.975681
0.990709 1.000002 0.975124
0.994221 1.000002 0.974453
0.998424 1.000002 0.974566
1.000002 1.000002 0.979983
0.003505 0.003505 0.133979
0.104308 0.003505 0.135880
0.303632 0.004037 0.126931
0.572714 0.032373 0.125507
0.872914 0.136947 0.173632
0.975248 0.366978 0.337471
0.996956 0.742201 0.691495
1.000002 0.946643 0.935363
1.000002 0.992072 0.990449
0.003505 0.123183 0.129284
0.124365 0.124365 0.124365
0.319769 0.117591 0.103186
0.602156 0.139322 0.104192
0.887403 0.221887 0.170852
0.978919 0.417409 0.355634
0.997560 0.777079 0.725408
1.000002 0.954617 0.944739
1.000002 0.993456 0.992102
0.008376 0.368679 0.028563
0.109485 0.369491 0.024830
0.336734 0.363361 0.029937
0.625666 0.351772 0.062928
0.897617 0.374992 0.145762
0.981604 0.510646 0.361924
0.998008 0.813154 0.750918
1.000002 0.961297 0.952077
1.000002 0.994550 0.993392
0.089635 0.692848 0.036228
0.164100 0.694263 0.034926
0.321882 0.687619 0.035747
0.619974 0.679168 0.039547
0.897020 0.658791 0.107423
0.981998 0.701075 0.335438
0.998150 0.853854 0.753153
1.000002 0.965675 0.955042
1.000002 0.995127 0.994015
0.275746 0.909246 0.087493
0.301519 0.909864 0.087046
0.378958 0.907987 0.086456
0.595631 0.905348 0.085509
0.872333 0.901584 0.099228
0.979284 0.892182 0.278545
0.997909 0.914477 0.715493
1.000002 0.970150 0.952202
1.000002 0.995248 0.993891
0.532738 0.978309 0.261145
0.543894 0.978493 0.262078
0.573465 0.978055 0.259045
0.684367 0.977495 0.254022
0.860698 0.976642 0.251841
0.964989 0.975313 0.299696
0.997049 0.972010 0.636400
1.000002 0.980784 0.940833
1.000002 0.995400 0.992961
0.832580 0.995926 0.604175
0.835136 0.995969 0.606490
0.837661 0.995878 0.601495
0.853241 0.995772 0.595544
0.899512 0.995630 0.587623
0.961112 0.995397 0.586083
0.992018 0.995004 0.654081
0.999978 0.994032 0.917494
1.000002 0.996751 0.990651
0.954318 0.999642 0.895360
0.954797 0.999650 0.896219
0.954431 0.999633 0.894482
0.955156 0.999616 0.892604
0.959868 0.999595 0.890388
0.973628 0.999565 0.887588
0.990930 0.999513 0.887551
0.998700 0.999417 0.909665
1.000002 0.999180 0.985646
0.989562 1.000002 0.977034
0.989665 1.000002 0.977248
0.989498 1.000002 0.976826
0.989395 1.000002 0.976383
0.989574 1.000002 0.975907
0.990778 1.000002 0.975355
0.994260 1.000002 0.974688
0.998437 1.000002 0.974797
1.000002 1.000002 0.980165
0.004472 0.003505 0.338223
0.062166 0.003505 0.341388
0.293353 0.003663 0.340927
0.562253 0.013983 0.329667
0.869100 0.103730 0.328063
0.974640 0.347827 0.413149
0.996891 0.735540 0.712066
1.000002 0.945939 0.935948
1.000002 0.991997 0.990405
0.004360 0.024126 0.346924
0.070956 0.022740 0.345044
0.308848 0.025895 0.344055
0.590442 0.073292 0.326255
0.883751 0.182437 0.328214
0.978363 0.399141 0.428654
0.997503 0.771401 0.742019
1.000002 0.953992 0.945092
1.000002 0.993388 0.992055
0.004298 0.323368 0.332682
0.071055 0.323787 0.330541
0.324299 0.324299 0.324299
0.611276 0.316010 0.303402
0.893361 0.346186 0.312184
0.980928 0.492087 0.433625
0.997933 0.807385 0.763731
1.000002 0.960457 0.951940
1.000002 0.994440 0.993287
0.071561 0.664406 0.241081
0.146465 0.665946 0.237301
0.311758 0.666375 0.230058
0.612777 0.656290 0.244862
0.893213 0.638111 0.259671
0.981350 0.688862 0.403662
0.998082 0.850075 0.764764
1.000002 0.964983 0.954873
1.000002 0.995033 0.993921
0.265916 0.904285 0.187467
0.293135 0.904951 0.184558
0.373540 0.905359 0.179194
0.590899 0.902377 0.187589
0.871536 0.898442 0.214134
0.978689 0.889662 0.343794
0.997836 0.913086 0.728798
1.000002 0.969646 0.952024
1.000002 0.995162 0.993799
0.526223 0.977564 0.306520
0.537708 0.977755 0.306533
0.572277 0.977912 0.305769
0.683122 0.977315 0.305095
0.860368 0.976426 0.306111
0.965053 0.975090 0.348846
0.996970 0.971870 0.654213
1.000002 0.980615 0.940663
1.000002 0.995329 0.992858
0.829814 0.995810 0.614296
0.832445 0.995854 0.616223
0.838267 0.995894 0.617863
0.853675 0.995786 0.613264
0.899729 0.995641 0.606709
0.961223 0.995405 0.606093
0.992066 0.995014 0.671220
0.999969 0.994045 0.917682
1.000002 0.996725 0.990520
0.953544 0.999624 0.894709
0.954027 0.999632 0.895529
0.954735 0.999640 0.896307
0.955440 0.999622 0.894558
0.960096 0.999601 0.892492
0.973757 0.999571 0.889859
0.990979 0.999519 0.889880
0.998713 0.999424 0.911419
1.000002 0.999185 0.985513
0.989366 1.000002 0.976663
0.989470 1.000002 0.976874
0.989585 1.000002 0.977079
0.989481 1.000002 0.976644
0.989655 1.000002 0.976178
0.990844 1.000002 0.975637
0.994298 1.000002 0.974983
0.998449 1.000002 0.975090
1.000002 1.000002 0.979743
0.014851 0.004617 0.613653
0.051871 0.004631 0.620210
0.264795 0.004668 0.622248
0.524890 0.005135 0.618138
0.854575 0.050485 0.590727
0.971687 0.286329 0.597335
0.996509 0.704795 0.760972
1.000002 0.941514 0.935727
1.000002 0.991385 0.989841
0.014511 0.014582 0.637717
0.053353 0.014019 0.636769
0.272753 0.014572 0.638521
0.548452 0.018698 0.634043
0.869531 0.094507 0.601414
0.975644 0.339819 0.613374
0.997167 0.744570 0.782510
1.000002 0.950081 0.944408
1.000002 0.992852 0.991542
0.014675 0.228694 0.638829
0.050264 0.226385 0.638024
0.280608 0.224651 0.632304
0.569706 0.234221 0.628969
0.879161 0.275059 0.595306
0.978351 0.437204 0.618831
0.997629 0.785197 0.798270
1.000002 0.956985 0.950958
1.000002 0.993963 0.992814
0.034522 0.590834 0.608445
0.086617 0.591897 0.607868
0.287143 0.591968 0.603125
0.592369 0.592369 0.592369
0.878031 0.579270 0.559967
0.978458 0.644272 0.595561
0.997747 0.833359 0.798432
1.000002 0.961553 0.953381
1.000002 0.994529 0.993395
0.237663 0.891048 0.482738
0.267858 0.891792 0.480672
0.355162 0.892259 0.476263
0.602849 0.883416 0.507353
0.867669 0.887452 0.489639
0.975958 0.880017 0.526446
0.997475 0.906787 0.767890
1.000002 0.967102 0.950412
1.000002 0.994689 0.993266
0.511785 0.975821 0.459125
0.523709 0.976031 0.457918
0.560090 0.976205 0.455789
0.676223 0.976279 0.451106
0.857879 0.975259 0.460765
0.964684 0.973868 0.497033
0.996567 0.970948 0.706976
1.000002 0.979656 0.938856
1.000002 0.994930 0.992254
0.825645 0.995608 0.666921
0.828396 0.995654 0.667822
0.834627 0.995696 0.668438
0.853143 0.995728 0.668150
0.899284 0.995571 0.666897
0.961101 0.995324 0.669591
0.992071 0.994932 0.721249
0.999923 0.993983 0.916865
1.000002 0.996552 0.989743
0.952651 0.999600 0.897461
0.953143 0.999608 0.898159
0.953879 0.999616 0.898817
0.946538 0.999337 0.879495
0.960241 0.999602 0.897833
0.973830 0.999571 0.895768
0.991009 0.999518 0.896055
0.998723 0.999424 0.915978
1.000002 0.999181 0.984620
0.989159 1.000002 0.976477
0.989264 1.000002 0.976681
0.989381 1.000002 0.976878
0.989561 1.000002 0.977065
0.989730 1.000002 0.976629
0.990905 1.000002 0.976123
0.994331 1.000002 0.975508
0.998461 1.000002 0.975625
1.000002 1.000002 0.980789
0.027376 0.006164 0.870051
0.051081 0.006168 0.873503
0.209860 0.006180 0.875231
0.485606 0.006639 0.874668
0.804455 0.011142 0.869637
0.964287 0.142081 0.849384
0.995494 0.609239 0.860346
0.999927 0.929221 0.940165
1.000002 0.989805 0.988683
0.026766 0.012361 0.883068
0.051028 0.012050 0.883140
0.212109 0.012147 0.884680
0.500164 0.013859 0.883922
0.821322 0.023458 0.879385
0.968841 0.188433 0.859062
0.996280 0.660686 0.871057
1.000002 0.939371 0.947324
1.000002 0.991485 0.990479
0.026013 0.078392 0.887937
0.047604 0.076158 0.888088
0.213286 0.073918 0.886608
0.511463 0.077716 0.886298
0.835282 0.102755 0.883183
0.971902 0.306724 0.864477
0.996831 0.716332 0.879229
1.000002 0.947618 0.952861
1.000002 0.992759 0.991831
0.036752 0.457436 0.883700
0.061370 0.455458 0.883896
0.212780 0.452693 0.882809
0.524821 0.451097 0.879423
0.846242 0.466375 0.877144
0.971712 0.535097 0.860599
0.996947 0.785795 0.880767
1.000002 0.953251 0.955029
1.000002 0.993402 0.992441
0.150870 0.856559 0.866366
0.193256 0.857288 0.866767
0.301309 0.857658 0.866161
0.541031 0.857389 0.863196
0.857363 0.857363 0.857363
0.968924 0.850892 0.840654
0.996509 0.886887 0.868914
1.000002 0.960303 0.952289
1.000002 0.993501 0.992169
0.474697 0.971104 0.796376
0.487228 0.971347 0.795840
0.526069 0.971549 0.794628
0.652206 0.971639 0.791370
0.849677 0.971504 0.784513
0.963206 0.969864 0.802883
0.995521 0.967536 0.835291
0.999991 0.977063 0.941836
1.000002 0.993936 0.991009
0.816385 0.995098 0.802418
0.819386 0.995150 0.802241
0.826314 0.995198 0.801857
0.846885 0.995235 0.800797
0.896684 0.995240 0.797979
0.960233 0.994951 0.804986
0.991937 0.994544 0.830390
0.999800 0.993700 0.923816
1.000002 0.996133 0.988152
0.951322 0.999555 0.911912
0.951832 0.999564 0.912308
0.952610 0.999573 0.912669
0.954501 0.999580 0.912947
0.960095 0.999585 0.912980
0.973704 0.999551 0.912529
0.990970 0.999495 0.913611
0.998721 0.999401 0.929078
1.000002 0.999159 0.982958
0.988922 1.000002 0.977063
0.989028 1.000002 0.977242
0.989148 1.000002 0.977414
0.989335 1.000002 0.977577
0.989783 1.000002 0.977719
0.990944 1.000002 0.977333
0.994351 1.000002 0.976846
0.998467 1.000002 0.977015
1.000002 1.000002 0.981802
0.031337 0.006529 0.967123
0.044873 0.006484 0.968300
0.123942 0.006403 0.968958
0.421899 0.006571 0.969037
0.776466 0.008312 0.967989
0.937096 0.026069 0.964394
0.993434 0.407880 0.954208
0.999738 0.898482 0.961606
1.000002 0.986633 0.988136
0.029820 0.009212 0.971603
0.043456 0.009040 0.971709
0.122246 0.008873 0.972284
0.429749 0.009260 0.972310
0.790591 0.013060 0.971231
0.943614 0.036622 0.968106
0.994464 0.455834 0.958222
0.999854 0.912800 0.965486
1.000002 0.988757 0.989845
0.027078 0.034676 0.973499
0.038497 0.033764 0.973626
0.117483 0.032593 0.973263
0.431011 0.033395 0.973317
0.800834 0.040310 0.972552
0.949069 0.075922 0.970406
0.995181 0.522619 0.961485
0.999934 0.924554 0.968683
1.000002 0.990370 0.991161
0.029438 0.254091 0.973283
0.040873 0.248774 0.973408
0.111080 0.241432 0.973126
0.435438 0.236698 0.972350
0.808637 0.253681 0.971847
0.953255 0.324215 0.970429
0.995275 0.643703 0.963256
0.999960 0.932923 0.970476
1.000002 0.991172 0.991785
0.077684 0.770885 0.969975
0.093726 0.770057 0.970151
0.166418 0.768559 0.970080
0.443486 0.766113 0.969472
0.818208 0.764906 0.968036
0.956318 0.779653 0.967022
0.994591 0.834470 0.961528
0.999918 0.944845 0.970049
1.000002 0.991315 0.991572
0.382110 0.959441 0.963064
0.396040 0.959709 0.963279
0.440542 0.959919 0.963356
0.581778 0.959973 0.963014
0.831752 0.959770 0.961777
0.959684 0.959684 0.959684
0.993370 0.957659 0.954472
0.999789 0.970563 0.965850
1.000002 0.991978 0.990402
0.791496 0.993704 0.941676
0.795060 0.993767 0.941663
0.803532 0.993825 0.941573
0.828708 0.993870 0.941231
0.887837 0.993878 0.940155
0.957526 0.993815 0.937943
0.991473 0.993339 0.944190
0.999548 0.992716 0.956213
1.000002 0.995351 0.987593
0.948450 0.999433 0.948767
0.949002 0.999444 0.948823
0.949859 0.999454 0.948857
0.951969 0.999463 0.948831
0.958207 0.999469 0.948614
0.972951 0.999467 0.947925
0.990721 0.999400 0.949915
0.998682 0.999301 0.957404
1.000002 0.999091 0.983206
0.988571 1.000002 0.980322
0.988681 1.000002 0.980435
0.988806 1.000002 0.980542
0.989004 1.000002 0.980642
0.989487 1.000002 0.980723
0.990910 1.000002 0.980747
0.994320 1.000002 0.980628
0.998457 1.000002 0.980951
1.000002 1.000002 0.984695
0.021732 0.004985 0.994521
0.027129 0.004925 0.994809
0.055245 0.004841 0.994995
0.281221 0.004769 0.994985
0.728607 0.005028 0.994827
0.928484 0.007930 0.994132
0.982841 0.056221 0.992265
0.999359 0.806752 0.988025
1.000002 0.979681 0.991446
0.019215 0.005367 0.995613
0.024650 0.005314 0.995649
0.050872 0.005201 0.995809
0.277613 0.005098 0.995786
0.741581 0.005449 0.995628
0.934400 0.009983 0.994957
0.984895 0.067019 0.993307
0.999532 0.833573 0.989293
1.000002 0.982807 0.992518
0.015884 0.009553 0.996172
0.020060 0.009238 0.996213
0.045125 0.008875 0.996165
0.265927 0.008567 0.996125
0.747822 0.010159 0.995952
0.938547 0.024396 0.995271
0.986642 0.095848 0.994070
0.999653 0.855977 0.990411
1.000002 0.985172 0.993397
0.012278 0.080289 0.995860
0.015372 0.078251 0.995900
0.034228 0.075478 0.995857
0.244984 0.071818 0.995613
0.743682 0.075009 0.995503
0.941437 0.097091 0.995164
0.988020 0.218837 0.994396
0.999685 0.872980 0.991329
1.000002 0.986299 0.993936
0.019206 0.566340 0.995269
0.023463 0.561678 0.995308
0.049177 0.554318 0.995261
0.238438 0.543736 0.995065
0.749158 0.538724 0.994767
0.943584 0.563650 0.994523
0.988984 0.661966 0.994033
0.999602 0.901403 0.991801
1.000002 0.986501 0.994081
0.162009 0.932062 0.993768
0.172905 0.931975 0.993827
0.218258 0.931761 0.993852
0.406172 0.931231 0.993785
0.763009 0.930292 0.993536
0.946770 0.929881 0.993051
0.989637 0.935276 0.992703
0.999385 0.954649 0.991197
1.000002 0.987953 0.993764
0.715673 0.990421 0.991527
0.720824 0.990497 0.991593
0.734132 0.990566 0.991644
0.774053 0.990614 0.991647
0.861642 0.990608 0.991509
0.952105 0.990518 0.991093
0.990474 0.990474 0.990474
0.999046 0.989950 0.989130
1.000002 0.993619 0.992572
0.941038 0.999093 0.986035
0.941680 0.999107 0.986055
0.942709 0.999120 0.986067
0.945296 0.999132 0.986057
0.952944 0.999140 0.985972
0.970458 0.999138 0.985675
0.989980 0.999118 0.985086
0.998561 0.999003 0.986808
1.000002 0.998858 0.990231
0.987829 1.000002 0.988792
0.987947 1.000002 0.988821
0.988082 1.000002 0.988848
0.988301 1.000002 0.988869
0.988841 1.000002 0.988876
0.990430 1.000002 0.988837
0.994134 1.000002 0.988689
0.998396 1.000002 0.989172
1.000002 1.000002 0.991001
0.006207 0.003663 0.999941
0.006680 0.003663 0.999978
0.010116 0.003663 1.000002
0.050346 0.003663 1.000002
0.594992 0.003505 0.999974
0.919144 0.003663 0.999915
0.981422 0.005277 0.999660
0.996203 0.126470 0.998932
1.000002 0.960528 0.997497
0.005302 0.003663 1.000002
0.005760 0.003663 1.000002
0.008039 0.003663 1.000002
0.041829 0.003505 1.000002
0.603340 0.003505 1.000002
0.925455 0.003663 1.000002
0.983373 0.005406 0.999798
0.996748 0.142706 0.999154
1.000002 0.966402 0.997832
0.004571 0.003721 1.000002
0.004814 0.003721 1.000002
0.006383 0.003663 1.000002
0.033152 0.003663 1.000002
0.602549 0.003663 1.000002
0.929840 0.003721 1.000002
0.984810 0.007473 0.999861
0.997215 0.174276 0.999327
1.000002 0.970797 0.998129
0.003936 0.005595 1.000002
0.004037 0.005402 1.000002
0.004643 0.005214 1.000002
0.022980 0.004985 1.000002
0.568924 0.004841 1.000002
0.928419 0.006284 1.000002
0.985283 0.042688 0.999771
0.997597 0.270102 0.999436
1.000002 0.972685 0.998390
0.003663 0.196398 0.999920
0.003721 0.191324 0.999927
0.003897 0.184943 0.999925
0.010979 0.173606 0.999888
0.509326 0.159579 0.999789
0.921928 0.172128 0.999743
0.985738 0.250269 0.999648
0.997876 0.593100 0.999441
1.000002 0.972962 0.998604
0.004705 0.873282 0.999702
0.004889 0.872030 0.999710
0.006302 0.869943 0.999706
0.043083 0.864573 0.999655
0.515746 0.858027 0.999571
0.923797 0.855766 0.999486
0.986108 0.868014 0.999411
0.998044 0.904358 0.999279
1.000002 0.977098 0.998708
0.395009 0.983205 0.999199
0.401290 0.983214 0.999212
0.426687 0.983206 0.999222
0.518032 0.983150 0.999221
0.751532 0.982978 0.999193
0.930247 0.982671 0.999115
0.986947 0.982546 0.998983
0.998147 0.984124 0.998887
1.000002 0.989548 0.998540
0.918994 0.998315 0.998598
0.919857 0.998332 0.998614
0.921373 0.998349 0.998628
0.925470 0.998364 0.998637
0.937607 0.998372 0.998634
0.963416 0.998366 0.998591
0.988607 0.998337 0.998476
0.998322 0.998322 0.998322
1.000002 0.998205 0.998028
0.985971 1.000002 0.997392
0.986106 1.000002 0.997400
0.986264 1.000002 0.997408
0.986526 1.000002 0.997413
0.987187 1.000002 0.997413
0.989133 1.000002 0.997393
0.993530 1.000002 0.997323
0.998223 1.000002 0.997187
1.000002 1.000002 0.997583
0.003505 0.003505 1.000002
0.003505 0.003505 1.000002
0.003505 0.003505 1.000002
0.003663 0.003505 1.000002
0.028333 0.003505 1.000002
0.904242 0.003505 1.000002
0.984007 0.003505 1.000002
0.996594 0.003663 1.000002
0.999516 0.339917 1.000002
0.003505 0.003505 1.000002
0.003505 0.003505 1.000002
0.003505 0.003505 1.000002
0.003505 0.003505 1.000002
0.018978 0.003505 1.000002
0.912248 0.003505 1.000002
0.986117 0.003505 1.000002
0.997118 0.003505 1.000002
0.999639 0.386498 1.000002
0.003505 0.003505 1.000002
0.003505 0.003505 1.000002
0.003505 0.003505 1.000002
0.003505 0.003505 1.000002
0.011714 0.003505 1.000002
0.918190 0.003505 1.000002
0.987781 0.003505 1.000002
0.997518 0.003663 1.000002
0.999744 0.446881 1.000002
0.003505 0.003505 1.000002
0.003505 0.003505 1.000002
0.003505 0.003505 1.000002
0.003505 0.003505 1.000002
0.006644 0.003505 1.000002
0.917970 0.003505 1.000002
0.988459 0.003505 1.000002
0.997665 0.004037 1.000002
0.999831 0.543984 1.000002
0.003505 0.003505 1.000002
0.003505 0.003505 1.000002
0.003505 0.003505 1.000002
0.003505 0.003505 1.000002
0.004104 0.003505 1.000002
0.890752 0.003505 1.000002
0.985585 0.003663 1.000002
0.997333 0.080340 1.000002
0.999898 0.725457 1.000002
0.003505 0.627410 1.000002
0.003505 0.616719 1.000002
0.003505 0.603326 1.000002
0.003505 0.580119 1.000002
0.003505 0.519967 1.000002
0.825820 0.443491 1.000002
0.980330 0.494527 1.000002
0.997315 0.687211 1.000002
0.999942 0.898936 1.000002
0.003505 0.972704 1.000002
0.003505 0.972555 1.000002
0.003505 0.972260 1.000002
0.003505 0.971391 1.000002
0.017406 0.968113 1.000002
0.836835 0.965301 1.000002
0.980762 0.964682 1.000002
0.997334 0.968105 1.000002
0.999962 0.977563 1.000002
0.779139 0.996722 1.000002
0.779923 0.996729 1.000002
0.784310 0.996735 1.000002
0.801919 0.996735 1.000002
0.852837 0.996721 1.000002
0.932356 0.996672 1.000002
0.982942 0.996587 1.000002
0.997516 0.996553 1.000002
0.999972 0.996931 1.000002
0.980670 1.000002 1.000002
0.980845 1.000002 1.000002
0.981057 1.000002 1.000002
0.981442 1.000002 1.000002
0.982476 1.000002 1.000002
0.985522 1.000002 1.000002
0.991920 1.000002 1.000002
0.997930 1.000002 1.000002
1.000002 1.000002 1.000002
