create_logik_projekt/setups/Syncolor/transforms/r3d/IPP2-Cubes-SDR-Core-V1_13/REC2020/RWG_Log3G10 to REC2020_BT1886 with LOW_CONTRAST and R_1_Hard size_33 v1.13.cube
# RED Digital Cinema Output Transform LUT for IPP2
# LUT Name = RWG_Log3G10 to REC2020_BT1886 with LOW_CONTRAST and R_1_Hard size_33 v1.13
# Generated by version 1.13
# Settings used in creation of this LUT are:
# Development Color Space = REC2020
# Output Gamma Curve = BT1886
# Output Tonemap = LOW_CONTRAST
# Highlight Rolloff = Rolloff 1 - hard
# Resolution = 33 x 33 x 33
TITLE "RED IPP2 LUT to map REDWideGamutRGB/Log3G10 to REC2020/BT1886/LOW_CONTRAST/Rolloff 1 - hard"
LUT_3D_SIZE 33
0.000000 0.000000 0.000000
0.000000 0.000000 0.000000
0.000001 0.000000 0.000000
0.016027 0.003505 0.003505
0.073460 0.003505 0.003505
0.120745 0.003663 0.003505
0.168208 0.005491 0.004592
0.218632 0.012560 0.008279
0.273703 0.023274 0.015653
0.335126 0.035345 0.024299
0.404867 0.048756 0.034008
0.493563 0.065448 0.046167
0.604964 0.086202 0.061315
0.718872 0.110883 0.079273
0.807830 0.142419 0.101996
0.872808 0.182779 0.131681
0.918084 0.229414 0.171832
0.948644 0.284053 0.225777
0.968571 0.348592 0.288418
0.981033 0.423647 0.360163
0.988883 0.513482 0.445428
0.993630 0.618823 0.545109
0.996414 0.721857 0.657512
0.998077 0.802078 0.756027
0.999033 0.860184 0.827934
0.999597 0.902574 0.880467
0.999919 0.932068 0.916948
1.000002 0.953051 0.942809
1.000002 0.967621 0.960689
1.000002 0.977584 0.972859
1.000002 0.984623 0.981421
1.000002 0.989483 0.987308
1.000002 0.992962 0.991508
0.000000 0.000000 0.000000
0.000000 0.000000 0.000000
0.000001 0.000000 0.000000
0.021581 0.003505 0.003505
0.074356 0.003505 0.003505
0.121275 0.003917 0.003505
0.168631 0.007447 0.004487
0.219028 0.016569 0.007950
0.274110 0.027565 0.015165
0.335570 0.039589 0.023787
0.405382 0.052832 0.033508
0.494251 0.069254 0.045719
0.605773 0.089719 0.060925
0.719585 0.114174 0.078955
0.808380 0.145560 0.101762
0.873212 0.185328 0.131549
0.918369 0.231416 0.171832
0.948839 0.285719 0.225960
0.968699 0.350062 0.288774
0.981116 0.425027 0.360684
0.988936 0.514851 0.446125
0.993662 0.620252 0.546001
0.996434 0.722943 0.658514
0.998089 0.802863 0.756830
0.999040 0.860748 0.828549
0.999602 0.902976 0.880923
0.999922 0.932355 0.917282
1.000002 0.953255 0.943049
1.000002 0.967766 0.960860
1.000002 0.977687 0.972982
1.000002 0.984696 0.981508
1.000002 0.989534 0.987370
1.000002 0.992998 0.991551
0.000000 0.000009 0.000000
0.000000 0.000008 0.000000
0.000002 0.000007 0.000000
0.026804 0.003505 0.003505
0.075525 0.003663 0.003505
0.121974 0.006222 0.003505
0.169190 0.013992 0.004352
0.219551 0.023916 0.007534
0.274648 0.034614 0.014515
0.336157 0.046170 0.023096
0.406067 0.058871 0.032842
0.495164 0.074754 0.045120
0.606845 0.094721 0.060399
0.720525 0.118807 0.078522
0.809105 0.149950 0.101440
0.873745 0.188759 0.131361
0.918746 0.234124 0.171821
0.949095 0.287973 0.226194
0.968868 0.352050 0.289239
0.981226 0.426887 0.361371
0.989005 0.516692 0.447048
0.993705 0.622166 0.547182
0.996460 0.724385 0.659835
0.998105 0.803903 0.757889
0.999050 0.861496 0.829362
0.999608 0.903508 0.881525
0.999925 0.932735 0.917723
1.000002 0.953524 0.943366
1.000002 0.967957 0.961087
1.000002 0.977823 0.973145
1.000002 0.984792 0.981623
1.000002 0.989603 0.987452
1.000002 0.993046 0.991608
0.003505 0.049024 0.003505
0.003505 0.048512 0.003505
0.003505 0.047818 0.003505
0.032023 0.046891 0.003505
0.077011 0.041897 0.003505
0.122873 0.033075 0.003505
0.169911 0.032666 0.004198
0.220225 0.038566 0.007031
0.275342 0.046804 0.013665
0.336918 0.056606 0.022197
0.406959 0.067979 0.031971
0.496351 0.082783 0.044329
0.608236 0.101871 0.059700
0.721740 0.125339 0.077941
0.810042 0.155930 0.101001
0.874434 0.193310 0.131097
0.919232 0.237742 0.171784
0.949426 0.290989 0.226481
0.969087 0.354703 0.289833
0.981367 0.429361 0.362257
0.989094 0.519130 0.448245
0.993760 0.624693 0.548717
0.996494 0.726269 0.661546
0.998126 0.805258 0.759260
0.999063 0.862469 0.830414
0.999615 0.904199 0.882305
0.999930 0.933228 0.918293
1.000002 0.953873 0.943777
1.000002 0.968204 0.961380
1.000002 0.977999 0.973354
1.000002 0.984917 0.981772
1.000002 0.989691 0.987557
1.000002 0.993108 0.991681
0.003505 0.091562 0.003505
0.003505 0.091328 0.003505
0.003663 0.091014 0.003505
0.017587 0.090601 0.003505
0.079280 0.089014 0.003505
0.124555 0.085762 0.003505
0.171258 0.082274 0.003972
0.221485 0.080393 0.006231
0.276641 0.080698 0.012129
0.338341 0.083665 0.020535
0.408631 0.089886 0.030332
0.498568 0.101060 0.042819
0.610825 0.117567 0.058345
0.723984 0.139259 0.076798
0.811772 0.167233 0.100119
0.875705 0.202107 0.130538
0.920130 0.244807 0.171649
0.950038 0.296892 0.226965
0.969491 0.359881 0.290906
0.981629 0.434164 0.363889
0.989259 0.523831 0.450468
0.993863 0.629531 0.551581
0.996557 0.729813 0.664719
0.998164 0.807796 0.761802
0.999086 0.864283 0.832363
0.999629 0.905486 0.883750
0.999938 0.934144 0.919350
1.000002 0.954522 0.944537
1.000002 0.968663 0.961924
1.000002 0.978326 0.973743
1.000002 0.985148 0.982048
1.000002 0.989855 0.987753
1.000002 0.993222 0.991818
0.003825 0.142107 0.003505
0.004220 0.141951 0.003505
0.005835 0.141742 0.003505
0.016558 0.141467 0.003505
0.071728 0.140950 0.003505
0.128026 0.139943 0.003505
0.174013 0.136192 0.003721
0.224031 0.133633 0.005103
0.279245 0.132505 0.009367
0.341181 0.133006 0.017343
0.411973 0.135510 0.027059
0.502964 0.141412 0.039707
0.615914 0.151995 0.055471
0.728332 0.167842 0.074301
0.815121 0.190439 0.098107
0.878167 0.220873 0.129146
0.921870 0.260165 0.171086
0.951224 0.309783 0.227685
0.970275 0.371132 0.292871
0.982137 0.444486 0.367016
0.989580 0.533800 0.454810
0.994061 0.639466 0.557233
0.996680 0.736967 0.670911
0.998239 0.812869 0.766767
0.999131 0.867886 0.836171
0.999656 0.908027 0.886572
0.999954 0.935946 0.921412
1.000002 0.955794 0.946020
1.000002 0.969562 0.962983
1.000002 0.978965 0.974501
1.000002 0.985600 0.982585
1.000002 0.990174 0.988133
1.000002 0.993444 0.992083
0.006411 0.196516 0.003663
0.008052 0.196383 0.003663
0.012208 0.196206 0.003663
0.021766 0.195973 0.003663
0.061636 0.195531 0.003663
0.121359 0.194648 0.003663
0.177960 0.193499 0.003663
0.227581 0.189516 0.004250
0.282800 0.186955 0.006844
0.345010 0.185797 0.013418
0.416452 0.186210 0.022744
0.508768 0.189111 0.035379
0.622517 0.195553 0.051275
0.733844 0.206545 0.070480
0.819362 0.223853 0.094835
0.881288 0.249131 0.126622
0.924079 0.283893 0.169603
0.952733 0.329866 0.228010
0.971273 0.388553 0.295028
0.982785 0.460216 0.370845
0.989989 0.548667 0.460356
0.994315 0.653395 0.564608
0.996836 0.746786 0.678875
0.998333 0.819716 0.773169
0.999189 0.872689 0.841086
0.999691 0.911384 0.890216
0.999975 0.938312 0.924076
1.000002 0.957456 0.947936
1.000002 0.970732 0.964352
1.000002 0.979795 0.975479
1.000002 0.986185 0.983279
1.000002 0.990587 0.988625
1.000002 0.993732 0.992425
0.014576 0.256706 0.004037
0.017333 0.256580 0.004051
0.021942 0.256411 0.004051
0.030068 0.256188 0.004051
0.055117 0.255764 0.004079
0.115370 0.254901 0.004092
0.171362 0.253724 0.004118
0.232021 0.252406 0.004165
0.287073 0.247887 0.005226
0.349490 0.244945 0.009563
0.421552 0.243498 0.018068
0.515206 0.244069 0.030324
0.629607 0.247383 0.046053
0.739587 0.254471 0.065436
0.823776 0.267054 0.090201
0.884545 0.287104 0.122647
0.926394 0.316655 0.166629
0.954321 0.357926 0.227154
0.972329 0.412797 0.296545
0.983473 0.481732 0.374465
0.990423 0.568469 0.466091
0.994585 0.670450 0.572548
0.997003 0.758476 0.687373
0.998435 0.827675 0.780048
0.999250 0.878169 0.846389
0.999727 0.915161 0.894156
0.999997 0.940946 0.926960
1.000002 0.959293 0.950012
1.000002 0.972018 0.965835
1.000002 0.980703 0.976540
1.000002 0.986824 0.984031
1.000002 0.991038 0.989157
1.000002 0.994045 0.992796
0.027079 0.324595 0.004909
0.029999 0.324467 0.004909
0.034475 0.324296 0.004920
0.041544 0.324071 0.004930
0.059939 0.323642 0.004945
0.112145 0.322758 0.004975
0.166306 0.321520 0.005014
0.224960 0.320054 0.005066
0.292059 0.318532 0.005161
0.354463 0.313235 0.006909
0.426854 0.309664 0.013693
0.521567 0.307962 0.025121
0.636102 0.308529 0.040248
0.744713 0.312238 0.059435
0.827708 0.320580 0.084265
0.887465 0.335558 0.117035
0.928491 0.359524 0.161672
0.955774 0.395191 0.224248
0.973304 0.445006 0.296512
0.984113 0.509909 0.376892
0.990831 0.593702 0.470927
0.994839 0.690059 0.579845
0.997161 0.771473 0.695263
0.998531 0.836251 0.786555
0.999309 0.883923 0.851456
0.999762 0.919045 0.897945
1.000002 0.943615 0.929745
1.000002 0.961133 0.952022
1.000002 0.973297 0.967274
1.000002 0.981601 0.977571
1.000002 0.987453 0.984762
1.000002 0.991480 0.989675
1.000002 0.994351 0.993156
0.043737 0.402509 0.006593
0.046572 0.402377 0.006601
0.050748 0.402200 0.006612
0.056998 0.401967 0.006623
0.071853 0.401522 0.006644
0.114237 0.400601 0.006682
0.164361 0.399288 0.006730
0.219972 0.397678 0.006786
0.284153 0.395891 0.006872
0.360080 0.394086 0.007079
0.432205 0.387754 0.010090
0.527235 0.383454 0.020300
0.641132 0.381244 0.034373
0.748492 0.381735 0.052881
0.830587 0.386095 0.077262
0.889638 0.396148 0.109787
0.930090 0.414311 0.154414
0.956912 0.443613 0.218333
0.974086 0.487101 0.293940
0.984637 0.546415 0.377062
0.991170 0.625623 0.473715
0.995054 0.712081 0.585247
0.997295 0.785560 0.701534
0.998613 0.845202 0.791970
0.999359 0.889724 0.855783
0.999793 0.922846 0.901234
1.000002 0.946167 0.932188
1.000002 0.962862 0.953797
1.000002 0.974484 0.968552
1.000002 0.982428 0.978489
1.000002 0.988029 0.985416
1.000002 0.991883 0.990138
1.000002 0.994629 0.993480
0.065698 0.493218 0.010082
0.068366 0.493079 0.010093
0.072207 0.492892 0.010107
0.077791 0.492647 0.010122
0.090397 0.492176 0.010150
0.123968 0.491197 0.010197
0.167475 0.489793 0.010243
0.218495 0.488039 0.010284
0.278803 0.486021 0.010348
0.350977 0.483836 0.010535
0.438336 0.481640 0.011049
0.528903 0.474074 0.016005
0.643992 0.468716 0.028970
0.750195 0.465850 0.046302
0.831809 0.466251 0.069622
0.890622 0.471429 0.101151
0.930894 0.483625 0.144807
0.957543 0.505933 0.208319
0.974558 0.541851 0.287692
0.984975 0.593828 0.373721
0.991400 0.664204 0.473082
0.995205 0.736669 0.587261
0.997392 0.800790 0.705077
0.998674 0.854475 0.795543
0.999397 0.895467 0.858865
0.999816 0.926449 0.903684
1.000002 0.948498 0.934060
1.000002 0.964396 0.955186
1.000002 0.975514 0.969565
1.000002 0.983134 0.979225
1.000002 0.988515 0.985943
1.000002 0.992221 0.990516
1.000002 0.994862 0.993745
0.094409 0.598100 0.016030
0.096891 0.597951 0.016038
0.100423 0.597750 0.016049
0.105472 0.597485 0.016062
0.116547 0.596980 0.016084
0.142079 0.595927 0.016114
0.177465 0.594414 0.016132
0.222299 0.592509 0.016123
0.277492 0.590277 0.016109
0.345036 0.587774 0.016174
0.427817 0.585082 0.016497
0.527812 0.582406 0.017418
0.636034 0.573228 0.023740
0.748311 0.566608 0.040276
0.830645 0.562917 0.062094
0.889864 0.563207 0.091820
0.930518 0.569375 0.133365
0.957421 0.584301 0.194233
0.974566 0.611660 0.276671
0.985032 0.653580 0.365502
0.991466 0.706587 0.467395
0.995262 0.763612 0.584014
0.997435 0.817113 0.704419
0.998704 0.864002 0.796285
0.999417 0.901043 0.860042
0.999829 0.929728 0.904861
1.000002 0.950492 0.935071
1.000002 0.965637 0.955992
1.000002 0.976310 0.970182
1.000002 0.983664 0.979689
1.000002 0.988872 0.986285
1.000002 0.992465 0.990765
1.000002 0.995029 0.993923
0.133020 0.708978 0.024467
0.135324 0.708856 0.024472
0.138447 0.708691 0.024478
0.142619 0.708476 0.024486
0.150767 0.708064 0.024497
0.168470 0.707204 0.024506
0.195763 0.705966 0.024487
0.233272 0.704395 0.024422
0.281998 0.702529 0.024318
0.343693 0.700382 0.024241
0.420930 0.697971 0.024348
0.515439 0.695389 0.024934
0.631852 0.692742 0.026555
0.736962 0.683781 0.034595
0.827302 0.676879 0.055760
0.887980 0.672840 0.083414
0.929407 0.672951 0.122105
0.956779 0.679232 0.178943
0.974216 0.694039 0.261651
0.984854 0.718529 0.352734
0.991387 0.753037 0.456650
0.995232 0.794007 0.575289
0.997428 0.835693 0.699267
0.998705 0.874675 0.794048
0.999420 0.907039 0.859256
0.999832 0.933034 0.904748
1.000002 0.952350 0.935224
1.000002 0.966697 0.956225
1.000002 0.976936 0.970414
1.000002 0.984050 0.979890
1.000002 0.989118 0.986448
1.000002 0.992627 0.990892
1.000002 0.995136 0.994018
0.178390 0.795086 0.036114
0.179827 0.794999 0.036115
0.181800 0.794882 0.036116
0.184485 0.794727 0.036116
0.189886 0.794434 0.036114
0.202250 0.793824 0.036094
0.222692 0.792949 0.036031
0.252785 0.791843 0.035903
0.294172 0.790529 0.035705
0.348859 0.789007 0.035481
0.419408 0.787268 0.035356
0.507485 0.785345 0.035591
0.617398 0.783251 0.036659
0.730404 0.781108 0.039369
0.814293 0.773998 0.049773
0.884033 0.768347 0.076901
0.927186 0.764960 0.112417
0.955518 0.764926 0.164493
0.973514 0.769935 0.244048
0.984473 0.781512 0.336625
0.991188 0.800950 0.441778
0.995132 0.827225 0.561792
0.997379 0.856920 0.689799
0.998682 0.887182 0.788989
0.999410 0.914075 0.856664
0.999828 0.936818 0.903493
1.000002 0.954370 0.934643
1.000002 0.967766 0.955984
1.000002 0.977511 0.970335
1.000002 0.984371 0.979884
1.000002 0.989302 0.986472
1.000002 0.992738 0.990925
1.000002 0.995205 0.994051
0.226739 0.858537 0.052086
0.227698 0.858476 0.052081
0.229023 0.858395 0.052075
0.230842 0.858287 0.052065
0.234554 0.858083 0.052044
0.243293 0.857661 0.051987
0.258387 0.857058 0.051871
0.281781 0.856301 0.051673
0.315659 0.855407 0.051378
0.362517 0.854372 0.051007
0.425227 0.853182 0.050649
0.505684 0.851845 0.050525
0.608029 0.850345 0.051039
0.718583 0.848723 0.052886
0.806642 0.847039 0.057270
0.870978 0.841613 0.070779
0.923284 0.837157 0.105773
0.953406 0.834422 0.152835
0.972346 0.834305 0.225720
0.983823 0.838022 0.318154
0.990836 0.846928 0.423156
0.994945 0.861454 0.543442
0.997281 0.880279 0.675189
0.998632 0.901702 0.780534
0.999384 0.922518 0.851906
0.999815 0.941401 0.900883
1.000002 0.956771 0.933203
1.000002 0.968970 0.955196
1.000002 0.978102 0.969904
1.000002 0.984661 0.979645
1.000002 0.989441 0.986342
1.000002 0.992805 0.990855
1.000002 0.995237 0.994015
0.280016 0.903755 0.073821
0.280676 0.903714 0.073809
0.281593 0.903658 0.073792
0.282857 0.903584 0.073770
0.285460 0.903444 0.073724
0.291699 0.903155 0.073618
0.302785 0.902745 0.073435
0.320616 0.902236 0.073153
0.347542 0.901638 0.072753
0.386405 0.900950 0.072233
0.440497 0.900162 0.071649
0.512204 0.899270 0.071170
0.605753 0.898255 0.071135
0.710575 0.897126 0.072153
0.797526 0.895894 0.075243
0.863404 0.894606 0.082135
0.911323 0.890576 0.099874
0.949988 0.887131 0.146213
0.970568 0.884994 0.211037
0.982858 0.884824 0.300094
0.990313 0.887571 0.402781
0.994664 0.894096 0.521556
0.997130 0.904364 0.655249
0.998553 0.917831 0.768316
0.999343 0.932492 0.844705
0.999793 0.947065 0.896755
1.000002 0.959813 0.930823
1.000002 0.970497 0.953827
1.000002 0.978828 0.969106
1.000002 0.984989 0.979171
1.000002 0.989576 0.986059
1.000002 0.992853 0.990685
1.000002 0.995247 0.993914
0.339551 0.935222 0.103411
0.340010 0.935194 0.103388
0.340650 0.935155 0.103358
0.341537 0.935105 0.103317
0.343376 0.935010 0.103238
0.347847 0.934814 0.103064
0.355970 0.934537 0.102790
0.369403 0.934197 0.102399
0.390364 0.933800 0.101871
0.421733 0.933349 0.101189
0.467051 0.932835 0.100373
0.529256 0.932255 0.099547
0.612865 0.931590 0.098974
0.708425 0.930840 0.099185
0.791291 0.930001 0.101074
0.856595 0.929083 0.106116
0.904534 0.928117 0.116803
0.939777 0.925158 0.141094
0.967793 0.922545 0.204652
0.981453 0.920934 0.286293
0.989579 0.920746 0.383690
0.994273 0.922703 0.498493
0.996919 0.927241 0.630645
0.998441 0.934514 0.752282
0.999283 0.943667 0.834854
0.999762 0.953881 0.890937
1.000002 0.963686 0.927393
1.000002 0.972527 0.951815
1.000002 0.979819 0.967914
1.000002 0.985442 0.978449
1.000002 0.989757 0.985620
1.000002 0.992909 0.990413
1.000002 0.995250 0.993748
0.406989 0.956889 0.144572
0.407305 0.956870 0.144535
0.407746 0.956844 0.144484
0.408363 0.956809 0.144418
0.409651 0.956745 0.144289
0.412833 0.956613 0.144017
0.418741 0.956428 0.143608
0.428755 0.956201 0.143057
0.444811 0.955940 0.142348
0.469575 0.955645 0.141457
0.506546 0.955314 0.140374
0.559032 0.954942 0.139176
0.631852 0.954516 0.138051
0.714141 0.954033 0.137452
0.789453 0.953485 0.138171
0.851859 0.952872 0.141533
0.899527 0.952200 0.149690
0.933964 0.951482 0.166514
0.959411 0.949344 0.201255
0.979267 0.947413 0.281181
0.988522 0.946180 0.369611
0.993734 0.945998 0.477368
0.996634 0.947300 0.604134
0.998290 0.950448 0.732780
0.999202 0.955323 0.822226
0.999719 0.961633 0.883224
1.000002 0.968448 0.922752
1.000002 0.975204 0.949060
1.000002 0.981210 0.966268
1.000002 0.986115 0.977447
1.000002 0.990046 0.985007
1.000002 0.993011 0.990034
1.000002 0.995267 0.993514
0.483492 0.971579 0.203586
0.483701 0.971566 0.203524
0.483996 0.971549 0.203442
0.484410 0.971526 0.203334
0.485288 0.971483 0.203128
0.487506 0.971394 0.202697
0.491743 0.971270 0.202072
0.499121 0.971119 0.201265
0.511263 0.970948 0.200272
0.530489 0.970756 0.199064
0.560014 0.970543 0.197610
0.603219 0.970306 0.195948
0.663042 0.970037 0.194189
0.729012 0.969731 0.192708
0.793531 0.969383 0.192209
0.850349 0.968988 0.193923
0.896018 0.968545 0.199841
0.930349 0.968055 0.213369
0.954681 0.967529 0.238662
0.972448 0.966030 0.277558
0.986876 0.964573 0.364779
0.992963 0.963658 0.462131
0.996245 0.963481 0.580433
0.998089 0.964338 0.711262
0.999095 0.966401 0.807175
0.999663 0.969713 0.873575
0.999972 0.973876 0.916778
1.000002 0.978527 0.945456
1.000002 0.983082 0.964101
1.000002 0.987097 0.976126
1.000002 0.990510 0.984200
1.000002 0.993203 0.989534
1.000002 0.995323 0.993207
0.568706 0.981294 0.281632
0.568834 0.981285 0.281556
0.569016 0.981273 0.281452
0.569277 0.981258 0.281317
0.569844 0.981228 0.281060
0.571334 0.981169 0.280530
0.574305 0.981086 0.279777
0.579676 0.980985 0.278832
0.588780 0.980871 0.277706
0.603570 0.980746 0.276379
0.626857 0.980607 0.274813
0.660148 0.980455 0.273006
0.702884 0.980285 0.270976
0.752310 0.980092 0.268944
0.804155 0.979872 0.267385
0.853049 0.979621 0.267218
0.894814 0.979337 0.269907
0.927822 0.979016 0.277531
0.952143 0.978660 0.292648
0.968898 0.978283 0.317448
0.981689 0.977201 0.358795
0.991776 0.976128 0.456769
0.995697 0.975466 0.563727
0.997820 0.975306 0.690836
0.998957 0.975847 0.791051
0.999591 0.977237 0.862454
0.999934 0.979415 0.909585
1.000002 0.982248 0.941002
1.000002 0.985376 0.961387
1.000002 0.988409 0.974464
1.000002 0.991192 0.983186
1.000002 0.993524 0.988909
1.000002 0.995448 0.992825
0.664125 0.987862 0.365436
0.664179 0.987856 0.365348
0.664260 0.987848 0.365232
0.664381 0.987837 0.365077
0.664661 0.987818 0.364786
0.665461 0.987778 0.364190
0.667189 0.987722 0.363354
0.670482 0.987656 0.362328
0.676208 0.987581 0.361141
0.685533 0.987499 0.359789
0.699908 0.987409 0.358243
0.720485 0.987312 0.356490
0.748332 0.987205 0.354501
0.782647 0.987084 0.352368
0.821311 0.986948 0.350326
0.860588 0.986791 0.348916
0.896588 0.986613 0.349094
0.926846 0.986410 0.352349
0.950289 0.986180 0.360760
0.967075 0.985930 0.376545
0.978876 0.985655 0.402901
0.987768 0.984898 0.446989
0.994811 0.984122 0.557147
0.997427 0.983627 0.674763
0.998766 0.983482 0.775329
0.999495 0.983813 0.850288
0.999885 0.984693 0.901161
1.000002 0.986140 0.935563
1.000002 0.988012 0.957992
1.000002 0.990062 0.972360
1.000002 0.992137 0.981898
1.000002 0.994020 0.988116
1.000002 0.995673 0.992342
0.687004 0.988959 0.389690
0.746161 0.992179 0.455806
0.746171 0.992173 0.455671
0.746192 0.992167 0.455494
0.746261 0.992154 0.455160
0.746530 0.992127 0.454480
0.747253 0.992090 0.453533
0.748815 0.992045 0.452387
0.751741 0.991996 0.451086
0.756756 0.991942 0.449642
0.764820 0.991884 0.448033
0.776858 0.991821 0.446252
0.793956 0.991753 0.444248
0.816278 0.991677 0.442050
0.843186 0.991593 0.439757
0.872628 0.991496 0.437675
0.901719 0.991385 0.436415
0.927945 0.991259 0.437010
0.949531 0.991114 0.441046
0.965757 0.990953 0.450439
0.977602 0.990772 0.468000
0.985696 0.990577 0.496340
0.991698 0.990062 0.542121
0.996784 0.989485 0.667254
0.998486 0.989127 0.762984
0.999363 0.988997 0.838621
0.999819 0.989186 0.892182
1.000002 0.989755 0.929372
1.000002 0.990699 0.953970
1.000002 0.991912 0.969810
1.000002 0.993301 0.980319
1.000002 0.994693 0.987141
1.000002 0.996020 0.991751
0.809120 0.994971 0.553169
0.809102 0.994969 0.553052
0.809081 0.994965 0.552897
0.809057 0.994960 0.552694
0.809029 0.994952 0.552311
0.809046 0.994934 0.551533
0.809264 0.994909 0.550458
0.809918 0.994879 0.549167
0.811321 0.994846 0.547719
0.813911 0.994810 0.546139
0.818288 0.994771 0.544416
0.825104 0.994731 0.542551
0.835212 0.994687 0.540483
0.849090 0.994639 0.538221
0.866847 0.994585 0.535778
0.887653 0.994525 0.533319
0.909782 0.994456 0.531216
0.931246 0.994377 0.530166
0.950143 0.994286 0.531343
0.965185 0.994183 0.536314
0.976681 0.994067 0.547392
0.984825 0.993938 0.567066
0.990273 0.993801 0.597367
0.994482 0.993438 0.647303
0.998022 0.993021 0.756157
0.999171 0.992754 0.829354
0.999729 0.992649 0.883706
1.000002 0.992761 0.922931
1.000002 0.993131 0.949524
1.000002 0.993743 0.966886
1.000002 0.994565 0.978467
1.000002 0.995497 0.985986
1.000002 0.996479 0.991048
0.857735 0.996822 0.659569
0.857709 0.996821 0.659448
0.857678 0.996818 0.659287
0.857638 0.996815 0.659078
0.857573 0.996809 0.658681
0.857480 0.996797 0.657876
0.857461 0.996780 0.656761
0.857655 0.996760 0.655426
0.858249 0.996738 0.653935
0.859501 0.996714 0.652318
0.861768 0.996689 0.650574
0.865472 0.996662 0.648708
0.871203 0.996634 0.646666
0.879436 0.996603 0.644437
0.890539 0.996569 0.641995
0.904381 0.996532 0.639402
0.920168 0.996489 0.636858
0.936655 0.996439 0.634798
0.952261 0.996383 0.634052
0.965521 0.996319 0.635845
0.976231 0.996245 0.641884
0.984164 0.996163 0.653956
0.989658 0.996073 0.673086
0.993435 0.995975 0.700220
0.996256 0.995730 0.737369
0.998830 0.995420 0.822861
0.999593 0.995225 0.876567
0.999961 0.995138 0.916622
1.000002 0.995201 0.944776
1.000002 0.995433 0.963588
1.000002 0.995840 0.976304
1.000002 0.996386 0.984608
1.000002 0.997038 0.990201
0.893650 0.998015 0.747291
0.893625 0.998014 0.747196
0.893592 0.998012 0.747069
0.893550 0.998010 0.746903
0.893477 0.998006 0.746590
0.893350 0.997998 0.745957
0.893236 0.997986 0.745080
0.893222 0.997973 0.744033
0.893420 0.997958 0.742869
0.893982 0.997942 0.741619
0.895119 0.997925 0.740283
0.897094 0.997907 0.738877
0.900289 0.997888 0.737361
0.905072 0.997868 0.735730
0.911819 0.997847 0.733953
0.920688 0.997823 0.732035
0.931446 0.997796 0.730044
0.943475 0.997765 0.728155
0.955702 0.997729 0.726764
0.966825 0.997689 0.726539
0.976374 0.997643 0.728439
0.983824 0.997590 0.733678
0.989200 0.997532 0.743232
0.993015 0.997468 0.758175
0.995557 0.997399 0.778136
0.997544 0.997226 0.806173
0.999345 0.997000 0.870645
0.999869 0.996854 0.911272
1.000002 0.996787 0.940211
1.000002 0.996821 0.960171
1.000002 0.996976 0.973949
1.000002 0.997248 0.983058
1.000002 0.997634 0.989229
0.891998 0.997948 0.743635
0.920845 0.998810 0.813917
0.920816 0.998809 0.813820
0.920778 0.998807 0.813693
0.920709 0.998805 0.813452
0.920583 0.998799 0.812964
0.920442 0.998792 0.812291
0.920342 0.998782 0.811489
0.920351 0.998772 0.810601
0.920558 0.998762 0.809651
0.921087 0.998750 0.808646
0.922096 0.998738 0.807599
0.923819 0.998726 0.806487
0.926511 0.998713 0.805306
0.930469 0.998699 0.804035
0.935919 0.998684 0.802661
0.942898 0.998667 0.801202
0.951206 0.998647 0.799713
0.960252 0.998625 0.798367
0.969074 0.998600 0.797500
0.977166 0.998571 0.797603
0.983863 0.998538 0.799409
0.988939 0.998501 0.803638
0.992685 0.998460 0.811140
0.995259 0.998415 0.822125
0.997034 0.998366 0.836949
0.998373 0.998249 0.856483
0.999686 0.998081 0.905765
1.000002 0.997972 0.936054
1.000002 0.997920 0.956729
1.000002 0.997938 0.971417
1.000002 0.998038 0.981317
1.000002 0.998229 0.988103
0.940792 0.999327 0.862486
0.940773 0.999327 0.862429
0.940748 0.999326 0.862355
0.940716 0.999325 0.862257
0.940656 0.999323 0.862074
0.940544 0.999319 0.861701
0.940407 0.999314 0.861188
0.940282 0.999308 0.860576
0.940213 0.999301 0.859901
0.940252 0.999293 0.859182
0.940473 0.999286 0.858426
0.940969 0.999278 0.857644
