create_logik_projekt/setups/Syncolor/transforms/r3d/IPP2-Cubes-SDR-Core-V1_13/REC2020/RWG_Log3G10 to REC2020_BT1886 with NO_CONTRAST and R_1_Hard size_33 v1.13.cube
# RED Digital Cinema Output Transform LUT for IPP2
# LUT Name = RWG_Log3G10 to REC2020_BT1886 with NO_CONTRAST and R_1_Hard size_33 v1.13
# Generated by version 1.13
# Settings used in creation of this LUT are:
# Development Color Space = REC2020
# Output Gamma Curve = BT1886
# Output Tonemap = NO_CONTRAST
# Highlight Rolloff = Rolloff 1 - hard
# Resolution = 33 x 33 x 33
TITLE "RED IPP2 LUT to map REDWideGamutRGB/Log3G10 to REC2020/BT1886/NO_CONTRAST/Rolloff 1 - hard"
LUT_3D_SIZE 5
0.000000 0.000000 0.000000
0.306808 0.005674 0.004617
0.873045 0.150924 0.107458
0.996926 0.741945 0.681796
1.000002 0.991985 0.990330
0.012327 0.386745 0.003825
0.340624 0.377220 0.003825
0.898247 0.384155 0.098333
0.998006 0.813734 0.745541
1.000002 0.994531 0.993361
0.279904 0.911605 0.071231
0.380108 0.908343 0.068847
0.872014 0.902043 0.078147
0.997906 0.914542 0.709904
1.000002 0.995230 0.993861
0.834987 0.996021 0.604889
0.836785 0.995844 0.594853
0.899112 0.995597 0.580520
0.991957 0.994969 0.647589
1.000002 0.996736 0.990609
0.989752 1.000002 0.977438
0.989409 1.000002 0.976606
0.989490 1.000002 0.975681
0.994221 1.000002 0.974453
1.000002 1.000002 0.979983
0.004472 0.003505 0.338223
0.293353 0.003663 0.340927
0.869100 0.103730 0.328063
0.996891 0.735540 0.712066
1.000002 0.991997 0.990405
0.004298 0.323368 0.332682
0.324299 0.324299 0.324299
0.893361 0.346186 0.312184
0.997933 0.807385 0.763731
1.000002 0.994440 0.993287
0.265916 0.904285 0.187467
0.373540 0.905359 0.179194
0.871536 0.898442 0.214134
0.997836 0.913086 0.728798
1.000002 0.995162 0.993799
0.829814 0.995810 0.614296
0.838267 0.995894 0.617863
0.899729 0.995641 0.606709
0.992066 0.995014 0.671220
1.000002 0.996725 0.990520
0.989366 1.000002 0.976663
0.989585 1.000002 0.977079
0.989655 1.000002 0.976178
0.994298 1.000002 0.974983
1.000002 1.000002 0.979743
0.027376 0.006164 0.870051
0.209860 0.006180 0.875231
0.804455 0.011142 0.869637
0.995494 0.609239 0.860346
1.000002 0.989805 0.988683
0.026013 0.078392 0.887937
0.213286 0.073918 0.886608
0.835282 0.102755 0.883183
0.996831 0.716332 0.879229
1.000002 0.992759 0.991831
0.150870 0.856559 0.866366
0.301309 0.857658 0.866161
0.857363 0.857363 0.857363
0.996509 0.886887 0.868914
1.000002 0.993501 0.992169
0.816385 0.995098 0.802418
0.826314 0.995198 0.801857
0.896684 0.995240 0.797979
0.991937 0.994544 0.830390
1.000002 0.996133 0.988152
0.988922 1.000002 0.977063
0.989148 1.000002 0.977414
0.989783 1.000002 0.977719
0.994351 1.000002 0.976846
1.000002 1.000002 0.981802
0.021732 0.004985 0.994521
0.055245 0.004841 0.994995
0.728607 0.005028 0.994827
0.982841 0.056221 0.992265
1.000002 0.979681 0.991446
0.015884 0.009553 0.996172
0.045125 0.008875 0.996165
0.747822 0.010159 0.995952
0.986642 0.095848 0.994070
1.000002 0.985172 0.993397
0.019206 0.566340 0.995269
0.049177 0.554318 0.995261
0.749158 0.538724 0.994767
0.988984 0.661966 0.994033
1.000002 0.986501 0.994081
0.715673 0.990421 0.991527
0.734132 0.990566 0.991644
0.861642 0.990608 0.991509
0.990474 0.990474 0.990474
1.000002 0.993619 0.992572
0.987829 1.000002 0.988792
0.988082 1.000002 0.988848
0.988841 1.000002 0.988876
0.994134 1.000002 0.988689
1.000002 1.000002 0.991001
0.003505 0.003505 1.000002
0.003505 0.003505 1.000002
0.028333 0.003505 1.000002
0.984007 0.003505 1.000002
0.999516 0.339917 1.000002
0.003505 0.003505 1.000002
0.003505 0.003505 1.000002
0.011714 0.003505 1.000002
0.987781 0.003505 1.000002
0.999744 0.446881 1.000002
0.003505 0.003505 1.000002
0.003505 0.003505 1.000002
0.004104 0.003505 1.000002
0.985585 0.003663 1.000002
0.999898 0.725457 1.000002
0.003505 0.972704 1.000002
0.003505 0.972260 1.000002
0.017406 0.968113 1.000002
0.980762 0.964682 1.000002
0.999962 0.977563 1.000002
0.980670 1.000002 1.000002
0.981057 1.000002 1.000002
0.982476 1.000002 1.000002
0.991920 1.000002 1.000002
1.000002 1.000002 1.000002
