create_logik_projekt/setups/Syncolor/transforms/r3d/IPP2-Cubes-SDR-Core-V1_13/REC2020/RWG_Log3G10 to REC2020_BT1886 with NO_CONTRAST and R_1_Hard size_33 v1.13.cube
# RED Digital Cinema Output Transform LUT for IPP2
# LUT Name = RWG_Log3G10 to REC2020_BT1886 with NO_CONTRAST and R_1_Hard size_33 v1.13
# Generated by version 1.13
# Settings used in creation of this LUT are:
# Development Color Space = REC2020
# Output Gamma Curve = BT1886
# Output Tonemap = NO_CONTRAST
# Highlight Rolloff = Rolloff 1 - hard
# Resolution = 33 x 33 x 33
TITLE "RED IPP2 LUT to map REDWideGamutRGB/Log3G10 to REC2020/BT1886/NO_CONTRAST/Rolloff 1 - hard"
LUT_3D_SIZE 33
0.000000 0.000000 0.000000
0.000000 0.000000 0.000000
0.000000 0.000000 0.000000
0.000045 0.000000 0.000000
0.114955 0.003505 0.003505
0.166558 0.003505 0.003505
0.212569 0.003505 0.003505
0.258650 0.003990 0.003721
0.306808 0.005674 0.004617
0.358568 0.010131 0.006789
0.416326 0.018131 0.011608
0.487404 0.029362 0.019444
0.574756 0.044409 0.030183
0.669592 0.062597 0.043361
0.753399 0.085707 0.060235
0.820835 0.114466 0.081197
0.873045 0.150924 0.107458
0.912386 0.197578 0.141402
0.941073 0.249018 0.186870
0.961103 0.305548 0.244119
0.975142 0.371422 0.308655
0.984541 0.448262 0.382494
0.990595 0.537218 0.467194
0.994522 0.643759 0.568565
0.996926 0.741945 0.681796
0.998408 0.819527 0.777473
0.999270 0.876272 0.847825
0.999772 0.917586 0.899029
1.000002 0.946248 0.934429
1.000002 0.965395 0.957958
1.000002 0.978317 0.973752
1.000002 0.986602 0.983821
1.000002 0.991985 0.990330
0.000000 0.000000 0.000000
0.000000 0.000000 0.000000
0.000000 0.000000 0.000000
0.029937 0.003505 0.003505
0.120527 0.003505 0.003505
0.170978 0.003505 0.003505
0.216752 0.003897 0.003505
0.262910 0.005624 0.003721
0.311322 0.010401 0.004509
0.363468 0.018450 0.006504
0.422178 0.028456 0.011068
0.494553 0.041441 0.018856
0.582859 0.057958 0.029560
0.677728 0.077431 0.042872
0.760122 0.100978 0.060075
0.826179 0.130139 0.081503
0.877148 0.167311 0.108416
0.915431 0.211768 0.143286
0.943263 0.261125 0.190137
0.962642 0.316639 0.248533
0.976187 0.382189 0.314178
0.985232 0.459266 0.389294
0.991044 0.548941 0.475464
0.994803 0.655817 0.578598
0.997100 0.751090 0.691649
0.998511 0.826196 0.785051
0.999330 0.881022 0.853392
0.999806 0.920870 0.902945
1.000002 0.948471 0.937101
1.000002 0.966879 0.959748
1.000002 0.979285 0.974919
1.000002 0.987226 0.984572
1.000002 0.992378 0.990802
0.000000 0.000000 0.000000
0.000000 0.000000 0.000000
0.000000 0.000000 0.000000
0.049439 0.003505 0.003505
0.125816 0.003505 0.003505
0.175249 0.004846 0.003505
0.220809 0.009663 0.003505
0.267051 0.018184 0.003663
0.315719 0.027647 0.004352
0.368251 0.037847 0.006103
0.427924 0.049292 0.010251
0.501608 0.063385 0.017903
0.590799 0.080474 0.028528
0.685520 0.099678 0.042068
0.766549 0.122828 0.059561
0.831281 0.151844 0.081433
0.881060 0.187395 0.108990
0.918331 0.227963 0.144791
0.945347 0.274977 0.193044
0.964103 0.329172 0.252657
0.977179 0.394122 0.319500
0.985887 0.471211 0.395961
0.991468 0.561431 0.483656
0.995069 0.667940 0.588599
0.997264 0.760141 0.701141
0.998609 0.832720 0.792330
0.999387 0.885632 0.858727
0.999838 0.924038 0.906690
1.000002 0.950605 0.939652
1.000002 0.968301 0.961455
1.000002 0.980209 0.976029
1.000002 0.987821 0.985287
1.000002 0.992752 0.991250
0.003505 0.095529 0.003505
0.003505 0.094297 0.003505
0.003505 0.093023 0.003505
0.062063 0.091731 0.003505
0.130766 0.086415 0.003505
0.179290 0.083645 0.003505
0.224655 0.082671 0.003505
0.270984 0.083304 0.003663
0.319909 0.085589 0.004154
0.372832 0.089655 0.005620
0.433470 0.095974 0.009192
0.508488 0.105601 0.016637
0.598502 0.118676 0.027203
0.692876 0.134693 0.040923
0.772606 0.154763 0.058637
0.836084 0.179601 0.080906
0.884740 0.209846 0.109071
0.921059 0.246589 0.145780
0.947306 0.290971 0.195422
0.965477 0.343485 0.256353
0.978110 0.407489 0.324494
0.986502 0.484293 0.402371
0.991866 0.574815 0.491643
0.995318 0.680135 0.598436
0.997417 0.769083 0.710178
0.998700 0.839078 0.799249
0.999439 0.890081 0.863789
0.999867 0.927075 0.910238
1.000002 0.952640 0.942066
1.000002 0.969651 0.963068
1.000002 0.981084 0.977078
1.000002 0.988383 0.985960
1.000002 0.993105 0.991672
0.003505 0.161052 0.003505
0.003505 0.160182 0.003505
0.003505 0.159267 0.003505
0.045420 0.158306 0.003505
0.135657 0.157380 0.003505
0.183256 0.153667 0.003505
0.228400 0.151501 0.003505
0.274799 0.150455 0.003505
0.323975 0.150426 0.003972
0.377286 0.151457 0.005152
0.438854 0.153876 0.008153
0.515182 0.158452 0.015209
0.605886 0.165697 0.025624
0.699735 0.175851 0.039413
0.778243 0.190189 0.057254
0.840551 0.209711 0.079839
0.888165 0.235335 0.108545
0.923598 0.268265 0.146103
0.949131 0.309686 0.197082
0.966758 0.360093 0.259474
0.978979 0.422718 0.329030
0.987075 0.498850 0.408406
0.992237 0.589352 0.499316
0.995550 0.692492 0.608005
0.997559 0.777961 0.718711
0.998784 0.845292 0.805780
0.999489 0.894379 0.868565
0.999895 0.929983 0.913584
1.000002 0.954578 0.944340
1.000002 0.970931 0.964586
1.000002 0.981911 0.978064
1.000002 0.988913 0.986593
1.000002 0.993436 0.992068
0.003505 0.215346 0.003505
0.003663 0.214517 0.003505
0.004915 0.213636 0.003505
0.038541 0.212692 0.003505
0.128956 0.211730 0.003505
0.187447 0.210840 0.003505
0.232243 0.207208 0.003505
0.278631 0.204868 0.003505
0.328000 0.203543 0.003825
0.381658 0.203145 0.004752
0.444049 0.203834 0.007215
0.521613 0.206134 0.013678
0.612829 0.210431 0.023835
0.706008 0.217218 0.037539
0.783389 0.227728 0.055381
0.844630 0.243124 0.078161
0.891296 0.264627 0.107294
0.925925 0.293718 0.145592
0.950806 0.331829 0.197793
0.967936 0.379638 0.261821
0.979779 0.440357 0.332929
0.987603 0.515321 0.413900
0.992579 0.605375 0.506514
0.995764 0.705120 0.617148
0.997690 0.786823 0.726662
0.998862 0.851378 0.811880
0.999534 0.898529 0.873030
0.999920 0.932762 0.916712
1.000002 0.956417 0.946466
1.000002 0.972139 0.966005
1.000002 0.982689 0.978985
1.000002 0.989410 0.987184
1.000002 0.993746 0.992437
0.003936 0.268855 0.003505
0.004774 0.268004 0.003505
0.009486 0.267095 0.003505
0.042136 0.266112 0.003505
0.123821 0.265085 0.003505
0.181511 0.264063 0.003505
0.235022 0.261267 0.003505
0.282563 0.259212 0.003505
0.332029 0.256539 0.003721
0.385963 0.254849 0.004418
0.448988 0.254145 0.006417
0.527648 0.254754 0.012129
0.619142 0.256926 0.021923
0.711553 0.261258 0.035342
0.787926 0.268797 0.053023
0.848231 0.280734 0.075830
0.894069 0.298454 0.105220
0.927993 0.323675 0.144075
0.952302 0.358133 0.197292
0.968991 0.402815 0.263132
0.980498 0.461006 0.335940
0.988080 0.534189 0.418604
0.992888 0.623242 0.512986
0.995958 0.718080 0.625603
0.997809 0.795682 0.733887
0.998932 0.857327 0.817454
0.999575 0.902517 0.877125
0.999943 0.935399 0.919587
1.000002 0.958144 0.948422
1.000002 0.973266 0.967312
1.000002 0.983412 0.979834
1.000002 0.989870 0.987728
1.000002 0.994033 0.992777
0.005897 0.325408 0.003505
0.008899 0.324503 0.003505
0.018724 0.323538 0.003505
0.049653 0.322493 0.003505
0.120882 0.321390 0.003505
0.176991 0.320249 0.003505
0.230284 0.319106 0.003505
0.286780 0.318012 0.003505
0.336187 0.313677 0.003663
0.390286 0.310530 0.004176
0.453657 0.308397 0.005774
0.533152 0.307426 0.010646
0.624659 0.307777 0.019927
0.716242 0.310027 0.032874
0.791748 0.315011 0.050203
0.851272 0.323858 0.072824
0.896425 0.337998 0.102235
0.929764 0.359288 0.141380
0.953593 0.389737 0.195295
0.969909 0.430707 0.263090
0.981128 0.485641 0.337767
0.988499 0.556275 0.422236
0.993162 0.643256 0.518461
0.996130 0.731581 0.633072
0.997915 0.804648 0.740267
0.998995 0.863190 0.822439
0.999611 0.906363 0.880813
0.999963 0.937897 0.922188
1.000002 0.959761 0.950198
1.000002 0.974314 0.968500
1.000002 0.984079 0.980606
1.000002 0.990293 0.988224
1.000002 0.994296 0.993087
0.012327 0.386745 0.003825
0.018560 0.385765 0.003825
0.030905 0.384724 0.003825
0.060203 0.383606 0.003825
0.121106 0.382417 0.003825
0.174417 0.381161 0.003825
0.225701 0.379854 0.003825
0.280305 0.378520 0.003825
0.340624 0.377220 0.003825
0.394712 0.372280 0.004006
0.458006 0.368511 0.005306
0.537768 0.365889 0.009342
0.629104 0.364526 0.017933
0.719843 0.364830 0.030253
0.794653 0.367466 0.047024
0.853594 0.373449 0.069204
0.898247 0.384155 0.098333
0.931156 0.401473 0.137402
0.954625 0.427605 0.191548
0.970654 0.464287 0.261297
0.981647 0.515170 0.337999
0.988849 0.582351 0.424364
0.993392 0.664807 0.522483
0.996276 0.745691 0.638995
0.998006 0.813734 0.745541
0.999050 0.868948 0.826663
0.999643 0.910037 0.883985
0.999981 0.940232 0.924449
1.000002 0.961247 0.951752
1.000002 0.975264 0.969544
1.000002 0.984680 0.981287
1.000002 0.990673 0.988662
1.000002 0.994531 0.993361
0.024194 0.454564 0.004501
0.032540 0.453491 0.004501
0.046513 0.452363 0.004494
0.073961 0.451163 0.004487
0.125455 0.449881 0.004472
0.174494 0.448508 0.004457
0.223051 0.447049 0.004442
0.275352 0.445505 0.004434
0.333456 0.443912 0.004442
0.399445 0.442335 0.004487
0.460937 0.436620 0.004960
0.541354 0.432188 0.008309
0.632196 0.429012 0.016052
0.722115 0.427350 0.027612
0.796420 0.427699 0.043619
0.855017 0.430920 0.065078
0.899399 0.438269 0.093565
0.932074 0.451568 0.132091
0.955333 0.473101 0.185844
0.971185 0.504928 0.257280
0.982028 0.550903 0.336146
0.989114 0.613581 0.424473
0.993569 0.688105 0.524511
0.996391 0.760595 0.642893
0.998078 0.823039 0.749409
0.999093 0.874636 0.829943
0.999668 0.913540 0.886531
0.999995 0.942390 0.926301
1.000002 0.962587 0.953042
1.000002 0.976107 0.970420
1.000002 0.985207 0.981863
1.000002 0.991003 0.989034
1.000002 0.994735 0.993595
0.041699 0.530790 0.006013
0.051619 0.529617 0.006010
0.066018 0.528401 0.006004
0.091633 0.527112 0.005988
0.134697 0.525732 0.005966
0.178100 0.524250 0.005930
0.223049 0.522661 0.005897
0.272457 0.520956 0.005875
0.327953 0.519155 0.005871
0.391378 0.517292 0.005920
0.465024 0.515427 0.006069
0.537739 0.508848 0.007247
0.633662 0.503571 0.014400
0.722749 0.499788 0.025105
0.796743 0.497783 0.040157
0.855285 0.498234 0.060604
0.899689 0.502231 0.088041
0.932379 0.511434 0.125468
0.955627 0.528097 0.178040
0.971442 0.554510 0.250442
0.982236 0.594664 0.331571
0.989271 0.650812 0.421873
0.993682 0.713466 0.523806
0.996468 0.776565 0.644096
0.998128 0.832723 0.751438
0.999124 0.880319 0.832010
0.999687 0.916887 0.888285
1.000002 0.944360 0.927647
1.000002 0.963764 0.954012
1.000002 0.976827 0.971093
1.000002 0.985648 0.982313
1.000002 0.991276 0.989328
1.000002 0.994902 0.993783
0.065258 0.616448 0.009379
0.075953 0.615174 0.009367
0.090258 0.613861 0.009349
0.114222 0.612474 0.009314
0.149180 0.610995 0.009258
0.186161 0.609407 0.009186
0.226652 0.607699 0.009103
0.272473 0.605850 0.009024
0.324823 0.603867 0.008975
0.385286 0.601762 0.009004
0.455961 0.599558 0.009186
0.538055 0.597360 0.009655
0.621201 0.589670 0.012141
0.719701 0.583438 0.022710
0.794892 0.578923 0.036829
0.854082 0.576549 0.056100
0.898856 0.577175 0.082081
0.931874 0.582240 0.117798
0.955365 0.593854 0.168287
0.971332 0.614406 0.240225
0.982212 0.647333 0.323603
0.989285 0.690822 0.415752
0.993709 0.740691 0.519426
0.996494 0.793616 0.641620
0.998150 0.842825 0.750960
0.999139 0.885999 0.832435
0.999697 0.920041 0.888977
1.000002 0.946097 0.928318
1.000002 0.964737 0.954557
1.000002 0.977391 0.971501
1.000002 0.985979 0.982598
1.000002 0.991476 0.989522
1.000002 0.995023 0.993909
0.096054 0.704073 0.015686
0.107193 0.703007 0.015658
0.121229 0.701910 0.015625
0.142923 0.700751 0.015568
0.169182 0.699517 0.015485
0.199598 0.698188 0.015373
0.234931 0.696752 0.015238
0.276400 0.695182 0.015094
0.324909 0.693474 0.014969
0.381818 0.691619 0.014916
0.449039 0.689614 0.015022
0.527669 0.687509 0.015422
0.621161 0.685343 0.016357
0.705874 0.677901 0.019858
0.791299 0.671553 0.034117
0.851865 0.666860 0.052216
0.897507 0.664388 0.076690
0.931031 0.665201 0.110400
0.954843 0.670881 0.158179
0.971017 0.683064 0.227648
0.982036 0.703822 0.312983
0.989198 0.733681 0.406653
0.993671 0.770718 0.511796
0.996482 0.812780 0.635737
0.998148 0.854199 0.748193
0.999142 0.892265 0.831394
0.999700 0.923373 0.888742
1.000002 0.947813 0.928412
1.000002 0.965623 0.954745
1.000002 0.977863 0.971685
1.000002 0.986237 0.982748
1.000002 0.991624 0.989633
1.000002 0.995109 0.993985
0.135789 0.775996 0.024363
0.147229 0.775163 0.024314
0.159364 0.774309 0.024259
0.174828 0.773413 0.024179
0.194402 0.772464 0.024067
0.218810 0.771447 0.023918
0.248747 0.770352 0.023735
0.285303 0.769155 0.023525
0.329313 0.767849 0.023316
0.382020 0.766418 0.023154
0.445203 0.764848 0.023126
0.519882 0.763158 0.023368
0.609318 0.761347 0.024107
0.704157 0.759489 0.025706
0.776030 0.753232 0.030559
0.847615 0.747778 0.049197
0.894953 0.743744 0.072131
0.929457 0.741645 0.103631
0.953880 0.742523 0.148292
0.970442 0.747693 0.213444
0.981707 0.758917 0.300193
0.989017 0.777392 0.394960
0.993575 0.802724 0.501181
0.996434 0.834019 0.626418
0.998126 0.867144 0.743126
0.999133 0.899461 0.828922
0.999697 0.927146 0.887635
1.000002 0.949679 0.927985
1.000002 0.966523 0.954624
1.000002 0.978302 0.971684
1.000002 0.986455 0.982787
1.000002 0.991737 0.989677
1.000002 0.995171 0.994023
0.183122 0.833347 0.035979
0.191057 0.832711 0.035899
0.199282 0.832060 0.035814
0.210256 0.831382 0.035702
0.224927 0.830668 0.035555
0.244183 0.829908 0.035365
0.268897 0.829094 0.035131
0.300262 0.828207 0.034853
0.339231 0.827240 0.034553
0.387075 0.826178 0.034270
0.445533 0.825003 0.034081
0.515619 0.823720 0.034117
0.600433 0.822311 0.034593
0.693600 0.820809 0.035845
0.773064 0.819250 0.038432
0.832165 0.814141 0.045024
0.890571 0.809584 0.068939
0.926912 0.806199 0.098259
0.952355 0.804485 0.139573
0.969523 0.805351 0.199692
0.981168 0.810065 0.285563
0.988709 0.819953 0.380682
0.993405 0.835537 0.487366
0.996345 0.856959 0.613355
0.998080 0.881747 0.735269
0.999110 0.907819 0.824698
0.999686 0.931560 0.885461
1.000002 0.951816 0.926925
1.000002 0.967496 0.954128
1.000002 0.978733 0.971461
1.000002 0.986639 0.982695
1.000002 0.991818 0.989643
1.000002 0.995208 0.994015
0.230319 0.877840 0.051262
0.235972 0.877362 0.051139
0.241844 0.876875 0.051012
0.249829 0.876370 0.050859
0.260880 0.875842 0.050668
0.275912 0.875283 0.050431
0.295906 0.874689 0.050141
0.322166 0.874046 0.049794
0.355827 0.873347 0.049401
0.398289 0.872579 0.048992
0.451357 0.871728 0.048630
0.516139 0.870791 0.048434
0.595636 0.869748 0.048600
0.685430 0.868610 0.049443
0.764343 0.867385 0.051462
0.828494 0.866106 0.055471
0.875928 0.862030 0.064354
0.922815 0.858278 0.095095
0.950063 0.855510 0.133181
0.968182 0.854167 0.188127
0.980387 0.855026 0.270510
0.988261 0.859185 0.364777
0.993152 0.867497 0.470914
0.996208 0.880689 0.596799
0.998008 0.897754 0.724255
0.999074 0.917450 0.818471
0.999669 0.936824 0.882086
1.000001 0.954396 0.925169
1.000002 0.968650 0.953232
1.000002 0.979212 0.971005
1.000002 0.986818 0.982468
1.000002 0.991879 0.989531
1.000002 0.995225 0.993961
0.279904 0.911605 0.071231
0.284057 0.911252 0.071050
0.288345 0.910892 0.070865
0.294220 0.910521 0.070656
0.302564 0.910135 0.070408
0.314217 0.909729 0.070112
0.330155 0.909301 0.069758
0.351696 0.908840 0.069335
0.380108 0.908343 0.068847
0.416932 0.907799 0.068311
0.464096 0.907197 0.067772
0.522898 0.906532 0.067333
0.596318 0.905785 0.067164
0.680962 0.904961 0.067557
0.757600 0.904053 0.068965
0.821479 0.903073 0.072108
0.872014 0.902043 0.078147
0.909690 0.898825 0.090399
0.946493 0.895790 0.130291
0.966239 0.893603 0.180373
0.979298 0.892552 0.257128
0.987646 0.893389 0.348786
0.992805 0.896906 0.452942
0.996018 0.903966 0.577487
0.997906 0.914542 0.709904
0.999022 0.928237 0.810014
0.999643 0.943054 0.877343
0.999988 0.957578 0.922623
1.000002 0.970101 0.951891
1.000002 0.979808 0.970297
1.000002 0.987026 0.982099
1.000002 0.991936 0.989338
1.000002 0.995230 0.993861
0.334061 0.936943 0.097625
0.337126 0.936685 0.097364
0.340265 0.936423 0.097099
0.344577 0.936154 0.096811
0.350850 0.935875 0.096485
0.359813 0.935584 0.096109
0.372353 0.935279 0.095672
0.389709 0.934954 0.095159
0.413179 0.934605 0.094564
0.444379 0.934226 0.093891
0.485341 0.933807 0.093169
0.537594 0.933346 0.092479
0.604172 0.932827 0.091960
0.681712 0.932249 0.091876
0.753916 0.931605 0.092638
0.816021 0.930894 0.094899
0.866450 0.930123 0.099680
0.905757 0.929303 0.108746
0.935159 0.926802 0.125919
0.963222 0.924415 0.178147
0.977738 0.922663 0.248143
0.986802 0.921879 0.334758
0.992338 0.922632 0.435010
0.995764 0.925633 0.556517
0.997770 0.931310 0.692165
0.998952 0.939855 0.799068
0.999607 0.950261 0.871012
0.999971 0.961501 0.919150
1.000002 0.971984 0.950030
1.000002 0.980610 0.969301
1.000002 0.987312 0.981573
1.000002 0.992013 0.989057
1.000002 0.995233 0.993713
0.394260 0.955630 0.133071
0.396489 0.955444 0.132693
0.398753 0.955255 0.132312
0.401871 0.955062 0.131909
0.406539 0.954863 0.131468
0.413365 0.954657 0.130976
0.423114 0.954441 0.130421
0.436890 0.954214 0.129784
0.455923 0.953971 0.129051
0.481803 0.953710 0.128218
0.516585 0.953424 0.127291
0.561991 0.953110 0.126331
0.621128 0.952756 0.125441
0.689232 0.952361 0.124852
0.754621 0.951918 0.124937
0.813072 0.951423 0.126297
0.862133 0.950875 0.129861
0.901426 0.950274 0.137178
0.931455 0.949630 0.150897
0.953625 0.947746 0.174930
0.975320 0.945834 0.246772
0.985601 0.944475 0.325473
0.991704 0.943904 0.419437
0.995429 0.944584 0.535750
0.997591 0.947015 0.671605
0.998859 0.951632 0.785591
0.999560 0.958186 0.862917
0.999949 0.966173 0.914603
1.000002 0.974396 0.947562
1.000002 0.981708 0.967969
1.000002 0.987730 0.980866
1.000002 0.992138 0.988678
1.000002 0.995247 0.993512
0.460772 0.969020 0.181169
0.462339 0.968887 0.180616
0.463921 0.968752 0.180058
0.466114 0.968614 0.179480
0.469536 0.968472 0.178862
0.474682 0.968326 0.178194
0.482195 0.968175 0.177460
0.493022 0.968016 0.176636
0.508268 0.967848 0.175708
0.529410 0.967669 0.174656
0.558420 0.967474 0.173472
0.597123 0.967261 0.172194
0.648016 0.967023 0.170887
0.704296 0.966757 0.169751
0.760827 0.966457 0.169114
0.813673 0.966120 0.169536
0.859849 0.965743 0.171892
0.898116 0.965322 0.177611
0.928185 0.964857 0.189055
0.950467 0.964364 0.209970
0.967680 0.962906 0.244226
0.983769 0.961414 0.323880
0.990819 0.960389 0.409170
0.994982 0.959981 0.517931
0.997360 0.960580 0.650032
0.998742 0.962610 0.770173
0.999500 0.966222 0.853156
0.999919 0.971352 0.908943
1.000002 0.977311 0.944436
1.000002 0.983148 0.966272
1.000002 0.988331 0.979963
1.000002 0.992343 0.988194
1.000002 0.995289 0.993256
0.537127 0.978787 0.250156
0.538133 0.978693 0.249398
0.539144 0.978598 0.248632
0.540581 0.978501 0.247845
0.542985 0.978402 0.247019
0.546757 0.978301 0.246141
0.552427 0.978196 0.245196
0.560778 0.978086 0.244157
0.572768 0.977971 0.243005
0.589704 0.977850 0.241710
0.613390 0.977719 0.240245
0.645182 0.977577 0.238622
0.683939 0.977419 0.236857
0.727487 0.977244 0.235105
0.773520 0.977046 0.233643
0.818824 0.976824 0.232990
0.860375 0.976573 0.233972
0.896320 0.976289 0.237814
0.925606 0.975971 0.246175
0.947949 0.975623 0.260766
0.964791 0.975240 0.284208
0.977689 0.974148 0.319355
0.989405 0.973010 0.406740
0.994336 0.972220 0.505404
0.997043 0.971936 0.629359
0.998584 0.972452 0.753275
0.999422 0.974042 0.841595
0.999882 0.976878 0.901912
1.000002 0.980736 0.940449
1.000002 0.985007 0.964082
1.000002 0.989187 0.978796
1.000002 0.992676 0.987572
1.000002 0.995383 0.992927
0.623882 0.985689 0.327601
0.624405 0.985624 0.326778
0.624930 0.985558 0.325946
0.625739 0.985491 0.325101
0.627311 0.985422 0.324228
0.629963 0.985352 0.323315
0.634087 0.985279 0.322354
0.640239 0.985204 0.321325
0.649046 0.985126 0.320212
0.661275 0.985044 0.318991
0.677813 0.984957 0.317632
0.699145 0.984863 0.316129
0.725912 0.984760 0.314463
0.757444 0.984646 0.312705
0.792574 0.984518 0.310989
0.829121 0.984373 0.309609
0.864531 0.984210 0.309078
0.896770 0.984024 0.310216
0.924245 0.983813 0.314249
0.946006 0.983579 0.322676
0.962912 0.983314 0.337851
0.975261 0.983025 0.362148
0.984627 0.982229 0.399266
0.993302 0.981343 0.501383
0.996585 0.980759 0.614039
0.998371 0.980560 0.736938
0.999319 0.980983 0.828978
0.999833 0.982249 0.893665
1.000002 0.984413 0.935571
1.000002 0.987217 0.961343
1.000002 0.990320 0.977326
1.000002 0.993173 0.986788
1.000002 0.995555 0.992516
0.708750 0.990442 0.409679
0.708824 0.990397 0.408758
0.708897 0.990351 0.407827
0.709110 0.990305 0.406887
0.709767 0.990257 0.405923
0.711059 0.990209 0.404930
0.713227 0.990159 0.403900
0.716622 0.990108 0.402815
0.721659 0.990055 0.401667
0.728867 0.990000 0.400433
0.738912 0.989942 0.399083
0.752300 0.989879 0.397609
0.769747 0.989812 0.395972
0.791232 0.989738 0.394202
0.816415 0.989655 0.392352
0.844117 0.989562 0.390586
0.872559 0.989457 0.389221
0.899969 0.989337 0.388798
0.924592 0.989200 0.390196
0.945006 0.989046 0.394610
0.961481 0.988870 0.403932
0.973893 0.988673 0.420391
0.982726 0.988459 0.446220
0.989763 0.987860 0.489249
0.995854 0.987195 0.607760
0.998065 0.986756 0.724004
0.999181 0.986630 0.816691
0.999769 0.986991 0.884699
1.000002 0.987990 0.929916
1.000002 0.989602 0.958050
1.000002 0.991685 0.975526
1.000002 0.993845 0.985825
1.000002 0.995826 0.992013
0.779523 0.993779 0.502226
0.779367 0.993749 0.501179
0.779209 0.993717 0.500122
0.779112 0.993686 0.499056
0.779262 0.993654 0.497972
0.779768 0.993621 0.496863
0.780772 0.993587 0.495726
0.782483 0.993553 0.494543
0.785152 0.993517 0.493311
0.789120 0.993481 0.492010
0.794833 0.993442 0.490614
0.802699 0.993402 0.489112
0.813325 0.993357 0.487459
0.826966 0.993310 0.485662
0.843746 0.993258 0.483727
0.863247 0.993199 0.481737
0.884503 0.993133 0.479871
0.906293 0.993057 0.478466
0.927084 0.992971 0.478132
0.945299 0.992873 0.479776
0.960722 0.992760 0.484828
0.972818 0.992631 0.495194
0.981707 0.992489 0.512993
0.987781 0.992059 0.534498
0.993163 0.991901 0.589455
0.997551 0.991391 0.716900
0.998972 0.991074 0.806120
0.999680 0.990993 0.875456
1.000002 0.991287 0.923488
1.000002 0.992036 0.954091
1.000002 0.993243 0.973292
1.000002 0.994708 0.984613
1.000002 0.996224 0.991380
0.834987 0.996021 0.604889
0.834744 0.996000 0.603693
0.834499 0.995979 0.602487
0.834279 0.995957 0.601274
0.834191 0.995936 0.600044
0.834298 0.995913 0.598792
0.834683 0.995891 0.597518
0.835462 0.995867 0.596205
0.836785 0.995844 0.594853
0.838858 0.995820 0.593445
0.841958 0.995794 0.591957
0.846374 0.995768 0.590382
0.852543 0.995739 0.588672
0.860765 0.995709 0.586823
0.871325 0.995675 0.584819
0.884229 0.995638 0.582687
0.899112 0.995597 0.580520
0.915334 0.995550 0.578511
0.931825 0.995496 0.577062
0.947183 0.995435 0.576840
0.960935 0.995363 0.578886
0.972264 0.995281 0.584748
0.980932 0.995190 0.596286
0.987435 0.995084 0.616557
0.991957 0.994969 0.647589
0.995640 0.994652 0.696660
0.998626 0.994276 0.799472
0.999548 0.994043 0.867324
0.999976 0.993999 0.916902
1.000002 0.994234 0.949676
1.000002 0.994813 0.970670
1.000002 0.995684 0.983152
1.000002 0.996736 0.990609
0.878774 0.997555 0.710472
0.878521 0.997541 0.709454
0.878265 0.997527 0.708422
0.878019 0.997513 0.707381
0.877839 0.997498 0.706325
0.877763 0.997484 0.705250
0.877835 0.997469 0.704155
0.878119 0.997453 0.703030
0.878700 0.997438 0.701875
0.879693 0.997422 0.700680
0.881263 0.997405 0.699426
0.883591 0.997388 0.698111
0.886960 0.997370 0.696696
0.891614 0.997351 0.695175
0.897831 0.997330 0.693522
0.905784 0.997307 0.691733
0.915453 0.997281 0.689834
0.926639 0.997253 0.687896
0.938770 0.997220 0.686113
0.950837 0.997182 0.684879
0.962355 0.997139 0.684782
0.972420 0.997088 0.686807
0.980524 0.997031 0.692146
0.986865 0.996965 0.702515
0.991426 0.996891 0.719069
0.994664 0.996806 0.743314
0.997227 0.996584 0.780534
0.999317 0.996301 0.861256
0.999893 0.996135 0.910618
1.000002 0.996112 0.944898
1.000002 0.996298 0.967614
1.000002 0.996720 0.981373
1.000002 0.997352 0.989648
0.911613 0.998559 0.791150
0.911386 0.998550 0.790376
0.911156 0.998540 0.789592
0.910929 0.998531 0.788800
0.910735 0.998521 0.787997
0.910595 0.998512 0.787183
0.910533 0.998502 0.786356
0.910583 0.998492 0.785509
0.910792 0.998482 0.784646
0.911224 0.998471 0.783758
0.911972 0.998460 0.782836
0.913143 0.998449 0.781880
