create_logik_projekt/presets/Syncolor/transforms/sony/Slog3-S-Gamut3.Cine_To_s709_V200.cube
# s709 LUT
# S-Log3/S-Gamut3.Cine to Rec.709
LUT_3D_SIZE 5
0.000000 0.000000 0.000000
0.175486 0.000000 0.000000
0.662582 0.000000 0.000000
1.000000 0.000000 0.000000
1.000000 0.000000 0.000000
0.000000 0.190057 0.000000
0.167964 0.171867 0.000000
0.660453 0.000000 0.000000
1.000000 0.000000 0.000000
1.000000 0.000000 0.000000
0.000000 0.700500 0.004946
0.095102 0.695434 0.000000
0.643236 0.653686 0.000000
1.000000 0.580180 0.000000
1.000000 0.563172 0.000000
0.000000 1.000000 0.032812
0.000000 1.000000 0.012267
0.614494 1.000000 0.000000
1.000000 1.000000 0.000000
1.000000 1.000000 0.000000
0.000000 1.000000 0.038767
0.000000 1.000000 0.018222
0.608165 1.000000 0.000000
1.000000 1.000000 0.000000
1.000000 1.000000 0.000000
0.000000 0.000000 0.158739
0.162624 0.000000 0.144998
0.658984 0.000000 0.000000
1.000000 0.000000 0.000000
1.000000 0.000000 0.000000
0.000000 0.173980 0.160136
0.154627 0.154336 0.146482
0.656842 0.000000 0.000000
1.000000 0.000000 0.000000
1.000000 0.000000 0.000000
0.000000 0.696002 0.170988
0.074726 0.690901 0.158063
0.639522 0.648841 0.015052
1.000000 0.574681 0.000000
1.000000 0.557498 0.000000
0.000000 1.000000 0.187415
0.000000 1.000000 0.175418
0.610595 1.000000 0.042918
1.000000 1.000000 0.000000
1.000000 1.000000 0.000000
0.000000 1.000000 0.190769
0.000000 1.000000 0.178967
0.604223 1.000000 0.048873
1.000000 1.000000 0.000000
1.000000 1.000000 0.000000
0.000000 0.000000 0.622401
0.014799 0.000000 0.618612
0.628721 0.000000 0.587588
1.000000 0.000000 0.533974
1.000000 0.000000 0.521782
0.000000 0.000000 0.622800
0.002443 0.000000 0.619014
0.626469 0.000000 0.588014
1.000000 0.000000 0.534443
1.000000 0.000000 0.522263
0.000000 0.657961 0.625977
0.000000 0.652542 0.622211
0.608233 0.607662 0.591387
1.000000 0.527450 0.538168
1.000000 0.508618 0.526075
0.000000 1.000000 0.631048
0.000000 1.000000 0.627313
0.577657 1.000000 0.596768
0.988037 0.998341 0.544095
1.000000 0.988975 0.532142
0.000000 1.000000 0.632126
0.000000 1.000000 0.628399
0.570900 1.000000 0.597910
0.984267 1.000000 0.545354
1.000000 1.000000 0.533430
0.000000 0.000000 0.994661
0.000000 0.000000 0.992387
0.573647 0.000000 0.974106
0.985796 0.000000 0.944002
1.000000 0.000000 0.937433
0.000000 0.000000 0.994902
0.000000 0.000000 0.992628
0.571167 0.000000 0.974352
0.984415 0.000000 0.944257
1.000000 0.000000 0.937690
0.000000 0.587607 0.996816
0.000000 0.581496 0.994547
0.551015 0.530328 0.976311
0.973348 0.435663 0.946286
1.000000 0.412622 0.939733
0.000000 1.000000 0.999884
0.000000 1.000000 0.997623
0.516921 0.999794 0.979451
0.955262 0.955139 0.949535
1.000000 0.945296 0.943008
0.000000 1.000000 1.000000
0.000000 1.000000 0.998279
0.509330 1.000000 0.980120
0.951347 1.000000 0.950228
1.000000 1.000000 0.943706
0.000000 0.000000 1.000000
0.000000 0.000000 1.000000
0.560834 0.000000 1.000000
0.978706 0.000000 1.000000
1.000000 0.000000 1.000000
0.000000 0.000000 1.000000
0.000000 0.000000 1.000000
0.558295 0.000000 1.000000
0.977314 0.000000 1.000000
1.000000 0.000000 1.000000
0.000000 0.570989 1.000000
0.000000 0.564689 1.000000
0.537643 0.511780 1.000000
0.966158 0.412841 1.000000
1.000000 0.388467 1.000000
0.000000 1.000000 1.000000
0.000000 1.000000 1.000000
0.502616 0.990530 1.000000
0.947919 0.945387 1.000000
1.000000 0.935431 1.000000
0.000000 1.000000 1.000000
0.000000 1.000000 1.000000
0.494800 1.000000 1.000000
0.943971 1.000000 1.000000
1.000000 1.000000 1.000000
