create_logik_projekt/presets/Syncolor/transforms/sony/Slog3-S-Gamut3.Cine_To_s709_V200.cube
# s709 LUT
# S-Log3/S-Gamut3.Cine to Rec.709
LUT_3D_SIZE 33
0.000000 0.000000 0.000000
0.000524 0.000000 0.000000
0.019484 0.000000 0.000000
0.038449 0.000000 0.000000
0.058095 0.000000 0.000000
0.080639 0.000000 0.000000
0.107747 0.000000 0.000000
0.139149 0.000000 0.000000
0.175486 0.000000 0.000000
0.220880 0.000000 0.000000
0.276211 0.000000 0.000000
0.337585 0.000000 0.000000
0.402609 0.000000 0.000000
0.468979 0.000000 0.000000
0.534357 0.000000 0.000000
0.598820 0.000000 0.000000
0.662582 0.000000 0.000000
0.725886 0.000000 0.000000
0.787516 0.000000 0.000000
0.847331 0.000000 0.000000
0.903358 0.000000 0.000000
0.949520 0.000000 0.000000
0.986616 0.000000 0.000000
1.000000 0.000000 0.000000
1.000000 0.000000 0.000000
1.000000 0.000000 0.000000
1.000000 0.000000 0.000000
1.000000 0.000000 0.000000
1.000000 0.000000 0.000000
1.000000 0.000000 0.000000
1.000000 0.000000 0.000000
1.000000 0.000000 0.000000
1.000000 0.000000 0.000000
0.000000 0.002764 0.000000
0.000000 0.000137 0.000000
0.018441 0.000000 0.000000
0.037406 0.000000 0.000000
0.057052 0.000000 0.000000
0.079596 0.000000 0.000000
0.106850 0.000000 0.000000
0.138410 0.000000 0.000000
0.174864 0.000000 0.000000
0.220359 0.000000 0.000000
0.275783 0.000000 0.000000
0.337231 0.000000 0.000000
0.402309 0.000000 0.000000
0.468723 0.000000 0.000000
0.534132 0.000000 0.000000
0.598621 0.000000 0.000000
0.662403 0.000000 0.000000
0.725723 0.000000 0.000000
0.787367 0.000000 0.000000
0.847193 0.000000 0.000000
0.903230 0.000000 0.000000
0.949399 0.000000 0.000000
0.986500 0.000000 0.000000
1.000000 0.000000 0.000000
1.000000 0.000000 0.000000
1.000000 0.000000 0.000000
1.000000 0.000000 0.000000
1.000000 0.000000 0.000000
1.000000 0.000000 0.000000
1.000000 0.000000 0.000000
1.000000 0.000000 0.000000
1.000000 0.000000 0.000000
1.000000 0.000000 0.000000
0.000000 0.023841 0.000000
0.000000 0.021214 0.000000
0.017398 0.018588 0.000000
0.036363 0.015961 0.000000
0.056009 0.013239 0.000000
0.078553 0.010117 0.000000
0.105952 0.006061 0.000000
0.137670 0.000443 0.000000
0.174243 0.000000 0.000000
0.219838 0.000000 0.000000
0.275355 0.000000 0.000000
0.336877 0.000000 0.000000
0.402009 0.000000 0.000000
0.468467 0.000000 0.000000
0.533907 0.000000 0.000000
0.598421 0.000000 0.000000
0.662223 0.000000 0.000000
0.725560 0.000000 0.000000
0.787218 0.000000 0.000000
0.847055 0.000000 0.000000
0.903102 0.000000 0.000000
0.949277 0.000000 0.000000
0.986383 0.000000 0.000000
1.000000 0.000000 0.000000
1.000000 0.000000 0.000000
1.000000 0.000000 0.000000
1.000000 0.000000 0.000000
1.000000 0.000000 0.000000
1.000000 0.000000 0.000000
1.000000 0.000000 0.000000
1.000000 0.000000 0.000000
1.000000 0.000000 0.000000
1.000000 0.000000 0.000000
0.000000 0.044924 0.000000
0.000000 0.042297 0.000000
0.016355 0.039671 0.000000
0.035320 0.037044 0.000000
0.054966 0.034322 0.000000
0.077510 0.031200 0.000000
0.105055 0.027144 0.000000
0.136931 0.021526 0.000000
0.173621 0.013798 0.000000
0.219317 0.002228 0.000000
0.274927 0.000000 0.000000
0.336523 0.000000 0.000000
0.401709 0.000000 0.000000
0.468210 0.000000 0.000000
0.533682 0.000000 0.000000
0.598221 0.000000 0.000000
0.662043 0.000000 0.000000
0.725398 0.000000 0.000000
0.787069 0.000000 0.000000
0.846918 0.000000 0.000000
0.902973 0.000000 0.000000
0.949156 0.000000 0.000000
0.986267 0.000000 0.000000
1.000000 0.000000 0.000000
1.000000 0.000000 0.000000
1.000000 0.000000 0.000000
1.000000 0.000000 0.000000
1.000000 0.000000 0.000000
1.000000 0.000000 0.000000
1.000000 0.000000 0.000000
1.000000 0.000000 0.000000
1.000000 0.000000 0.000000
1.000000 0.000000 0.000000
0.000000 0.066750 0.000000
0.000000 0.064123 0.000000
0.015275 0.061497 0.000000
0.034240 0.058870 0.000000
0.053886 0.056148 0.000000
0.076430 0.053026 0.000000
0.104126 0.048970 0.000000
0.136166 0.043352 0.000000
0.172970 0.035624 0.000000
0.218778 0.024054 0.000000
0.274484 0.006975 0.000000
0.336157 0.000000 0.000000
0.401398 0.000000 0.000000
0.467943 0.000000 0.000000
0.533450 0.000000 0.000000
0.598014 0.000000 0.000000
0.661857 0.000000 0.000000
0.725229 0.000000 0.000000
0.786914 0.000000 0.000000
0.846775 0.000000 0.000000
0.902840 0.000000 0.000000
0.949030 0.000000 0.000000
0.986146 0.000000 0.000000
1.000000 0.000000 0.000000
1.000000 0.000000 0.000000
1.000000 0.000000 0.000000
1.000000 0.000000 0.000000
1.000000 0.000000 0.000000
1.000000 0.000000 0.000000
1.000000 0.000000 0.000000
1.000000 0.000000 0.000000
1.000000 0.000000 0.000000
1.000000 0.000000 0.000000
0.000000 0.091634 0.000000
0.000000 0.089160 0.000000
0.014036 0.086534 0.000000
0.033002 0.083907 0.000000
0.052647 0.081186 0.000000
0.075191 0.078063 0.000000
0.103061 0.074007 0.000000
0.135250 0.068389 0.000000
0.172208 0.060661 0.000000
0.218159 0.049091 0.000000
0.273976 0.032012 0.000000
0.335733 0.009110 0.000000
0.401042 0.000000 0.000000
0.467636 0.000000 0.000000
0.533183 0.000000 0.000000
0.597776 0.000000 0.000000
0.661644 0.000000 0.000000
0.725036 0.000000 0.000000
0.786737 0.000000 0.000000
0.846611 0.000000 0.000000
0.902688 0.000000 0.000000
0.948886 0.000000 0.000000
0.986008 0.000000 0.000000
1.000000 0.000000 0.000000
1.000000 0.000000 0.000000
1.000000 0.000000 0.000000
1.000000 0.000000 0.000000
1.000000 0.000000 0.000000
1.000000 0.000000 0.000000
1.000000 0.000000 0.000000
1.000000 0.000000 0.000000
1.000000 0.000000 0.000000
1.000000 0.000000 0.000000
0.000000 0.119592 0.000000
0.000000 0.117478 0.000000
0.012425 0.115340 0.000000
0.031390 0.113202 0.000000
0.051036 0.110987 0.000000
0.073580 0.108359 0.000000
0.101674 0.104870 0.000000
0.134059 0.100022 0.000000
0.171218 0.092955 0.000000
0.217354 0.081662 0.000000
0.273315 0.064583 0.000000
0.335181 0.041681 0.000000
0.400578 0.012726 0.000000
0.467238 0.000000 0.000000
0.532834 0.000000 0.000000
0.597467 0.000000 0.000000
0.661366 0.000000 0.000000
0.724784 0.000000 0.000000
0.786506 0.000000 0.000000
0.846399 0.000000 0.000000
0.902489 0.000000 0.000000
0.948698 0.000000 0.000000
0.985828 0.000000 0.000000
1.000000 0.000000 0.000000
1.000000 0.000000 0.000000
1.000000 0.000000 0.000000
1.000000 0.000000 0.000000
1.000000 0.000000 0.000000
1.000000 0.000000 0.000000
1.000000 0.000000 0.000000
1.000000 0.000000 0.000000
1.000000 0.000000 0.000000
1.000000 0.000000 0.000000
0.000000 0.152260 0.000000
0.000000 0.150488 0.000000
0.010193 0.148698 0.000000
0.029158 0.146908 0.000000
0.048804 0.145053 0.000000
0.071348 0.142877 0.000000
0.099721 0.140002 0.000000
0.132408 0.136015 0.000000
0.169847 0.130300 0.000000
0.216231 0.121458 0.000000
0.272393 0.107547 0.000000
0.334415 0.086788 0.000000
0.399936 0.057833 0.000000
0.466685 0.023141 0.000000
0.532351 0.000000 0.000000
0.597039 0.000000 0.000000
0.660981 0.000000 0.000000
0.724434 0.000000 0.000000
0.786187 0.000000 0.000000
0.846104 0.000000 0.000000
0.902214 0.000000 0.000000
0.948438 0.000000 0.000000
0.985578 0.000000 0.000000
1.000000 0.000000 0.000000
1.000000 0.000000 0.000000
1.000000 0.000000 0.000000
1.000000 0.000000 0.000000
1.000000 0.000000 0.000000
1.000000 0.000000 0.000000
1.000000 0.000000 0.000000
1.000000 0.000000 0.000000
1.000000 0.000000 0.000000
1.000000 0.000000 0.000000
0.000000 0.190057 0.000000
0.000000 0.188577 0.000000
0.007128 0.187098 0.000000
0.026094 0.185595 0.000000
0.045740 0.184020 0.000000
0.068284 0.182212 0.000000
0.096919 0.179861 0.000000
0.130142 0.176513 0.000000
0.167964 0.171867 0.000000
0.214666 0.164705 0.000000
0.271117 0.153679 0.000000
0.333364 0.137902 0.000000
0.399052 0.115879 0.000000
0.465927 0.085076 0.000000
0.531687 0.045693 0.000000
0.596450 0.001673 0.000000
0.660453 0.000000 0.000000
0.723955 0.000000 0.000000
0.785748 0.000000 0.000000
0.845699 0.000000 0.000000
0.901837 0.000000 0.000000
0.948081 0.000000 0.000000
0.985236 0.000000 0.000000
1.000000 0.000000 0.000000
1.000000 0.000000 0.000000
1.000000 0.000000 0.000000
1.000000 0.000000 0.000000
1.000000 0.000000 0.000000
1.000000 0.000000 0.000000
1.000000 0.000000 0.000000
1.000000 0.000000 0.000000
1.000000 0.000000 0.000000
1.000000 0.000000 0.000000
0.000000 0.237366 0.000000
0.000000 0.236132 0.000000
0.002544 0.234898 0.000000
0.021510 0.233664 0.000000
0.041156 0.232370 0.000000
0.063700 0.230874 0.000000
0.092728 0.228930 0.000000
0.126702 0.226208 0.000000
0.165108 0.222428 0.000000
0.212325 0.216653 0.000000
0.269208 0.207864 0.000000
0.331788 0.195595 0.000000
0.397722 0.179140 0.000000
0.464789 0.157682 0.000000
0.530694 0.130297 0.000000
0.595568 0.093946 0.000000
0.659660 0.045595 0.000000
0.723237 0.000000 0.000000
0.785091 0.000000 0.000000
0.845092 0.000000 0.000000
0.901272 0.000000 0.000000
0.947546 0.000000 0.000000
0.984724 0.000000 0.000000
1.000000 0.000000 0.000000
1.000000 0.000000 0.000000
1.000000 0.000000 0.000000
1.000000 0.000000 0.000000
1.000000 0.000000 0.000000
1.000000 0.000000 0.000000
1.000000 0.000000 0.000000
1.000000 0.000000 0.000000
1.000000 0.000000 0.000000
1.000000 0.000000 0.000000
0.000000 0.295258 0.000000
0.000000 0.294241 0.000000
0.000000 0.293224 0.000000
0.014726 0.292206 0.000000
0.034372 0.291152 0.000000
0.056916 0.289929 0.000000
0.086199 0.288337 0.000000
0.121450 0.286125 0.000000
0.160802 0.283047 0.000000
0.208814 0.278387 0.000000
0.266355 0.271373 0.000000
0.329435 0.261709 0.000000
0.395752 0.249024 0.000000
0.463101 0.233035 0.000000
0.529218 0.213640 0.000000
0.594260 0.190071 0.000000
0.658487 0.160897 0.000000
0.722173 0.123293 0.000000
0.784119 0.071927 0.000000
0.844194 0.011550 0.000000
0.900435 0.000000 0.000000
0.946755 0.000000 0.000000
0.983965 0.000000 0.000000
1.000000 0.000000 0.000000
1.000000 0.000000 0.000000
1.000000 0.000000 0.000000
1.000000 0.000000 0.000000
1.000000 0.000000 0.000000
1.000000 0.000000 0.000000
1.000000 0.000000 0.000000
1.000000 0.000000 0.000000
1.000000 0.000000 0.000000
1.000000 0.000000 0.000000
0.000000 0.359552 0.000000
0.000000 0.358713 0.000000
0.000000 0.357870 0.000000
0.005623 0.357023 0.000000
0.025269 0.356145 0.000000
0.047813 0.355138 0.000000
0.077096 0.353822 0.000000
0.114160 0.351992 0.000000
0.154879 0.349460 0.000000
0.204036 0.345637 0.000000
0.262489 0.339924 0.000000
0.326256 0.332112 0.000000
0.393089 0.321973 0.000000
0.460824 0.309427 0.000000
0.527233 0.294589 0.000000
0.592500 0.277149 0.000000
0.656908 0.256607 0.000000
0.720743 0.232215 0.000000
0.782810 0.203459 0.000000
0.842987 0.168950 0.000000
0.899311 0.127501 0.000000
0.945690 0.081116 0.000000
0.982946 0.036018 0.000000
1.000000 0.000000 0.000000
1.000000 0.000000 0.000000
1.000000 0.000000 0.000000
1.000000 0.000000 0.000000
1.000000 0.000000 0.000000
1.000000 0.000000 0.000000
1.000000 0.000000 0.000000
1.000000 0.000000 0.000000
1.000000 0.000000 0.000000
1.000000 0.000000 0.000000
0.000000 0.427598 0.000000
0.000000 0.426886 0.000000
0.000000 0.426174 0.000000
0.000000 0.425462 0.000000
0.013779 0.424725 0.000000
0.036323 0.423873 0.000000
0.065606 0.422766 0.000000
0.104515 0.421230 0.000000
0.147164 0.419106 0.000000
0.197860 0.415906 0.000000
0.257532 0.411137 0.000000
0.322202 0.404655 0.000000
0.389704 0.396316 0.000000
0.457936 0.386088 0.000000
0.524715 0.374146 0.000000
0.590271 0.360349 0.000000
0.654911 0.344464 0.000000
0.718934 0.326153 0.000000
0.781156 0.305468 0.000000
0.841461 0.282141 0.000000
0.897890 0.256656 0.000000
0.944346 0.232321 0.000000
0.981658 0.209940 0.000000
1.000000 0.190101 0.000000
1.000000 0.173369 0.000000
1.000000 0.160478 0.000000
1.000000 0.150962 0.000000
1.000000 0.144418 0.000000
1.000000 0.140341 0.000000
1.000000 0.136613 0.000000
1.000000 0.131454 0.000000
1.000000 0.124396 0.000000
1.000000 0.114521 0.000000
0.000000 0.497272 0.000000
0.000000 0.496661 0.000000
0.000000 0.496051 0.000000
0.000000 0.495440 0.000000
0.000000 0.494806 0.000000
0.022517 0.494076 0.000000
0.051800 0.493128 0.000000
0.092157 0.491811 0.000000
0.137500 0.489996 0.000000
0.190219 0.487263 0.000000
0.251459 0.483198 0.000000
0.317269 0.477695 0.000000
0.385596 0.470644 0.000000
0.454442 0.462053 0.000000
0.521674 0.452101 0.000000
0.587581 0.440710 0.000000
0.652501 0.427752 0.000000
0.716754 0.413037 0.000000
0.779162 0.396730 0.000000
0.839623 0.378776 0.000000
0.896179 0.359771 0.000000
0.942728 0.342276 0.000000
0.980108 0.326827 0.000000
1.000000 0.313707 0.000000
1.000000 0.303082 0.000000
1.000000 0.295224 0.000000
1.000000 0.289586 0.000000
1.000000 0.285806 0.000000
1.000000 0.283508 0.000000
1.000000 0.281404 0.000000
1.000000 0.278575 0.000000
1.000000 0.274762 0.000000
1.000000 0.269601 0.000000
0.000000 0.565922 0.000000
0.000000 0.565387 0.000000
0.000000 0.564853 0.000000
0.000000 0.564318 0.000000
0.000000 0.563765 0.000000
0.006840 0.563127 0.000000
0.036124 0.562298 0.000000
0.076682 0.561149 0.000000
0.125879 0.559562 0.000000
0.181247 0.557180 0.000000
0.244412 0.553642 0.000000
0.311579 0.548862 0.000000
0.380880 0.542757 0.000000
0.450438 0.535346 0.000000
0.518200 0.526803 0.000000
0.584511 0.517082 0.000000
0.649752 0.506101 0.000000
0.714269 0.493738 0.000000
0.776892 0.480177 0.000000
0.837531 0.465433 0.000000
0.894231 0.450050 0.000000
0.940887 0.436115 0.000000
0.978344 0.424003 0.000000
1.000000 0.413869 0.000000
1.000000 0.405773 0.000000
1.000000 0.399847 0.000000
1.000000 0.395638 0.000000
1.000000 0.392830 0.000000
1.000000 0.391129 0.000000
1.000000 0.389578 0.000000
1.000000 0.387497 0.000000
1.000000 0.384709 0.000000
1.000000 0.380956 0.000000
0.000000 0.633616 0.001531
0.000000 0.633142 0.000000
0.000000 0.632669 0.000000
0.000000 0.632193 0.000000
0.000000 0.631701 0.000000
0.000000 0.631136 0.000000
0.018599 0.630401 0.000000
0.059157 0.629380 0.000000
0.111961 0.627975 0.000000
0.170767 0.625863 0.000000
0.236308 0.622734 0.000000
0.305098 0.618511 0.000000
0.375543 0.613127 0.000000
0.445922 0.606611 0.000000
0.514285 0.599125 0.000000
0.581059 0.590638 0.000000
0.646666 0.581093 0.000000
0.711480 0.570408 0.000000
0.774347 0.558759 0.000000
0.835186 0.546185 0.000000
0.892049 0.533182 0.000000
0.938823 0.521501 0.000000
0.976368 0.511434 0.000000
1.000000 0.503076 0.000000
1.000000 0.496437 0.000000
1.000000 0.491606 0.000000
1.000000 0.488188 0.000000
1.000000 0.485912 0.000000
1.000000 0.484541 0.000000
1.000000 0.483284 0.000000
1.000000 0.481610 0.000000
1.000000 0.479367 0.000000
1.000000 0.476355 0.000000
0.000000 0.700500 0.004946
0.000000 0.700075 0.003212
0.000000 0.699648 0.001479
0.000000 0.699221 0.000000
0.000000 0.698779 0.000000
0.000000 0.698272 0.000000
0.000000 0.697611 0.000000
0.039784 0.696695 0.000000
0.095102 0.695434 0.000000
0.158597 0.693541 0.000000
0.227075 0.690736 0.000000
0.297784 0.686955 0.000000
0.369553 0.682143 0.000000
0.440874 0.676331 0.000000
0.509923 0.669666 0.000000
0.577218 0.662132 0.000000
0.643236 0.653686 0.000000
0.708384 0.644264 0.000000
0.771521 0.634037 0.000000
0.832585 0.623052 0.000000
0.889630 0.611750 0.000000
0.936537 0.601655 0.000000
0.974179 0.592998 0.000000
1.000000 0.585841 0.000000
1.000000 0.580180 0.000000
1.000000 0.576071 0.000000
1.000000 0.573171 0.000000
1.000000 0.571243 0.000000
1.000000 0.570081 0.000000
1.000000 0.569020 0.000000
1.000000 0.567604 0.000000
1.000000 0.565710 0.000000
1.000000 0.563172 0.000000
0.000000 0.767007 0.008707
0.000000 0.766621 0.006973
0.000000 0.766234 0.005240
0.000000 0.765847 0.003506
0.000000 0.765446 0.001710
0.000000 0.764986 0.000000
0.000000 0.764388 0.000000
0.018450 0.763558 0.000000
0.074246 0.762415 0.000000
0.144313 0.760701 0.000000
0.216520 0.758162 0.000000
0.289536 0.754743 0.000000
0.362848 0.750396 0.000000
0.435248 0.745153 0.000000
0.505075 0.739152 0.000000
0.572957 0.732382 0.000000
0.639437 0.724809 0.000000
0.704957 0.716384 0.000000
0.768397 0.707266 0.000000
0.829710 0.697504 0.000000
0.886957 0.687499 0.000000
0.934012 0.678595 0.000000
0.971762 0.670985 0.000000
1.000000 0.664713 0.000000
1.000000 0.659763 0.000000
1.000000 0.656178 0.000000
1.000000 0.653650 0.000000
1.000000 0.651972 0.000000
1.000000 0.650961 0.000000
1.000000 0.650038 0.000000
1.000000 0.648808 0.000000
1.000000 0.647162 0.000000
1.000000 0.644960 0.000000
0.000000 0.831761 0.012725
0.000000 0.831407 0.010991
0.000000 0.831054 0.009257
0.000000 0.830699 0.007524
0.000000 0.830332 0.005727
0.000000 0.829911 0.003666
0.000000 0.829363 0.000989
0.000000 0.828604 0.000000
0.051457 0.827559 0.000000
0.127822 0.825991 0.000000
0.204738 0.823670 0.000000
0.280481 0.820547 0.000000
0.355552 0.816579 0.000000
0.429158 0.811798 0.000000
0.499842 0.806334 0.000000
0.568369 0.800176 0.000000
0.635351 0.793302 0.000000
0.701277 0.785668 0.000000
0.765045 0.777424 0.000000
0.826627 0.768620 0.000000
0.884092 0.759621 0.000000
0.931306 0.751631 0.000000
0.969173 0.744819 0.000000
0.998869 0.739217 0.000000
1.000000 0.734802 0.000000
1.000000 0.731609 0.000000
1.000000 0.729360 0.000000
1.000000 0.727868 0.000000
1.000000 0.726970 0.000000
1.000000 0.726149 0.000000
1.000000 0.725057 0.000000
1.000000 0.723596 0.000000
1.000000 0.721641 0.000000
0.000000 0.894609 0.016965
0.000000 0.894282 0.015231
0.000000 0.893956 0.013498
0.000000 0.893629 0.011764
0.000000 0.893290 0.009968
0.000000 0.892901 0.007907
0.000000 0.892396 0.005230
0.000000 0.891696 0.001522
0.027404 0.890731 0.000000
0.108618 0.889285 0.000000
0.191657 0.887145 0.000000
0.270628 0.884266 0.000000
0.347694 0.880612 0.000000
0.422635 0.876212 0.000000
0.494258 0.871187 0.000000
0.563483 0.865533 0.000000
0.631009 0.859228 0.000000
0.697370 0.852236 0.000000
0.761489 0.844698 0.000000
0.823360 0.836663 0.000000
0.881057 0.828465 0.000000
0.928440 0.821200 0.000000
0.966432 0.815017 0.000000
0.996218 0.809940 0.000000
1.000000 0.805944 0.000000
1.000000 0.803056 0.000000
1.000000 0.801023 0.000000
1.000000 0.799674 0.000000
1.000000 0.798863 0.000000
1.000000 0.798123 0.000000
1.000000 0.797136 0.000000
1.000000 0.795818 0.000000
1.000000 0.794055 0.000000
0.000000 0.953571 0.021254
0.000000 0.953267 0.019520
0.000000 0.952962 0.017786
0.000000 0.952658 0.016052
0.000000 0.952342 0.014256
0.000000 0.951980 0.012195
0.000000 0.951509 0.009518
0.000000 0.950856 0.005810
0.003081 0.949958 0.000709
0.086612 0.948611 0.000000
0.177655 0.946619 0.000000
0.260328 0.943939 0.000000
0.339571 0.940540 0.000000
0.415938 0.936449 0.000000
0.488546 0.931782 0.000000
0.558498 0.926533 0.000000
0.626586 0.920686 0.000000
0.693395 0.914209 0.000000
0.757874 0.907237 0.000000
0.820040 0.899812 0.000000
0.877976 0.892249 0.000000
0.925534 0.885556 0.000000
0.963651 0.879866 0.000000
0.993529 0.875199 0.000000
1.000000 0.871529 0.000000
1.000000 0.868878 0.000000
1.000000 0.867014 0.000000
1.000000 0.865777 0.000000
1.000000 0.865034 0.000000
1.000000 0.864355 0.000000
1.000000 0.863450 0.000000
1.000000 0.862243 0.000000
1.000000 0.860627 0.000000
0.000000 1.000000 0.025016
0.000000 1.000000 0.023282
0.000000 1.000000 0.021549
0.000000 1.000000 0.019815
0.000000 1.000000 0.018019
0.000000 1.000000 0.015958
0.000000 1.000000 0.013281
0.000000 0.999603 0.009573
0.000000 0.998753 0.004471
0.065268 0.997479 0.000000
0.164623 0.995594 0.000000
0.250980 0.993062 0.000000
0.332288 0.989849 0.000000
0.409970 0.985985 0.000000
0.483476 0.981577 0.000000
0.554085 0.976624 0.000000
0.622676 0.971110 0.000000
0.689887 0.965007 0.000000
0.754688 0.958441 0.000000
0.817116 0.951457 0.000000
0.875263 0.944349 0.000000
0.922974 0.938066 0.000000
0.961203 0.932729 0.000000
0.991163 0.928352 0.000000
1.000000 0.924915 0.000000
1.000000 0.922433 0.000000
1.000000 0.920687 0.000000
1.000000 0.919530 0.000000
1.000000 0.918833 0.000000
1.000000 0.918198 0.000000
1.000000 0.917352 0.000000
1.000000 0.916222 0.000000
1.000000 0.914711 0.000000
0.000000 1.000000 0.028192
0.000000 1.000000 0.026458
0.000000 1.000000 0.024725
0.000000 1.000000 0.022991
0.000000 1.000000 0.021195
0.000000 1.000000 0.019134
0.000000 1.000000 0.016456
0.000000 1.000000 0.012748
0.000000 1.000000 0.007647
0.047256 1.000000 0.000010
0.152981 1.000000 0.000000
0.242854 1.000000 0.000000
0.326018 1.000000 0.000000
0.404866 1.000000 0.000000
0.479158 1.000000 0.000000
0.550332 1.000000 0.000000
0.619356 1.000000 0.000000
0.686912 1.000000 0.000000
0.751987 0.999408 0.000000
0.814639 0.992743 0.000000
0.872966 0.985965 0.000000
0.920807 0.979977 0.000000
0.959132 0.974892 0.000000
0.989162 0.970727 0.000000
1.000000 0.967455 0.000000
1.000000 0.965094 0.000000
1.000000 0.963433 0.000000
1.000000 0.962333 0.000000
1.000000 0.961671 0.000000
1.000000 0.961067 0.000000
1.000000 0.960262 0.000000
1.000000 0.959188 0.000000
1.000000 0.957752 0.000000
0.000000 1.000000 0.030782
0.000000 1.000000 0.029048
0.000000 1.000000 0.027314
0.000000 1.000000 0.025580
0.000000 1.000000 0.023784
0.000000 1.000000 0.021723
0.000000 1.000000 0.019046
0.000000 1.000000 0.015338
0.000000 1.000000 0.010237
0.032567 1.000000 0.002600
0.142970 1.000000 0.000000
0.236038 1.000000 0.000000
0.320827 1.000000 0.000000
0.400658 1.000000 0.000000
0.475603 1.000000 0.000000
0.547253 1.000000 0.000000
0.616635 1.000000 0.000000
0.684475 1.000000 0.000000
0.749776 1.000000 0.000000
0.812613 1.000000 0.000000
0.871088 1.000000 0.000000
0.919037 1.000000 0.000000
0.957440 1.000000 0.000000
0.987527 1.000000 0.000000
1.000000 1.000000 0.000000
1.000000 0.998395 0.000000
1.000000 0.996795 0.000000
1.000000 0.995736 0.000000
1.000000 0.995099 0.000000
1.000000 0.994517 0.000000
1.000000 0.993743 0.000000
1.000000 0.992709 0.000000
1.000000 0.991326 0.000000
0.000000 1.000000 0.032812
0.000000 1.000000 0.031078
0.000000 1.000000 0.029344
0.000000 1.000000 0.027610
0.000000 1.000000 0.025814
0.000000 1.000000 0.023753
0.000000 1.000000 0.021076
0.000000 1.000000 0.017368
0.000000 1.000000 0.012267
0.021053 1.000000 0.004630
0.134751 1.000000 0.000000
0.230579 1.000000 0.000000
0.316700 1.000000 0.000000
0.397328 1.000000 0.000000
0.472799 1.000000 0.000000
0.544825 1.000000 0.000000
0.614494 1.000000 0.000000
0.682559 1.000000 0.000000
0.748039 1.000000 0.000000
0.811022 1.000000 0.000000
0.869612 1.000000 0.000000
0.917646 1.000000 0.000000
0.956111 1.000000 0.000000
0.986243 1.000000 0.000000
1.000000 1.000000 0.000000
1.000000 1.000000 0.000000
1.000000 1.000000 0.000000
1.000000 1.000000 0.000000
1.000000 1.000000 0.000000
1.000000 1.000000 0.000000
1.000000 1.000000 0.000000
1.000000 1.000000 0.000000
1.000000 1.000000 0.000000
0.000000 1.000000 0.034272
0.000000 1.000000 0.032538
0.000000 1.000000 0.030804
0.000000 1.000000 0.029070
0.000000 1.000000 0.027274
0.000000 1.000000 0.025213
0.000000 1.000000 0.022536
0.000000 1.000000 0.018828
0.000000 1.000000 0.013727
0.012770 1.000000 0.006090
0.128627 1.000000 0.000000
0.226587 1.000000 0.000000
0.313697 1.000000 0.000000
0.394916 1.000000 0.000000
0.470773 1.000000 0.000000
0.543072 1.000000 0.000000
0.612948 1.000000 0.000000
0.681177 1.000000 0.000000
0.746787 1.000000 0.000000
0.809874 1.000000 0.000000
0.868549 1.000000 0.000000
0.916644 1.000000 0.000000
0.955154 1.000000 0.000000
0.985318 1.000000 0.000000
1.000000 1.000000 0.000000
1.000000 1.000000 0.000000
1.000000 1.000000 0.000000
1.000000 1.000000 0.000000
1.000000 1.000000 0.000000
1.000000 1.000000 0.000000
1.000000 1.000000 0.000000
1.000000 1.000000 0.000000
1.000000 1.000000 0.000000
0.000000 1.000000 0.035296
0.000000 1.000000 0.033561
0.000000 1.000000 0.031828
0.000000 1.000000 0.030094
0.000000 1.000000 0.028298
0.000000 1.000000 0.026237
0.000000 1.000000 0.023560
0.000000 1.000000 0.019852
0.000000 1.000000 0.014751
0.006964 1.000000 0.007114
0.124168 1.000000 0.000000
0.223747 1.000000 0.000000
0.311580 1.000000 0.000000
0.393218 1.000000 0.000000
0.469345 1.000000 0.000000
0.541839 1.000000 0.000000
0.611863 1.000000 0.000000
0.680206 1.000000 0.000000
0.745908 1.000000 0.000000
0.809069 1.000000 0.000000
0.867804 1.000000 0.000000
0.915941 1.000000 0.000000
0.954482 1.000000 0.000000
0.984668 1.000000 0.000000
1.000000 1.000000 0.000000
1.000000 1.000000 0.000000
1.000000 1.000000 0.000000
1.000000 1.000000 0.000000
