create_logik_projekt/presets/Syncolor/transforms/sony/Slog3-S-Gamut3.Cine_To_s709_V200.cube
# s709 LUT
# S-Log3/S-Gamut3.Cine to Rec.709
LUT_3D_SIZE 9
0.000000 0.000000 0.000000
0.058095 0.000000 0.000000
0.175486 0.000000 0.000000
0.402609 0.000000 0.000000
0.662582 0.000000 0.000000
0.903358 0.000000 0.000000
1.000000 0.000000 0.000000
1.000000 0.000000 0.000000
1.000000 0.000000 0.000000
0.000000 0.066750 0.000000
0.053886 0.056148 0.000000
0.172970 0.035624 0.000000
0.401398 0.000000 0.000000
0.661857 0.000000 0.000000
0.902840 0.000000 0.000000
1.000000 0.000000 0.000000
1.000000 0.000000 0.000000
1.000000 0.000000 0.000000
0.000000 0.190057 0.000000
0.045740 0.184020 0.000000
0.167964 0.171867 0.000000
0.399052 0.115879 0.000000
0.660453 0.000000 0.000000
0.901837 0.000000 0.000000
1.000000 0.000000 0.000000
1.000000 0.000000 0.000000
1.000000 0.000000 0.000000
0.000000 0.427598 0.000000
0.013779 0.424725 0.000000
0.147164 0.419106 0.000000
0.389704 0.396316 0.000000
0.654911 0.344464 0.000000
0.897890 0.256656 0.000000
1.000000 0.173369 0.000000
1.000000 0.140341 0.000000
1.000000 0.114521 0.000000
0.000000 0.700500 0.004946
0.000000 0.698779 0.000000
0.095102 0.695434 0.000000
0.369553 0.682143 0.000000
0.643236 0.653686 0.000000
0.889630 0.611750 0.000000
1.000000 0.580180 0.000000
1.000000 0.570081 0.000000
1.000000 0.563172 0.000000
0.000000 0.953571 0.021254
0.000000 0.952342 0.014256
0.003081 0.949958 0.000709
0.339571 0.940540 0.000000
0.626586 0.920686 0.000000
0.877976 0.892249 0.000000
1.000000 0.871529 0.000000
1.000000 0.865034 0.000000
1.000000 0.860627 0.000000
0.000000 1.000000 0.032812
0.000000 1.000000 0.025814
0.000000 1.000000 0.012267
0.316700 1.000000 0.000000
0.614494 1.000000 0.000000
0.869612 1.000000 0.000000
1.000000 1.000000 0.000000
1.000000 1.000000 0.000000
1.000000 1.000000 0.000000
0.000000 1.000000 0.036382
0.000000 1.000000 0.029385
0.000000 1.000000 0.015837
0.309314 1.000000 0.000000
0.610707 1.000000 0.000000
0.867011 1.000000 0.000000
1.000000 1.000000 0.000000
1.000000 1.000000 0.000000
1.000000 1.000000 0.000000
0.000000 1.000000 0.038767
0.000000 1.000000 0.031770
0.000000 1.000000 0.018222
0.304293 1.000000 0.000000
0.608165 1.000000 0.000000
0.865269 1.000000 0.000000
1.000000 1.000000 0.000000
1.000000 1.000000 0.000000
1.000000 1.000000 0.000000
0.000000 0.000000 0.051448
0.050995 0.000000 0.044450
0.171193 0.000000 0.030903
0.400566 0.000000 0.000000
0.661359 0.000000 0.000000
0.902484 0.000000 0.000000
1.000000 0.000000 0.000000
1.000000 0.000000 0.000000
1.000000 0.000000 0.000000
0.000000 0.057336 0.052190
0.046786 0.046735 0.045192
0.168607 0.026210 0.031645
0.399355 0.000000 0.000000
0.660633 0.000000 0.000000
0.901966 0.000000 0.000000
1.000000 0.000000 0.000000
1.000000 0.000000 0.000000
1.000000 0.000000 0.000000
0.000000 0.184708 0.053626
0.038639 0.178529 0.046629
0.163511 0.166074 0.033081
0.396992 0.108117 0.000000
0.659225 0.000000 0.000000
0.900962 0.000000 0.000000
1.000000 0.000000 0.000000
1.000000 0.000000 0.000000
1.000000 0.000000 0.000000
0.000000 0.425047 0.059261
0.006679 0.422156 0.052263
0.142253 0.416503 0.038716
0.387594 0.393564 0.000000
0.653672 0.341313 0.000000
0.897010 0.252521 0.000000
1.000000 0.167589 0.000000
1.000000 0.133561 0.000000
1.000000 0.106682 0.000000
0.000000 0.698972 0.070964
0.000000 0.697247 0.063966
0.088479 0.693894 0.050419
0.367333 0.680571 0.000000
0.641974 0.652040 0.000000
0.888741 0.609985 0.000000
1.000000 0.578313 0.000000
1.000000 0.568181 0.000000
1.000000 0.561247 0.000000
0.000000 0.952480 0.087271
0.000000 0.951249 0.080274
0.000000 0.948862 0.066726
0.337162 0.939432 0.013587
0.625287 0.919552 0.000000
0.877074 0.891074 0.000000
1.000000 0.870323 0.000000
1.000000 0.863819 0.000000
1.000000 0.859406 0.000000
0.000000 1.000000 0.098073
0.000000 1.000000 0.091675
0.000000 1.000000 0.078284
0.314126 1.000000 0.025145
0.613169 1.000000 0.000000
0.868701 1.000000 0.000000
1.000000 1.000000 0.000000
1.000000 1.000000 0.000000
1.000000 1.000000 0.000000
0.000000 1.000000 0.101276
0.000000 1.000000 0.094940
0.000000 1.000000 0.081855
0.306686 1.000000 0.028716
0.609374 1.000000 0.000000
0.866097 1.000000 0.000000
1.000000 1.000000 0.000000
1.000000 1.000000 0.000000
1.000000 1.000000 0.000000
0.000000 1.000000 0.103327
0.000000 1.000000 0.097121
0.000000 1.000000 0.084240
0.301621 1.000000 0.031101
0.606826 1.000000 0.000000
0.864353 1.000000 0.000000
1.000000 1.000000 0.000000
1.000000 1.000000 0.000000
1.000000 1.000000 0.000000
0.000000 0.000000 0.158739
0.037242 0.000000 0.154142
0.162624 0.000000 0.144998
0.396587 0.000000 0.104066
0.658984 0.000000 0.000000
0.900789 0.000000 0.000000
1.000000 0.000000 0.000000
1.000000 0.000000 0.000000
1.000000 0.000000 0.000000
0.000000 0.039102 0.159225
0.033033 0.028500 0.154630
0.159952 0.007976 0.145503
0.395360 0.000000 0.104704
0.658255 0.000000 0.000000
0.900270 0.000000 0.000000
1.000000 0.000000 0.000000
1.000000 0.000000 0.000000
1.000000 0.000000 0.000000
0.000000 0.173980 0.160136
0.024886 0.167489 0.155573
0.154627 0.154336 0.146482
0.392978 0.091937 0.105940
0.656842 0.000000 0.000000
0.899264 0.000000 0.000000
1.000000 0.000000 0.000000
1.000000 0.000000 0.000000
1.000000 0.000000 0.000000
0.000000 0.420062 0.163713
0.000000 0.417138 0.159271
0.132347 0.411419 0.150322
0.383483 0.388183 0.110742
0.651266 0.335132 0.003349
0.895304 0.244335 0.000000
1.000000 0.155947 0.000000
1.000000 0.119713 0.000000
1.000000 0.090411 0.000000
0.000000 0.696002 0.170988
0.000000 0.694269 0.166688
0.074726 0.690901 0.158063
0.363000 0.677515 0.120212
0.639522 0.648841 0.015052
0.887017 0.606551 0.000000
1.000000 0.574681 0.000000
1.000000 0.564480 0.000000
1.000000 0.557498 0.000000
0.000000 0.950362 0.180750
0.000000 0.949129 0.176603
0.000000 0.946735 0.168384
0.332457 0.937282 0.132613
0.622766 0.917349 0.031359
0.875326 0.888794 0.000000
1.000000 0.867984 0.000000
1.000000 0.861459 0.000000
1.000000 0.857033 0.000000
0.000000 1.000000 0.187415
0.000000 1.000000 0.183390
0.000000 1.000000 0.175418
0.309093 1.000000 0.140952
0.610595 1.000000 0.042918
0.866934 1.000000 0.000000
1.000000 1.000000 0.000000
1.000000 1.000000 0.000000
1.000000 1.000000 0.000000
0.000000 1.000000 0.189426
0.000000 1.000000 0.185458
0.000000 1.000000 0.177546
0.301536 1.000000 0.143483
0.606783 1.000000 0.046488
0.864323 1.000000 0.000000
1.000000 1.000000 0.000000
1.000000 1.000000 0.000000
1.000000 1.000000 0.000000
0.000000 1.000000 0.190769
0.000000 1.000000 0.186828
0.000000 1.000000 0.178967
0.296392 1.000000 0.145133
0.604223 1.000000 0.048873
0.862575 1.000000 0.000000
1.000000 1.000000 0.000000
1.000000 1.000000 0.000000
1.000000 1.000000 0.000000
0.000000 0.000000 0.371475
0.000000 0.000000 0.369301
0.124931 0.000000 0.365054
0.380510 0.000000 0.347917
0.649537 0.000000 0.309574
0.894079 0.000000 0.247437
1.000000 0.000000 0.193587
1.000000 0.000000 0.174325
1.000000 0.000000 0.160352
0.000000 0.000000 0.371705
0.000000 0.000000 0.369532
0.121673 0.000000 0.365289
0.379236 0.000000 0.348161
0.648798 0.000000 0.309846
0.893555 0.000000 0.247773
1.000000 0.000000 0.193994
1.000000 0.000000 0.174767
1.000000 0.000000 0.160823
0.000000 0.125455 0.372151
0.000000 0.117152 0.369978
0.115172 0.099881 0.365741
0.376750 0.020300 0.348634
0.647362 0.000000 0.310375
0.892541 0.000000 0.248424
1.000000 0.000000 0.194782
1.000000 0.000000 0.175623
1.000000 0.000000 0.161735
0.000000 0.399840 0.373889
0.000000 0.396769 0.371728
0.086938 0.390755 0.367507
0.366850 0.366249 0.350487
0.641700 0.309659 0.312443
0.888548 0.209463 0.250934
1.000000 0.102014 0.197874
1.000000 0.052695 0.178981
1.000000 0.018631 0.165311
0.000000 0.684169 0.377477
0.000000 0.682404 0.375337
0.020557 0.678973 0.371155
0.345422 0.665330 0.354304
0.629766 0.636072 0.316689
0.880191 0.592821 0.256097
1.000000 0.560133 0.204163
1.000000 0.549653 0.185784
1.000000 0.542473 0.172535
0.000000 0.941970 0.382425
0.000000 0.940724 0.380309
0.000000 0.938307 0.376184
0.313268 0.928758 0.359554
0.612728 0.908619 0.322517
0.868398 0.879751 0.263148
1.000000 0.858700 0.212661
1.000000 0.852098 0.194930
1.000000 0.847617 0.182207
0.000000 1.000000 0.385894
0.000000 1.000000 0.383796
0.000000 1.000000 0.379708
0.288477 1.000000 0.363233
0.600343 1.000000 0.326590
0.859932 1.000000 0.268042
1.000000 1.000000 0.218521
1.000000 1.000000 0.201215
1.000000 1.000000 0.188833
0.000000 1.000000 0.386957
0.000000 1.000000 0.384866
0.000000 1.000000 0.380787
0.280415 1.000000 0.364362
0.596463 1.000000 0.327843
0.857299 1.000000 0.269532
0.998689 1.000000 0.220305
1.000000 1.000000 0.203126
1.000000 1.000000 0.190844
0.000000 1.000000 0.387667
0.000000 1.000000 0.385581
0.000000 1.000000 0.381508
0.274912 1.000000 0.365117
0.593856 1.000000 0.328674
0.855534 1.000000 0.270525
0.997198 1.000000 0.221496
1.000000 1.000000 0.204402
1.000000 1.000000 0.192187
0.000000 0.000000 0.622401
0.000000 0.000000 0.621112
0.014799 0.000000 0.618612
0.343508 0.000000 0.608695
0.628721 0.000000 0.587588
0.879462 0.000000 0.556830
1.000000 0.000000 0.533974
1.000000 0.000000 0.526724
1.000000 0.000000 0.521782
0.000000 0.000000 0.622537
0.000000 0.000000 0.621249
0.010590 0.000000 0.618749
0.342095 0.000000 0.608834
0.627954 0.000000 0.587733
0.878928 0.000000 0.556983
1.000000 0.000000 0.534134
1.000000 0.000000 0.526886
1.000000 0.000000 0.521945
0.000000 0.000000 0.622800
0.000000 0.000000 0.621513
0.002443 0.000000 0.619014
0.339355 0.000000 0.609104
0.626469 0.000000 0.588014
0.877895 0.000000 0.557279
1.000000 0.000000 0.534443
1.000000 0.000000 0.527201
1.000000 0.000000 0.522263
0.000000 0.352562 0.623834
0.000000 0.349091 0.622550
0.000000 0.342275 0.620055
0.328387 0.314198 0.610163
0.620604 0.247000 0.589112
0.873829 0.110311 0.558440
1.000000 0.000000 0.535657
1.000000 0.000000 0.528431
1.000000 0.000000 0.523505
0.000000 0.657961 0.625977
0.000000 0.656120 0.624697
0.000000 0.652542 0.622211
0.304427 0.638299 0.612356
0.608233 0.607662 0.591387
0.865316 0.562115 0.560844
1.000000 0.527450 0.538168
1.000000 0.516283 0.530976
1.000000 0.508618 0.526075
0.000000 0.923641 0.628950
0.000000 0.922368 0.627676
0.000000 0.919897 0.625202
0.267810 0.910135 0.615398
0.590541 0.889531 0.594542
0.853297 0.859956 0.564178
0.995310 0.838359 0.541644
1.000000 0.831580 0.534502
1.000000 0.826979 0.529634
0.000000 1.000000 0.631048
0.000000 1.000000 0.629778
0.000000 1.000000 0.627313
0.238875 1.000000 0.617544
0.577657 1.000000 0.596768
0.844665 1.000000 0.566527
0.988037 0.998341 0.544095
1.000000 0.992757 0.536987
1.000000 0.988975 0.532142
0.000000 1.000000 0.631694
0.000000 1.000000 0.630427
0.000000 1.000000 0.627964
0.229293 1.000000 0.618207
0.573615 1.000000 0.597453
0.841979 1.000000 0.567251
0.985779 1.000000 0.544851
1.000000 1.000000 0.537753
1.000000 1.000000 0.532915
0.000000 1.000000 0.632126
0.000000 1.000000 0.630859
0.000000 1.000000 0.628399
0.222709 1.000000 0.618648
0.570900 1.000000 0.597910
0.840179 1.000000 0.567734
0.984267 1.000000 0.545354
1.000000 1.000000 0.538263
1.000000 1.000000 0.533430
0.000000 0.000000 0.856871
0.000000 0.000000 0.855958
0.000000 0.000000 0.854188
0.283435 0.000000 0.847208
0.597907 0.000000 0.832539
0.858278 0.000000 0.811646
0.999516 0.000000 0.796516
1.000000 0.000000 0.791790
1.000000 0.000000 0.788589
0.000000 0.000000 0.856968
0.000000 0.000000 0.856055
0.000000 0.000000 0.854285
0.281754 0.000000 0.847305
0.597100 0.000000 0.832639
0.857730 0.000000 0.811748
0.999053 0.000000 0.796621
1.000000 0.000000 0.791896
1.000000 0.000000 0.788695
0.000000 0.000000 0.857155
0.000000 0.000000 0.856243
0.000000 0.000000 0.854473
0.278463 0.000000 0.847495
0.595533 0.000000 0.832832
0.856669 0.000000 0.811947
0.998156 0.000000 0.796824
1.000000 0.000000 0.792100
1.000000 0.000000 0.788900
0.000000 0.272748 0.857889
0.000000 0.268334 0.856977
0.000000 0.259593 0.855210
0.265208 0.222491 0.848238
0.589344 0.121041 0.833589
0.852491 0.000000 0.812725
0.994630 0.000000 0.797618
1.000000 0.000000 0.792899
1.000000 0.000000 0.789703
0.000000 0.618800 0.859411
0.000000 0.616835 0.858501
0.000000 0.613013 0.856737
0.235608 0.597776 0.849779
0.576269 0.564829 0.835160
0.843741 0.515351 0.814339
0.987260 0.477204 0.799265
1.000000 0.464808 0.794557
1.000000 0.456265 0.791368
0.000000 0.896957 0.861526
0.000000 0.895642 0.860619
0.000000 0.893090 0.858860
0.188030 0.883001 0.851921
0.557516 0.861681 0.837342
0.831381 0.831018 0.816583
0.976888 0.808575 0.801555
1.000000 0.801520 0.796862
1.000000 0.796729 0.793683
0.000000 1.000000 0.863022
0.000000 1.000000 0.862117
0.000000 1.000000 0.860361
0.147355 1.000000 0.853436
0.543816 1.000000 0.838885
0.822497 0.992294 0.818169
0.969462 0.973919 0.803174
1.000000 0.968177 0.798491
1.000000 0.964288 0.795319
0.000000 1.000000 0.863484
0.000000 1.000000 0.862579
0.000000 1.000000 0.860824
0.132998 1.000000 0.853903
0.539512 1.000000 0.839361
0.819732 1.000000 0.818659
0.967156 1.000000 0.803673
1.000000 1.000000 0.798993
1.000000 1.000000 0.795823
0.000000 1.000000 0.863792
0.000000 1.000000 0.862887
0.000000 1.000000 0.861133
0.122768 1.000000 0.854214
0.536617 1.000000 0.839679
0.817879 1.000000 0.818986
0.965612 1.000000 0.804006
1.000000 1.000000 0.799328
1.000000 1.000000 0.796160
0.000000 0.000000 0.994661
0.000000 0.000000 0.993887
0.000000 0.000000 0.992387
0.229369 0.000000 0.986477
0.573647 0.000000 0.974106
0.841999 0.000000 0.956596
0.985796 0.000000 0.944002
1.000000 0.000000 0.940083
1.000000 0.000000 0.937433
0.000000 0.000000 0.994743
0.000000 0.000000 0.993969
0.000000 0.000000 0.992469
0.227344 0.000000 0.986560
0.572804 0.000000 0.974190
0.841440 0.000000 0.956682
0.985326 0.000000 0.944089
1.000000 0.000000 0.940170
1.000000 0.000000 0.937521
0.000000 0.000000 0.994902
0.000000 0.000000 0.994128
0.000000 0.000000 0.992628
0.223360 0.000000 0.986720
0.571167 0.000000 0.974352
0.840356 0.000000 0.956848
0.984415 0.000000 0.944257
1.000000 0.000000 0.940339
1.000000 0.000000 0.937690
0.000000 0.195127 0.995524
0.000000 0.189218 0.994751
0.000000 0.177337 0.993252
0.207129 0.123091 0.987348
0.564699 0.000000 0.974989
0.836089 0.000000 0.957498
0.980834 0.000000 0.944917
1.000000 0.000000 0.941002
1.000000 0.000000 0.938355
0.000000 0.587607 0.996816
0.000000 0.585533 0.996044
0.000000 0.581496 0.994547
0.169535 0.565368 0.988652
0.551015 0.530328 0.976311
0.827150 0.477181 0.958846
0.973348 0.435663 0.946286
1.000000 0.422046 0.942377
1.000000 0.412622 0.939733
0.000000 0.876348 0.998613
0.000000 0.874999 0.997842
0.000000 0.872380 0.996348
0.102635 0.862024 0.990465
0.531336 0.840121 0.978149
0.814514 0.808561 0.960722
0.962810 0.785418 0.948189
1.000000 0.778135 0.944289
1.000000 0.773186 0.941652
0.000000 1.000000 0.999884
0.000000 1.000000 0.999114
0.000000 1.000000 0.997623
0.038420 1.000000 0.991748
0.516921 0.999794 0.979451
0.805427 0.973908 0.962050
0.955262 0.955139 0.949535
0.996484 0.949272 0.945641
1.000000 0.945296 0.943008
0.000000 1.000000 1.000000
0.000000 1.000000 0.999507
0.000000 1.000000 0.998016
0.018167 1.000000 0.992144
0.512384 1.000000 0.979852
0.802597 1.000000 0.962459
0.952917 1.000000 0.949951
0.994247 0.995673 0.946059
1.000000 0.991903 0.943427
0.000000 1.000000 1.000000
0.000000 1.000000 0.999769
0.000000 1.000000 0.998279
0.004640 1.000000 0.992409
0.509330 1.000000 0.980120
0.800701 1.000000 0.962732
0.951347 1.000000 0.950228
0.992749 1.000000 0.946338
1.000000 1.000000 0.943706
0.000000 0.000000 1.000000
0.000000 0.000000 1.000000
0.000000 0.000000 1.000000
0.209201 0.000000 1.000000
0.565506 0.000000 1.000000
0.836620 0.000000 0.998872
0.981279 0.000000 0.986876
1.000000 0.000000 0.983145
1.000000 0.000000 0.980624
0.000000 0.000000 1.000000
0.000000 0.000000 1.000000
0.000000 0.000000 1.000000
0.207002 0.000000 1.000000
0.564650 0.000000 1.000000
0.836057 0.000000 0.998954
0.980806 0.000000 0.986958
1.000000 0.000000 0.983229
1.000000 0.000000 0.980707
0.000000 0.000000 1.000000
0.000000 0.000000 1.000000
0.000000 0.000000 1.000000
0.202692 0.000000 1.000000
0.562989 0.000000 1.000000
0.834966 0.000000 0.999112
0.979892 0.000000 0.987118
1.000000 0.000000 0.983389
1.000000 0.000000 0.980868
0.000000 0.163632 1.000000
0.000000 0.156824 1.000000
0.000000 0.142980 1.000000
0.185011 0.075380 1.000000
0.556424 0.000000 1.000000
0.830668 0.000000 0.999731
0.976291 0.000000 0.987746
1.000000 0.000000 0.984020
1.000000 0.000000 0.981501
0.000000 0.577062 1.000000
0.000000 0.574948 1.000000
0.000000 0.570832 1.000000
0.143152 0.554381 1.000000
0.542522 0.518573 1.000000
0.821663 0.464053 1.000000
0.968766 0.421243 0.989049
1.000000 0.407147 0.985329
1.000000 0.397375 0.982813
0.000000 0.869516 1.000000
0.000000 0.868155 1.000000
0.000000 0.865514 1.000000
0.063630 0.855067 1.000000
0.522513 0.832962 1.000000
0.808935 0.801095 1.000000
0.958172 0.777710 0.990862
0.999261 0.770347 0.987149
1.000000 0.765344 0.984638
0.000000 1.000000 1.000000
0.000000 1.000000 1.000000
0.000000 1.000000 1.000000
0.000000 1.000000 1.000000
0.507841 0.993894 1.000000
0.799779 0.967832 1.000000
0.950584 0.948930 0.992144
0.992021 0.943020 0.988436
1.000000 0.939015 0.985930
0.000000 1.000000 1.000000
0.000000 1.000000 1.000000
0.000000 1.000000 1.000000
0.000000 1.000000 1.000000
0.503221 1.000000 1.000000
0.796928 1.000000 1.000000
0.948227 0.995349 0.992540
0.989772 0.989745 0.988834
1.000000 0.985951 0.986329
0.000000 1.000000 1.000000
0.000000 1.000000 1.000000
0.000000 1.000000 1.000000
0.000000 1.000000 1.000000
0.500110 1.000000 1.000000
0.795017 1.000000 1.000000
0.946648 1.000000 0.992804
0.988267 1.000000 0.989099
1.000000 1.000000 0.986594
0.000000 0.000000 1.000000
0.000000 0.000000 1.000000
0.000000 0.000000 1.000000
0.197007 0.000000 1.000000
0.560834 0.000000 1.000000
0.833552 0.000000 1.000000
0.978706 0.000000 1.000000
1.000000 0.000000 1.000000
1.000000 0.000000 1.000000
0.000000 0.000000 1.000000
0.000000 0.000000 1.000000
0.000000 0.000000 1.000000
0.194698 0.000000 1.000000
0.559970 0.000000 1.000000
0.832986 0.000000 1.000000
0.978232 0.000000 1.000000
1.000000 0.000000 1.000000
1.000000 0.000000 1.000000
0.000000 0.000000 1.000000
0.000000 0.000000 1.000000
0.000000 0.000000 1.000000
0.190160 0.000000 1.000000
0.558295 0.000000 1.000000
0.831890 0.000000 1.000000
0.977314 0.000000 1.000000
1.000000 0.000000 1.000000
1.000000 0.000000 1.000000
0.000000 0.143534 1.000000
0.000000 0.136014 1.000000
0.000000 0.120508 1.000000
0.171466 0.045035 1.000000
0.551671 0.000000 1.000000
0.827576 0.000000 1.000000
0.973704 0.000000 1.000000
1.000000 0.000000 1.000000
1.000000 0.000000 1.000000
0.000000 0.570989 1.000000
0.000000 0.568851 1.000000
0.000000 0.564689 1.000000
0.126468 0.548046 1.000000
0.537643 0.511780 1.000000
0.818534 0.456439 1.000000
0.966158 0.412841 1.000000
1.000000 0.398454 1.000000
1.000000 0.388467 1.000000
0.000000 0.865615 1.000000
0.000000 0.864247 1.000000
0.000000 0.861592 1.000000
0.040742 0.851093 1.000000
0.517439 0.828872 1.000000
0.805751 0.796826 1.000000
0.955531 0.773300 1.000000
0.996740 0.765892 1.000000
1.000000 0.760857 1.000000
0.000000 1.000000 1.000000
0.000000 1.000000 1.000000
0.000000 1.000000 1.000000
0.000000 1.000000 1.000000
0.502616 0.990530 1.000000
0.796556 0.964367 1.000000
0.947919 0.945387 1.000000
0.989479 0.939453 1.000000
1.000000 0.935431 1.000000
0.000000 1.000000 1.000000
0.000000 1.000000 1.000000
0.000000 1.000000 1.000000
0.000000 1.000000 1.000000
0.497946 1.000000 1.000000
0.793692 1.000000 1.000000
0.945554 0.991990 1.000000
0.987225 0.986366 1.000000
1.000000 0.982556 1.000000
0.000000 1.000000 1.000000
0.000000 1.000000 1.000000
0.000000 1.000000 1.000000
0.000000 1.000000 1.000000
0.494800 1.000000 1.000000
0.791772 1.000000 1.000000
0.943971 1.000000 1.000000
0.985715 1.000000 1.000000
1.000000 1.000000 1.000000
