resources/flame/Syncolor/Shared/transforms/camera_manufacturer_luts/arri/ARRI_Alexa_LUTs/ARRI_LogC4_v1_LUT_Package/LUTs/ARRI_LogC4-to-Gamma26_P3-DCI_v1-33.cube
LUT_3D_SIZE 5
0.00000000 0.00000000 0.00000000
0.21683211 0.01176401 0.04995146
0.96803566 0.06085744 0.20558245
1.00000000 0.75039657 0.68843557
1.00000000 0.99897810 0.99861944
0.01068867 0.21371884 0.09953691
0.35456634 0.36081753 0.00352358
0.99219067 0.11854727 0.19836893
1.00000000 0.75228447 0.69026727
1.00000000 0.99897848 0.99861981
0.00000000 0.88952677 0.33541167
0.00000000 0.90427064 0.34471961
0.88328120 0.90268959 0.08863103
0.99997254 0.78297281 0.72047547
0.99999999 0.99898362 0.99862504
0.89616800 1.00000000 0.87599041
0.89667030 1.00000000 0.87644328
0.90475971 0.99999062 0.88362417
0.99342908 0.99899126 0.94384516
0.99999884 0.99908017 0.99874266
0.99956648 1.00000000 0.99942604
0.99956647 1.00000000 0.99942600
0.99956688 1.00000000 0.99942618
0.99959722 1.00000000 0.99946483
0.99996529 0.99999920 0.99971808
0.00302678 0.05156115 0.14031130
0.32931719 0.02680909 0.29084053
0.98666151 0.11139991 0.31473804
1.00000000 0.75183236 0.69153788
1.00000000 0.99897754 0.99861914
0.00879558 0.30811458 0.29613399
0.35939108 0.35939108 0.35939108
0.99616431 0.24207355 0.32581554
1.00000000 0.75372217 0.69336882
1.00000000 0.99897792 0.99861951
0.00170989 0.89772943 0.38639302
0.00163515 0.91407697 0.39230571
0.87881689 0.90371430 0.24726140
0.99997504 0.78438303 0.72346113
0.99999999 0.99898310 0.99862478
0.89671034 1.00000000 0.87678052
0.89721849 1.00000000 0.87723760
0.90532792 0.99999053 0.88444664
0.99346626 0.99897944 0.94393924
0.99999884 0.99908009 0.99874291
0.99956646 1.00000000 0.99942605
0.99956646 1.00000000 0.99942601
0.99956700 1.00000000 0.99942638
0.99959731 1.00000000 0.99946497
0.99996530 0.99999920 0.99971813
0.01042888 0.35208361 0.82427984
0.13664597 0.31746859 0.91598329
0.95706373 0.13721283 0.84883177
1.00000000 0.77717867 0.76307047
1.00000000 0.99897045 0.99862052
0.00894212 0.38058586 0.83920992
0.13131661 0.35725350 0.92222011
0.96180586 0.20107609 0.85305769
1.00000000 0.77911567 0.76473224
1.00000000 0.99897087 0.99862091
0.57020809 0.86010662 0.83715803
0.58298540 0.86279804 0.84089920
0.85144700 0.85144700 0.85144700
0.99995265 0.80928899 0.79103426
0.99999999 0.99897657 0.99862647
0.91458774 0.99994964 0.90212624
0.91503751 0.99995059 0.90255537
0.92215463 0.99995576 0.90944868
0.99400809 0.99855119 0.94435904
0.99999885 0.99907889 0.99874841
0.99956917 0.99999998 0.99943069
0.99956933 0.99999998 0.99943086
0.99957275 0.99999997 0.99943482
0.99959869 1.00000000 0.99946725
0.99996545 0.99999921 0.99971883
0.72214227 0.84151524 0.99998540
0.72474734 0.84243555 1.00000000
0.76114729 0.85500357 0.99988070
1.00000000 0.88876679 0.96075941
1.00000000 0.99869412 0.99854496
0.72403696 0.84279894 0.99998906
0.72661807 0.84371350 1.00000000
0.76271592 0.85616288 0.99988106
1.00000000 0.88938152 0.96097517
1.00000000 0.99869506 0.99854592
0.74859233 0.85938087 0.99998742
0.75088299 0.86018618 0.99998757
0.78364920 0.87110933 1.00000000
1.00000000 0.89791042 0.96409749
1.00000000 0.99870841 0.99855975
0.95746141 0.99178054 0.98793958
0.95762880 0.99179142 0.98797325
0.95989923 0.99191968 0.98842112
0.98977052 0.98977052 0.98977052
0.99999807 0.99891769 0.99877990
0.99964105 0.99999796 0.99951526
0.99964089 0.99999796 0.99951520
0.99963830 0.99999801 0.99951396
0.99962170 0.99999700 0.99951503
0.99996940 1.00000000 0.99974144
0.99828088 0.99910152 1.00000000
0.99828208 0.99910192 1.00000000
0.99829791 0.99910740 1.00000000
0.99846647 0.99917202 0.99999677
1.00000000 0.99944359 0.99979791
0.99828180 0.99910207 1.00000000
0.99828300 0.99910246 1.00000000
0.99829882 0.99910793 1.00000000
0.99846718 0.99917250 0.99999677
1.00000000 0.99944374 0.99979797
0.99829380 0.99910901 1.00000000
0.99829500 0.99910940 1.00000000
0.99831086 0.99911488 1.00000000
0.99847742 0.99917891 0.99999680
1.00000000 0.99944596 0.99979889
0.99845352 0.99919156 0.99999814
0.99845442 0.99919184 0.99999814
0.99846729 0.99919590 0.99999815
0.99861024 0.99925007 0.99999647
1.00000000 0.99947556 0.99981103
0.99958936 1.00000000 0.99996622
0.99958948 1.00000000 0.99996623
0.99959129 1.00000000 0.99996638
0.99961363 1.00000000 0.99996848
1.00000000 1.00000000 1.00000000
