resources/flame/Syncolor/Shared/transforms/camera_manufacturer_luts/arri/ARRI_Alexa_LUTs/ARRI_LogC4_v1_LUT_Package/LUTs/ARRI_LogC4-to-HLG_1K_Rec2100-P3lim-D65_DW100_v1_33.cube
LUT_3D_SIZE 5
0.00000000 0.00000000 0.00000000
0.12614238 0.03158384 0.02545345
0.74609101 0.21932603 0.16236558
0.99191128 0.65989965 0.52520799
1.00000000 0.99964427 0.99937974
0.06291540 0.13478721 0.05063638
0.21708294 0.22468862 0.02834790
0.76327320 0.22520363 0.15186098
0.99182330 0.66231123 0.52709298
1.00000000 0.99964216 0.99937743
0.39689592 0.73315123 0.28489847
0.40647322 0.74292645 0.28764203
0.75065647 0.76332932 0.15610595
0.99108287 0.70290110 0.55838146
1.00000000 0.99960906 0.99934061
0.76299303 0.99935880 0.63643154
0.76389382 0.99946849 0.63727985
0.78063306 1.00000000 0.65340024
0.96499307 0.98015580 0.71153667
1.00000000 0.99888799 0.99858556
0.99978806 1.00000000 0.99963269
0.99978838 1.00000000 0.99963322
0.99979198 0.99999992 0.99964123
1.00000000 1.00000000 1.00000000
0.99999497 0.99999967 0.99998059
0.02408208 0.03227313 0.08870379
0.19488445 0.05340942 0.18980555
0.75517036 0.22626260 0.25581180
0.99184764 0.66193313 0.53208028
1.00000000 0.99964163 0.99937438
0.09867630 0.19618491 0.19101568
0.22529611 0.22529611 0.22529611
0.76961387 0.23659505 0.25241390
0.99174592 0.66434349 0.53396533
1.00000000 0.99963952 0.99937207
0.40398654 0.73919059 0.31738324
0.41290099 0.74812946 0.31910681
0.75069245 0.76385410 0.22935643
0.99094225 0.70418362 0.56458263
1.00000000 0.99960640 0.99933524
0.76354872 0.99942081 0.63819936
0.76444980 0.99952931 0.63905017
0.78131698 1.00000000 0.65538862
0.96498956 0.98013184 0.71296267
1.00000000 0.99888668 0.99858284
0.99978939 1.00000000 0.99963507
0.99978967 1.00000000 0.99963549
0.99979286 0.99999988 0.99964153
1.00000000 0.99999875 1.00000000
0.99999559 0.99999946 0.99998138
0.20616621 0.31027695 0.65204766
0.21573246 0.29321478 0.71201317
0.76563813 0.24727124 0.75606470
0.99156998 0.69182402 0.68134852
1.00000000 0.99960107 0.99929728
0.21281420 0.32219180 0.66378047
0.22165097 0.30988192 0.71544034
0.76917020 0.25254512 0.75999597
0.99147926 0.69371019 0.68227315
1.00000000 0.99959894 0.99929499
0.51236898 0.74725101 0.73760548
0.52069758 0.74902934 0.73983636
0.74463837 0.74463837 0.74463837
0.99096013 0.72620500 0.69859287
1.00000000 0.99956573 0.99925900
0.76402666 0.99991453 0.68250791
0.76501518 0.99996563 0.68337889
0.78462205 1.00000000 0.69918010
0.96388330 0.97821057 0.76581227
1.00000000 0.99886660 0.99855069
0.99978173 1.00000000 0.99965043
0.99980686 1.00000000 0.99966759
0.99980869 1.00000000 0.99967271
1.00000000 1.00000000 1.00000000
0.99999544 0.99999984 0.99998249
0.54397911 0.73204007 0.99861191
0.54611767 0.73234656 0.99911985
0.60850919 0.74193793 1.00000000
0.98683432 0.76272985 0.96752575
1.00000000 0.99894554 0.99835231
0.54500071 0.73296749 0.99884880
0.54725079 0.73331841 0.99918500
0.60930137 0.74292723 1.00000000
0.98683339 0.76327209 0.96754901
1.00000000 0.99894396 0.99835138
0.55958192 0.74723658 1.00000000
0.56236495 0.74779844 1.00000000
0.62324424 0.75848753 1.00000000
0.98688830 0.77082834 0.96794819
1.00000000 0.99891833 0.99833641
0.90860835 0.96073341 0.95700461
0.90874443 0.96077404 0.95705909
0.91064591 0.96131509 0.95781407
0.95965023 0.95965023 0.95965023
0.99998931 0.99833492 0.99796323
1.00000000 0.99998738 1.00000000
1.00000000 0.99998739 1.00000000
1.00000000 0.99998762 1.00000000
1.00000000 0.99999210 1.00000000
0.99999249 1.00000000 1.00000000
0.99848526 0.99922216 1.00000000
0.99848239 0.99922070 1.00000000
0.99844004 0.99919936 0.99999982
0.99742862 0.99887841 0.99998650
1.00000000 0.99842277 0.99967676
0.99848265 0.99922071 1.00000000
0.99847978 0.99921925 1.00000000
0.99843745 0.99919793 0.99999983
0.99742810 0.99887753 0.99998651
1.00000000 0.99842307 0.99967684
0.99843996 0.99919674 1.00000000
0.99843713 0.99919530 1.00000000
0.99839617 0.99917439 0.99999997
0.99741992 0.99886299 0.99998692
1.00000000 0.99842738 0.99967794
0.99757905 0.99868212 0.99998531
0.99757813 0.99868163 0.99998533
0.99756377 0.99867445 0.99998560
0.99723649 0.99856782 0.99998812
1.00000000 0.99848452 0.99969109
0.99912035 0.99999764 0.99992301
0.99912046 0.99999763 0.99992302
0.99912197 0.99999759 0.99992309
0.99913963 0.99999754 0.99992489
1.00000000 1.00000000 1.00000000
