resources/flame/Syncolor/Shared/transforms/camera_manufacturer_luts/arri/ARRI_Alexa_LUTs/ARRI_LogC4_v1_LUT_Package/LUTs/ARRI_LogC4-to-St2084_1K_Rec2100-P3lim-D65_DW100_v1_33.cube
LUT_3D_SIZE 9
0.00000000 0.00000000 0.00000000
0.01479256 0.00318347 0.00395695
0.17006248 0.06016867 0.04995394
0.39243682 0.18344521 0.14863154
0.55360976 0.29699837 0.25192501
0.66808177 0.38618015 0.33535127
0.72557755 0.54209502 0.48119517
0.73848255 0.68028912 0.65493076
0.75182710 0.75157119 0.75140529
0.00841709 0.01895350 0.00889457
0.03629326 0.03742805 0.00554874
0.20859962 0.08418481 0.03270683
0.40072490 0.18780340 0.14992253
0.55538043 0.29851554 0.25153201
0.66849802 0.38656678 0.33517665
0.72557976 0.54233806 0.48137507
0.73848705 0.68031899 0.65496519
0.75182710 0.75157098 0.75140508
0.11259108 0.18931879 0.09566518
0.13429402 0.22267327 0.10010976
0.27040767 0.27581019 0.06687230
0.43535932 0.27516234 0.05965771
0.56436732 0.30289462 0.24339410
0.67014291 0.38800961 0.33441622
0.72558973 0.54329330 0.48207999
0.73850419 0.68043498 0.65509933
0.75182710 0.75156981 0.75140380
0.27719838 0.40571542 0.23332779
0.28269039 0.41240809 0.23742628
0.30731257 0.43666043 0.17983005
0.44980200 0.45512754 0.14867858
0.58277446 0.44006411 0.25544880
0.67981652 0.39324954 0.32041809
0.72558911 0.54691674 0.48494566
0.73856945 0.68087998 0.65561134
0.75182710 0.75156535 0.75139888
0.41264133 0.56375426 0.35353989
0.41379442 0.56504766 0.35418991
0.41793377 0.56997862 0.35672183
0.44250010 0.58706337 0.26248990
0.58082956 0.58758600 0.26260772
0.68624812 0.55663596 0.38342169
0.72646731 0.56453167 0.49660528
0.73887817 0.68255324 0.65751616
0.75182710 0.75154790 0.75138003
0.51585760 0.67687362 0.44701454
0.51607705 0.67710610 0.44723938
0.51692605 0.67799465 0.44806734
0.51983611 0.68145085 0.45002467
0.54109596 0.69346999 0.32665051
0.67257387 0.68023392 0.41220438
0.73437951 0.65667172 0.55163594
0.74053007 0.69073133 0.66636925
0.75182710 0.75147701 0.75129604
0.61031652 0.74559814 0.54585555
0.61042162 0.74561674 0.54594783
0.61083150 0.74568717 0.54630986
0.61241740 0.74594319 0.54760640
0.62023136 0.74649832 0.55498425
0.65835067 0.74743491 0.54905151
0.72727987 0.73627594 0.58454745
0.74806766 0.72807594 0.70064719
0.75177928 0.75106497 0.75088206
0.73525987 0.75152480 0.72469094
0.73526954 0.75152540 0.72470598
0.73530641 0.75152780 0.72476335
0.73544693 0.75153666 0.72498376
0.73596892 0.75156875 0.72575847
0.73776423 0.75163778 0.72880483
0.74121437 0.75182710 0.73049523
0.74934861 0.75143753 0.73115145
0.75181388 0.75161371 0.75153803
0.75169338 0.75182368 0.75160135
0.75169343 0.75182368 0.75160141
0.75169358 0.75182368 0.75160166
0.75169396 0.75182370 0.75160219
0.75169585 0.75182379 0.75160631
0.75170718 0.75182466 0.75162016
0.75182710 0.75182548 0.75182710
0.75182710 0.75182439 0.75182710
0.75182387 0.75182688 0.75181536
0.00114360 0.00033198 0.00766587
0.02510068 0.00629096 0.02397851
0.19317311 0.07167626 0.09436265
0.39745503 0.18713402 0.17427258
0.55484732 0.29796949 0.25949224
0.66842876 0.38644338 0.33784035
0.72558145 0.54230395 0.48179182
0.73848675 0.68031065 0.65498926
0.75182710 0.75157088 0.75140469
0.01513062 0.03015157 0.02818178
0.05613715 0.05613715 0.05613715
0.22721430 0.08811552 0.09377198
0.40512114 0.19152984 0.17558158
0.55655506 0.29962935 0.25923882
0.66883071 0.38688945 0.33771277
0.72558160 0.54255145 0.48197570
0.73849120 0.68034058 0.65502375
0.75182710 0.75157066 0.75140448
0.12980114 0.21310780 0.12528624
0.14701481 0.24054242 0.13290431
0.27564905 0.27941461 0.07829338
0.43889556 0.27619332 0.12024725
0.56504787 0.30527597 0.25301061
0.67039152 0.38870496 0.33723052
0.72558588 0.54351495 0.48268879
0.73850826 0.68045667 0.65515791
0.75182710 0.75156949 0.75140320
0.28142833 0.41074119 0.24064024
0.28663830 0.41698854 0.24445679
0.30871174 0.43976292 0.18768357
0.45075688 0.45587523 0.16086698
0.58321237 0.44096715 0.26492322
0.67986350 0.39465368 0.32436214
0.72558864 0.54710697 0.48551784
0.73857333 0.68090180 0.65566982
0.75182710 0.75156502 0.75139827
0.41349386 0.56466552 0.35591089
0.41463007 0.56593883 0.35650213
0.41872461 0.57078285 0.35884946
0.44289913 0.58757498 0.26616882
0.58097309 0.58770871 0.26951185
0.68624990 0.55700031 0.38622653
0.72645920 0.56467584 0.49713881
0.73888318 0.68257409 0.65757226
0.75182710 0.75154757 0.75137942
0.51601972 0.67702171 0.44788626
0.51623791 0.67725299 0.44811012
0.51708213 0.67813615 0.44895005
0.51999180 0.68158915 0.45060664
0.54122990 0.69353617 0.32869798
0.67259222 0.68024710 0.41334602
0.73436308 0.65673146 0.55204645
0.74053459 0.69074701 0.66641670
0.75182710 0.75147672 0.75129549
0.61038325 0.74560917 0.54602991
0.61048819 0.74562773 0.54612204
0.61089735 0.74569805 0.54648303
0.61249456 0.74595117 0.54779550
0.62031041 0.74650206 0.55516355
0.65839138 0.74743268 0.54925128
0.72727979 0.73627326 0.58469550
0.74806927 0.72808113 0.70067346
0.75177924 0.75106481 0.75088175
0.73526169 0.75152502 0.72469585
0.73527136 0.75152563 0.72471089
0.73530823 0.75152803 0.72476827
0.73544865 0.75153687 0.72498849
0.73597048 0.75156893 0.72576309
0.73776490 0.75163787 0.72880764
0.74121340 0.75182710 0.73049366
0.74934870 0.75143734 0.73115536
0.75181389 0.75161366 0.75153850
0.75169354 0.75182368 0.75160162
0.75169355 0.75182365 0.75160166
0.75169222 0.75182368 0.75159964
0.75169410 0.75182371 0.75160242
0.75169595 0.75182378 0.75160651
0.75170788 0.75182466 0.75162077
0.75182710 0.75182548 0.75182710
0.75182710 0.75182439 0.75182710
0.75182420 0.75182687 0.75181583
0.04231146 0.05483109 0.12218377
0.06696080 0.04603145 0.16805864
0.23790641 0.10002512 0.23441296
0.40979208 0.19843250 0.29255694
0.55960621 0.30281456 0.32251374
0.66986719 0.38786812 0.34958216
0.72560236 0.54311326 0.48414277
0.73850278 0.68039447 0.65521674
0.75182710 0.75156941 0.75140193
0.05574663 0.07680321 0.14640682
0.07583307 0.06638991 0.18848905
0.24906998 0.10358107 0.24671140
0.41540122 0.20189696 0.29617942
0.56123986 0.30446183 0.32264404
0.67026204 0.38830131 0.34944310
0.72560354 0.54335715 0.48432115
0.73850715 0.68042439 0.65525117
0.75182710 0.75156919 0.75140172
0.16367994 0.24971401 0.24599196
0.16865287 0.25910529 0.25526753
0.27731951 0.27731951 0.27731951
0.44310597 0.27816405 0.30168449
0.56880581 0.31159247 0.32153168
0.67179168 0.39010526 0.34888860
0.72560573 0.54431000 0.48502165
0.73852411 0.68054037 0.65538496
0.75182710 0.75156802 0.75140044
0.29295860 0.42118749 0.31769314
0.29679792 0.42568780 0.32126457
0.31332484 0.44366165 0.30955243
0.45086517 0.45588581 0.31650688
0.58230499 0.44996593 0.34379016
0.68027069 0.39977859 0.34073055
0.72558334 0.54788543 0.48780789
0.73858861 0.68098573 0.65589611
0.75182710 0.75156355 0.75139550
0.41652192 0.56763027 0.37298490
0.41758447 0.56882224 0.37349662
0.42138576 0.57332809 0.37496835
0.44507918 0.58870285 0.30533850
0.58095311 0.58799285 0.32187377
0.68616086 0.55872510 0.39844749
0.72643269 0.56524162 0.49925307
0.73890278 0.68265494 0.65778974
0.75182710 0.75154608 0.75137665
0.51660707 0.67757666 0.45149651
0.51682213 0.67780422 0.45169800
0.51766721 0.67868139 0.45232460
0.52056384 0.68212950 0.45249715
0.54183555 0.69378144 0.33699221
0.67264751 0.68028357 0.41832809
0.73429774 0.65697408 0.55370695
0.74055231 0.69080807 0.66660100
0.75182710 0.75147542 0.75129298
0.61063482 0.74565098 0.54671589
0.61074010 0.74566927 0.54680860
0.61114985 0.74573864 0.54717066
0.61279331 0.74597917 0.54855339
0.62061487 0.74651487 0.55587478
0.65854942 0.74742283 0.55003910
0.72727778 0.73626086 0.58529661
0.74807574 0.72810150 0.70077515
0.75177910 0.75106407 0.75088033
0.73526808 0.75152591 0.72471339
0.73527773 0.75152651 0.72472839
0.73531455 0.75152889 0.72478570
0.73545472 0.75153772 0.72500538
0.73597596 0.75156960 0.72577940
0.73776711 0.75163821 0.72881744
0.74120956 0.75182710 0.73048618
0.74934909 0.75143655 0.73117078
0.75181370 0.75161344 0.75153424
0.75169422 0.75182367 0.75160281
0.75169426 0.75182368 0.75160285
0.75169439 0.75182369 0.75160306
0.75169386 0.75182371 0.75160202
0.75169640 0.75182376 0.75160652
0.75170878 0.75182471 0.75162204
0.75182710 0.75182417 0.75182710
0.75182710 0.75182443 0.75182710
0.75182424 0.75182673 0.75181584
0.15756849 0.20209501 0.32514072
0.16042743 0.20336142 0.33820763
0.27198988 0.13876015 0.41664848
0.43054178 0.22065921 0.42556281
0.56540797 0.31160828 0.43791033
0.67561252 0.39325499 0.42633500
0.72571081 0.54666700 0.49493527
0.73856393 0.68071098 0.65609585
0.75182710 0.75156379 0.75139091
0.16128075 0.20710023 0.33046277
0.16407516 0.20864639 0.34235467
0.27413529 0.14206645 0.42159401
0.43262056 0.22225948 0.42783860
0.56665118 0.31293094 0.43873989
0.67597284 0.39378499 0.42638158
0.72571328 0.54689234 0.49508654
0.73856820 0.68074083 0.65612996
0.75182710 0.75156358 0.75139070
0.20509898 0.27619768 0.37297734
0.20716772 0.27856208 0.37840703
0.28185092 0.25491261 0.44154957
0.44585816 0.26050008 0.44282891
0.57219753 0.31753193 0.44190737
0.67736605 0.39605686 0.42656580
0.72572208 0.54776599 0.49567949
0.73858472 0.68085673 0.65626255
0.75182710 0.75156240 0.75138942
0.31537539 0.43666178 0.43183339
0.31688395 0.43828732 0.43360946
0.32783986 0.44630398 0.44237583
0.44940579 0.44940579 0.44940579
0.57995116 0.45700531 0.46763422
0.68374151 0.41201282 0.42741171
0.72572908 0.55106961 0.49800790
0.73864814 0.68130176 0.65676959
0.75182710 0.75155791 0.75138446
0.42286056 0.57057611 0.45933039
0.42370488 0.57142265 0.45998728
0.42666196 0.57460029 0.46222619
0.46801559 0.58211439 0.46098268
0.57903773 0.58447324 0.49008475
0.68161843 0.57289393 0.48662332
0.72647759 0.56770215 0.50853522
0.73897831 0.68296130 0.65863270
0.75182710 0.75154037 0.75136559
0.51844825 0.67907499 0.47367877
0.51865104 0.67929326 0.47374185
0.51944224 0.68013212 0.47392103
0.52158728 0.68341513 0.47300180
0.55026093 0.69234829 0.41347608
0.67197377 0.67998130 0.46800808
0.73401523 0.65806739 0.56071269
0.74061921 0.69104227 0.66732828
0.75182710 0.75147040 0.75128279
0.61157231 0.74581757 0.54918005
0.61167567 0.74583532 0.54927063
0.61207490 0.74590317 0.54961916
0.61403551 0.74607202 0.55140900
0.62162962 0.74660235 0.55795596
0.65912853 0.74740361 0.55261013
0.72726500 0.73619174 0.58780879
0.74810079 0.72818111 0.70118017
0.75177856 0.75106120 0.75087437
0.73528612 0.75152893 0.72478191
0.73529572 0.75152952 0.72479681
0.73533254 0.75153183 0.72485402
0.73547051 0.75154078 0.72506979
0.73599278 0.75157157 0.72584839
0.73777347 0.75163798 0.72886986
0.74119190 0.75182710 0.73045812
0.74935042 0.75143344 0.73123083
0.75181362 0.75161187 0.75153253
0.75169715 0.75182368 0.75160744
0.75169706 0.75182368 0.75160727
0.75169722 0.75182369 0.75160750
0.75169673 0.75182371 0.75160662
0.75169988 0.75182380 0.75161297
0.75171170 0.75182475 0.75162669
0.75182710 0.75182418 0.75182710
0.75182710 0.75182447 0.75182710
0.75182404 0.75182613 0.75181161
0.27497955 0.34024790 0.49014695
0.27663084 0.34064245 0.49321808
0.28311331 0.33056152 0.52040161
0.43454177 0.30173181 0.57750026
0.56971090 0.32104470 0.56477031
0.67832866 0.39756553 0.54375221
0.72666685 0.55879061 0.55346725
0.73885916 0.68202546 0.65992639
0.75182710 0.75154168 0.75135220
0.27620070 0.34188116 0.49151945
0.27782592 0.34225997 0.49455188
0.28411524 0.33323704 0.52086451
0.43497192 0.30455871 0.57806951
0.57017755 0.32190015 0.56527070
0.67858391 0.39809624 0.54395553
0.72666844 0.55899574 0.55357420
0.73886481 0.68205433 0.65995725
0.75182710 0.75154146 0.75135199
0.28078902 0.34783771 0.49710581
0.28230331 0.34809753 0.50002457
0.28833260 0.34152753 0.52351720
0.43654333 0.31605122 0.58011994
0.57203864 0.32504378 0.56728928
0.67957218 0.40041346 0.54476454
0.72667454 0.55978647 0.55399220
0.73888755 0.68216634 0.66007688
0.75182710 0.75154027 0.75135072
0.34912236 0.44518142 0.55051399
0.34991134 0.44551672 0.55185894
0.35270835 0.44684389 0.55869554
0.45477501 0.45030258 0.57840096
0.58027362 0.42170748 0.57514053
0.68370760 0.41358764 0.54823841
0.72670747 0.56277026 0.55561342
0.73897560 0.68259520 0.66053373
0.75182710 0.75153577 0.75134584
0.46494889 0.57481322 0.56978437
0.46569602 0.57507398 0.57009357
0.46856308 0.57600755 0.57120423
0.50286901 0.57777674 0.57399721
0.57735060 0.57735060 0.57735060
0.67448067 0.58292383 0.58832252
0.72759126 0.57776897 0.56346981
0.73930708 0.68421372 0.66226716
0.75182710 0.75151821 0.75132734
0.53404519 0.67469682 0.56611174
0.53437153 0.67482036 0.56629647
0.53568459 0.67528870 0.56701069
0.54140520 0.67686774 0.56978640
0.59175048 0.67619476 0.58115291
0.66848420 0.67380154 0.60856411
0.73191184 0.66640236 0.61280706
0.74091891 0.69198812 0.67035144
0.75182710 0.75145171 0.75124869
0.61113703 0.74610081 0.56818644
0.61124864 0.74611480 0.56828029
0.61169275 0.74616565 0.56865411
0.61361520 0.74631828 0.57027546
0.62250800 0.74666712 0.57687468
0.66309061 0.74558777 0.58353125
0.72652095 0.73499622 0.61343806
0.74823330 0.72851669 0.70266149
0.75177625 0.75105029 0.75085927
0.73540035 0.75152334 0.72491109
0.73540960 0.75152389 0.72492562
0.73544531 0.75152609 0.72498154
0.73558040 0.75153438 0.72519325
0.73609330 0.75156170 0.72597869
0.73777551 0.75163525 0.72885698
0.74109699 0.75182710 0.73003022
0.74935422 0.75142127 0.73144909
0.75181315 0.75160911 0.75152684
0.75168960 0.75182369 0.75161216
0.75170451 0.75182395 0.75162101
0.75170537 0.75182396 0.75162319
0.75170589 0.75182398 0.75162399
0.75170657 0.75182412 0.75162621
0.75172004 0.75182521 0.75164126
0.75182710 0.75182547 0.75182710
0.75182710 0.75182434 0.75182710
0.75182418 0.75182701 0.75181653
0.37299295 0.45093815 0.61172686
0.37346786 0.45102996 0.61266598
0.37547266 0.45161504 0.61619207
0.38744815 0.44176545 0.64829797
0.55051520 0.45525924 0.67762099
0.67135310 0.42571932 0.66402860
0.72892744 0.56263277 0.63176508
0.74030458 0.68646058 0.67973041
0.75182710 0.75143933 0.75105062
0.37334470 0.45139042 0.61209294
0.37381987 0.45148324 0.61302479
0.37581700 0.45205689 0.61654371
0.38770762 0.44239540 0.64841807
0.55063084 0.45583830 0.67771987
0.67141281 0.42622481 0.66408897
0.72892692 0.56280466 0.63181505
0.74031010 0.68648730 0.67975453
0.75182710 0.75143913 0.75105048
0.37479042 0.45325951 0.61357651
0.37526773 0.45335785 0.61447737
0.37722579 0.45389766 0.61795613
0.38878991 0.44491393 0.64892851
0.55108953 0.45822623 0.67808047
0.67164229 0.42827427 0.66432133
0.72892450 0.56347250 0.63201078
0.74033165 0.68659102 0.67984842
0.75182710 0.75143802 0.75104958
0.38027236 0.46040537 0.62015456
0.38071699 0.46049089 0.62097979
0.38254657 0.46079709 0.62438016
0.39332517 0.45456274 0.65180944
0.55283945 0.46762043 0.67925346
0.67249210 0.43636899 0.66515591
0.72893341 0.56608666 0.63278851
0.74041361 0.68698724 0.68020703
0.75182710 0.75143390 0.75104616
0.47470900 0.56964332 0.66917575
0.47510029 0.56972827 0.66931592
0.47675547 0.57006239 0.66985111
0.48557258 0.57160850 0.67197328
0.58104698 0.58279534 0.67123068
0.67287816 0.54960731 0.66580507
0.72921018 0.57754962 0.63627858
0.74071718 0.68851717 0.68158164
0.75182710 0.75141756 0.75103315
0.60413071 0.66597776 0.66214025
0.60424516 0.66602250 0.66219571
0.60469779 0.66619222 0.66240821
0.60631820 0.66679143 0.66318215
0.62769108 0.66752483 0.66494226
0.66725055 0.66725055 0.66725055
0.72790190 0.67317229 0.67478946
0.74240457 0.69552517 0.68782959
0.75182710 0.75136234 0.75098154
0.64874518 0.73341793 0.65859160
0.64881248 0.73342946 0.65863743
0.64906948 0.73347495 0.65881144
0.64993770 0.73367298 0.65936964
0.65358199 0.73425516 0.66157037
0.68161575 0.73139517 0.67116328
0.72354380 0.72773175 0.69077875
0.74886750 0.73079562 0.71566624
0.75175869 0.75098231 0.75068312
0.73236274 0.75157854 0.72228758
0.73237149 0.75157888 0.72229986
0.73240522 0.75158015 0.72234741
0.73253409 0.75158467 0.72252848
0.73301381 0.75160227 0.72319779
0.73451311 0.75172929 0.72539013
0.73903201 0.75182710 0.72656374
0.74924423 0.75113506 0.73393712
0.75181049 0.75159500 0.75145356
0.75181316 0.75182500 0.75180190
0.75181291 0.75182482 0.75180116
0.75181262 0.75182499 0.75180126
0.75181330 0.75182499 0.75180237
0.75181458 0.75182508 0.75180488
0.75182710 0.75182477 0.75181832
0.75182710 0.75181967 0.75182710
0.75182710 0.75182384 0.75182710
0.75182366 0.75182660 0.75182095
0.48115618 0.57057747 0.73381648
0.48135985 0.57063276 0.73396843
0.48213446 0.57082027 0.73461076
0.48473599 0.57141844 0.73743618
0.51104267 0.57751150 0.74388896
0.64709280 0.60107833 0.73623729
0.72828479 0.60033853 0.71667332
0.74208560 0.69308458 0.70762622
0.75182710 0.75109807 0.75074584
0.48125044 0.57069085 0.73389640
0.48146952 0.57075311 0.73403103
0.48224857 0.57094304 0.73466612
0.48484793 0.57153943 0.73748789
0.51113062 0.57763508 0.74390206
0.64712171 0.60117465 0.73624800
0.72828949 0.60040305 0.71668114
0.74208965 0.69310487 0.70763968
0.75182710 0.75109791 0.75074575
0.48166430 0.57115278 0.73415483
0.48189667 0.57122108 0.73427303
0.48269177 0.57141950 0.73488203
0.48528648 0.57201074 0.73768674
0.51147765 0.57811588 0.74395164
0.64723424 0.60154933 0.73628890
0.72830742 0.60065484 0.71671118
0.74210552 0.69318388 0.70769229
0.75182710 0.75109702 0.75074518
0.48336304 0.57302212 0.73512713
0.48359921 0.57309218 0.73523367
0.48446501 0.57332895 0.73572960
0.48706409 0.57391371 0.73841704
0.51288858 0.58004753 0.74412399
0.64768051 0.60303879 0.73644791
0.72837434 0.60164520 0.71682589
0.74216740 0.69348481 0.70789377
0.75182710 0.75109373 0.75074302
0.48890375 0.57999875 0.73996121
0.48916009 0.58007474 0.74001760
0.49017579 0.58037345 0.74023754
0.49364189 0.58127405 0.74170625
0.51899158 0.58759922 0.74479544
0.64943216 0.60813383 0.73711226
0.72867835 0.60508897 0.71729548
0.74241338 0.69467411 0.70867997
0.75182710 0.75108004 0.75073447
0.60522108 0.66710895 0.73138318
0.60529966 0.66713016 0.73139563
0.60560801 0.66721242 0.73144347
0.60686745 0.66753321 0.73160375
0.61341881 0.66892626 0.73186758
0.67282491 0.67670117 0.72745891
0.72755910 0.66015991 0.72008531
0.74361456 0.69934052 0.71201255
0.75181439 0.75104505 0.75070728
0.69184904 0.72239475 0.72010031
0.69186680 0.72240119 0.72010843
0.69193553 0.72242605 0.72013970
0.69220300 0.72251853 0.72025672
0.69314495 0.72284606 0.72068851
0.70457340 0.72309387 0.72163874
0.72312849 0.72312849 0.72312849
0.74865703 0.73363276 0.73370553
0.75174481 0.75068914 0.75046794
0.72844631 0.75074505 0.72926693
0.72845318 0.75074545 0.72927286
0.72847987 0.75074698 0.72929591
0.72858111 0.75075273 0.72938335
0.72896815 0.75077291 0.72971139
0.73037319 0.75083088 0.73090664
0.73776616 0.75004706 0.73455084
0.74883691 0.74955276 0.74364428
0.75180630 0.75144683 0.75117232
0.75182710 0.75182599 0.75182710
0.75182710 0.75182599 0.75182710
0.75182710 0.75182599 0.75182710
0.75182710 0.75182599 0.75182710
0.75182710 0.75182595 0.75182710
0.75182710 0.75182490 0.75182710
0.75182710 0.75182710 0.75182710
0.75182710 0.75182710 0.75182710
0.75182265 0.75182710 0.75182710
0.66781560 0.70190395 0.75181081
0.66784860 0.70191693 0.75181031
0.66797402 0.70196644 0.75180972
0.66846074 0.70215553 0.75180675
0.67020608 0.70283999 0.75179595
0.67993975 0.70614942 0.75182710
0.72541891 0.71458844 0.75182710
0.74890572 0.72801565 0.74461278
0.75172111 0.75047172 0.75073446
0.66784060 0.70191925 0.75181018
0.66787331 0.70193210 0.75180998
0.66799863 0.70198157 0.75180944
0.66848516 0.70217060 0.75180643
0.67022989 0.70285481 0.75179571
0.67995756 0.70616254 0.75182710
0.72542357 0.71459880 0.75182710
0.74890648 0.72802153 0.74461459
0.75172109 0.75047166 0.75073443
0.66793607 0.70197777 0.75180908
0.66796853 0.70199048 0.75180900
0.66809366 0.70203988 0.75180846
0.66857945 0.70222869 0.75180528
0.67032200 0.70291206 0.75179480
0.68002709 0.70621332 0.75182710
0.72544167 0.71463889 0.75182710
0.74890939 0.72804440 0.74462160
0.75172104 0.75047138 0.75073430
0.66829638 0.70219910 0.75180764
0.66832880 0.70221138 0.75180639
0.66845315 0.70226005 0.75180503
0.66893635 0.70244802 0.75180177
0.67067161 0.70312834 0.75179167
0.68029203 0.70640527 0.75182710
0.72551060 0.71479086 0.75182710
0.74892042 0.72813139 0.74464826
0.75172084 0.75047032 0.75073379
0.66972492 0.70308445 0.75179263
0.66975668 0.70309590 0.75179134
0.66987793 0.70314073 0.75178673
0.67034540 0.70332207 0.75177959
0.67203285 0.70398858 0.75177029
0.68132567 0.70717934 0.75182710
0.72577363 0.71539829 0.75182710
0.74896216 0.72846605 0.74475033
0.75172007 0.75046598 0.75073182
0.67428983 0.70596538 0.75182710
0.67431985 0.70597515 0.75182710
0.67443651 0.70601316 0.75182710
0.67488256 0.70615825 0.75182710
0.67654824 0.70675563 0.75182710
0.68516160 0.70961258 0.75182710
0.72672351 0.71715073 0.75182710
0.74910138 0.72953854 0.74509526
0.75171873 0.75046450 0.75073066
0.71525776 0.73281383 0.75040825
0.71526687 0.73281700 0.75040850
0.71530230 0.73282932 0.75040941
0.71543756 0.73287608 0.75041273
0.71597002 0.73305218 0.75042512
0.71827304 0.73368330 0.75028754
0.73497279 0.73648478 0.74897675
0.74948317 0.73965122 0.74765329
0.75170829 0.75036612 0.75068986
0.74242926 0.74837721 0.74784033
0.74243092 0.74837777 0.74784104
0.74243733 0.74837993 0.74784376
0.74246169 0.74838809 0.74785410
0.74255506 0.74841852 0.74789275
0.74286212 0.74852974 0.74803509
0.74511619 0.74870825 0.74839913
0.74894734 0.74894734 0.74894734
0.75179202 0.75113562 0.75112410
0.75182710 0.75182710 0.75182710
0.75182710 0.75182710 0.75182710
0.75182710 0.75182710 0.75182710
0.75182710 0.75182710 0.75182710
0.75182710 0.75182710 0.75182710
0.75182710 0.75182710 0.75182710
0.75182710 0.75182710 0.75182710
0.75182710 0.75182710 0.75182710
0.75182554 0.75182710 0.75182710
0.75080862 0.75125065 0.75182549
0.75080827 0.75125046 0.75182548
0.75080670 0.75124958 0.75182542
0.75080070 0.75124627 0.75182516
0.75077839 0.75123393 0.75182514
0.75070562 0.75118392 0.75182564
0.75012697 0.75099020 0.75181121
0.75095703 0.75069691 0.75182710
0.75174062 0.75076153 0.75150565
0.75080831 0.75125046 0.75182548
0.75080796 0.75125027 0.75182548
0.75080638 0.75124939 0.75182542
0.75080039 0.75124608 0.75182516
0.75077808 0.75123374 0.75182514
0.75070534 0.75118375 0.75182564
0.75012690 0.75099009 0.75181121
0.75095703 0.75069689 0.75182710
0.75174062 0.75076157 0.75150566
0.75080688 0.75124960 0.75182547
0.75080653 0.75124941 0.75182546
0.75080496 0.75124853 0.75182541
0.75079896 0.75124522 0.75182515
0.75077667 0.75123289 0.75182514
0.75070406 0.75118297 0.75182564
0.75012657 0.75098959 0.75181125
0.75095702 0.75069677 0.75182710
0.75174064 0.75076172 0.75150571
0.75080163 0.75124645 0.75182538
0.75080127 0.75124625 0.75182538
0.75079970 0.75124538 0.75182535
0.75079371 0.75124207 0.75182511
0.75077143 0.75122978 0.75182513
0.75069922 0.75118012 0.75182566
0.75012533 0.75098776 0.75181136
0.75095698 0.75069633 0.75182710
0.75174069 0.75076233 0.75150593
0.75077870 0.75123237 0.75182552
0.75077836 0.75123217 0.75182553
0.75077681 0.75123131 0.75182555
0.75077091 0.75122803 0.75182549
0.75074938 0.75121600 0.75182566
0.75067983 0.75116750 0.75182611
0.75012041 0.75097963 0.75181189
0.75095684 0.75069436 0.75182710
0.75174090 0.75076463 0.75150672
0.75074351 0.75121528 0.75182221
0.75074317 0.75121508 0.75182221
0.75074162 0.75121421 0.75182223
0.75073570 0.75121094 0.75182231
0.75071382 0.75119885 0.75182235
0.75063577 0.75115006 0.75182144
0.75011156 0.75097533 0.75181038
0.75095728 0.75069841 0.75182710
0.75174164 0.75077280 0.75150973
0.75020341 0.75086148 0.75182600
0.75020331 0.75086142 0.75182600
0.75020280 0.75086113 0.75182601
0.75020091 0.75086004 0.75182606
0.75019344 0.75085594 0.75182619
0.75017335 0.75084130 0.75182710
0.74998329 0.75077550 0.75182710
0.75096220 0.75063686 0.75182710
0.75174403 0.75080313 0.75151900
0.75033165 0.75112099 0.75182710
0.75033169 0.75112099 0.75182710
0.75033184 0.75112099 0.75182710
0.75033241 0.75112098 0.75182710
0.75033445 0.75112095 0.75182710
0.75034669 0.75112122 0.75182710
0.75036936 0.75112345 0.75182710
0.75100106 0.75109474 0.75182710
0.75176788 0.75108143 0.75163630
0.75127656 0.75180572 0.75176375
0.75127658 0.75180572 0.75176375
0.75127663 0.75180571 0.75176376
0.75127682 0.75180570 0.75176377
0.75127755 0.75180564 0.75176381
0.75128042 0.75180546 0.75176400
0.75128844 0.75180523 0.75176487
0.75143585 0.75180571 0.75178338
0.75182710 0.75182710 0.75182710
