resources/flame/Syncolor/Shared/transforms/camera_manufacturer_luts/arri/ARRI_Alexa_LUTs/ARRI_LogC4_v1_LUT_Package/LUTs/ARRI_LogC4-to-St2084-1K_P3-D65_DW100_v1-33.cube
LUT_3D_SIZE 5
0.00000000 0.00000000 0.00000000
0.18606670 0.00915640 0.05113690
0.58277619 0.06865982 0.25640009
0.75182710 0.51004501 0.48223264
0.75182703 0.75156481 0.75140303
0.01008555 0.19281380 0.09111609
0.27636891 0.27821257 0.00624525
0.59380732 0.07755042 0.24893912
0.75182710 0.51215506 0.48307719
0.75182704 0.75156329 0.75140154
0.07359363 0.56985650 0.33932840
0.07302736 0.57610597 0.34372545
0.59103850 0.58895033 0.17704456
0.75182710 0.53937069 0.49700417
0.75182700 0.75153978 0.75137781
0.38776214 0.75132063 0.53376622
0.38885624 0.75139899 0.53425897
0.47312662 0.75182710 0.54527127
0.72900862 0.73759659 0.57885212
0.75182301 0.75102296 0.75088025
0.75142300 0.75182710 0.75123512
0.75142351 0.75182710 0.75123578
0.75142305 0.75182705 0.75124445
0.75141137 0.75182710 0.75124877
0.75175984 0.75182467 0.75114224
0.00174717 0.05386663 0.12281327
0.25498759 0.03242031 0.23564657
0.58860894 0.08752449 0.32549018
0.75182710 0.51174619 0.48516625
0.75182704 0.75156289 0.75139964
0.00293243 0.25314590 0.24578102
0.27731951 0.27731951 0.27731951
0.59799374 0.13655508 0.32465776
0.75182710 0.51317505 0.48600599
0.75182704 0.75156150 0.75139815
0.07069852 0.57371506 0.36130878
0.08209399 0.57943642 0.36297570
0.58963275 0.58940771 0.29328140
0.75182710 0.53971701 0.49966107
0.75182699 0.75153794 0.75137441
0.38847794 0.75136520 0.53473870
0.38910202 0.75144256 0.53523014
0.47159839 0.75182710 0.54596647
0.72900112 0.73757999 0.57965586
0.75182301 0.75102202 0.75087850
0.75142285 0.75182710 0.75123497
0.75142340 0.75182710 0.75123563
0.75142265 0.75182705 0.75124375
0.75141118 0.75182710 0.75124851
0.75175985 0.75182466 0.75114241
0.00156262 0.33971446 0.49144394
0.01916276 0.32769336 0.52183753
0.59417165 0.11950289 0.56664651
0.75182710 0.53459379 0.55454136
0.75182705 0.75153382 0.75134956
0.00544903 0.34742968 0.49840348
0.02056810 0.33894666 0.52493717
0.59648513 0.14556111 0.56916522
0.75182710 0.53476247 0.55504982
0.75182705 0.75153238 0.75134808
0.36843032 0.57929351 0.56951170
0.37787062 0.58043303 0.57094059
0.57735060 0.57735060 0.57735060
0.75182710 0.55515279 0.56422845
0.75182702 0.75150887 0.75132475
0.44176752 0.75172389 0.55910376
0.44177377 0.75176853 0.55961032
0.50262003 0.75182710 0.56871280
0.72805112 0.73623334 0.60956469
0.75182297 0.75100755 0.75085741
0.75140860 0.75182710 0.75122505
0.75140870 0.75182710 0.75122519
0.75140648 0.75182710 0.75122855
0.75140597 0.75182710 0.75124162
0.75176007 0.75182466 0.75114484
0.14127895 0.57063882 0.73504204
0.12826149 0.57083387 0.73583884
0.37253015 0.57666888 0.74513028
0.74729789 0.58063669 0.71812466
0.75182710 0.75106296 0.75074170
0.13926277 0.57122703 0.73537960
0.13842455 0.57144953 0.73610896
0.37401059 0.57732124 0.74519103
0.74731295 0.58104440 0.71816058
0.75182710 0.75106184 0.75074105
0.18525117 0.58028999 0.74118000
0.17232731 0.58064321 0.74145629
0.39567110 0.58732726 0.74600533
0.74756992 0.58665191 0.71871807
0.75182710 0.75104348 0.75073049
0.67935621 0.72417060 0.71999124
0.67947117 0.72419906 0.72003091
0.68105385 0.72457750 0.72058234
0.72312849 0.72312849 0.72312849
0.75181743 0.75062409 0.75046675
0.75158063 0.75181777 0.75131752
0.75158081 0.75181778 0.75131803
0.75158306 0.75181799 0.75132528
0.75153021 0.75182094 0.75136426
0.75176616 0.75182527 0.75124467
0.75065067 0.75127684 0.75182697
0.75064792 0.75127581 0.75182689
0.75061398 0.75126079 0.75182638
0.74977466 0.75103704 0.75181218
0.75182710 0.75068929 0.75152116
0.75064910 0.75127581 0.75182694
0.75064615 0.75127478 0.75182686
0.75061187 0.75125977 0.75182637
0.74977429 0.75103641 0.75181221
0.75182710 0.75068951 0.75152123
0.75061276 0.75125897 0.75182687
0.75061083 0.75125796 0.75182684
0.75057788 0.75124323 0.75182675
0.74976862 0.75102606 0.75181271
0.75182710 0.75069262 0.75152220
0.74992953 0.75089542 0.75182617
0.74992876 0.75089508 0.75182618
0.74991694 0.75089002 0.75182623
0.74964195 0.75081563 0.75182710
0.75182710 0.75073384 0.75153397
0.75110572 0.75182590 0.75176757
0.75110581 0.75182590 0.75176758
0.75110717 0.75182588 0.75176767
0.75112193 0.75182590 0.75176871
0.75182710 0.75182710 0.75182710
