resources/flame/Syncolor/Shared/transforms/camera_manufacturer_luts/arri/ARRI_Alexa_LUTs/ARRI_LogC4_v1_LUT_Package/LUTs/ARRI_LogC4-to-HLG-1K_P3-D65_DW100_v1-33.cube
LUT_3D_SIZE 5
0.00000000 0.00000000 0.00000000
0.14346570 0.00479566 0.02586578
0.79639157 0.02016177 0.16546182
1.00000000 0.64211336 0.56912564
0.99999999 0.99962798 0.99941908
0.00157920 0.13908554 0.04749037
0.22266365 0.22660678 0.00035897
0.81348012 0.01687273 0.15567607
1.00000000 0.64350533 0.57053590
0.99999999 0.99962592 0.99941692
0.01427721 0.74553904 0.26211739
0.00969061 0.75527485 0.26452921
0.76434319 0.76585788 0.08899362
1.00000000 0.68056004 0.59596433
0.99999991 0.99959258 0.99938240
0.57921280 1.00000000 0.65888522
0.58247298 1.00000000 0.66012798
0.65986831 1.00000000 0.68364553
0.96732315 0.98143405 0.70523806
0.99999406 0.99884620 0.99865488
0.99939140 0.99999992 0.99912959
0.99939197 0.99999992 0.99913063
0.99939651 0.99999987 0.99914457
0.99939780 1.00000000 0.99915881
0.99989569 0.99999578 0.99898861
0.00003055 0.03165455 0.09146172
0.21894337 0.00932851 0.19106167
0.80515139 0.02370204 0.25726682
1.00000000 0.64326172 0.57449600
0.99999999 0.99962536 0.99941423
0.00231925 0.20164905 0.19137594
0.22529611 0.22529611 0.22529611
0.81939995 0.05278547 0.25406164
1.00000000 0.64488703 0.57587213
0.99999999 0.99962329 0.99941207
0.01322389 0.75150574 0.29707196
0.01781245 0.76040646 0.29787018
0.76317389 0.76631543 0.19421787
1.00000000 0.68170358 0.60048845
0.99999990 0.99958988 0.99937756
0.58128179 1.00000000 0.66082618
0.58420143 1.00000000 0.66204327
0.66121974 1.00000000 0.68519553
0.96732564 0.98140484 0.70682488
0.99999406 0.99884486 0.99865240
0.99939116 0.99999992 0.99912943
0.99939162 0.99999992 0.99913047
0.99939571 0.99999987 0.99914364
0.99939755 1.00000000 0.99915842
0.99989572 0.99999578 0.99898879
0.00449506 0.31238573 0.65823882
0.00000000 0.29129163 0.71941450
0.81056325 0.01308022 0.75896633
0.99998423 0.67303235 0.69366939
1.00000000 0.99958384 0.99934419
0.00194296 0.32463233 0.66967907
0.00000000 0.30848843 0.72295544
0.81392394 0.03494012 0.76282024
0.99998212 0.67471416 0.69445131
1.00000000 0.99958171 0.99934202
0.30074460 0.75686017 0.73832417
0.31741675 0.75850403 0.74055460
0.74463837 0.74463837 0.74463837
1.00000000 0.70431450 0.70903388
0.99999988 0.99954807 0.99930787
0.58590850 1.00000000 0.70464066
0.59022592 1.00000000 0.70574071
0.66912481 1.00000000 0.72160777
0.96609383 0.97949812 0.76136866
0.99999421 0.99882440 0.99862248
0.99937799 1.00000000 0.99911572
0.99937781 1.00000000 0.99911601
0.99937785 1.00000000 0.99912291
0.99938988 1.00000000 0.99914699
0.99989617 0.99999580 0.99899122
0.19969828 0.74015157 0.99953021
0.22167470 0.74059613 0.99976237
0.42904135 0.74929568 1.00000000
1.00000000 0.74211464 0.95577301
1.00000000 0.99891610 0.99842036
0.20941457 0.74111994 0.99959863
0.22587889 0.74157115 0.99982437
0.43057238 0.75019968 1.00000000
1.00000000 0.74269242 0.95582031
1.00000000 0.99891440 0.99841949
0.26531047 0.75580641 1.00000000
0.27583433 0.75625072 1.00000000
0.45698348 0.76365471 1.00000000
1.00000000 0.75078429 0.95648833
1.00000000 0.99888690 0.99840521
0.88714741 0.96425853 0.95713930
0.88733054 0.96429395 0.95719374
0.88986204 0.96475987 0.95795607
0.95965023 0.95965023 0.95965023
0.99998637 0.99826765 0.99803853
0.99966827 0.99998694 0.99929175
0.99966854 0.99998696 0.99929250
0.99967208 0.99998722 0.99930329
0.99960380 0.99998727 0.99936770
0.99990579 0.99999712 0.99914322
0.99828861 0.99919201 1.00000000
0.99828395 0.99919039 1.00000000
0.99822869 0.99916699 0.99999981
0.99698368 0.99883493 0.99997946
1.00000000 0.99830298 0.99956592
0.99828495 0.99919043 1.00000000
0.99828066 0.99918882 1.00000000
0.99822559 0.99916546 0.99999981
0.99698309 0.99883397 0.99997948
1.00000000 0.99830330 0.99956602
0.99823064 0.99916458 1.00000000
0.99822695 0.99916302 1.00000000
0.99817552 0.99914040 1.00000000
0.99697401 0.99881801 0.99998011
1.00000000 0.99830793 0.99956742
0.99721474 0.99861245 0.99998701
0.99721359 0.99861191 0.99998702
0.99719565 0.99860389 0.99998732
0.99677395 0.99848813 0.99999379
1.00000000 0.99836951 0.99958465
0.99894203 0.99999871 0.99991068
0.99894215 0.99999871 0.99991069
0.99894383 0.99999871 0.99991092
0.99896390 0.99999855 0.99991309
1.00000000 1.00000000 1.00000000
