resources/flame/Syncolor/Shared/transforms/camera_manufacturer_luts/arri/ARRI_Alexa_LUTs/ARRI_LogC4_v1_LUT_Package/LUTs/ARRI_LogC4-to-St2084-1K_P3-D65_DW100_v1-33.cube
LUT_3D_SIZE 9
0.00000000 0.00000000 0.00000000
0.01707271 0.00086310 0.00403164
0.18606670 0.00915640 0.05113690
0.41818887 0.03188100 0.15190295
0.58277619 0.06865982 0.25640009
0.69846289 0.04884554 0.34068151
0.75182710 0.51004501 0.48223264
0.75182477 0.67531647 0.65472290
0.75182703 0.75156481 0.75140303
0.00052254 0.01950991 0.00859938
0.03420875 0.03733470 0.00221975
0.22692517 0.02993985 0.03499041
0.42675653 0.03274593 0.15361254
0.58457144 0.07278848 0.25605696
0.69888219 0.05565749 0.34052705
0.75182710 0.51047405 0.48240441
0.75182484 0.67534922 0.65475728
0.75182703 0.75156458 0.75140281
0.01008555 0.19281380 0.09111609
0.01354455 0.22661358 0.09072450
0.27636891 0.27821257 0.00624525
0.46026128 0.23078444 0.04672486
0.59380732 0.07755042 0.24893912
0.70053784 0.05881137 0.33984540
0.75182710 0.51215506 0.48307719
0.75182513 0.67547926 0.65489122
0.75182704 0.75156329 0.75140154
0.03870662 0.41111661 0.22280548
0.04323784 0.41785066 0.22715530
0.10922788 0.44224643 0.12028353
0.45841834 0.45663446 0.03648413
0.60799840 0.42158147 0.25370353
0.71044080 0.04369554 0.32698467
0.75182710 0.51741540 0.48581254
0.75182622 0.67598500 0.65540252
0.75182704 0.75155862 0.75139662
0.07359363 0.56985650 0.33932840
0.07527927 0.57115432 0.33984637
0.07302736 0.57610597 0.34372545
0.20573498 0.59321020 0.14906019
0.59103850 0.58895033 0.17704456
0.71081018 0.54279611 0.38050204
0.75182710 0.53937069 0.49700417
0.75182540 0.67788823 0.65730306
0.75182700 0.75153978 0.75137781
0.09932841 0.68322435 0.43037901
0.10014836 0.68345709 0.43060651
0.10277604 0.68434649 0.43134519
0.10708102 0.68781370 0.43674565
0.24438258 0.69982257 0.18019319
0.68014614 0.68172924 0.38981130
0.75182710 0.64982162 0.54949421
0.75179387 0.68677026 0.66613652
0.75182710 0.75146521 0.75129375
0.38776214 0.75132063 0.53376622
0.38799247 0.75133705 0.53386533
0.38885624 0.75139899 0.53425897
0.39459173 0.75160949 0.53553190
0.47312662 0.75182710 0.54527127
0.61857834 0.75182710 0.53705553
0.72900862 0.73759659 0.57885212
0.75182710 0.72691018 0.70021333
0.75182301 0.75102296 0.75088025
0.72757814 0.75180678 0.71978111
0.72758569 0.75180686 0.71979235
0.72761374 0.75180725 0.71983446
0.72774730 0.75180851 0.72000062
0.72814335 0.75181407 0.72055586
0.73009758 0.75179991 0.72311578
0.73695056 0.75182710 0.72740342
0.74966249 0.75151712 0.73082646
0.75182710 0.75159474 0.75154152
0.75142300 0.75182710 0.75123512
0.75142310 0.75182710 0.75123527
0.75142351 0.75182710 0.75123578
0.75142353 0.75182710 0.75123756
0.75142305 0.75182705 0.75124445
0.75141833 0.75182710 0.75124379
0.75141137 0.75182710 0.75124877
0.75145030 0.75182433 0.75125952
0.75175984 0.75182467 0.75114224
0.00003098 0.00000000 0.00773778
0.02823866 0.00174005 0.02419439
0.21026075 0.01422706 0.09541745
0.42326923 0.03903396 0.17700063
0.58401578 0.06886900 0.26374273
0.69880795 0.04747413 0.34309161
0.75182710 0.51042350 0.48282563
0.75182483 0.67534060 0.65478198
0.75182703 0.75156447 0.75140242
0.00050863 0.03083052 0.02807811
0.05613715 0.05613715 0.05613715
0.24675748 0.02334272 0.09585996
0.43117623 0.04210628 0.17844199
0.58574374 0.07857637 0.26353377
0.69921147 0.05881182 0.34297916
0.75182710 0.51082950 0.48300114
0.75182490 0.67537249 0.65481641
0.75182703 0.75156424 0.75140221
0.01263698 0.21683282 0.12156728
0.01273191 0.24468257 0.12713018
0.28072086 0.28166808 0.04075977
0.46399040 0.23586527 0.11864396
0.59444765 0.10838787 0.25794766
0.70077429 0.08744456 0.34254880
0.75182710 0.51218978 0.48368177
0.75182516 0.67550203 0.65495036
0.75182704 0.75156299 0.75140094
0.04077178 0.41616557 0.23061701
0.04672942 0.42244943 0.23446213
0.10990165 0.44538862 0.13934426
0.45916470 0.45733996 0.09270806
0.60839824 0.42207569 0.26271972
0.71045890 0.10134765 0.33068814
0.75182710 0.51685991 0.48638420
0.75182608 0.67601083 0.65546153
0.75182704 0.75155833 0.75139601
0.07382291 0.57076770 0.34196824
0.07562912 0.57204543 0.34243563
0.07521521 0.57690931 0.34563255
0.21336337 0.59372323 0.17301431
0.59104374 0.58911041 0.20310229
0.71077769 0.54273459 0.38327873
0.75182710 0.53945040 0.49753931
0.75182552 0.67791105 0.65735972
0.75182700 0.75153946 0.75137720
0.10038597 0.68337142 0.43139255
0.10116639 0.68360296 0.43161843
0.10331742 0.68448693 0.43239091
0.10939036 0.68795127 0.43696461
0.25026780 0.69988591 0.17376837
0.68017167 0.68174480 0.39138116
0.75182710 0.64989125 0.54991771
0.75179386 0.68678676 0.66618451
0.75182710 0.75146491 0.75129320
0.38780293 0.75133002 0.53396339
0.38803032 0.75134641 0.53406235
0.38889144 0.75140828 0.53445428
0.39344145 0.75161430 0.53574996
0.47299867 0.75182710 0.54545635
0.61870952 0.75182710 0.53724846
0.72900737 0.73759362 0.57901121
0.75182710 0.72691547 0.70024000
0.75182301 0.75102279 0.75087993
0.72758251 0.75180683 0.71979059
0.72759002 0.75180691 0.71980182
0.72761750 0.75180729 0.71984394
0.72775469 0.75180856 0.72001000
0.72814524 0.75181409 0.72056587
0.73010033 0.75179991 0.72312453
0.73695244 0.75182710 0.72740697
0.74966257 0.75151690 0.73083041
0.75182710 0.75159468 0.75154136
0.75142300 0.75182710 0.75123512
0.75142311 0.75182710 0.75123528
0.75142354 0.75182710 0.75123578
0.75142353 0.75182710 0.75123757
0.75142298 0.75182705 0.75124432
0.75141828 0.75182710 0.75124370
0.75141134 0.75182710 0.75124874
0.75145031 0.75182433 0.75125955
0.75175984 0.75182466 0.75114227
0.00174717 0.05386663 0.12281327
0.03416830 0.03038407 0.16894272
0.25498759 0.03242031 0.23564657
0.43498245 0.05943384 0.29431391
0.58860894 0.08752449 0.32549018
0.70023055 0.06810782 0.35445707
0.75182710 0.51174619 0.48516625
0.75182512 0.67543444 0.65501165
0.75182704 0.75156289 0.75139964
0.00000000 0.07637272 0.14708749
0.02786392 0.05383290 0.18941385
0.26749985 0.03175036 0.24798784
0.44074421 0.06207226 0.29794849
0.59026264 0.09554591 0.32563854
0.70062709 0.07532241 0.35433164
0.75182710 0.51217064 0.48533666
0.75182519 0.67546581 0.65504603
0.75182704 0.75156268 0.75139943
0.00293243 0.25314590 0.24578102
0.00011535 0.26298938 0.25509798
0.27731951 0.27731951 0.27731951
0.46758163 0.23542347 0.30302282
0.59799374 0.13655508 0.32465776
0.70215777 0.09916975 0.35382750
0.75182710 0.51317505 0.48600599
0.75182543 0.67559400 0.65517959
0.75182704 0.75156150 0.75139815
0.03824551 0.42645295 0.31392990
0.03981098 0.43097314 0.31743966
0.12855915 0.44912196 0.30404859
0.45689523 0.45713232 0.31178792
0.60660071 0.43366178 0.34302016
0.71077238 0.18449930 0.34612387
0.75182710 0.51627805 0.48867298
0.75182549 0.67611612 0.65568989
0.75182705 0.75155683 0.75139322
0.07069852 0.57371506 0.36130878
0.07026418 0.57491137 0.36173159
0.08209399 0.57943642 0.36297570
0.24528314 0.59481920 0.26462208
0.58963275 0.58940771 0.29328140
0.71054022 0.54354030 0.39561638
0.75182710 0.53971701 0.49966107
0.75182587 0.67800228 0.65757936
0.75182699 0.75153794 0.75137441
0.10079681 0.68392238 0.43559416
0.10141512 0.68415021 0.43579255
0.10332814 0.68502834 0.43635544
0.11732259 0.68848915 0.43748768
0.27570172 0.70012217 0.20035516
0.68019213 0.68178497 0.39729843
0.75182710 0.65017434 0.55163084
0.75179377 0.68685100 0.66637087
0.75182710 0.75146354 0.75129067
0.38847794 0.75136520 0.53473870
0.38859906 0.75138137 0.53483844
0.38910202 0.75144256 0.53523014
0.39700773 0.75163087 0.53665289
0.47159839 0.75182710 0.54596647
0.61914009 0.75182710 0.53807120
0.72900112 0.73757999 0.57965586
0.75182710 0.72693621 0.70034318
0.75182301 0.75102202 0.75087850
0.72760029 0.75180707 0.71982620
0.72760786 0.75180716 0.71983741
0.72763656 0.75180752 0.71987962
0.72775907 0.75180879 0.72004471
0.72816265 0.75181425 0.72060314
0.73011190 0.75179991 0.72315726
0.73695948 0.75182710 0.72741982
0.74966287 0.75151599 0.73084573
0.75182710 0.75159446 0.75154070
0.75142285 0.75182710 0.75123497
0.75142297 0.75182710 0.75123513
0.75142340 0.75182710 0.75123563
0.75142334 0.75182710 0.75123747
0.75142265 0.75182705 0.75124375
0.75141806 0.75182710 0.75124325
0.75141118 0.75182710 0.75124851
0.75145036 0.75182433 0.75125965
0.75175985 0.75182466 0.75114241
0.01223297 0.20132662 0.32623983
0.00000000 0.20356996 0.33936893
0.26763512 0.03614500 0.41820947
0.45289099 0.08695928 0.42725383
0.59345024 0.11626264 0.43999806
0.70576392 0.06561338 0.42964872
0.75182710 0.51777264 0.49592268
0.75182655 0.67578254 0.65589919
0.75182703 0.75155690 0.75138855
0.00732179 0.20641344 0.33156709
0.00176265 0.20877493 0.34351529
0.26796118 0.04983851 0.42316203
0.45499880 0.08948756 0.42953233
0.59470700 0.12212938 0.44082886
0.70612316 0.07812602 0.42969726
0.75182710 0.51788429 0.49606760
0.75182659 0.67581521 0.65593324
0.75182703 0.75155670 0.75138834
0.00585074 0.27751240 0.37394787
0.00444587 0.28012081 0.37940352
0.24604634 0.24211382 0.44295882
0.46777666 0.18602180 0.44447575
0.60039471 0.14821660 0.44401827
0.70750414 0.12362074 0.42988557
0.75182710 0.51776698 0.49663582
0.75182655 0.67595276 0.65606558
0.75182704 0.75155554 0.75138706
0.01812920 0.44123909 0.43154511
0.01868940 0.44286160 0.43332457
0.13410320 0.45089221 0.44210616
0.44940579 0.44940579 0.44940579
0.60230657 0.44183876 0.46835720
0.71385633 0.24374017 0.43066567
0.75182710 0.52109906 0.49886985
0.75181839 0.67648526 0.65657161
0.75182708 0.75155079 0.75138210
0.08524692 0.57641013 0.45533361
0.09328083 0.57725826 0.45598068
0.13081536 0.58044779 0.45816982
0.37409517 0.58734718 0.45654402
0.58367457 0.58547504 0.48810584
0.70395674 0.56116881 0.48568837
0.75182710 0.54256387 0.50896396
0.75182489 0.67833604 0.65843101
0.75182698 0.75153196 0.75136328
0.09049955 0.68538855 0.46112938
0.09211230 0.68560736 0.46117106
0.09662186 0.68644819 0.46125710
0.13452796 0.68976016 0.45988371
0.37314099 0.69846699 0.38134907
0.67776127 0.68144160 0.45552420
0.75182710 0.65143016 0.55881619
0.75179050 0.68709823 0.66710672
0.75182710 0.75145825 0.75128038
0.39389490 0.75150727 0.53751551
0.39395444 0.75152304 0.53761275
0.39394766 0.75158129 0.53798683
0.41639366 0.75168296 0.53996502
0.47303635 0.75182710 0.54745662
0.61989400 0.75182710 0.54094306
0.72899141 0.73750472 0.58234266
0.75182710 0.72701723 0.70075429
0.75182304 0.75101900 0.75087250
0.72767994 0.75180784 0.71996949
0.72768713 0.75180791 0.71998067
0.72772528 0.75180823 0.72002315
0.72778727 0.75180976 0.72018404
0.72828761 0.75181426 0.72075835
0.73019682 0.75179833 0.72330390
0.73698235 0.75182710 0.72746996
0.74966392 0.75151234 0.73090603
0.75182710 0.75159359 0.75153804
0.75142240 0.75182710 0.75123438
0.75142254 0.75182710 0.75123455
0.75142293 0.75182710 0.75123512
0.75142331 0.75182709 0.75123750
0.75142075 0.75182701 0.75124153
0.75141672 0.75182710 0.75124113
0.75141065 0.75182710 0.75124737
0.75145056 0.75182435 0.75125997
0.75175989 0.75182466 0.75114296
0.00156262 0.33971446 0.49144394
0.01050456 0.33992822 0.49452791
0.01916276 0.32769336 0.52183753
0.44216039 0.25387608 0.57920469
0.59417165 0.11950289 0.56664651
0.70750952 0.09027465 0.54605371
0.75182710 0.53459379 0.55454136
0.75182314 0.67721076 0.65977337
0.75182705 0.75153382 0.75134956
0.00208738 0.34137743 0.49281569
0.00830578 0.34157457 0.49586084
0.01775725 0.33057027 0.52229584
0.44236646 0.25973649 0.57977108
0.59463286 0.12265591 0.56714655
0.70776034 0.09260500 0.54625594
0.75182710 0.53471662 0.55464494
0.75182323 0.67724420 0.65980413
0.75182705 0.75153360 0.75134935
0.00544903 0.34742968 0.49840348
0.00283295 0.34750654 0.50133477
0.02056810 0.33894666 0.52493717
0.44286717 0.28073783 0.58181271
0.59648513 0.14556111 0.56916522
0.70872433 0.12550505 0.54705906
0.75182710 0.53476247 0.55504982
0.75182438 0.67738087 0.65992339
0.75182705 0.75153238 0.75134808
0.08380590 0.44729714 0.55156811
0.08589745 0.44758944 0.55291987
0.11184949 0.44877847 0.55979457
0.44240405 0.44743123 0.57963516
0.60130265 0.37982584 0.57670922
0.71282999 0.24725134 0.55049800
0.75182710 0.53640402 0.55662066
0.75182710 0.67788107 0.66037883
0.75182702 0.75152766 0.75134321
0.36843032 0.57929351 0.56951170
0.37056112 0.57954352 0.56982275
0.37787062 0.58043303 0.57094059
0.46085420 0.58131498 0.57380263
0.57735060 0.57735060 0.57735060
0.69350257 0.57358146 0.58879860
0.75182710 0.55515279 0.56422845
0.75181873 0.67966491 0.66210722
0.75182702 0.75150887 0.75132475
0.31876193 0.68043071 0.56224896
0.31798430 0.68055052 0.56243733
0.31669965 0.68100325 0.56316639
0.36310622 0.68250957 0.56601521
0.54836983 0.68056213 0.57816393
0.67061866 0.67470152 0.60714923
0.74880514 0.66084230 0.61207833
0.75179500 0.68809211 0.67016408
0.75182710 0.75143860 0.75124604
0.44176752 0.75172389 0.55910376
0.44198569 0.75173472 0.55920517
0.44177377 0.75176853 0.55961032
0.44550000 0.75182710 0.56138969
0.50262003 0.75182710 0.56871280
0.62684450 0.75010418 0.57632859
0.72805112 0.73623334 0.60956469
0.75182710 0.72735631 0.70225182
0.75182297 0.75100755 0.75085741
0.72825908 0.75179516 0.72045750
0.72826531 0.75179522 0.72046861
0.72829936 0.75179550 0.72051082
0.72840523 0.75179664 0.72067116
0.72889179 0.75179664 0.72127258
0.73055417 0.75178979 0.72369712
0.73705514 0.75182710 0.72735252
0.74966769 0.75149739 0.73112446
0.75182710 0.75159021 0.75153058
0.75140860 0.75182710 0.75122505
0.75140865 0.75182710 0.75122510
0.75140870 0.75182710 0.75122519
0.75140838 0.75182710 0.75122565
0.75140648 0.75182710 0.75122855
0.75140577 0.75182710 0.75122753
0.75140597 0.75182710 0.75124162
0.75145115 0.75182430 0.75126211
0.75176007 0.75182466 0.75114484
0.03830754 0.45060761 0.61309393
0.03688933 0.45064956 0.61403672
0.02916597 0.45105122 0.61757657
0.05058891 0.43768931 0.64981667
0.56003653 0.43898869 0.67926421
0.69639437 0.26851551 0.66594503
0.75182710 0.53233160 0.63317441
0.75181729 0.68191281 0.67982552
0.75182702 0.75142772 0.75104463
0.03869249 0.45106792 0.61345969
0.03720961 0.45111107 0.61439518
0.02947254 0.45150554 0.61792784
0.05153485 0.43838092 0.64993555
0.56009690 0.43955352 0.67936193
0.69644372 0.27362723 0.66600449
0.75182710 0.53253133 0.63322286
0.75181731 0.68194229 0.67984950
0.75182702 0.75142751 0.75104449
0.04040393 0.45297098 0.61494171
0.03860631 0.45302112 0.61584608
0.03097247 0.45339403 0.61933849
0.05456452 0.44112451 0.65044083
0.56036596 0.44210616 0.67971741
0.69663070 0.28775634 0.66623312
0.75182710 0.53339988 0.63341264
0.75181738 0.68205627 0.67994281
0.75182702 0.75142637 0.75104360
0.04559625 0.46022876 0.62152022
0.04345012 0.46027016 0.62234875
0.03229262 0.46038941 0.62576287
0.05852177 0.45155414 0.65331016
0.56110451 0.45223559 0.68087561
0.69733483 0.32076885 0.66705540
0.75182710 0.53661114 0.63416683
0.75181798 0.68249262 0.68029924
0.75182701 0.75142201 0.75104020
0.27755766 0.57196568 0.67017849
0.27775243 0.57204049 0.67031906
0.29578141 0.57233106 0.67085577
0.35559030 0.57367242 0.67298233
0.57418755 0.58151403 0.67221541
0.69182429 0.52791615 0.66717559
0.75182710 0.55259231 0.63755581
0.75180652 0.68416302 0.68166530
0.75182710 0.75140432 0.75102731
0.57420989 0.66909362 0.66196626
0.57438926 0.66913569 0.66202201
0.57497664 0.66929450 0.66223566
0.57684770 0.66985280 0.66301394
0.61068900 0.66973098 0.66482766
0.66725055 0.66725055 0.66725055
0.74153565 0.66832751 0.67501968
0.75182710 0.69171548 0.68787381
0.75182710 0.75134570 0.75097596
0.60456462 0.73764493 0.65639724
0.60468296 0.73765492 0.65644460
0.60514491 0.73769456 0.65662425
0.60670762 0.73787419 0.65719711
0.61279504 0.73836385 0.65946285
0.66254723 0.73445182 0.66956766
0.72409942 0.72834278 0.69000487
0.75182710 0.72966305 0.71545863
0.75181858 0.75093713 0.75067963
0.72563509 0.75182710 0.72003845
0.72564588 0.75182710 0.72005032
0.72568604 0.75182710 0.72009624
0.72584235 0.75182710 0.72027143
0.72645079 0.75182710 0.72092062
0.72823404 0.75182710 0.72305070
0.73528548 0.75182710 0.72533199
0.74953899 0.75124379 0.73365482
0.75182710 0.75157711 0.75146219
0.75137132 0.75182710 0.75119135
0.75137136 0.75182710 0.75119141
0.75137146 0.75182710 0.75119155
0.75137196 0.75182710 0.75119208
0.75137280 0.75182710 0.75119418
0.75138470 0.75182710 0.75120009
0.75141861 0.75182209 0.75127714
0.75145754 0.75182346 0.75127678
0.75176037 0.75182418 0.75115543
0.14127895 0.57063882 0.73504204
0.13859331 0.57068528 0.73519446
0.12826149 0.57083387 0.73583884
0.17211228 0.57127772 0.73867453
0.37253015 0.57666888 0.74513028
0.64913833 0.59483906 0.73758305
0.74729789 0.58063669 0.71812466
0.75182008 0.68881802 0.70800756
0.75182710 0.75106296 0.75074170
0.14150977 0.57075429 0.73512186
0.13783973 0.57080862 0.73525685
0.13173787 0.57096003 0.73589396
0.17215709 0.57140179 0.73872599
0.37273501 0.57680339 0.74514299
0.64915658 0.59493188 0.73759322
0.74730102 0.58072093 0.71813209
0.75181997 0.68884004 0.70802087
0.75182710 0.75106279 0.75074162
0.13926277 0.57122703 0.73537960
0.13372548 0.57128825 0.73549808
0.13842455 0.57144953 0.73610896
0.17268262 0.57188528 0.73892386
0.37401059 0.57732124 0.74519103
0.64922769 0.59530317 0.73763203
0.74731295 0.58104440 0.71816058
0.75181954 0.68892579 0.70807289
0.75182710 0.75106184 0.75074105
0.14469434 0.57314160 0.73634865
0.14809417 0.57320515 0.73645540
0.15530421 0.57341127 0.73695263
0.17254668 0.57384311 0.73964974
0.37828245 0.57939273 0.74535680
0.64950452 0.59687270 0.73778253
0.74735519 0.58231528 0.71826919
0.75181948 0.68925208 0.70827209
0.75182710 0.75105830 0.75073892
0.18525117 0.58028999 0.74118000
0.18248354 0.58036167 0.74123638
0.17232731 0.58064321 0.74145629
0.18402277 0.58144218 0.74292791
0.39567110 0.58732726 0.74600533
0.65063835 0.60209581 0.73842136
0.74756992 0.58665191 0.71871807
0.75181541 0.69054424 0.70904930
0.75182710 0.75104348 0.75073049
0.55812798 0.66922523 0.73208562
0.55830694 0.66924455 0.73209782
0.55902604 0.66931938 0.73214482
0.56094464 0.66960943 0.73230753
0.57243647 0.67083811 0.73259316
0.66710122 0.67628201 0.72813795
0.74099645 0.65274313 0.72100035
0.75182710 0.69555987 0.71234876
0.75182710 0.75100645 0.75070357
0.67935621 0.72417060 0.71999124
0.67937969 0.72417646 0.71999942
0.67947117 0.72419906 0.72003091
0.67982723 0.72428252 0.72014885
0.68105385 0.72457750 0.72058234
0.69756280 0.72422933 0.72156861
0.72312849 0.72312849 0.72312849
0.75154475 0.73257435 0.73375244
0.75181743 0.75062409 0.75046675
0.72118064 0.75157447 0.72883475
0.72118996 0.75157454 0.72884080
0.72122618 0.75157479 0.72886433
0.72136352 0.75157577 0.72895358
0.72188941 0.75157850 0.72928838
0.72379584 0.75159506 0.73050856
0.73424819 0.75068118 0.73425366
0.74897499 0.74966034 0.74356530
0.75182710 0.75142511 0.75119282
0.75158063 0.75181777 0.75131752
0.75158068 0.75181778 0.75131764
0.75158081 0.75181778 0.75131803
0.75158131 0.75181782 0.75131950
0.75158306 0.75181799 0.75132528
0.75159845 0.75181705 0.75135005
0.75153021 0.75182094 0.75136426
0.75148916 0.75182710 0.75129506
0.75176616 0.75182527 0.75124467
0.64958152 0.70314449 0.75180909
0.64968146 0.70315672 0.75180885
0.64988770 0.70320324 0.75180931
0.64962873 0.70338056 0.75181035
0.65065938 0.70401983 0.75181445
0.66427854 0.70708610 0.75182710
0.72646208 0.71337611 0.75182710
0.75182710 0.72629499 0.74492872
0.75182355 0.75038870 0.75074251
0.64961357 0.70315959 0.75180873
0.64973588 0.70317167 0.75180879
0.64988993 0.70321815 0.75180930
0.64965486 0.70339543 0.75181029
0.65069122 0.70403441 0.75181445
0.66430066 0.70709910 0.75182710
0.72646573 0.71338700 0.75182710
0.75182710 0.72630134 0.74493046
0.75182355 0.75038864 0.75074248
0.64983629 0.70321725 0.75180861
0.64999554 0.70322918 0.75180889
0.64991227 0.70327559 0.75180939
0.64973892 0.70345272 0.75181020
0.65079440 0.70409081 0.75181448
0.66438763 0.70714955 0.75182710
0.72647989 0.71342917 0.75182710
0.75182710 0.72632601 0.74493719
0.75182355 0.75038833 0.75074235
0.65013896 0.70343521 0.75180920
0.65010721 0.70344671 0.75180939
0.64992933 0.70349239 0.75181006
0.65011649 0.70366884 0.75181070
0.65121387 0.70430371 0.75181498
0.66471774 0.70733997 0.75182710
0.72653383 0.71358893 0.75182710
0.75182710 0.72641982 0.74496279
0.75182355 0.75038720 0.75074186
0.65109017 0.70430814 0.75180169
0.65113109 0.70431882 0.75180181
0.65127220 0.70436066 0.75180274
0.65166918 0.70453079 0.75180390
0.65291367 0.70515355 0.75180578
0.66600483 0.70811583 0.75182710
0.72673524 0.71423134 0.75182710
0.75182710 0.72678103 0.74506077
0.75182358 0.75038249 0.75073993
0.65514977 0.70713537 0.75182710
0.65519286 0.70714442 0.75182710
0.65535348 0.70717966 0.75182710
0.65600891 0.70731408 0.75182710
0.65837840 0.70787049 0.75182710
0.67081076 0.71049809 0.75182710
0.72750769 0.71603901 0.75182710
0.75182710 0.72793260 0.74539156
0.75182336 0.75038098 0.75073880
0.70703381 0.73366738 0.75054773
0.70704582 0.73367026 0.75054799
0.70709258 0.73368143 0.75054897
0.70727018 0.73372381 0.75055246
0.70797446 0.73388220 0.75056454
0.71107599 0.73442979 0.75047454
0.73364006 0.73644681 0.74916810
0.75144391 0.73888577 0.74781026
0.75182062 0.75027499 0.75069910
0.74035339 0.74877023 0.74782011
0.74035545 0.74877071 0.74782082
0.74036340 0.74877258 0.74782358
0.74039362 0.74877966 0.74783403
0.74050980 0.74880587 0.74787313
0.74088556 0.74890324 0.74801676
0.74388268 0.74894564 0.74839059
0.74894734 0.74894734 0.74894734
0.75182710 0.75109316 0.75113775
0.75161108 0.75182710 0.75158422
0.75161104 0.75182710 0.75158420
0.75161088 0.75182710 0.75158409
0.75161026 0.75182710 0.75158367
0.75160791 0.75182710 0.75158216
0.75160294 0.75182710 0.75157739
0.75156686 0.75182710 0.75156975
0.75157459 0.75182710 0.75155296
0.75179352 0.75182710 0.75153971
0.75065067 0.75127684 0.75182697
0.75065081 0.75127665 0.75182696
0.75064792 0.75127581 0.75182689
0.75064143 0.75127262 0.75182659
0.75061398 0.75126079 0.75182638
0.75053536 0.75121142 0.75182697
0.74977466 0.75103704 0.75181218
0.75100236 0.75066738 0.75182710
0.75182710 0.75068929 0.75152116
0.75065057 0.75127665 0.75182696
0.75065055 0.75127646 0.75182695
0.75064772 0.75127562 0.75182688
0.75064102 0.75127244 0.75182659
0.75061359 0.75126060 0.75182638
0.75053501 0.75121126 0.75182697
0.74977460 0.75103692 0.75181219
0.75100236 0.75066735 0.75182710
0.75182710 0.75068934 0.75152118
0.75064910 0.75127581 0.75182694
0.75064825 0.75127562 0.75182692
0.75064615 0.75127478 0.75182686
0.75063922 0.75127160 0.75182657
0.75061187 0.75125977 0.75182637
0.75053340 0.75121050 0.75182697
0.74977429 0.75103641 0.75181221
0.75100234 0.75066722 0.75182710
0.75182710 0.75068951 0.75152123
0.75064220 0.75127275 0.75182682
0.75064207 0.75127256 0.75182682
0.75064111 0.75127172 0.75182676
0.75063340 0.75126854 0.75182649
0.75060580 0.75125674 0.75182633
0.75052741 0.75120773 0.75182695
0.74977312 0.75103453 0.75181228
0.75100230 0.75066675 0.75182710
0.75182710 0.75069015 0.75152143
0.75061276 0.75125897 0.75182687
0.75061242 0.75125879 0.75182687
0.75061083 0.75125796 0.75182684
0.75060320 0.75125479 0.75182669
0.75057788 0.75124323 0.75182675
0.75050346 0.75119526 0.75182710
0.74976862 0.75102606 0.75181271
0.75100216 0.75066462 0.75182710
0.75182710 0.75069262 0.75152220
0.75057810 0.75124308 0.75182361
0.75057771 0.75124289 0.75182361
0.75057585 0.75124204 0.75182362
0.75056806 0.75123888 0.75182362
0.75054084 0.75122719 0.75182362
0.75044826 0.75117924 0.75182268
0.74975950 0.75102253 0.75180984
0.75100084 0.75066910 0.75182710
0.75182710 0.75070133 0.75152509
0.74992953 0.75089542 0.75182617
0.74992941 0.75089536 0.75182617
0.74992876 0.75089508 0.75182618
0.74992643 0.75089401 0.75182621
0.74991694 0.75089002 0.75182623
0.74989283 0.75087538 0.75182689
0.74964195 0.75081563 0.75182710
0.75101135 0.75060227 0.75182710
0.75182710 0.75073384 0.75153397
0.75001073 0.75116573 0.75182710
0.75001078 0.75116573 0.75182710
0.75001098 0.75116572 0.75182710
0.75001176 0.75116568 0.75182710
0.75001456 0.75116552 0.75182710
0.75003131 0.75116504 0.75182710
0.75006124 0.75116572 0.75182710
0.75092819 0.75109296 0.75182710
0.75182710 0.75103064 0.75164685
0.75110572 0.75182590 0.75176757
0.75110574 0.75182590 0.75176757
0.75110581 0.75182590 0.75176758
0.75110609 0.75182589 0.75176759
0.75110717 0.75182588 0.75176767
0.75111122 0.75182584 0.75176792
0.75112193 0.75182590 0.75176871
0.75131254 0.75182217 0.75178693
0.75182710 0.75182710 0.75182710
