resources/flame/Syncolor/Shared/transforms/camera_manufacturer_luts/arri/ARRI_Alexa_LUTs/ARRI_LogC4_v1_LUT_Package/LUTs/ARRI_LogC4-to-St2084-1K_P3-D65_DW100_v1-33.cube
LUT_3D_SIZE 33
0.00000000 0.00000000 0.00000000
0.00000000 0.00026019 0.00019094
0.00000000 0.00134851 0.00125618
0.00445694 0.00115754 0.00188965
0.01707271 0.00086310 0.00403164
0.03926483 0.00167045 0.00946936
0.07505848 0.00302514 0.01874119
0.12545488 0.00551380 0.03261738
0.18606670 0.00915640 0.05113690
0.24903157 0.01335602 0.07319879
0.30957541 0.01812417 0.09784960
0.36611557 0.02321234 0.12435507
0.41818887 0.03188100 0.15190295
0.46568744 0.04224262 0.17951472
0.50867914 0.05474506 0.20647659
0.54758778 0.05748439 0.23204412
0.58277619 0.06865982 0.25640009
0.61483584 0.08060638 0.27952872
0.64449010 0.05679904 0.30110062
0.67217790 0.02823474 0.32148688
0.69846289 0.04884554 0.34068151
0.72357794 0.07110642 0.35904267
0.74396285 0.16961722 0.38432175
0.75182710 0.38185881 0.42999811
0.75182710 0.51004501 0.48223264
0.75182710 0.56772144 0.52913069
0.75179745 0.60582461 0.57194943
0.75180667 0.64146866 0.61396159
0.75182477 0.67531647 0.65472290
0.75182710 0.70597987 0.69257604
0.75182710 0.73134861 0.72487574
0.75182710 0.74682261 0.74509388
0.75182703 0.75156481 0.75140303
0.00034925 0.00000000 0.00008002
0.00002598 0.00003939 0.00064484
0.00016816 0.00115795 0.00182067
0.00535823 0.00080349 0.00229969
0.01838858 0.00022051 0.00440620
0.04090061 0.00080457 0.01001022
0.07734450 0.00221577 0.01956958
0.12870584 0.00493436 0.03377144
0.18948305 0.00892016 0.05234383
0.25180070 0.01339989 0.07415687
0.31158139 0.01778817 0.09844745
0.36750342 0.02380027 0.12466667
0.41913841 0.03279490 0.15201856
0.46633866 0.04267773 0.17951735
0.50912259 0.05525483 0.20644326
0.54788995 0.05817069 0.23200583
0.58298157 0.06942483 0.25637011
0.61497733 0.08099941 0.27950286
0.64458844 0.05702372 0.30107727
0.67224533 0.02883563 0.32146975
0.69850926 0.04978272 0.34066885
0.72360960 0.07152541 0.35903332
0.74397969 0.16971259 0.38432544
0.75182710 0.38194687 0.43001980
0.75182710 0.51009138 0.48225154
0.75182710 0.56774154 0.52914347
0.75179743 0.60583450 0.57195790
0.75180669 0.64147469 0.61396753
0.75182477 0.67532025 0.65472684
0.75182710 0.70598206 0.69257846
0.75182710 0.73134969 0.72487701
0.75182710 0.74682291 0.74509426
0.75182703 0.75156482 0.75140305
0.00134907 0.00011772 0.00120048
0.00113381 0.00071732 0.00191224
0.00151574 0.00194367 0.00314105
0.00744645 0.00157092 0.00296944
0.02182473 0.00023565 0.00456764
0.04565608 0.00000475 0.01027750
0.08377957 0.00100308 0.02041470
0.13643488 0.00357594 0.03535725
0.19650013 0.00810902 0.05425135
0.25707897 0.01271611 0.07591121
0.31525228 0.01678449 0.09977862
0.36999031 0.02444810 0.12551171
0.42082703 0.03401984 0.15241240
0.46749911 0.04320041 0.17959441
0.50991893 0.05598680 0.20638627
0.54843741 0.05917390 0.23191643
0.58335630 0.07054308 0.25629607
0.61523630 0.08158809 0.27944313
0.64476840 0.05782655 0.30102785
0.67236875 0.03113000 0.32143433
0.69859410 0.05177169 0.34064310
0.72366784 0.07225944 0.35901356
0.74401038 0.16990763 0.38433108
0.75182710 0.38211700 0.43005989
0.75182710 0.51017747 0.48228669
0.75182710 0.56777675 0.52916682
0.75179740 0.60585148 0.57197320
0.75180674 0.64148532 0.61397824
0.75182479 0.67532701 0.65473397
0.75182710 0.70598601 0.69258283
0.75182710 0.73135162 0.72487930
0.75182710 0.74682342 0.74509490
0.75182703 0.75156480 0.75140303
0.00081509 0.00568955 0.00320888
0.00049662 0.00669855 0.00395466
0.00101119 0.00886309 0.00492228
0.00875178 0.01045979 0.00365266
0.02821785 0.00922988 0.00294951
0.05738290 0.00845563 0.00715951
0.09915838 0.00787386 0.01684234
0.15159903 0.00785267 0.03215147
0.20845178 0.00901878 0.05212440
0.26541806 0.01138222 0.07529987
0.32075082 0.01568514 0.10046282
0.37355479 0.02410952 0.12667862
0.42315582 0.03437556 0.15333896
0.46906250 0.04316225 0.18001697
0.51098819 0.05658296 0.20644916
0.54918064 0.06011235 0.23181683
0.58387224 0.07166947 0.25617533
0.61559652 0.08216200 0.27933854
0.64501988 0.05896696 0.30094411
0.67254187 0.03455715 0.32137455
0.69871350 0.05402581 0.34059948
0.72374981 0.07301677 0.35898073
0.74405315 0.17020089 0.38433654
0.75182710 0.38237999 0.43011593
0.75182710 0.51030017 0.48233595
0.75182710 0.56782322 0.52919914
0.75179738 0.60587368 0.57199419
0.75180683 0.64149971 0.61399296
0.75182481 0.67533630 0.65474377
0.75182710 0.70599142 0.69258882
0.75182710 0.73135423 0.72488242
0.75182710 0.74682407 0.74509574
0.75182703 0.75156471 0.75140295
0.00052254 0.01950991 0.00859938
0.00000000 0.02096546 0.00948654
0.00000000 0.02437764 0.01052580
0.00697055 0.03022945 0.00815874
0.03420875 0.03733470 0.00221975
0.07616391 0.04349402 0.00131319
0.12410060 0.04527099 0.00592691
0.17498759 0.04024923 0.01604109
0.22692517 0.02993985 0.03499041
0.27876678 0.02052869 0.06157521
0.32978239 0.01798932 0.09287760
0.37935142 0.02260534 0.12433261
0.42675653 0.03274593 0.15361254
0.47131874 0.04190145 0.18077267
0.51245519 0.05664406 0.20685698
0.55018244 0.06076170 0.23185061
0.58457144 0.07278848 0.25605696
0.61609152 0.08267580 0.27919085
0.64536970 0.05980841 0.30081334
0.67278498 0.03714935 0.32127700
0.69888219 0.05565749 0.34052705
0.72386534 0.07361531 0.35892808
0.74411300 0.17063504 0.38434121
0.75182710 0.38278327 0.43019343
0.75182710 0.51047405 0.48240441
0.75182710 0.56788483 0.52924376
0.75179736 0.60590348 0.57202310
0.75180696 0.64151967 0.61401326
0.75182484 0.67534922 0.65475728
0.75182710 0.70599889 0.69259708
0.75182710 0.73135782 0.72488671
0.75182710 0.74682495 0.74509688
0.75182703 0.75156458 0.75140281
0.00141406 0.04358177 0.01920981
0.00078564 0.04531755 0.02033713
0.00000000 0.04981871 0.02197325
0.00492154 0.06004071 0.01960237
0.03561142 0.07792455 0.00830442
0.09148753 0.09592453 0.00085212
0.14683438 0.10601791 0.00035420
0.19697294 0.10649306 0.00286589
0.24598682 0.09527292 0.01002450
0.29526927 0.07088104 0.02736663
0.34325299 0.04439759 0.06261136
0.38909470 0.03021914 0.10626720
0.43305438 0.03242143 0.14649626
0.47511152 0.04040499 0.17939621
0.51472872 0.05553731 0.20708684
0.55162056 0.06033019 0.23204667
0.58553416 0.07357807 0.25603017
0.61676795 0.08307592 0.27904516
0.64585256 0.06032283 0.30064344
0.67312549 0.03899398 0.32113357
0.69912128 0.05674726 0.34041386
0.72402944 0.07411806 0.35884589
0.74419772 0.17128507 0.38434406
0.75182710 0.38338093 0.43030113
0.75182710 0.51071549 0.48249999
0.75182710 0.56796568 0.52930548
0.75179732 0.60594390 0.57206319
0.75180715 0.64154785 0.61404159
0.75182489 0.67536752 0.65477617
0.75182710 0.70600938 0.69260861
0.75182710 0.73136282 0.72489269
0.75182710 0.74682617 0.74509848
0.75182703 0.75156439 0.75140263
0.00342324 0.08128048 0.03638245
0.00298117 0.08361128 0.03790103
0.00183196 0.08964208 0.04075544
0.00399899 0.10289789 0.04020904
0.02937884 0.12521079 0.02533415
0.09285972 0.14815763 0.00704922
0.15924972 0.16361563 0.00126394
0.21299705 0.17082940 0.00125702
0.26056468 0.16950920 0.00205441
0.30808854 0.15508888 0.00466417
0.35605844 0.12256976 0.02119173
0.40172003 0.07859030 0.06174526
0.44321126 0.05110430 0.11869177
0.48183907 0.04589068 0.16829315
0.51875114 0.05484885 0.20402869
0.55398568 0.05798951 0.23142113
0.58697519 0.07304114 0.25589733
0.61771476 0.08275241 0.27891647
0.64651180 0.06029507 0.30047034
0.67359282 0.04039997 0.32095869
0.69945508 0.05762894 0.34025505
0.72426122 0.07466066 0.35872308
0.74431779 0.17225154 0.38434286
0.75182710 0.38423821 0.43045025
0.75182710 0.51104245 0.48263299
0.75182710 0.56806855 0.52939005
0.75179727 0.60599770 0.57211867
0.75180740 0.64158735 0.61408116
0.75182495 0.67539340 0.65480259
0.75182710 0.70602414 0.69262474
0.75182710 0.73136983 0.72490106
0.75182710 0.74682788 0.74510070
0.75182703 0.75156413 0.75140238
0.00681355 0.13276664 0.06085304
0.00675481 0.13597743 0.06281312
0.00590404 0.14320299 0.06681689
0.00542611 0.15612456 0.06857039
0.01947542 0.17562370 0.05428879
0.07686700 0.19679275 0.02289803
0.15616585 0.21331338 0.00602861
0.22085570 0.22398139 0.00312766
0.27144469 0.22922323 0.00316517
0.31768739 0.22715289 0.00053370
0.36441479 0.21141627 0.00256961
0.41109888 0.17432299 0.01946837
0.45418591 0.12265229 0.07269276
0.49153701 0.08609419 0.14151143
0.52556601 0.06937175 0.19239748
0.55820977 0.05877509 0.22699932
0.58944221 0.07143708 0.25440153
0.61918432 0.08058623 0.27842339
0.64744818 0.05887947 0.30024214
0.67423067 0.04120725 0.32077525
0.69991174 0.05845456 0.34006399
0.72458305 0.07543623 0.35855700
0.74448631 0.17373447 0.38433857
0.75182710 0.38547748 0.43065707
0.75182710 0.51149251 0.48281794
0.75182710 0.56820150 0.52950706
0.75179722 0.60606853 0.57219576
0.75180774 0.64164165 0.61413644
0.75182503 0.67542956 0.65483957
0.75182710 0.70604486 0.69264729
0.75182710 0.73137966 0.72491275
0.75182710 0.74683028 0.74510381
0.75182704 0.75156377 0.75140203
0.01008555 0.19281380 0.09111609
0.01133789 0.19607911 0.09305669
0.01158485 0.20253233 0.09703124
0.00942926 0.21243690 0.10018529
0.01354455 0.22661358 0.09072450
0.05034663 0.24354156 0.05534945
0.13331129 0.25883246 0.01910780
0.21528611 0.27038061 0.00663692
0.27636891 0.27821257 0.00624525
0.32496080 0.28198764 0.00522780
0.37043331 0.27897814 0.00314715
0.41612023 0.26318704 0.00855971
0.46026128 0.23078444 0.04672486
0.49950218 0.18641511 0.11670021
0.53395033 0.13287662 0.17406952
0.56488759 0.08598432 0.21593381
0.59380732 0.07755042 0.24893912
0.62176333 0.07750845 0.27617189
0.64894582 0.05515387 0.29944166
0.67515227 0.04071328 0.32047071
0.70053784 0.05881137 0.33984540
0.72502149 0.07651517 0.35836108
0.74471747 0.17604400 0.38434629
0.75182710 0.38733173 0.43095095
0.75182710 0.51215506 0.48307719
0.75182710 0.56838968 0.52966995
0.75179731 0.60616453 0.57230300
0.75180826 0.64171546 0.61421354
0.75182513 0.67547926 0.65489122
0.75182710 0.70607362 0.69267881
0.75182710 0.73139341 0.72492909
0.75182710 0.74683366 0.74510816
0.75182704 0.75156329 0.75140154
0.01549536 0.25337766 0.12398386
0.01645370 0.25593239 0.12544361
0.01703189 0.26066263 0.12853178
0.01618262 0.26739164 0.13210160
0.01579740 0.27690140 0.12871741
0.03075922 0.28939654 0.10191082
0.09220898 0.30271244 0.05106344
0.18837846 0.31393494 0.01617310
0.26891521 0.32241716 0.00849697
0.32726590 0.32808085 0.00872786
0.37460471 0.33015106 0.00655783
0.41924919 0.32634252 0.00602490
0.46277750 0.31370631 0.03657705
0.50288873 0.28936946 0.10854048
0.53928626 0.24326099 0.16587050
0.57196890 0.17316823 0.20412617
0.60028558 0.11685096 0.23857616
0.62625633 0.08410481 0.26996208
0.65161622 0.05078526 0.29659669
0.67666934 0.03704139 0.31940943
0.70146124 0.05643853 0.33941911
0.72562760 0.07698095 0.35811423
0.74502940 0.17933017 0.38439350
0.75182710 0.39009858 0.43138536
0.75182710 0.51318546 0.48344865
0.75182710 0.56869324 0.52989927
0.75179769 0.60630841 0.57245258
0.75180910 0.64181850 0.61432096
0.75182530 0.67554736 0.65496325
0.75182710 0.70611313 0.69272280
0.75182710 0.73141247 0.72495190
0.75182710 0.74683838 0.74511422
0.75182704 0.75156265 0.75140086
0.02208029 0.31027492 0.15736124
0.02110080 0.31205475 0.15827920
0.02024778 0.31526038 0.16030129
0.02189010 0.31966550 0.16340444
0.02291538 0.32585929 0.16430554
0.02557056 0.33454492 0.15072848
0.05279940 0.34531026 0.10767198
0.13507305 0.35587913 0.04928296
0.23922959 0.36435428 0.01935390
0.31814004 0.37053935 0.01215568
0.37435301 0.37416878 0.01116152
0.42065648 0.37451673 0.00929003
0.46372825 0.37068723 0.03400723
0.50383844 0.36141948 0.10657444
0.54088183 0.33962652 0.16981839
0.57541526 0.29264826 0.20587270
0.60633593 0.21605238 0.23154791
0.63258522 0.12923377 0.26022249
0.65621012 0.05753022 0.28978918
0.67942125 0.02922827 0.31602086
0.70302872 0.04587041 0.33800576
0.72654970 0.07345962 0.35754155
0.74546835 0.18270296 0.38444368
0.75182710 0.39375034 0.43202752
0.75182710 0.51468052 0.48399111
0.75182710 0.56918915 0.53022804
0.75179826 0.60654405 0.57266340
0.75181045 0.64197152 0.61447110
0.75182565 0.67564277 0.65506370
0.75182710 0.70616746 0.69278413
0.75182710 0.73143868 0.72498371
0.75182709 0.74684492 0.74512268
0.75182704 0.75156177 0.75139991
0.02879810 0.36275880 0.19042948
0.02768148 0.36395242 0.19096540
0.02744442 0.36608373 0.19214152
0.02955480 0.36897028 0.19430052
0.03168316 0.37298472 0.19673838
0.03050236 0.37875863 0.19316431
0.03446337 0.38670451 0.16823541
0.07736321 0.39598328 0.11115142
0.18173251 0.40444173 0.05117209
0.28694737 0.41086565 0.02409917
0.36331017 0.41512122 0.01905201
0.41800156 0.41687822 0.01927526
0.46298281 0.41588159 0.03861984
0.50349347 0.41236807 0.10238318
0.54069509 0.40444791 0.17366665
0.57576645 0.38363281 0.21644499
0.60862596 0.33394043 0.23880507
0.63789740 0.23662098 0.25652979
0.66240404 0.10801780 0.28054508
0.68407853 0.03270970 0.30877477
0.70588172 0.02728092 0.33403567
0.72814652 0.06274470 0.35576577
0.74616147 0.18409481 0.38419766
0.75182710 0.39731263 0.43289221
0.75182710 0.51633254 0.48476815
0.75182710 0.56985255 0.53070154
0.75179842 0.60691270 0.57296413
0.75181228 0.64220680 0.61468279
0.75182620 0.67578117 0.65520431
0.75182710 0.70624330 0.69286969
0.75182710 0.73147477 0.72502802
0.75182709 0.74685383 0.74513442
0.75182704 0.75156053 0.75139857
0.03870662 0.41111661 0.22280548
0.03805740 0.41190991 0.22311467
0.03830484 0.41332601 0.22374478
0.04042313 0.41523423 0.22498566
0.04323784 0.41785066 0.22715530
0.04303971 0.42159431 0.22827816
0.04085188 0.42700367 0.21948286
0.05196283 0.43423456 0.18516037
0.10922788 0.44224643 0.12028353
0.22198792 0.44910347 0.05677810
0.32947595 0.45389274 0.02871616
0.40496465 0.45647573 0.02336068
0.45841834 0.45663446 0.03648413
0.50153890 0.45463810 0.08549290
0.53947691 0.45100995 0.16623497
0.57464445 0.44326372 0.22410389
0.60799840 0.42158147 0.25370353
0.63916709 0.36423429 0.26824223
0.66682119 0.24952283 0.28067163
0.68984655 0.11801147 0.30120165
0.71044080 0.04369554 0.32698467
0.73091655 0.05644094 0.35163067
0.74729237 0.18424947 0.38312687
0.75182710 0.39976384 0.43391177
0.75182710 0.51741540 0.48581254
0.75182710 0.57044168 0.53136380
0.75179696 0.60740150 0.57339228
0.75181357 0.64255642 0.61498353
0.75182622 0.67598500 0.65540252
0.75182710 0.70635135 0.69298953
0.75182710 0.73152497 0.72508981
0.75182710 0.74686596 0.74515068
0.75182704 0.75155862 0.75139662
0.04908457 0.45571684 0.25422136
0.04931772 0.45624276 0.25440622
0.04995303 0.45718447 0.25473423
0.05110651 0.45845559 0.25532830
0.05228079 0.46018173 0.25662109
0.05178993 0.46260596 0.25859493
0.04798394 0.46612264 0.25801413
0.04445942 0.47118777 0.24433506
0.06253203 0.47777700 0.20197854
0.13660751 0.48475883 0.12802927
0.25990131 0.49031527 0.06394179
0.36799517 0.49371805 0.03914246
0.44320560 0.49484136 0.04260002
0.49558556 0.49364854 0.07213366
0.53669595 0.49071725 0.14355396
0.57264522 0.48653332 0.21815445
0.60603853 0.47842552 0.26424601
0.63761011 0.45579625 0.28655896
0.66695809 0.39835029 0.29694011
0.69303045 0.29029526 0.30633931
0.71534016 0.15300133 0.32264983
0.73479554 0.09674497 0.34639810
0.74883559 0.20181642 0.38180497
0.75182710 0.40685511 0.43523534
0.75182710 0.51838450 0.48714032
0.75182710 0.57074279 0.53224200
0.75179295 0.60794843 0.57398754
0.75181144 0.64303983 0.61540901
0.75182324 0.67628001 0.65568279
0.75182710 0.70650706 0.69315831
0.75182710 0.73159603 0.72517639
0.75182710 0.74688269 0.74517326
0.75182706 0.75155565 0.75139374
0.06191708 0.49685348 0.28457573
0.06241024 0.49720131 0.28469409
0.06325033 0.49782620 0.28487920
0.06434043 0.49867354 0.28513960
0.06563181 0.49982171 0.28572417
0.06657907 0.50140809 0.28705614
0.06580134 0.50366433 0.28871440
0.06257419 0.50696872 0.28641936
0.06261998 0.51171074 0.26853038
0.08480228 0.51775000 0.22021493
0.15965515 0.52389718 0.14252035
0.28704316 0.52839051 0.07735154
0.40167332 0.53059766 0.05452217
0.47852023 0.53044348 0.06317251
0.52978094 0.52801526 0.10610792
0.56915013 0.52403799 0.18890367
0.60331695 0.51909039 0.25926117
0.63488702 0.51057086 0.29912402
0.66456243 0.48857342 0.31776441
0.69211509 0.43405167 0.32624802
0.71695408 0.33183066 0.33346023
0.73777635 0.23093619 0.34837967
0.75023465 0.28978898 0.38391447
0.75182710 0.43221004 0.43781622
0.75182710 0.52147024 0.48891169
0.75182710 0.57096111 0.53337617
0.75178791 0.60853914 0.57478850
0.75180613 0.64366550 0.61599720
0.75181790 0.67668920 0.65607413
0.75182641 0.70672970 0.69339592
0.75182710 0.73169799 0.72529841
0.75182710 0.74690650 0.74520494
0.75182707 0.75155127 0.75138960
0.06968527 0.53480583 0.31337536
0.06979109 0.53503556 0.31345754
0.06995427 0.53544935 0.31358038
0.07016314 0.53601366 0.31370462
0.07045978 0.53678145 0.31390978
0.07064192 0.53783524 0.31449348
0.06975336 0.53930137 0.31582570
0.06602114 0.54140827 0.31711893
0.05923845 0.54452253 0.31328008
0.05778966 0.54898197 0.29167628
0.08083092 0.55456073 0.23577899
0.16793872 0.56001240 0.14381452
0.31665084 0.56358515 0.07062898
0.43578783 0.56473780 0.04754730
0.51176332 0.56340732 0.06474445
0.56158838 0.55975405 0.13776165
0.59920884 0.55466087 0.23049550
0.63151287 0.54872992 0.29598447
0.66117405 0.53930200 0.33163294
0.68896215 0.51689207 0.34864653
0.71478259 0.46838581 0.35694266
0.73695110 0.40703164 0.36696604
0.75019399 0.40459912 0.39511275
0.75182710 0.46824755 0.44353272
0.75182710 0.52760863 0.49174477
0.75182710 0.57184101 0.53496259
0.75178567 0.60932871 0.57586317
0.75180753 0.64444349 0.61678393
0.75182046 0.67722422 0.65660363
0.75182710 0.70703859 0.69372620
0.75182710 0.73184406 0.72547038
0.75182710 0.74694145 0.74524995
0.75182705 0.75154563 0.75138412
0.07359363 0.56985650 0.33932840
0.07377394 0.57000624 0.33941507
0.07409154 0.57027636 0.33955560
0.07456957 0.57064680 0.33969760
0.07527927 0.57115432 0.33984637
0.07617209 0.57185192 0.34013602
0.07679871 0.57281064 0.34090970
0.07602212 0.57415213 0.34248532
0.07302736 0.57610597 0.34372545
0.07150519 0.57902781 0.33872001
0.07648013 0.58321401 0.31314869
0.10939420 0.58837228 0.24872563
0.20573498 0.59321020 0.14906019
0.34971130 0.59599574 0.07294814
0.46708427 0.59619869 0.05303831
0.54257735 0.59376068 0.09260915
0.59103850 0.58895033 0.17704456
0.62680564 0.58270911 0.26909320
0.65717961 0.57545308 0.33035176
0.68492287 0.56434051 0.36337125
0.71081018 0.54279611 0.38050204
0.73374765 0.51084124 0.39244499
0.74888743 0.49169260 0.41397033
0.75182710 0.50713380 0.45393013
0.75182710 0.53937069 0.49700417
0.75182710 0.57518310 0.53763474
0.75178643 0.61082431 0.57742952
0.75180978 0.64543878 0.61783846
0.75182540 0.67788823 0.65730306
0.75182710 0.70744656 0.69417428
0.75182710 0.73204758 0.72570934
0.75182710 0.74699283 0.74531396
0.75182700 0.75153978 0.75137781
0.10058466 0.60219173 0.36179061
0.10068962 0.60228893 0.36187252
0.10088303 0.60246406 0.36201783
0.10116737 0.60270406 0.36219957
0.10159102 0.60303371 0.36241921
0.10220751 0.60348871 0.36272350
0.10298778 0.60411248 0.36329330
0.10364558 0.60496866 0.36453063
0.10371740 0.60617506 0.36674890
0.10282846 0.60795936 0.36856978
0.10035482 0.61068205 0.36306700
0.10155589 0.61461091 0.33463999
0.12835545 0.61939782 0.26377960
0.22021006 0.62369920 0.15224982
0.37064296 0.62575718 0.07066135
0.49396892 0.62506841 0.06039176
0.57051472 0.62162213 0.10706097
0.61778618 0.61572099 0.21633852
0.65177078 0.60832611 0.30944526
0.68023594 0.59956936 0.36480571
0.70609996 0.58716622 0.39588898
0.72945583 0.56902782 0.41535545
0.74657709 0.55150767 0.43604230
0.75182710 0.54839287 0.46929087
0.75182710 0.56033928 0.50644941
0.75182710 0.58375083 0.54270221
0.75179040 0.61417879 0.58012408
0.75180463 0.64694857 0.61938337
0.75182470 0.67872151 0.65823497
0.75182710 0.70795846 0.69476457
0.75182710 0.73231559 0.72603059
0.75182710 0.74706439 0.74540219
0.75182696 0.75153505 0.75137129
0.09741576 0.63186690 0.38298964
0.09742221 0.63193024 0.38305264
0.09742783 0.63204422 0.38316851
0.09742868 0.63220021 0.38332583
0.09743746 0.63241479 0.38353030
0.09748488 0.63271255 0.38379529
0.09758662 0.63312292 0.38418328
0.09759991 0.63368273 0.38492420
0.09710216 0.63444708 0.38653697
0.09537077 0.63552443 0.38946513
0.09107527 0.63714529 0.39204419
0.08387128 0.63968258 0.38619785
0.07949350 0.64337468 0.35433305
0.10482132 0.64780148 0.27342920
0.21687943 0.65156872 0.14612673
0.38790755 0.65295015 0.06198800
0.51801454 0.65146133 0.06197615
0.59539478 0.64701012 0.15649352
0.64171339 0.64008969 0.27426386
0.67391270 0.63169302 0.35306286
0.70058239 0.62186647 0.40017657
0.72432696 0.60968020 0.43060242
0.74313268 0.59643534 0.45563627
0.75180012 0.58831779 0.48619466
0.75182710 0.58915028 0.51997381
0.75182710 0.59997804 0.55191132
0.75180551 0.62144277 0.58534828
0.75179416 0.64984501 0.62206279
0.75181938 0.67995231 0.65959821
0.75182710 0.70860529 0.69554489
0.75182710 0.73264683 0.72644659
0.75182710 0.74715307 0.74551565
0.75182699 0.75152974 0.75136266
0.07105820 0.65885470 0.40571307
0.07113557 0.65889586 0.40575893
0.07127259 0.65896990 0.40584373
0.07145805 0.65907116 0.40596200
0.07171253 0.65921055 0.40612188
0.07207535 0.65940479 0.40633034
0.07256420 0.65967455 0.40660037
0.07298251 0.66004477 0.40701127
0.07274601 0.66054599 0.40785295
0.07161485 0.66122722 0.40972165
0.06922646 0.66219907 0.41296659
0.06599352 0.66370644 0.41533978
0.06490728 0.66610379 0.40787499
0.06578161 0.66955325 0.37138589
0.10221795 0.67360950 0.28081982
0.22973675 0.67690114 0.14947315
0.40690763 0.67769543 0.08808845
0.53991934 0.67529602 0.12862805
0.61819056 0.66975274 0.24076004
0.66267853 0.66205814 0.33559201
0.69301525 0.65306593 0.39557957
0.71801725 0.64311360 0.43668613
0.73847003 0.63269610 0.46917423
0.75034136 0.62410597 0.50114797
0.75182710 0.62036246 0.53552182
0.75182710 0.62308904 0.56587208
0.75182710 0.63472381 0.59492740
0.75178366 0.65574812 0.62714391
0.75180876 0.68224323 0.66192589
0.75182567 0.70955446 0.69667432
0.75182710 0.73305607 0.72698723
0.75182710 0.74724675 0.74564947
0.75182710 0.75151337 0.75134275
0.09932841 0.68322435 0.43037901
0.09941924 0.68325126 0.43040465
0.09958802 0.68329968 0.43045139
0.09982335 0.68336591 0.43051662
0.10014836 0.68345709 0.43060651
0.10060368 0.68358438 0.43072575
0.10122642 0.68376221 0.43087284
0.10198628 0.68400888 0.43105371
0.10277604 0.68434649 0.43134519
0.10360446 0.68480422 0.43200684
0.10457044 0.68543788 0.43344992
0.10596159 0.68636907 0.43571720
0.10708102 0.68781370 0.43674565
0.10356255 0.69005513 0.42772084
0.09957507 0.69325279 0.38819688
0.12591163 0.69698025 0.29750189
0.24438258 0.69982257 0.18019319
0.42865696 0.69978613 0.14135117
0.56528975 0.69616409 0.22024318
0.63922526 0.68982023 0.32344325
0.68014614 0.68172924 0.38981130
0.70903603 0.67264505 0.43654867
0.73202221 0.66340933 0.47574390
0.74751409 0.65521781 0.51199172
0.75182710 0.64982162 0.54949421
0.75182710 0.64849598 0.58172791
0.75182710 0.65330454 0.60862455
0.75179193 0.66617096 0.63576441
0.75179387 0.68677026 0.66613652
0.75181846 0.71127408 0.69855749
0.75182710 0.73364580 0.72775927
0.75182710 0.74733897 0.74580500
0.75182710 0.75146521 0.75129375
0.11607832 0.70543423 0.45162779
0.11612295 0.70545223 0.45163064
0.11620476 0.70548468 0.45163483
0.11631795 0.70552914 0.45163963
0.11647483 0.70559037 0.45164612
0.11669419 0.70567585 0.45165348
0.11699045 0.70579559 0.45165405
0.11739037 0.70596297 0.45162953
0.11793522 0.70619522 0.45156115
0.11865543 0.70651413 0.45147585
0.11953366 0.70695070 0.45154402
0.12047330 0.70755717 0.45220921
0.12078751 0.70843253 0.45384762
0.11766726 0.70976547 0.45439872
0.10678546 0.71183640 0.44402343
0.09331094 0.71480148 0.40221442
0.12465664 0.71816748 0.31233381
0.27746284 0.72022455 0.21410174
0.47339587 0.71879311 0.24322742
0.59499287 0.71415142 0.32966893
0.65707459 0.70740727 0.39274006
0.69452650 0.69922771 0.43789218
0.72218466 0.69046758 0.47842896
0.74207100 0.68231220 0.51769563
0.75157269 0.67597590 0.55753296
0.75182710 0.67253848 0.59398966
0.75182710 0.67347447 0.62247221
0.75182710 0.68048227 0.64710612
0.75178734 0.69460414 0.67306059
0.75180644 0.71454475 0.70186889
0.75182329 0.73468831 0.72901727
0.75182710 0.74746643 0.74602142
0.75182710 0.75136738 0.75120052
