resources/flame/Syncolor/Shared/transforms/camera_manufacturer_luts/arri/ARRI_Alexa_LUTs/ARRI_LogC4_v1_LUT_Package/LUTs/ARRI_LogC4-to-HLG_1K_Rec2100-D65_DW100_v1_33.cube
LUT_3D_SIZE 5
0.00000000 0.00000000 0.00000000
0.13626750 0.00408761 0.01387515
0.77691192 0.01716529 0.09266720
1.00000000 0.55999332 0.41688269
0.99999995 0.99967531 0.99932997
0.00499917 0.14258398 0.01681738
0.21853088 0.22467108 0.00364876
0.78724679 0.09685259 0.09135479
1.00000000 0.56404225 0.41908262
0.99999995 0.99967288 0.99932725
0.00968467 0.75506929 0.05770708
0.03599400 0.76473762 0.03446695
0.75225202 0.76316682 0.15553420
1.00000000 0.64348634 0.46041558
0.99999985 0.99963434 0.99928352
0.64165240 1.00000000 0.49476625
0.64446274 1.00000000 0.49711468
0.70628409 1.00000000 0.54194202
0.96486537 0.98019318 0.70986007
0.99999205 0.99884382 0.99845113
0.99979545 0.99999991 0.99963077
0.99979545 0.99999992 0.99963089
0.99979503 0.99999987 0.99963632
1.00000000 1.00000000 1.00000000
0.99999402 0.99999991 0.99998037
0.01740279 0.00416603 0.12954208
0.20638011 0.01348033 0.20398687
0.78259223 0.08211290 0.21174941
1.00000000 0.56378831 0.42624354
0.99999995 0.99967240 0.99932349
0.00145287 0.20794828 0.19878087
0.22529611 0.22529611 0.22529611
0.78899089 0.15099768 0.21867090
1.00000000 0.56812890 0.42863395
0.99999995 0.99966995 0.99932075
0.00759435 0.76135940 0.12938315
0.07764878 0.76956621 0.12846732
0.75246125 0.76365647 0.23071035
1.00000000 0.64633237 0.46990691
0.99999985 0.99963144 0.99927699
0.64521309 1.00000000 0.49931213
0.64802430 1.00000000 0.50149130
0.70851954 1.00000000 0.54608982
0.96486687 0.98016397 0.71137222
0.99999205 0.99884244 0.99844777
0.99979674 0.99999992 0.99963322
0.99979675 0.99999992 0.99963343
0.99979575 0.99999987 0.99963760
1.00000000 1.00000000 1.00000000
0.99999527 0.99999991 0.99998322
0.14602173 0.16338526 0.81505326
0.18707267 0.18237303 0.81739721
0.77820294 0.16868883 0.77108307
1.00000000 0.63163791 0.64514401
0.99999990 0.99962771 0.99923105
0.14847137 0.19368964 0.81798869
0.18802076 0.20703133 0.82128435
0.78020643 0.18692530 0.77302169
1.00000000 0.63437177 0.64616163
0.99999991 0.99962529 0.99922831
0.51518077 0.74725568 0.73744150
0.52285998 0.74907513 0.73976954
0.74463837 0.74463837 0.74463837
1.00000000 0.68968491 0.66852428
0.99999993 0.99958771 0.99918541
0.71633933 1.00000000 0.62613897
0.71815124 1.00000000 0.62772784
0.74666420 1.00000000 0.64986775
0.96380956 0.97821762 0.76482727
0.99999151 0.99882113 0.99840868
0.99980861 1.00000000 0.99966281
0.99980885 1.00000000 0.99966322
0.99981081 1.00000000 0.99966899
1.00000000 1.00000000 1.00000000
0.99999509 0.99999996 0.99998090
0.52167972 0.72331326 1.00000000
0.52561841 0.72420167 1.00000000
0.60865554 0.74205772 1.00000000
0.98848915 0.75922942 0.97080870
1.00000000 0.99892813 0.99815643
0.52328045 0.72451915 1.00000000
0.52717030 0.72539619 1.00000000
0.60945443 0.74303614 1.00000000
0.98855426 0.75968528 0.97089895
1.00000000 0.99892638 0.99815551
0.54876035 0.74332532 1.00000000
0.55209766 0.74405285 1.00000000
0.62332359 0.75848686 1.00000000
0.98913403 0.76681430 0.97180936
1.00000000 0.99889833 0.99814085
0.90866757 0.96073531 0.95705978
0.90880416 0.96077563 0.95711471
0.91071017 0.96131567 0.95787334
0.95965023 0.95965023 0.95965023
0.99998865 0.99828025 0.99778939
1.00000000 0.99998726 1.00000000
1.00000000 0.99998727 1.00000000
1.00000000 0.99998758 1.00000000
1.00000000 0.99999188 1.00000000
0.99999395 1.00000000 1.00000000
0.99849891 0.99923449 0.99999998
0.99849580 0.99923295 0.99999998
0.99845138 0.99921071 0.99999989
0.99742482 0.99888510 0.99999291
1.00000000 0.99843015 0.99992104
0.99849618 0.99923299 0.99999998
0.99849308 0.99923146 0.99999998
0.99844873 0.99920925 0.99999989
0.99742430 0.99888423 0.99999292
1.00000000 0.99843044 0.99992106
0.99845155 0.99920831 1.00000000
0.99844860 0.99920682 1.00000000
0.99840651 0.99918539 1.00000000
0.99741620 0.99886974 0.99999324
1.00000000 0.99843477 0.99992134
0.99757880 0.99869115 0.99998534
0.99757786 0.99869066 0.99998535
0.99756337 0.99868340 0.99998562
0.99723436 0.99857722 0.99998935
1.00000000 0.99849193 0.99992428
0.99906585 0.99999775 0.99994827
0.99906591 0.99999774 0.99994824
0.99906756 0.99999771 0.99994828
0.99908828 0.99999764 0.99994890
1.00000000 1.00000000 1.00000000
