resources/flame/Syncolor/Shared/transforms/camera_manufacturer_luts/arri/ARRI_Alexa_LUTs/ARRI_LogC4_v1_LUT_Package/LUTs/ARRI_LogC4-to-HLG_1K_Rec2100-D65_DW100_v1_33.cube
LUT_3D_SIZE 9
0.00000000 0.00000000 0.00000000
0.01227352 0.00088659 0.00265381
0.13626750 0.00408761 0.01387515
0.47905366 0.01041795 0.04124565
0.77691192 0.01716529 0.09266720
0.94707938 0.04424002 0.15193603
1.00000000 0.55999332 0.41688269
1.00000000 0.89025103 0.83359483
0.99999995 0.99967531 0.99932997
0.00067221 0.01365878 0.00397828
0.02159724 0.02299489 0.00105838
0.17132867 0.02783300 0.00382434
0.49760164 0.00956842 0.03485135
0.77951940 0.02542612 0.09102823
0.94733803 0.05368744 0.15252159
1.00000000 0.56080722 0.41733345
1.00000000 0.89029839 0.83365133
0.99999995 0.99967492 0.99932956
0.00499917 0.14258398 0.01681738
0.02629116 0.17544328 0.00632835
0.21853088 0.22467108 0.00364876
0.52608468 0.20926034 0.01692772
0.78724679 0.09685259 0.09135479
0.94807747 0.09133252 0.15583793
1.00000000 0.56404225 0.41908262
1.00000000 0.89048090 0.83386951
0.99999995 0.99967288 0.99932725
0.01472974 0.46294471 0.03252660
0.01666889 0.47700111 0.02357180
0.19435895 0.51052653 0.01232947
0.51823435 0.52984497 0.02520815
0.77983816 0.47964160 0.16031219
0.94932125 0.24814814 0.17762407
1.00000000 0.57615868 0.42568767
1.00000000 0.89119904 0.83470640
0.99999994 0.99966502 0.99931841
0.00968467 0.75506929 0.05770708
0.01002677 0.75704718 0.05652951
0.03599400 0.76473762 0.03446695
0.39596528 0.77578224 0.02330966
0.75225202 0.76316682 0.15553420
0.93033123 0.69821778 0.32052449
1.00000000 0.64348634 0.46041558
0.99999442 0.89381149 0.83786528
0.99999985 0.99963434 0.99928352
0.00000000 0.92421865 0.05242568
0.00000000 0.92454369 0.05466418
0.00000000 0.92578006 0.05977279
0.01497333 0.93074594 0.02653767
0.58670245 0.93140887 0.08746399
0.88806108 0.90087163 0.35642346
0.99897139 0.85461759 0.62681635
0.99995223 0.90716064 0.85258512
1.00000000 0.99952038 0.99912962
0.64165240 1.00000000 0.49476625
0.64226028 1.00000000 0.49524531
0.64446274 1.00000000 0.49711468
0.65802007 1.00000000 0.50740411
0.70628409 1.00000000 0.54194202
0.83392461 1.00000000 0.59210473
0.96486537 0.98019318 0.70986007
1.00000000 0.96673890 0.90596914
0.99999205 0.99884382 0.99845113
0.97058809 0.99999072 0.94965654
0.97060481 0.99999079 0.94968306
0.97068084 0.99999107 0.94978618
0.97095975 0.99999229 0.95017103
0.97202780 0.99999123 0.95165181
0.97513134 0.99996283 0.95730567
0.98166458 1.00000000 0.95991151
0.99643763 0.99969510 0.96387202
1.00000000 0.99966809 0.99934471
0.99979545 0.99999991 0.99963077
0.99979509 0.99999991 0.99962989
0.99979545 0.99999992 0.99963089
0.99979613 0.99999992 0.99963260
0.99979503 0.99999987 0.99963632
0.99981045 1.00000000 0.99965020
1.00000000 1.00000000 1.00000000
1.00000000 0.99999603 1.00000000
0.99999402 0.99999991 0.99998037
0.00175627 0.00071894 0.00774038
0.01834697 0.00168514 0.01742591
0.16051757 0.00574416 0.04638531
0.48991267 0.01138407 0.06874301
0.77877209 0.02215057 0.10444055
0.94718760 0.05497884 0.15845848
1.00000000 0.56077552 0.41876677
1.00000000 0.89028479 0.83370862
0.99999995 0.99967478 0.99932881
0.00054163 0.01981685 0.01892521
0.03369007 0.03369007 0.03369007
0.19769291 0.01584725 0.04336116
0.50588737 0.02435003 0.06701400
0.78045797 0.04851191 0.10518513
0.94742823 0.06049447 0.15909682
1.00000000 0.56165887 0.41925791
1.00000000 0.89033140 0.83376462
0.99999995 0.99967439 0.99932840
0.00496842 0.16701817 0.04085450
0.01382903 0.19703194 0.03554585
0.22627414 0.22939020 0.02039950
0.53394358 0.20876088 0.05459566
0.78773401 0.11249743 0.10659478
0.94827262 0.09953329 0.16187958
1.00000000 0.56501037 0.42111900
1.00000000 0.89051207 0.83398127
0.99999995 0.99967235 0.99932608
0.01827302 0.47328202 0.04734750
0.02393724 0.48636451 0.04401478
0.18904860 0.51777689 0.02528786
0.52017577 0.53136752 0.05279043
0.78045160 0.48132421 0.17052397
0.94963301 0.24928231 0.18266591
1.00000000 0.57713030 0.42774770
1.00000000 0.89122910 0.83481679
0.99999994 0.99966448 0.99931723
0.00950778 0.75649399 0.06821520
0.01253738 0.75841004 0.06746577
0.04675932 0.76593646 0.05164893
0.39610375 0.77657038 0.04211267
0.75250875 0.76333463 0.16320085
0.93026898 0.69892138 0.32559800
1.00000000 0.64407565 0.46232134
0.99999441 0.89384237 0.83797410
0.99999985 0.99963381 0.99928234
0.00000000 0.92437387 0.06844276
0.00000000 0.92469741 0.06940227
0.00000000 0.92593075 0.07390929
0.01657284 0.93088712 0.03401632
0.58761987 0.93145692 0.09433708
0.88808609 0.90088939 0.35836676
0.99896686 0.85473215 0.62780827
0.99995223 0.90718471 0.85268083
1.00000000 0.99951992 0.99912858
0.64232628 1.00000000 0.49564863
0.64287922 1.00000000 0.49612860
0.64516072 1.00000000 0.49796951
0.65901578 1.00000000 0.50853314
0.70674915 1.00000000 0.54279492
0.83400447 1.00000000 0.59265495
0.96486591 0.98018778 0.71016160
1.00000000 0.96674609 0.90602902
0.99999205 0.99884357 0.99845052
0.97059178 0.99999074 0.94966568
0.97060953 0.99999081 0.94969216
0.97068845 0.99999109 0.94979557
0.97096370 0.99999231 0.95017978
0.97203057 0.99999125 0.95165969
0.97513240 0.99996283 0.95730988
0.98166297 1.00000000 0.95990871
0.99643784 0.99969472 0.96387938
1.00000000 0.99966800 0.99934431
0.99979554 0.99999991 0.99963084
0.99979564 0.99999990 0.99963133
0.99979570 0.99999992 0.99963137
0.99979347 0.99999992 0.99962778
0.99979502 0.99999987 0.99963629
0.99981072 1.00000000 0.99965145
1.00000000 1.00000000 1.00000000
1.00000000 0.99999603 1.00000000
0.99999508 0.99999986 0.99998237
0.01740279 0.00416603 0.12954208
0.03828660 0.00566883 0.15460313
0.20638011 0.01348033 0.20398687
0.51468810 0.01815157 0.23096622
0.78259223 0.08211290 0.21174941
0.94718663 0.10354301 0.18919294
1.00000000 0.56378831 0.42624354
1.00000000 0.89041698 0.83414761
0.99999995 0.99967240 0.99932349
0.01419844 0.01134532 0.16834043
0.03782310 0.01022238 0.19240649
0.22059561 0.01374530 0.21934776
0.52601248 0.02925666 0.23498480
0.78405955 0.09497532 0.21277641
0.94743508 0.11146373 0.18968334
1.00000000 0.56467380 0.42672972
1.00000000 0.89046351 0.83420341
0.99999995 0.99967201 0.99932308
0.00145287 0.20794828 0.19878087
0.00238002 0.21869759 0.21203295
0.22529611 0.22529611 0.22529611
0.54256933 0.20835369 0.24241209
0.78899089 0.15099768 0.21867090
0.94834364 0.14015500 0.19176974
1.00000000 0.56812890 0.42863395
1.00000000 0.89064271 0.83441833
0.99999995 0.99966995 0.99932075
0.01538856 0.49556915 0.20115499
0.02871320 0.50487662 0.20498045
0.18830645 0.52653168 0.21003714
0.52056025 0.53067238 0.24706330
0.77761868 0.50004524 0.27851052
0.95030238 0.26067408 0.20796755
1.00000000 0.58052268 0.43567138
1.00000000 0.89135300 0.83524659
0.99999994 0.99966208 0.99931188
0.00759435 0.76135940 0.12938315
0.01896229 0.76308532 0.12962909
0.07764878 0.76956621 0.12846732
0.40312624 0.77761855 0.13354955
0.75246125 0.76365647 0.23071035
0.92983344 0.70215366 0.34818721
1.00000000 0.64633237 0.46990691
0.99999440 0.89396314 0.83839478
0.99999985 0.99963144 0.99927699
0.00000000 0.92517139 0.10209911
0.00000000 0.92549092 0.10245824
0.00000000 0.92669477 0.10368030
0.06129702 0.93142840 0.07731707
0.59143862 0.93161134 0.12559509
0.88814345 0.90093844 0.36782709
0.99893160 0.85519960 0.63181817
0.99995223 0.90727799 0.85305082
1.00000000 0.99951785 0.99912382
0.64521309 1.00000000 0.49931213
0.64582174 1.00000000 0.49976529
0.64802430 1.00000000 0.50149130
0.66239083 1.00000000 0.51277092
0.70851954 1.00000000 0.54608982
0.83431797 1.00000000 0.59484661
0.96486687 0.98016397 0.71137222
1.00000000 0.96677424 0.90626142
0.99999205 0.99884244 0.99844777
0.97061874 0.99999087 0.94969938
0.97063801 0.99999094 0.94972587
0.97071561 0.99999121 0.94982970
0.97097842 0.99999242 0.95020985
0.97204004 0.99999140 0.95168672
0.97513565 0.99996286 0.95732367
0.98165623 1.00000000 0.95989491
0.99643873 0.99969320 0.96390854
1.00000000 0.99966769 0.99934282
0.99979674 0.99999992 0.99963322
0.99979502 0.99999986 0.99962817
0.99979675 0.99999992 0.99963343
0.99979659 0.99999992 0.99963357
0.99979575 0.99999987 0.99963760
0.99981199 1.00000000 0.99965363
1.00000000 1.00000000 1.00000000
1.00000000 0.99999603 1.00000000
0.99999527 0.99999991 0.99998322
0.06461597 0.00524844 0.52903976
0.07557221 0.00922675 0.53958495
0.23261515 0.01576860 0.55426458
0.54378706 0.01900445 0.53938504
0.78591755 0.12643342 0.47820294
0.94370713 0.24877379 0.38576226
1.00000000 0.57814805 0.46158611
0.99999949 0.89092641 0.83583928
0.99999994 0.99966286 0.99930170
0.06573677 0.00771737 0.54572151
0.07658529 0.01989881 0.55301655
0.23491866 0.02889838 0.56338500
0.54729395 0.03280949 0.54312104
0.78697720 0.13396001 0.47991521
0.94394509 0.25195181 0.38630358
1.00000000 0.57899127 0.46202015
0.99999951 0.89097275 0.83589472
0.99999994 0.99966246 0.99930128
0.04172844 0.18858405 0.55791609
0.05738070 0.19063195 0.56480554
0.23078863 0.19246631 0.56846346
0.55226757 0.16081954 0.54748995
0.79069835 0.16980669 0.48700127
0.94481399 0.26501174 0.38855663
1.00000000 0.58225923 0.46371973
0.99999958 0.89115161 0.83610866
0.99999994 0.99966041 0.99929895
0.13096389 0.51607046 0.50153040
0.13815326 0.51890536 0.50500987
0.22938231 0.52460428 0.51355870
0.51680602 0.51680602 0.51680602
0.77179128 0.51391849 0.53799095
0.94669374 0.34487206 0.40402356
1.00000000 0.59399122 0.47006675
1.00000000 0.89185362 0.83693095
0.99999992 0.99965255 0.99929002
0.31902985 0.75316037 0.46176644
0.32264203 0.75427584 0.46375625
0.33800585 0.75831612 0.47139030
0.51711647 0.76077999 0.50002627
0.74818555 0.75750014 0.56286652
0.92057013 0.72732096 0.54424813
1.00000000 0.65661565 0.50473476
0.99999163 0.89443542 0.84003484
0.99999983 0.99962218 0.99925530
0.07313324 0.92672537 0.22858521
0.07693268 0.92697455 0.22927592
0.08883031 0.92791210 0.23203305
0.20507088 0.93106445 0.24313577
0.62884862 0.92786180 0.30900845
0.88689718 0.90040961 0.47861226
0.99867748 0.85735996 0.64921652
0.99994868 0.90763596 0.85450509
1.00000000 0.99950988 0.99910444
0.65447465 1.00000000 0.51225049
0.65491515 1.00000000 0.51265870
0.65669644 1.00000000 0.51420208
0.66958866 1.00000000 0.52472748
0.71380267 1.00000000 0.55693443
0.83552886 1.00000000 0.60248485
0.96485766 0.98004778 0.71622525
1.00000000 0.96688445 0.90718523
0.99999211 0.99883806 0.99843628
0.97075658 0.99999005 0.94988433
0.97077438 0.99999012 0.94991065
0.97084463 0.99999042 0.95001336
0.97109396 0.99999169 0.95038836
0.97209930 0.99999037 0.95184289
0.97514704 0.99996068 0.95742057
0.98162644 1.00000000 0.95984748
0.99644190 0.99968714 0.96402251
1.00000000 0.99966646 0.99933736
0.99980063 0.99999982 0.99964033
0.99980073 0.99999987 0.99964038
0.99980076 0.99999987 0.99964049
0.99980079 0.99999987 0.99964092
0.99980024 0.99999981 0.99964496
0.99981689 1.00000000 0.99966150
1.00000000 1.00000000 1.00000000
1.00000000 0.99999605 1.00000000
0.99999527 0.99999991 0.99998349
0.14602173 0.16338526 0.81505326
0.15226788 0.16627874 0.81575312
0.18707267 0.18237303 0.81739721
0.50171978 0.24110991 0.80120038
0.77820294 0.16868883 0.77108307
0.93970218 0.30138990 0.68471452
1.00000000 0.63163791 0.64514401
0.99999727 0.89297068 0.84343328
0.99999990 0.99962771 0.99923105
0.14654880 0.16921824 0.81563081
0.15275942 0.17156867 0.81650842
0.18725942 0.18702953 0.81818169
0.50238215 0.24471745 0.80190364
0.77862120 0.17223053 0.77149999
0.93986876 0.30375699 0.68506322
1.00000000 0.63209150 0.64533121
0.99999730 0.89301685 0.84348536
0.99999990 0.99962732 0.99923064
0.14847137 0.19368964 0.81798869
0.15445010 0.19453362 0.81946363
0.18802076 0.20703133 0.82128435
0.50500401 0.25905458 0.80459559
0.78020643 0.18692530 0.77302169
0.94046169 0.31367613 0.68645130
1.00000000 0.63437177 0.64616163
0.99999743 0.89319464 0.84368688
0.99999991 0.99962529 0.99922831
0.24798738 0.49540205 0.78489010
0.25185981 0.49618764 0.78562715
0.27099188 0.49930492 0.78815266
0.52327243 0.51304973 0.78060571
0.77496600 0.43021671 0.76560118
0.94198865 0.36743047 0.69246535
1.00000000 0.64297722 0.64967038
0.99999851 0.89387887 0.84445688
0.99999988 0.99961756 0.99921937
0.51518077 0.74725568 0.73744150
0.51681542 0.74764778 0.73793677
0.52285998 0.74907513 0.73976954
0.59973561 0.75040694 0.74331219
0.74463837 0.74463837 0.74463837
0.90688526 0.74409082 0.75388005
1.00000000 0.68968491 0.66852428
0.99998028 0.89641488 0.84736850
0.99999993 0.99958771 0.99918541
0.63258624 0.89949548 0.70035459
0.63329455 0.89965715 0.70070831
0.63616100 0.90026488 0.70207619
0.64819951 0.90227075 0.70732518
0.75006749 0.89859523 0.73019006
0.88135246 0.89055430 0.77512637
0.99227284 0.87264188 0.76791747
0.99997426 0.90910593 0.86069765
1.00000000 0.99948066 0.99904336
0.71633933 1.00000000 0.62613897
0.71671264 1.00000000 0.62646549
0.71815124 1.00000000 0.62772784
0.72331763 1.00000000 0.63219847
0.74666420 1.00000000 0.64986775
0.84675720 0.99787053 0.68680908
0.96380956 0.97821762 0.76482727
1.00000000 0.96734902 0.91074748
0.99999151 0.99882113 0.99840868
0.97108976 0.99996163 0.95002866
0.97110546 0.99996169 0.95005464
0.97116579 0.99996198 0.95015433
0.97140181 0.99996309 0.95053797
0.97230536 0.99995967 0.95198137
0.97512368 0.99994506 0.95722326
0.98145859 1.00000000 0.95901203
0.99645612 0.99966516 0.96441512
1.00000000 0.99966152 0.99932240
0.99980861 1.00000000 0.99966281
0.99980871 1.00000000 0.99966300
0.99980885 1.00000000 0.99966322
0.99980947 1.00000000 0.99966421
0.99981081 1.00000000 0.99966899
0.99983044 1.00000000 0.99968660
1.00000000 1.00000000 1.00000000
1.00000000 0.99999599 1.00000000
0.99999509 0.99999996 0.99998090
0.25381845 0.37880880 0.96471178
0.25640904 0.38002657 0.96482994
0.26711030 0.38533428 0.96504123
0.33396142 0.41637459 0.96427716
0.71291813 0.50402002 0.94200058
0.91484911 0.42308443 0.90246547
1.00000000 0.65828026 0.82835892
0.99997795 0.90011222 0.88577215
1.00000000 0.99946282 0.99861983
0.25425189 0.38075914 0.96479088
0.25681189 0.38185015 0.96496370
0.26750166 0.38712348 0.96517187
0.33415939 0.41793817 0.96441225
0.71299525 0.50566334 0.94194458
0.91494565 0.42389923 0.90256603
1.00000000 0.65805528 0.82848887
0.99997799 0.90015628 0.88580965
1.00000000 0.99946247 0.99861958
0.25613989 0.38879937 0.96501042
0.25857624 0.38942806 0.96538864
0.26919110 0.39451945 0.96560983
0.33504949 0.42449351 0.96486001
0.71348803 0.51112209 0.94211752
0.91532575 0.42709298 0.90295605
1.00000000 0.66063747 0.82871647
0.99997814 0.90032069 0.88595614
1.00000000 0.99946064 0.99861806
0.26215264 0.42556706 0.96589996
0.26438423 0.42579642 0.96643349
0.27457777 0.42931119 0.96710313
0.33895713 0.45530855 0.96614682
0.71544899 0.53233621 0.94275243
0.91687600 0.43972318 0.90450187
1.00000000 0.66693690 0.82992301
0.99997920 0.90095651 0.88651533
0.99999999 0.99945380 0.99861228
0.52283822 0.73208651 0.92048933
0.52387379 0.73220720 0.92062646
0.52829930 0.73275761 0.92103124
0.55193193 0.73517684 0.92195746
0.74772998 0.75075347 0.90918802
0.90701127 0.67926648 0.89490039
1.00000000 0.69508322 0.83534460
0.99995743 0.90336923 0.88865248
1.00000000 0.99942678 0.99859045
0.77167009 0.88189789 0.87520303
0.77186090 0.88195925 0.87528216
0.77261779 0.88219155 0.87558327
0.77529764 0.88301354 0.87668462
0.81260385 0.88293078 0.87840549
0.87977324 0.87977324 0.87977324
0.98042732 0.88311894 0.88658973
1.00000000 0.91469738 0.89824206
1.00000000 0.99933815 0.99850318
0.83304941 0.97983782 0.85062788
0.83315822 0.97985304 0.85069817
0.83356841 0.97991421 0.85096057
0.83513411 0.98013678 0.85192981
0.84127826 0.98080698 0.85544148
0.88987103 0.97539722 0.87164188
0.95985459 0.96696806 0.90435307
1.00000000 0.97033039 0.93960585
0.99998463 0.99871978 0.99804087
0.96519773 1.00000000 0.94516915
0.96521389 1.00000000 0.94519228
0.96527634 1.00000000 0.94528207
0.96551266 1.00000000 0.94562194
0.96639134 1.00000000 0.94687616
0.96916533 1.00000000 0.95095947
0.97805406 1.00000000 0.95356393
0.99629993 0.99925067 0.96948473
1.00000000 0.99964425 0.99917712
0.99999798 1.00000000 0.99998974
0.99999797 1.00000000 0.99998999
0.99999805 1.00000000 0.99999017
0.99999842 1.00000000 0.99999070
0.99999974 1.00000000 0.99999384
1.00000000 1.00000000 1.00000000
1.00000000 0.99998858 1.00000000
1.00000000 0.99999473 1.00000000
0.99999468 0.99999943 0.99999376
0.52167972 0.72331326 1.00000000
0.52245995 0.72348803 1.00000000
0.52561841 0.72420167 1.00000000
0.53801362 0.72688521 1.00000000
0.60865554 0.74205772 1.00000000
0.85584480 0.77341177 0.99972573
0.98848915 0.75922942 0.97080870
1.00000000 0.90980917 0.94337955
1.00000000 0.99892813 0.99815643
0.52200541 0.72356249 1.00000000
0.52278413 0.72373796 1.00000000
0.52593394 0.72444811 1.00000000
0.53831175 0.72712628 1.00000000
0.60881708 0.74225755 1.00000000
0.85587992 0.77356797 0.99973118
0.98850294 0.75933256 0.97082676
1.00000000 0.90984279 0.94339630
1.00000000 0.99892785 0.99815631
0.52328045 0.72451915 1.00000000
0.52405327 0.72469722 1.00000000
0.52717030 0.72539619 1.00000000
0.53948231 0.72805381 1.00000000
0.60945443 0.74303614 1.00000000
0.85601584 0.77416246 0.99975242
0.98855426 0.75968528 0.97089895
1.00000000 0.90997419 0.94346179
1.00000000 0.99892638 0.99815551
0.52846670 0.72825851 1.00000000
0.52921865 0.72843426 1.00000000
0.53221184 0.72909978 1.00000000
0.54419096 0.73168128 1.00000000
0.61204096 0.74618962 1.00000000
0.85654186 0.77655609 0.99981766
0.98871204 0.76118502 0.97113893
1.00000000 0.91047248 0.94371201
1.00000000 0.99892093 0.99815251
0.54876035 0.74332532 1.00000000
0.54943417 0.74347444 1.00000000
0.55209766 0.74405285 1.00000000
0.56281853 0.74631836 1.00000000
0.62332359 0.75848686 1.00000000
0.85856901 0.78462712 1.00000000
0.98913403 0.76681430 0.97180936
1.00000000 0.91243026 0.94468623
1.00000000 0.99889833 0.99814085
0.77097963 0.88156533 0.98734007
0.77111554 0.88159446 0.98734863
0.77164687 0.88170767 0.98738161
0.77380586 0.88214140 0.98749123
0.78508694 0.88396461 0.98751866
0.88590509 0.89261329 0.97841440
0.97922745 0.86096435 0.96689295
1.00000000 0.92016643 0.94886474
0.99999929 0.99884091 0.99809872
0.90866757 0.96073531 0.95705978
0.90869562 0.96074362 0.95707110
0.90880416 0.96077563 0.95711471
0.90922710 0.96089426 0.95727731
0.91071017 0.96131567 0.95787334
0.92947123 0.96093307 0.95861730
0.95965023 0.95965023 0.95965023
0.99889567 0.97374789 0.97395770
0.99998865 0.99828025 0.99778939
0.96123814 0.99959326 0.96253598
0.96124971 0.99959337 0.96254591
0.96129501 0.99959372 0.96258458
0.96146679 0.99959509 0.96273117
0.96212378 0.99959918 0.96328105
0.96453811 0.99962269 0.96530600
0.97758025 0.99834284 0.97185358
0.99576955 0.99696054 0.98703838
1.00000000 0.99942612 0.99873332
1.00000000 0.99998726 1.00000000
1.00000000 0.99998724 1.00000000
1.00000000 0.99998727 1.00000000
1.00000000 0.99998733 1.00000000
1.00000000 0.99998758 1.00000000
1.00000000 0.99998632 1.00000000
1.00000000 0.99999188 1.00000000
1.00000000 1.00000000 1.00000000
0.99999395 1.00000000 1.00000000
0.87046844 0.93031846 1.00000000
0.87052239 0.93033679 1.00000000
0.87072916 0.93040755 1.00000000
0.87153211 0.93068008 1.00000000
0.87437157 0.93165632 0.99999637
0.89076785 0.93639118 0.99995924
0.96447198 0.94621735 1.00000000
0.99992115 0.96471094 0.99576442
0.99999463 0.99796213 0.99856369
0.87050736 0.93034020 1.00000000
0.87056129 0.93035852 1.00000000
0.87076798 0.93042924 1.00000000
0.87157057 0.93070161 1.00000000
0.87440928 0.93167744 0.99999638
0.89079510 0.93640987 0.99995925
0.96447766 0.94623271 1.00000000
0.99992107 0.96471984 0.99576518
0.99999463 0.99796204 0.99856368
0.87065756 0.93042421 1.00000000
0.87071142 0.93044237 1.00000000
0.87091784 0.93051293 1.00000000
0.87171905 0.93078468 1.00000000
0.87455513 0.93175897 0.99999636
0.89090150 0.93648220 0.99995928
0.96449975 0.94629228 1.00000000
0.99992075 0.96475440 0.99576806
0.99999463 0.99796160 0.99856358
0.87122441 0.93074210 1.00000000
0.87127807 0.93075935 1.00000000
0.87148364 0.93082858 1.00000000
0.87228095 0.93109827 1.00000000
0.87510837 0.93206624 0.99999744
0.89130712 0.93675493 0.99995990
0.96458405 0.94651735 1.00000000
0.99991947 0.96488584 0.99577895
0.99999464 0.99795999 0.99856321
0.87348883 0.93201775 0.99998321
0.87354134 0.93203334 0.99998325
0.87374236 0.93209542 0.99998337
0.87451500 0.93235277 0.99998392
0.87726118 0.93329575 0.99997646
0.89288744 0.93786270 0.99994077
0.96490430 0.94742127 1.00000000
0.99991386 0.96539290 0.99581904
0.99999471 0.99795327 0.99856186
0.88059286 0.93614016 1.00000000
0.88064252 0.93615280 1.00000000
0.88083559 0.93620190 1.00000000
0.88157452 0.93639042 1.00000000
0.88433289 0.93720709 1.00000000
0.89879255 0.94125471 1.00000000
0.96613528 0.94993521 1.00000000
0.99991908 0.96699457 0.99595658
0.99999391 0.99795149 0.99856135
0.94438427 0.97425003 0.99983077
0.94439859 0.97425415 0.99983083
0.94445427 0.97427014 0.99983097
0.94466673 0.97433104 0.99983153
0.94550452 0.97456029 0.99983235
0.94914305 0.97535149 0.99982052
0.97583325 0.97839683 0.99833762
0.99874494 0.98215558 0.99615747
0.99999576 0.99780527 0.99854554
0.98560713 0.99561629 0.99475201
0.98560968 0.99561698 0.99475294
0.98561953 0.99561967 0.99475654
0.98565699 0.99562986 0.99477023
0.98580076 0.99566762 0.99482131
0.98627049 0.99580738 0.99500936
0.98985804 0.99590102 0.99539856
0.99596596 0.99596596 0.99596596
1.00000000 0.99895847 0.99893807
1.00000000 1.00000000 1.00000000
1.00000000 1.00000000 1.00000000
1.00000000 1.00000000 1.00000000
1.00000000 1.00000000 1.00000000
1.00000000 1.00000000 1.00000000
1.00000000 1.00000000 1.00000000
1.00000000 1.00000000 1.00000000
1.00000000 1.00000000 1.00000000
0.99999815 1.00000000 1.00000000
0.99849891 0.99923449 0.99999998
0.99849834 0.99923421 0.99999998
0.99849580 0.99923295 0.99999998
0.99848600 0.99922814 0.99999997
0.99845138 0.99921071 0.99999989
0.99834121 0.99913906 1.00000000
0.99742482 0.99888510 0.99999291
0.99883779 0.99838068 1.00000000
1.00000000 0.99843015 0.99992104
0.99849842 0.99923422 0.99999998
0.99849785 0.99923394 0.99999998
0.99849531 0.99923268 0.99999998
0.99848551 0.99922787 0.99999997
0.99845090 0.99921045 0.99999989
0.99834077 0.99913882 1.00000000
0.99742474 0.99888494 0.99999292
0.99883779 0.99838065 1.00000000
1.00000000 0.99843021 0.99992104
0.99849618 0.99923299 0.99999998
0.99849561 0.99923271 0.99999998
0.99849308 0.99923146 0.99999998
0.99848330 0.99922665 0.99999997
0.99844873 0.99920925 0.99999989
0.99833879 0.99913774 1.00000000
0.99742430 0.99888423 0.99999292
0.99883778 0.99838048 1.00000000
1.00000000 0.99843044 0.99992106
0.99848801 0.99922852 0.99999995
0.99848744 0.99922825 0.99999995
0.99848492 0.99922701 0.99999995
0.99847518 0.99922222 0.99999994
0.99844067 0.99920490 0.99999986
0.99833136 0.99913378 1.00000000
0.99742263 0.99888160 0.99999291
0.99883776 0.99837986 1.00000000
1.00000000 0.99843133 0.99992112
0.99845155 0.99920831 1.00000000
0.99845101 0.99920803 1.00000000
0.99844860 0.99920682 1.00000000
0.99843928 0.99920214 1.00000000
0.99840651 0.99918539 1.00000000
0.99830164 0.99911597 1.00000000
0.99741620 0.99886974 0.99999324
0.99883773 0.99837698 1.00000000
1.00000000 0.99843477 0.99992134
0.99840061 0.99918572 1.00000000
0.99840006 0.99918544 1.00000000
0.99839763 0.99918421 1.00000000
0.99838833 0.99917962 1.00000000
0.99835447 0.99916273 1.00000000
0.99823324 0.99909320 1.00000000
0.99740297 0.99886503 0.99998954
0.99883679 0.99838372 1.00000000
1.00000000 0.99844684 0.99992219
0.99757880 0.99869115 0.99998534
0.99757865 0.99869106 0.99998534
0.99757786 0.99869066 0.99998535
0.99757495 0.99868913 0.99998540
0.99756337 0.99868340 0.99998562
0.99753316 0.99866283 0.99998399
0.99723436 0.99857722 0.99998935
0.99885295 0.99829282 1.00000000
1.00000000 0.99849193 0.99992428
0.99772734 0.99906550 1.00000000
0.99772741 0.99906550 1.00000000
0.99772765 0.99906549 1.00000000
0.99772856 0.99906542 1.00000000
0.99773186 0.99906521 1.00000000
0.99775158 0.99906470 1.00000000
0.99778841 0.99906571 1.00000000
0.99881821 0.99897314 1.00000000
1.00000000 0.99890177 0.99995552
0.99906585 0.99999775 0.99994827
0.99906585 0.99999775 0.99994826
0.99906591 0.99999774 0.99994824
0.99906625 0.99999774 0.99994825
0.99906756 0.99999771 0.99994828
0.99907266 0.99999763 0.99994848
0.99908828 0.99999764 0.99994890
0.99934252 0.99999091 0.99996279
1.00000000 1.00000000 1.00000000
