resources/flame/Syncolor/Shared/transforms/camera_manufacturer_luts/arri/ARRI_Alexa_LUTs/ARRI_LogC4_v1_LUT_Package/LUTs/ARRI_LogC4-to-HLG_1K_Rec2100-P3lim-D65_DW100_v1_33.cube
LUT_3D_SIZE 33
0.00000000 0.00000000 0.00000000
0.00000000 0.00046545 0.00044727
0.00080523 0.00164078 0.00165784
0.00426252 0.00199574 0.00219091
0.01136005 0.00298289 0.00350292
0.02324141 0.00587974 0.00649643
0.04377890 0.01105314 0.01095968
0.07734252 0.01944366 0.01717896
0.12614238 0.03158384 0.02545345
0.18867804 0.04708744 0.03577762
0.26324631 0.06549723 0.04825593
0.34906488 0.08655548 0.06301410
0.44400318 0.11005064 0.08000579
0.53946498 0.13551106 0.09886022
0.62205870 0.16257083 0.11919819
0.68955890 0.19036542 0.14032174
0.74609101 0.21932603 0.16236558
0.79531522 0.24923232 0.18511372
0.83957263 0.27907159 0.20790426
0.88003619 0.30931980 0.23088728
0.91783664 0.33974311 0.25339818
0.95358253 0.37236264 0.27599860
0.98228359 0.43113415 0.31621214
0.99286641 0.54764670 0.40821397
0.99191128 0.65989965 0.52520799
0.99024311 0.73726827 0.62707075
0.99045679 0.79515547 0.70941236
0.99076819 0.84633752 0.78259019
0.99278223 0.89360713 0.84946236
0.99700846 0.93632155 0.90911398
0.99966514 0.97160633 0.95893339
1.00000000 0.99307689 0.98980155
1.00000000 0.99964427 0.99937974
0.00038198 0.00000000 0.00040828
0.00048359 0.00052655 0.00104537
0.00127478 0.00167113 0.00221097
0.00478149 0.00195508 0.00250878
0.01199650 0.00283133 0.00370264
0.02406723 0.00570580 0.00672492
0.04518803 0.01105756 0.01129808
0.07978807 0.01979496 0.01765791
0.12924282 0.03220581 0.02596213
0.19174893 0.04779648 0.03618481
0.26597765 0.06616446 0.04849978
0.35136174 0.08716100 0.06312482
0.44584786 0.11056480 0.08001579
0.54078101 0.13591598 0.09880395
0.62287613 0.16289173 0.11912138
0.69006141 0.19061638 0.14024409
0.74641152 0.21952831 0.16229946
0.79552862 0.24938820 0.18505489
0.83971761 0.27919004 0.20785173
0.88013366 0.30941904 0.23084666
0.91790262 0.33982501 0.25336630
0.95362707 0.37242996 0.27597435
0.98230663 0.43121608 0.31621703
0.99286903 0.54774353 0.40826043
0.99190978 0.65995492 0.52524999
0.99024220 0.73729476 0.62709695
0.99045674 0.79516951 0.70942767
0.99076812 0.84634613 0.78260006
0.99278244 0.89361242 0.84946862
0.99700873 0.93632460 0.90911771
0.99966523 0.97160783 0.95893534
1.00000000 0.99307731 0.98980213
1.00000000 0.99964429 0.99937977
0.00165101 0.00089324 0.00176529
0.00177586 0.00139567 0.00238465
0.00252242 0.00244071 0.00335619
0.00608230 0.00270330 0.00302049
0.01367248 0.00319226 0.00373325
0.02651487 0.00577832 0.00666624
0.04919099 0.01128495 0.01143201
0.08561609 0.02044920 0.01811372
0.13566471 0.03315393 0.02660597
0.19767918 0.04883036 0.03682825
0.27105165 0.06719152 0.04900695
0.35554972 0.08816661 0.06344379
0.44918666 0.11147144 0.08012445
0.54314959 0.13665794 0.09874058
0.62434145 0.16348776 0.11898194
0.69096456 0.19107932 0.14008671
0.74699262 0.21989408 0.16216120
0.79591822 0.24966459 0.18493412
0.83998278 0.27939744 0.20774723
0.88031207 0.30959092 0.23076620
0.91802334 0.33996679 0.25330337
0.95370904 0.37254473 0.27592483
0.98234869 0.43136231 0.31622377
0.99287306 0.54792102 0.40834644
0.99190634 0.66005612 0.52532824
0.99024032 0.73734188 0.62714487
0.99045665 0.79519417 0.70945518
0.99076800 0.84636142 0.78261774
0.99278281 0.89362193 0.84947987
0.99700924 0.93633009 0.90912442
0.99966539 0.97161050 0.95893881
1.00000000 0.99307802 0.98980310
1.00000000 0.99964425 0.99937974
0.00300555 0.00486822 0.00329114
0.00315576 0.00548194 0.00379242
0.00396415 0.00677832 0.00440233
0.00789906 0.00786392 0.00350528
0.01721370 0.00810387 0.00292573
0.03294433 0.01021669 0.00489549
0.05898722 0.01523286 0.00920740
0.09721645 0.02358703 0.01589281
0.14682847 0.03524007 0.02483858
0.20724916 0.05014118 0.03587501
0.27878170 0.06820878 0.04885111
0.36164587 0.08916347 0.06370505
0.45386468 0.11248792 0.08039562
0.54636753 0.13759640 0.09880560
0.62629922 0.16430509 0.11886984
0.69217755 0.19173345 0.13988203
0.74778684 0.22040881 0.16195239
0.79645884 0.25004484 0.18474447
0.84035342 0.27967403 0.20758434
0.88056262 0.30981121 0.23063955
0.91819350 0.34014307 0.25320305
0.95382463 0.37268753 0.27584612
0.98240751 0.43155756 0.31622849
0.99287778 0.54816720 0.40846686
0.99190085 0.66019608 0.52543808
0.99023753 0.73740583 0.62721116
0.99045653 0.79522738 0.70949274
0.99076784 0.84638220 0.78264189
0.99278334 0.89363493 0.84949529
0.99700997 0.93633760 0.90913362
0.99966561 0.97161412 0.95894353
1.00000000 0.99307892 0.98980437
1.00000000 0.99964413 0.99937961
0.00609204 0.01288862 0.00640954
0.00623322 0.01365651 0.00688518
0.00683410 0.01544196 0.00742519
0.01042416 0.01860812 0.00629401
0.02233128 0.02290943 0.00370877
0.04420451 0.02787788 0.00338485
0.07532295 0.03280549 0.00493465
0.11551338 0.03788077 0.00838007
0.16459151 0.04477263 0.01598435
0.22301802 0.05529851 0.02811106
0.29173562 0.07056473 0.04384634
0.37164624 0.09027275 0.06145379
0.46110525 0.11334559 0.07984034
0.55100659 0.13850614 0.09881429
0.62897547 0.16525658 0.11885387
0.69379910 0.19259303 0.13970087
0.74885505 0.22113241 0.16169662
0.79719863 0.25058998 0.18447663
0.84086831 0.28006371 0.20734139
0.88091471 0.31010560 0.23044436
0.91843436 0.34036597 0.25304573
0.95398786 0.37286776 0.27572495
0.98249004 0.43181927 0.31622970
0.99288406 0.54850646 0.40863342
0.99189296 0.66038953 0.52559061
0.99023371 0.73749379 0.62730262
0.99045641 0.79527297 0.70954437
0.99076758 0.84641084 0.78267517
0.99278404 0.89365288 0.84951655
0.99701097 0.93634796 0.90914628
0.99966591 0.97161910 0.95895004
1.00000000 0.99308014 0.98980609
1.00000000 0.99964395 0.99937941
0.01225098 0.02611217 0.01199795
0.01247059 0.02705148 0.01253639
0.01309517 0.02954856 0.01332113
0.01649927 0.03555750 0.01250595
0.02967921 0.04666857 0.00868480
0.05644394 0.05858689 0.00685698
0.09139199 0.06657144 0.00679480
0.13295095 0.07085725 0.00662734
0.18308152 0.07303039 0.00728220
0.24296337 0.07513727 0.01269867
0.31159843 0.08132512 0.02769051
0.38875047 0.09472370 0.05001219
0.47373597 0.11485220 0.07404455
0.55872313 0.13924787 0.09678436
0.63313380 0.16602603 0.11832593
0.69613715 0.19346448 0.13945085
0.75032259 0.22203135 0.16142121
0.79820430 0.25135427 0.18414940
0.84157593 0.28064092 0.20701174
0.88140684 0.31053532 0.23016077
0.91877574 0.34067422 0.25280822
0.95421994 0.37310987 0.27554221
0.98260705 0.43217874 0.31622539
0.99289308 0.54897858 0.40886523
0.99188225 0.66065933 0.52580346
0.99022940 0.73761588 0.62742888
0.99045665 0.79533637 0.70961581
0.99076723 0.84645088 0.78272160
0.99278500 0.89367799 0.84954628
0.99701236 0.93636242 0.90916398
0.99966633 0.97162605 0.95895911
1.00000000 0.99308184 0.98980849
1.00000000 0.99964369 0.99937913
0.02279588 0.04854225 0.02071110
0.02334972 0.05004873 0.02143592
0.02463872 0.05400753 0.02280762
0.02841330 0.06299647 0.02297730
0.04030751 0.07878333 0.01825683
0.06683292 0.09586095 0.01353694
0.10394203 0.10802502 0.01276242
0.14683749 0.11466889 0.01249637
0.19704849 0.11726730 0.01080282
0.25793850 0.11642359 0.00846967
0.33050649 0.11329380 0.01062086
0.41135517 0.11307672 0.02615572
0.49409769 0.12264924 0.05547415
0.57210987 0.14189373 0.08735724
0.64046297 0.16683867 0.11461995
0.70004690 0.19397386 0.13809353
0.75254916 0.22278253 0.16083445
0.79961499 0.25222174 0.18372504
0.84253833 0.28143861 0.20660728
0.88207928 0.31118255 0.22978912
0.91925121 0.34113550 0.25247210
0.95454754 0.37345753 0.27527413
0.98277297 0.43268286 0.31621160
0.99290649 0.54963850 0.40918750
0.99186825 0.66103550 0.52609985
0.99022599 0.73778406 0.62760151
0.99045788 0.79542411 0.70971437
0.99076680 0.84650677 0.78278643
0.99278628 0.89371315 0.84958791
0.99701429 0.93638268 0.90918873
0.99966692 0.97163578 0.95897180
1.00000000 0.99308423 0.98981184
1.00000000 0.99964334 0.99937874
0.03949320 0.08433570 0.03352270
0.04059687 0.08685198 0.03452459
0.04283650 0.09253308 0.03653108
0.04680374 0.10287907 0.03769379
0.05567046 0.11914974 0.03283223
0.07675657 0.13784356 0.02348051
0.11279491 0.15317784 0.01992830
0.15743058 0.16333141 0.02008239
0.20840883 0.16874376 0.01954061
0.26864103 0.16977590 0.01638266
0.34175270 0.16575266 0.01151143
0.42740111 0.15718429 0.01088701
0.51536448 0.15081480 0.02933885
0.59046859 0.15610828 0.06744244
0.65250414 0.17216963 0.10354734
0.70704011 0.19519099 0.13280246
0.75643035 0.22309928 0.15856474
0.80183733 0.25275080 0.18271188
0.84391181 0.28225397 0.20601837
0.88299516 0.31204942 0.22932676
0.91989932 0.34182453 0.25203404
0.95500119 0.37398615 0.27490353
0.98300546 0.43341032 0.31618803
0.99292597 0.55056969 0.40963659
0.99184955 0.66156228 0.52651305
0.99022271 0.73801715 0.62784040
0.99046014 0.79554548 0.70985112
0.99076621 0.84658451 0.78287694
0.99278804 0.89376226 0.84964616
0.99701697 0.93641102 0.90922336
0.99966774 0.97164939 0.95898954
1.00000000 0.99308757 0.98981652
1.00000000 0.99964285 0.99937819
0.06291540 0.13478721 0.05063638
0.06434980 0.13786050 0.05172597
0.06698926 0.14397500 0.05385483
0.07062788 0.15353232 0.05556696
0.07661820 0.16774588 0.05192031
0.09032542 0.18567615 0.03949846
0.12019056 0.20273368 0.02955953
0.16446630 0.21593456 0.02770652
0.21708294 0.22468862 0.02834790
0.27744277 0.22886718 0.02718764
0.34910603 0.22781699 0.02275105
0.43431654 0.22039838 0.01742590
0.52519023 0.20854716 0.02368748
0.60384628 0.19920016 0.05260481
0.66632677 0.19636919 0.08745911
0.71776666 0.20458298 0.12099902
0.76327320 0.22520363 0.15186098
0.80578110 0.25282214 0.17947305
0.84613872 0.28253625 0.20456107
0.88432790 0.31283094 0.22858210
0.92078776 0.34269579 0.25146572
0.95561711 0.37476850 0.27442694
0.98332271 0.43448326 0.31617304
0.99295068 0.55190556 0.41027347
0.99182330 0.66231123 0.52709298
0.99021871 0.73834479 0.62817340
0.99046362 0.79571411 0.71004133
0.99076544 0.84669229 0.78300313
0.99279047 0.89383054 0.84972751
0.99702069 0.93645056 0.90927175
0.99966888 0.97166842 0.95901432
1.00000000 0.99309224 0.98982307
1.00000000 0.99964216 0.99937743
0.09187778 0.19717830 0.07125124
0.09326197 0.20009321 0.07217209
0.09574645 0.20555226 0.07399006
0.09892405 0.21346126 0.07590791
0.10311849 0.22495957 0.07430369
0.11103288 0.24071714 0.06301376
0.13066390 0.25833354 0.04596780
0.16923046 0.27369699 0.03733414
0.22184743 0.28531922 0.03660429
0.28345989 0.29266469 0.03710406
0.35460241 0.29502635 0.03502098
0.43774056 0.29140895 0.03061524
0.52750644 0.28199815 0.03295850
0.60768283 0.26974542 0.05432443
0.67364798 0.25461197 0.08200478
0.72829171 0.24012516 0.10887752
0.77308542 0.23958945 0.13978474
0.81257760 0.25592542 0.17142983
0.85013161 0.28238745 0.20036185
0.88655057 0.31285875 0.22666524
0.92210959 0.34330983 0.25046705
0.95646914 0.37569192 0.27377622
0.98374808 0.43600306 0.31619788
0.99297387 0.55383124 0.41120180
0.99178284 0.66339498 0.52792009
0.99021276 0.73881693 0.62864212
0.99046876 0.79595268 0.71030675
0.99076451 0.84684242 0.78317888
0.99279391 0.89392524 0.84984092
0.99702591 0.93650549 0.90933928
0.99967047 0.97169494 0.95904891
1.00000000 0.99309879 0.98983221
1.00000000 0.99964123 0.99937638
0.12522143 0.26908839 0.09475395
0.12637816 0.27155326 0.09542249
0.12847337 0.27605505 0.09677604
0.13119898 0.28234249 0.09857482
0.13450666 0.29132820 0.09880925
0.13922136 0.30425304 0.09164557
0.14973783 0.32089389 0.07325302
0.17614110 0.33789247 0.05410050
0.22338472 0.35183393 0.04676119
0.28498204 0.36191385 0.04642317
0.35684842 0.36740740 0.04620918
0.43899603 0.36735451 0.04369774
0.52713882 0.36157181 0.04497825
0.60716782 0.35171848 0.06292482
0.67421070 0.33658237 0.08940311
0.73204462 0.31301585 0.11121339
0.78142212 0.28685411 0.13158527
0.82178188 0.27549466 0.15911739
0.85689844 0.28657865 0.19096048
0.89059310 0.31242758 0.22141220
0.92438138 0.34280846 0.24786756
0.95777958 0.37612312 0.27248438
0.98435007 0.43781676 0.31618426
0.99298949 0.55649213 0.41255205
0.99171634 0.66494661 0.52911522
0.99020156 0.73950746 0.62931154
0.99047563 0.79629955 0.71068092
0.99076331 0.84705532 0.78342463
0.99279881 0.89405729 0.84999902
0.99703324 0.93658167 0.90943336
0.99967271 0.97173174 0.95909713
1.00000000 0.99310788 0.98984494
1.00000000 0.99963996 0.99937491
0.16242203 0.34976364 0.12094937
0.16334356 0.35174878 0.12140974
0.16503079 0.35534649 0.12234086
0.16729900 0.36029129 0.12377334
0.17009623 0.36722942 0.12496391
0.17345069 0.37732201 0.12213743
0.17882699 0.39154342 0.10852294
0.19253056 0.40871704 0.08427609
0.22631447 0.42484098 0.06433239
0.28246337 0.43720174 0.05756740
0.35399913 0.44526278 0.05697939
0.43643790 0.44822990 0.05615582
0.52423524 0.44556161 0.05711213
0.60467842 0.43830949 0.07177250
0.67209078 0.42658394 0.09971746
0.73072493 0.40597189 0.12401174
0.78322499 0.37295109 0.13984565
0.82867225 0.33418300 0.15426116
0.86563972 0.31145905 0.17835299
0.89731674 0.31785964 0.21067273
0.92851928 0.34188703 0.24130965
0.96008617 0.37517184 0.26913739
0.98533753 0.43931525 0.31562779
0.99302343 0.55981141 0.41437738
0.99161460 0.66702113 0.53081445
0.99018066 0.74048382 0.63026968
0.99048346 0.79680751 0.71121430
0.99076118 0.84736385 0.78377155
0.99280558 0.89424421 0.85022050
0.99704347 0.93668783 0.90956459
0.99967585 0.97178270 0.95916425
1.00000000 0.99312040 0.98986260
1.00000000 0.99963815 0.99937283
0.20322489 0.43821534 0.14974447
0.20394363 0.43975252 0.15005662
0.20526493 0.44253524 0.15066483
0.20709014 0.44633592 0.15166035
0.20946285 0.45157805 0.15298776
0.21229705 0.45909043 0.15295298
0.21572292 0.46999842 0.14619949
0.22204209 0.48474991 0.12645651
0.23947512 0.50124686 0.09753229
0.28063351 0.51526000 0.07623114
0.34630617 0.52487947 0.06914148
0.42823239 0.52992441 0.06795798
0.51715385 0.52988733 0.06859456
0.59964755 0.52501039 0.07851224
0.66857854 0.51626312 0.10631402
0.72746975 0.50149026 0.13681353
0.78055138 0.47513573 0.15778836
0.82887400 0.43311302 0.16866879
0.87097515 0.38286143 0.17820136
0.90522473 0.34999249 0.19939480
0.93499462 0.34970195 0.22993833
0.96410706 0.37504533 0.26186879
0.98705077 0.44082952 0.31368897
0.99314903 0.56377138 0.41662490
0.99148696 0.66952165 0.53311223
0.99015011 0.74173959 0.63160335
0.99049137 0.79752255 0.71197172
0.99075660 0.84781238 0.78426515
0.99281446 0.89451302 0.85053333
0.99705749 0.93683763 0.90974859
0.99968012 0.97185363 0.95925786
1.00000000 0.99313754 0.98988703
1.00000000 0.99963543 0.99936979
0.24735344 0.52845221 0.18099855
0.24790667 0.52952552 0.18121010
0.24891919 0.53146347 0.18159521
0.25032794 0.53409669 0.18220372
0.25223930 0.53767495 0.18320072
0.25467507 0.54267455 0.18417859
0.25748552 0.54985773 0.18238545
0.26096870 0.56008156 0.17130401
0.26833283 0.57314642 0.14567435
0.28972234 0.58661490 0.11204162
0.33892774 0.59701776 0.08925778
0.41461617 0.60325442 0.08167104
0.50396136 0.60525220 0.08089711
0.59000539 0.60285580 0.08586894
0.66262253 0.59659399 0.10736827
0.72315184 0.58656138 0.14214289
0.77630047 0.56977661 0.17323302
0.82494967 0.54004160 0.19211267
0.86947641 0.49275516 0.20005901
0.90858423 0.43508542 0.20644017
0.94147526 0.39181430 0.22264004
0.96956494 0.38950824 0.25276885
0.98939996 0.44926907 0.31152578
0.99338256 0.57013753 0.41967842
0.99136278 0.67249505 0.53609294
0.99012056 0.74318422 0.63336900
0.99050043 0.79845286 0.71301799
0.99074833 0.84844526 0.78496298
0.99282665 0.89489984 0.85097650
0.99707665 0.93705171 0.91000827
0.99968570 0.97195359 0.95938920
1.00000000 0.99316120 0.98992097
1.00000000 0.99963127 0.99936528
0.29461595 0.60884823 0.21466453
0.29503936 0.60950421 0.21481075
0.29581012 0.61068240 0.21505957
0.29688172 0.61227575 0.21541186
0.29837045 0.61442560 0.21601631
0.30038940 0.61737917 0.21697379
0.30290010 0.62155245 0.21742332
0.30570445 0.62761663 0.21359589
0.30928044 0.63620465 0.19813455
0.31773256 0.64692068 0.16670120
0.34323186 0.65756548 0.12807337
0.40061275 0.66516938 0.10313317
0.48436046 0.66886299 0.09506059
0.57353939 0.66864448 0.09538710
0.65172952 0.66453178 0.10652701
0.71643794 0.65704622 0.13783047
0.77116624 0.64608175 0.17778035
0.81978466 0.62853247 0.21033664
0.86446147 0.59819934 0.22898718
0.90557507 0.54999072 0.23580286
0.94244585 0.48954031 0.23941648
0.97313260 0.44768663 0.25591267
0.99112956 0.48192258 0.31575354
0.99353126 0.58438102 0.42542458
0.99126437 0.67695285 0.54014013
0.99010946 0.74486392 0.63564915
0.99051485 0.79958172 0.71440971
0.99074099 0.84928863 0.78592167
0.99285016 0.89544159 0.85159410
0.99710454 0.93735748 0.91037425
0.99969300 0.97209637 0.95957470
1.00000000 0.99319472 0.98996870
1.00000000 0.99962517 0.99935878
0.34452116 0.67595592 0.24999987
0.34483663 0.67634616 0.25010797
0.34540879 0.67704437 0.25028374
0.34620030 0.67799018 0.25049379
0.34730594 0.67927135 0.25081017
0.34885826 0.68102355 0.25140886
0.35094141 0.68345736 0.25227924
0.35345620 0.68696070 0.25207181
0.35615162 0.69214651 0.24603603
0.35971234 0.69954008 0.22604439
0.36929515 0.70868737 0.18840255
0.39913924 0.71748534 0.14400774
0.46380983 0.72314872 0.11655738
0.54994484 0.72497337 0.10757375
0.63342598 0.72297001 0.10991578
0.70455402 0.71724792 0.12950763
0.76360239 0.70850919 0.16979519
0.81384070 0.69673466 0.21477557
0.85851039 0.67902754 0.24998834
0.89961289 0.64951969 0.27010000
0.93767934 0.60425541 0.27783412
0.97052021 0.55635648 0.28826164
0.99026452 0.55291320 0.33691066
0.99327613 0.61368139 0.43769496
0.99118062 0.68564948 0.54659607
0.99012848 0.74749581 0.63883815
0.99054087 0.80100730 0.71625586
0.99075025 0.85035118 0.78718900
0.99290581 0.89616094 0.85242272
0.99714836 0.93778366 0.91088187
0.99970305 0.97230035 0.95983651
1.00000000 0.99324363 0.99003679
1.00000000 0.99961728 0.99935027
0.39689592 0.73315123 0.28489847
0.39713183 0.73338840 0.28502055
0.39755930 0.73381325 0.28522486
0.39814883 0.73439286 0.28545525
0.39896907 0.73518538 0.28573638
0.40013128 0.73627288 0.28620579
0.40176278 0.73776583 0.28707347
0.40392687 0.73985940 0.28819457
0.40647322 0.74292645 0.28764203
0.40913857 0.74753453 0.27969296
0.41291204 0.75412819 0.25544986
0.42402394 0.76219054 0.21179326
0.45775279 0.76965439 0.16174370
0.52532773 0.77387481 0.13109800
0.60767663 0.77417634 0.12167707
0.68488615 0.77056897 0.12814978
0.75065647 0.76332932 0.15610595
0.80538043 0.75333784 0.20453754
0.85178819 0.74075074 0.25508981
0.89289504 0.72298662 0.29434675
0.93069194 0.69558523 0.31819029
0.96438048 0.66051818 0.33486224
0.98717618 0.64009163 0.37399589
0.99256823 0.65947942 0.46031822
0.99108287 0.70290110 0.55838146
0.99020090 0.75314845 0.64417840
0.99058734 0.80329065 0.71894833
0.99077785 0.85171211 0.78887418
0.99300296 0.89706771 0.85350578
0.99721413 0.93834990 0.91156678
0.99971716 0.97258411 0.96019998
1.00000000 0.99331517 0.99013388
1.00000000 0.99960906 0.99934061
0.45182628 0.78338531 0.31774816
0.45199904 0.78353341 0.31787065
0.45231205 0.78379906 0.31808929
0.45274193 0.78416220 0.31837265
0.45333489 0.78466082 0.31874399
0.45416972 0.78534855 0.31929015
0.45535663 0.78628976 0.32021168
0.45701873 0.78758054 0.32177299
0.45919420 0.78940373 0.32372775
0.46168371 0.79211430 0.32364849
0.46424725 0.79626537 0.31441646
0.46819082 0.80224654 0.28615469
0.48026578 0.80948565 0.23620680
0.51505629 0.81591389 0.17977912
0.58032251 0.81891937 0.14603691
0.65729910 0.81786769 0.13690739
0.72947997 0.81282479 0.14783177
0.79129712 0.80414438 0.18705239
0.84242967 0.79297237 0.24474760
0.88535070 0.77960751 0.30168495
0.92317503 0.76209672 0.34655211
0.95700678 0.73908609 0.37940196
0.98226448 0.71825109 0.42001739
0.99124665 0.71563232 0.49446122
0.99107310 0.73268045 0.57883943
0.99046136 0.76547424 0.65403712
0.99066952 0.80801236 0.72361920
0.99080511 0.85378987 0.79136041
0.99313861 0.89822122 0.85494137
0.99730579 0.93906341 0.91246264
0.99973633 0.97295721 0.96068676
1.00000000 0.99341443 0.99026761
1.00000000 0.99960234 0.99933077
0.50628468 0.82805338 0.35136738
0.50640327 0.82814754 0.35146879
0.50661773 0.82831658 0.35165476
0.50691132 0.82854767 0.35190886
0.50731379 0.82886560 0.35225108
0.50787495 0.82930671 0.35272753
0.50866834 0.82991377 0.35345539
0.50979929 0.83074005 0.35471072
0.51137436 0.83186672 0.35690235
0.51338758 0.83345733 0.35985100
0.51559874 0.83586054 0.36042993
0.51781315 0.83963352 0.34970653
0.52146470 0.84511673 0.31682753
0.53316440 0.85165399 0.26024954
0.56631779 0.85715399 0.19749778
0.62742760 0.85909897 0.15963498
0.69973563 0.85687213 0.14997565
0.76856008 0.85040299 0.17306488
0.82737596 0.84039036 0.22820593
0.87511222 0.82827364 0.29488653
0.91474868 0.81445039 0.35801043
0.94906265 0.79823819 0.41144360
0.97640352 0.78145029 0.46301211
0.98984727 0.77142686 0.53182700
0.99160006 0.77297710 0.60651729
0.99097570 0.78814373 0.67118196
0.99071503 0.81812172 0.73265793
0.99078201 0.85781389 0.79574021
0.99331153 0.89993939 0.85705535
0.99742660 0.93996633 0.91364218
0.99975954 0.97341739 0.96131409
1.00000000 0.99353704 0.99043893
1.00000000 0.99959477 0.99931776
0.55588313 0.86776424 0.39037866
0.55595791 0.86782429 0.39045882
0.55609269 0.86793213 0.39060661
0.55627668 0.86807951 0.39081182
0.55652835 0.86828243 0.39109127
0.55687710 0.86856526 0.39147098
0.55736559 0.86895785 0.39200388
0.55806250 0.86949578 0.39284586
0.55906618 0.87022236 0.39437456
0.56045585 0.87120851 0.39707021
0.56219158 0.87261753 0.40038168
0.56402098 0.87481199 0.39988408
0.56576363 0.87831199 0.38572822
0.56881039 0.88334374 0.34789003
0.57941090 0.88923212 0.28447437
0.60997775 0.89395721 0.21303719
0.66710973 0.89501992 0.16853712
0.73686235 0.89148060 0.16882707
0.80398539 0.88347591 0.21750069
0.85950196 0.87249221 0.28517915
0.90367505 0.85987163 0.35680236
0.93998851 0.84632634 0.42704038
0.96942828 0.83262719 0.49412750
0.98755612 0.82147339 0.56396859
0.99180282 0.81653011 0.63649870
0.99117081 0.82036997 0.69615175
0.99048470 0.83663809 0.74899836
0.99068879 0.86605217 0.80406988
0.99356650 0.90314493 0.86069951
0.99758838 0.94129080 0.91535524
0.99978328 0.97398466 0.96212788
1.00000000 0.99366599 0.99064012
1.00000000 0.99957176 0.99928745
0.59898103 0.90301999 0.43609221
0.59902769 0.90305867 0.43614010
0.59911152 0.90312819 0.43622739
0.59922592 0.90322322 0.43634835
0.59938265 0.90335405 0.43651361
0.59959960 0.90353676 0.43673563
0.59990105 0.90379206 0.43702926
0.60032559 0.90414603 0.43744301
0.60093515 0.90462981 0.43813947
0.60181155 0.90528452 0.43943108
0.60302340 0.90619028 0.44135643
0.60452345 0.90752415 0.44256195
0.60603624 0.90960094 0.43887694
0.60732982 0.91283052 0.42160145
0.60963592 0.91743553 0.37878322
0.61865855 0.92278230 0.30659653
0.64672701 0.92681306 0.22571332
0.70264212 0.92666840 0.18847943
0.77263898 0.92139175 0.21990078
0.83659824 0.91230158 0.28440924
0.88768967 0.90087561 0.35515835
0.92818615 0.88829699 0.43126208
0.96053219 0.87582327 0.51032196
0.98293112 0.86493638 0.58645360
0.99096420 0.85766304 0.66198416
0.99109979 0.85585506 0.72343704
0.99038537 0.86259794 0.77179907
0.99106540 0.88063139 0.81797191
0.99414625 0.90948153 0.86726745
0.99784460 0.94368947 0.91822429
0.99980937 0.97480167 0.96329320
1.00000000 0.99379224 0.99087383
1.00000000 0.99950444 0.99921291
0.63495911 0.93475477 0.47854930
0.63498814 0.93478038 0.47855505
0.63504014 0.93482651 0.47856375
0.63511107 0.93488968 0.47857357
0.63520850 0.93497666 0.47858532
0.63534364 0.93509815 0.47859660
0.63553061 0.93526835 0.47859710
0.63579040 0.93550633 0.47857269
0.63615716 0.93583647 0.47853232
0.63668477 0.93628944 0.47855048
0.63744479 0.93690892 0.47874580
0.63848681 0.93776915 0.47911325
0.63973834 0.93901217 0.47879563
0.64089822 0.94091033 0.47380228
0.64163267 0.94386615 0.45384039
0.64292564 0.94809813 0.40484750
0.65076531 0.95288558 0.32475986
0.67980284 0.95576361 0.24956284
0.73954049 0.95362530 0.24636121
0.80767505 0.94693633 0.29968762
0.86574462 0.93735379 0.36662285
0.91189567 0.92590196 0.43857317
0.94850142 0.91385035 0.51838664
0.97565277 0.90281093 0.59807975
0.98977343 0.89423341 0.67542469
0.99256574 0.88951186 0.74318570
0.99223060 0.89084537 0.79389960
0.99290574 0.90067696 0.83575434
0.99535082 0.92043967 0.87793183
0.99826996 0.94824879 0.92326389
0.99985095 0.97624737 0.96519690
1.00000000 0.99396692 0.99120023
1.00000000 0.99936803 0.99907151
