resources/flame/Syncolor/Shared/transforms/camera_manufacturer_luts/arri/ARRI_Alexa_LUTs/ARRI_LogC4_v1_LUT_Package/LUTs/ARRI_LogC4-to-St2084_1K_Rec2100-P3lim-D65_DW100_v1_33.cube
LUT_3D_SIZE 33
0.00000000 0.00000000 0.00000000
0.00000000 0.00017069 0.00019395
0.00017736 0.00120374 0.00125975
0.00419259 0.00158782 0.00187126
0.01479256 0.00318347 0.00395695
0.03447027 0.00831629 0.00929104
0.06694088 0.01859782 0.01836715
0.11339908 0.03589010 0.03191021
0.17006248 0.06016867 0.04995394
0.22964102 0.08899025 0.07145770
0.28750119 0.12000127 0.09554321
0.34196242 0.15177971 0.12152916
0.39243682 0.18344521 0.14863154
0.43871064 0.21419505 0.17586787
0.48077112 0.24360358 0.20251974
0.51896312 0.27103222 0.22780294
0.55360976 0.29699837 0.25192501
0.58525977 0.32157768 0.27485591
0.61458851 0.34430510 0.29621136
0.64201688 0.36577783 0.31638065
0.66808177 0.38618015 0.33535127
0.69304549 0.40616956 0.35351732
0.71375898 0.43561360 0.37930647
0.72329466 0.48856950 0.42707130
0.72557755 0.54209502 0.48119517
0.72739612 0.58357570 0.52896907
0.73051467 0.61788786 0.57208732
0.73388510 0.64980867 0.61418119
0.73848255 0.68028912 0.65493076
0.74448926 0.70863086 0.69272593
0.74917063 0.73244802 0.72495197
0.75139977 0.74707315 0.74511504
0.75182710 0.75157119 0.75140529
0.00002282 0.00000000 0.00006894
0.00000000 0.00000000 0.00063179
0.00058008 0.00108268 0.00179934
0.00485375 0.00140755 0.00224265
0.01579774 0.00288092 0.00426496
0.03582171 0.00806719 0.00973746
0.06898191 0.01875458 0.01909270
0.11641083 0.03671595 0.03297428
0.17327893 0.06141671 0.05110044
0.23227659 0.09025108 0.07238731
0.28942638 0.12105719 0.09613045
0.34330412 0.15262992 0.12183592
0.39336009 0.18409388 0.14873930
0.43934626 0.21465757 0.17585770
0.48120537 0.24393434 0.20247289
0.51925985 0.27126649 0.22775314
0.55381208 0.29716951 0.25188692
0.58539946 0.32169882 0.27482442
0.61468579 0.34439016 0.29618393
0.64208379 0.36584311 0.31636086
0.66812793 0.38623001 0.33533684
0.69307711 0.40620688 0.35350676
0.71377626 0.43565240 0.37931025
0.72329849 0.48861342 0.42709447
0.72557817 0.54212242 0.48121495
0.72739665 0.58359060 0.52898217
0.73051543 0.61789651 0.57209588
0.73388562 0.64981415 0.61418715
0.73848306 0.68029257 0.65493470
0.74448968 0.70863289 0.69272835
0.74917082 0.73244904 0.72495325
0.75139981 0.74707343 0.74511542
0.75182710 0.75157121 0.75140531
0.00102202 0.00019523 0.00118233
0.00108281 0.00073822 0.00188255
0.00191357 0.00196463 0.00309516
0.00674691 0.00240801 0.00290129
0.01860921 0.00345583 0.00435831
0.03979179 0.00845272 0.00980484
0.07468063 0.01968089 0.01961331
0.12351402 0.03850764 0.03418726
0.17985445 0.06356640 0.05269527
0.23728524 0.09223930 0.07395242
0.29294330 0.12273412 0.09738399
0.34570701 0.15404188 0.12266907
0.39500290 0.18522321 0.14913837
0.44048021 0.21549290 0.17593013
0.48198607 0.24454269 0.20240085
0.51979779 0.27169707 0.22764516
0.55418122 0.29747932 0.25179741
0.58565504 0.32191432 0.27475327
0.61486367 0.34453960 0.29612632
0.64220617 0.36595659 0.31632008
0.66821231 0.38631672 0.33530759
0.69313520 0.40627084 0.35348456
0.71380776 0.43572132 0.37931593
0.72330499 0.48869367 0.42713728
0.72557885 0.54217259 0.48125176
0.72739749 0.58361734 0.52900608
0.73051682 0.61791189 0.57211132
0.73388658 0.64982396 0.61419791
0.73848399 0.68029877 0.65494185
0.74449044 0.70863656 0.69273272
0.74917116 0.73245085 0.72495553
0.75139987 0.74707392 0.74511607
0.75182710 0.75157118 0.75140529
0.00285609 0.00556607 0.00327618
0.00305159 0.00650827 0.00400262
0.00425783 0.00860706 0.00499355
0.01037211 0.01076511 0.00399632
0.02530126 0.01194213 0.00340472
0.05040161 0.01675924 0.00718688
0.08858568 0.02760502 0.01603497
0.13748135 0.04513621 0.03042636
0.19102956 0.06813977 0.04975190
0.24516450 0.09509260 0.07263613
0.29818304 0.12466111 0.09763616
0.34913333 0.15555648 0.12366203
0.39726152 0.18650803 0.15004496
0.44200732 0.21653488 0.17637488
0.48303570 0.24536137 0.20247336
0.52052923 0.27229806 0.22753507
0.55468992 0.29791390 0.25165917
0.58601056 0.32221193 0.27463235
0.61511211 0.34474058 0.29602992
0.64237759 0.36610374 0.31625173
0.66833083 0.38642606 0.33525823
0.69321681 0.40635120 0.35344776
0.71385166 0.43581295 0.37932122
0.72331341 0.48880471 0.42719714
0.72557931 0.54224204 0.48130336
0.72739851 0.58365389 0.52903916
0.73051873 0.61793278 0.57213250
0.73388789 0.64983734 0.61421267
0.73848528 0.68030727 0.65495166
0.74449151 0.70864158 0.69273871
0.74917163 0.73245331 0.72495864
0.75139995 0.74707454 0.74511690
0.75182710 0.75157110 0.75140521
0.00841709 0.01895350 0.00889457
0.00872605 0.02033244 0.00973957
0.00997039 0.02357032 0.01083748
0.01641749 0.02937547 0.00940875
0.03629326 0.03742805 0.00554874
0.06997413 0.04714870 0.00549162
0.11245168 0.05771600 0.00888935
0.15965163 0.06937553 0.01631840
0.20859962 0.08418481 0.03270683
0.25788304 0.10391292 0.05800460
0.30679233 0.12890391 0.08888000
0.35467241 0.15759628 0.12044904
0.40072490 0.18780340 0.14992253
0.44419758 0.21760571 0.17705132
0.48447247 0.24631329 0.20290325
0.52151568 0.27307435 0.22758145
0.55538043 0.29851554 0.25153201
0.58649976 0.32263565 0.27446686
0.61545786 0.34502458 0.29588179
0.64261817 0.36630286 0.31614117
0.66849802 0.38656678 0.33517665
0.69333164 0.40645375 0.35338884
0.71391305 0.43593554 0.37932534
0.72332488 0.48895759 0.42727991
0.72557976 0.54233806 0.48137507
0.72739994 0.58370426 0.52908484
0.73052140 0.61796152 0.57216165
0.73388967 0.64985578 0.61423304
0.73848705 0.68031899 0.65496519
0.74449298 0.70864850 0.69274697
0.74917227 0.73245670 0.72496293
0.75140005 0.74707538 0.74511804
0.75182710 0.75157098 0.75140508
0.02049059 0.04246238 0.01995827
0.02103479 0.04413801 0.02100976
0.02262069 0.04845957 0.02268230
0.02944001 0.05835264 0.02190520
0.05205969 0.07609970 0.01609042
0.09232613 0.09510159 0.01377675
0.13724846 0.10859876 0.01432983
0.18214519 0.11740583 0.01436648
0.22779561 0.12403334 0.01598251
0.27422596 0.13124185 0.02754179
0.31990031 0.14375141 0.05824265
0.36404739 0.16409828 0.10041810
0.40676314 0.19031559 0.14109280
0.44784751 0.21879550 0.17491244
0.48667932 0.24720904 0.20295319
0.52292455 0.27388614 0.22776591
0.55633035 0.29925358 0.25150607
0.58716925 0.32321781 0.27430812
0.61593600 0.34543911 0.29569253
0.64295549 0.36659305 0.31598035
0.66873489 0.38676328 0.33504995
0.69349457 0.40659285 0.35329712
0.71399984 0.43610396 0.37932702
0.72334105 0.48917030 0.42739489
0.72558057 0.54247201 0.48147521
0.72740256 0.58377421 0.52914804
0.73052538 0.61800150 0.57220209
0.73389216 0.64988154 0.61426146
0.73848950 0.68033538 0.65498410
0.74449503 0.70865817 0.69275850
0.74917317 0.73246143 0.72496891
0.75140019 0.74707656 0.74511963
0.75182710 0.75157081 0.75140490
0.04157526 0.07943065 0.03797034
0.04271239 0.08171599 0.03940229
0.04549725 0.08760498 0.04221375
0.05308848 0.10053619 0.04335581
0.07350113 0.12244295 0.03627836
0.11205836 0.14543436 0.02915966
0.15748177 0.16176944 0.02882266
0.20122967 0.17149603 0.02885049
0.24413243 0.17704373 0.02569844
0.28827067 0.17954377 0.02095121
0.33324789 0.18052027 0.02523675
0.37660678 0.18525620 0.05618045
0.41663305 0.19972454 0.10973141
0.45433150 0.22237550 0.16147931
0.49055656 0.24852324 0.19899246
0.52521738 0.27457415 0.22688593
0.55774083 0.29992845 0.25131917
0.58810376 0.32387750 0.27416115
0.61658958 0.34599786 0.29550029
0.64341952 0.36702086 0.31578586
0.66906610 0.38705482 0.33487351
0.69372476 0.40679322 0.35316078
0.71412277 0.43634067 0.37932385
0.72336417 0.48946775 0.42755402
0.72558230 0.54265888 0.48161453
0.72740786 0.58387081 0.52923464
0.73053149 0.61805696 0.57225805
0.73389569 0.64991751 0.61430116
0.73849290 0.68035832 0.65501057
0.74449788 0.70867169 0.69277463
0.74917443 0.73246805 0.72497726
0.75140039 0.74707820 0.74512185
0.75182710 0.75157058 0.75140464
0.07303464 0.13008122 0.06374505
0.07499264 0.13324823 0.06565296
0.07909312 0.14036229 0.06952845
0.08645288 0.15305626 0.07235910
0.10125356 0.17223983 0.06539170
0.13060427 0.19331087 0.05071273
0.17273709 0.21018602 0.04591868
0.21654447 0.22162744 0.04711176
0.25847934 0.22872180 0.04646968
0.30030918 0.23224159 0.04037594
0.34346652 0.23184565 0.03041497
0.38702387 0.22820451 0.02852517
0.42784372 0.22718788 0.06436524
0.46390276 0.23644664 0.13246228
0.49718388 0.25417914 0.18568072
0.52930079 0.27627647 0.22166361
0.56013081 0.30052202 0.24953640
0.58953952 0.32438398 0.27357682
0.61751374 0.34658007 0.29523607
0.64405334 0.36758109 0.31557961
0.66952033 0.38747958 0.33466201
0.69404500 0.40709413 0.35297759
0.71429550 0.43668292 0.37931716
0.72339716 0.48988795 0.42777484
0.72558532 0.54292083 0.48180824
0.72741619 0.58400501 0.52935440
0.73054036 0.61813391 0.57233577
0.73390063 0.64996761 0.61435662
0.73849762 0.68039036 0.65504761
0.74450186 0.70869061 0.69279719
0.74917618 0.73247730 0.72498894
0.75140067 0.74708051 0.74512495
0.75182710 0.75157026 0.75140429
0.11259108 0.18931879 0.09566518
0.11482904 0.19254745 0.09760258
0.11899768 0.19892386 0.10140891
0.12490009 0.20869353 0.10482300
0.13429402 0.22267327 0.10010976
0.15261954 0.23948831 0.08153173
0.18603351 0.25503555 0.06679907
0.22811801 0.26717402 0.06504648
0.27040767 0.27581019 0.06687230
0.31130377 0.28117898 0.06500161
0.35235170 0.28299313 0.05670018
0.39430485 0.28048849 0.04665638
0.43535932 0.27516234 0.05965771
0.47251498 0.27215506 0.11339194
0.50567981 0.27433776 0.16698231
0.53586976 0.28453827 0.20946748
0.56436732 0.30289462 0.24339410
0.59203662 0.32488951 0.27101947
0.61897476 0.34694112 0.29431270
0.64496327 0.36811555 0.31522575
0.67014291 0.38800961 0.33441622
0.69448230 0.40752927 0.35276179
0.71453326 0.43718605 0.37932396
0.72344234 0.49049109 0.42808936
0.72558973 0.54329330 0.48207999
0.72742825 0.58419372 0.52952109
0.73055296 0.61824108 0.57244381
0.73390755 0.65003725 0.61443393
0.73850419 0.68043498 0.65509933
0.74450741 0.70871701 0.69282871
0.74917863 0.73249023 0.72500525
0.75140105 0.74708373 0.74512929
0.75182710 0.75156981 0.75140380
0.15521692 0.24921012 0.13026148
0.15710198 0.25174034 0.13176183
0.16047433 0.25642443 0.13472753
0.16483841 0.26307913 0.13803068
0.17070184 0.27246913 0.13651625
0.18088081 0.28484209 0.12116174
0.20209738 0.29824452 0.09704367
0.23762779 0.30995980 0.08540609
0.27912775 0.31921585 0.08540878
0.32034223 0.32584599 0.08671646
0.36046570 0.32958309 0.08333011
0.40059559 0.32989824 0.07605019
0.44039515 0.32687504 0.08167392
0.47766693 0.32221212 0.11990795
0.51202046 0.31582726 0.16277003
0.54328524 0.31015794 0.19778424
0.57081559 0.31380001 0.23233460
0.59641266 0.32787307 0.26422701
0.62156032 0.34739588 0.29113483
0.64644170 0.36836401 0.31401246
0.67105308 0.38844142 0.33392555
0.69508539 0.40804294 0.35248479
0.71485484 0.43789181 0.37937303
0.72349948 0.49135895 0.42855554
0.72559420 0.54383120 0.48247030
0.72744516 0.58446435 0.52975607
0.73057081 0.61839231 0.57259451
0.73391731 0.65013436 0.61454160
0.73851340 0.68049700 0.65517144
0.74451516 0.70875376 0.69287271
0.74918205 0.73250827 0.72502804
0.75140159 0.74708823 0.74513534
0.75182710 0.75156919 0.75140312
0.19752554 0.30558615 0.16524246
0.19889481 0.30735107 0.16623165
0.20134583 0.31053036 0.16823434
0.20451429 0.31489602 0.17097610
0.20844702 0.32102043 0.17191471
0.21410250 0.32960055 0.16341866
0.22527142 0.34031159 0.13992178
0.24896347 0.35110946 0.11481434
0.28550361 0.36022522 0.10587855
0.32638522 0.36735114 0.10625233
0.36677291 0.37220218 0.10619291
0.40612046 0.37438599 0.10255625
0.44468712 0.37385017 0.10576822
0.48129355 0.37130720 0.13534891
0.51561359 0.36577639 0.17425202
0.54799980 0.35544150 0.20271894
0.57737626 0.34379087 0.22608954
0.60277563 0.34091998 0.25411389
0.62604804 0.35088383 0.28377330
0.64910523 0.36873254 0.31024977
0.67257540 0.38845447 0.33232360
0.69599198 0.40835996 0.35183141
0.71530524 0.43872709 0.37941721
0.72356898 0.49255410 0.42924375
0.72559520 0.54460026 0.48304144
0.72746765 0.58485715 0.53009387
0.73059582 0.61860996 0.57280722
0.73393108 0.65027152 0.61469212
0.73852631 0.68058354 0.65527198
0.74452600 0.70880483 0.69293403
0.74918682 0.73253334 0.72505980
0.75140235 0.74709450 0.74514377
0.75182710 0.75156834 0.75140217
0.23829866 0.35766905 0.19972485
0.23924695 0.35885398 0.20033874
0.24096074 0.36097051 0.20158247
0.24323285 0.36383654 0.20354146
0.24605141 0.36781445 0.20544101
0.24956910 0.37351837 0.20288136
0.25513986 0.38137026 0.18761453
0.26734937 0.39064892 0.15885968
0.29301440 0.39943358 0.13486229
0.32995790 0.40659832 0.12730806
0.37025532 0.41195481 0.12707639
0.40990046 0.41518498 0.12611397
0.44811361 0.41611827 0.12829759
0.48433877 0.41522123 0.15054727
0.51821717 0.41228663 0.18858746
0.55051492 0.40487796 0.21843583
0.58110643 0.39102955 0.23648480
0.60872865 0.37407524 0.25166744
0.63232834 0.36560206 0.27432870
0.65366506 0.37262011 0.30245577
0.67533221 0.38859203 0.32793597
0.69754434 0.40815494 0.34983308
0.71601454 0.43943268 0.37911512
0.72366930 0.49404539 0.43016108
0.72559078 0.54563636 0.48385780
0.72749657 0.58541323 0.53058108
0.73063027 0.61892536 0.57311134
0.73395028 0.65046841 0.61490460
0.73854436 0.68070559 0.65541275
0.74454114 0.70887603 0.69301955
0.74919348 0.73256812 0.72510404
0.75140340 0.74710316 0.74515548
0.75182710 0.75156713 0.75140083
0.27719838 0.40571542 0.23332779
0.27784444 0.40650368 0.23370334
0.27901988 0.40791136 0.23443648
0.28062188 0.40980890 0.23566343
0.28269039 0.41240809 0.23742628
0.28520845 0.41611543 0.23802525
0.28841253 0.42145461 0.23173369
0.29407251 0.42860518 0.21132889
0.30731257 0.43666043 0.17983005
0.33412461 0.44390415 0.15616756
0.37116913 0.44950833 0.14859601
0.41097811 0.45332444 0.14741822
0.44980200 0.45512754 0.14867858
0.48645534 0.45505557 0.16272968
0.52038935 0.45351263 0.19830492
0.55227580 0.44943276 0.23337051
0.58277446 0.44006411 0.25544880
0.61158428 0.42319649 0.26663668
0.63751744 0.40216158 0.27615828
0.65958828 0.38964110 0.29495586
0.67981652 0.39324954 0.32041809
0.70025613 0.40854851 0.34529081
0.71720922 0.44019539 0.37789359
0.72384873 0.49584266 0.43122326
0.72558911 0.54691674 0.48494566
0.72753551 0.58614616 0.53126027
0.73067715 0.61937033 0.57354468
0.73397666 0.65075232 0.61520693
0.73856945 0.68087998 0.65561134
0.74456215 0.70897625 0.69313936
0.74920269 0.73261656 0.72516571
0.75140485 0.74711504 0.74517169
0.75182710 0.75156535 0.75139888
0.31410598 0.45007217 0.26580425
0.31454329 0.45059517 0.26603678
0.31533781 0.45153191 0.26645986
0.31643323 0.45279694 0.26714160
0.31790544 0.45451482 0.26831725
0.31977859 0.45692310 0.26971215
0.32201018 0.46040299 0.26877290
0.32494761 0.46539878 0.25910394
0.33069546 0.47191984 0.23474738
0.34469343 0.47897603 0.20093332
0.37238483 0.48496382 0.17753610
0.40948888 0.48923974 0.16983854
0.44880757 0.49169064 0.16925318
0.48662048 0.49223340 0.17590596
0.52157916 0.49115191 0.20214421
0.55367962 0.48858047 0.24044672
0.58378124 0.48321665 0.27121022
0.61244317 0.47221645 0.28849538
0.63938630 0.45343796 0.29591659
0.66369439 0.43011531 0.30232546
0.68497888 0.41356261 0.31656801
0.70417619 0.41561043 0.33983914
0.71892120 0.44405281 0.37648181
0.72413972 0.49873792 0.43260740
0.72561214 0.54848345 0.48631314
0.72759353 0.58703341 0.53215282
0.73074063 0.61996209 0.57414567
0.73401286 0.65115324 0.61563497
0.73860484 0.68112982 0.65589242
0.74459143 0.70911889 0.69330819
0.74921534 0.73268467 0.72525214
0.75140678 0.74713146 0.74519420
0.75182710 0.75156262 0.75139599
0.34902224 0.49101917 0.29705580
0.34931860 0.49136531 0.29720469
0.34985494 0.49198727 0.29745776
0.35059653 0.49283098 0.29782063
0.35161992 0.49397481 0.29846631
0.35299582 0.49555474 0.29957557
0.35471190 0.49779625 0.30052620
0.35672162 0.50106422 0.29811309
0.35946073 0.50573899 0.28566448
0.36523604 0.51171957 0.25821208
0.37968225 0.51796279 0.22242251
0.40788276 0.52291978 0.19868743
0.44499211 0.52604499 0.19101855
0.48379659 0.52728150 0.19179698
0.52055843 0.52663193 0.20477249
0.55403309 0.52441418 0.23834064
0.58445863 0.52071326 0.27685984
0.61275493 0.51420075 0.30503396
0.63950994 0.50214261 0.31997611
0.66464019 0.48245051 0.32579693
0.68769106 0.45787354 0.33005186
0.70763372 0.44174171 0.34294302
0.72060850 0.45840244 0.37912723
0.72451281 0.50514221 0.43541176
0.72569647 0.55081039 0.48813414
0.72768579 0.58810918 0.53329365
0.73082603 0.62070366 0.57495012
0.73406515 0.65169351 0.61622610
0.73865866 0.68148063 0.65628504
0.74463340 0.70932221 0.69354598
0.74923283 0.73278161 0.72537400
0.75140932 0.74715461 0.74522577
0.75182710 0.75155863 0.75139183
0.38185270 0.52882249 0.32666247
0.38205008 0.52905122 0.32676300
0.38240606 0.52946323 0.32692733
0.38289670 0.53002518 0.32712836
0.38358020 0.53079016 0.32744105
0.38453328 0.53184066 0.32805735
0.38580203 0.53330137 0.32907370
0.38734986 0.53539405 0.32956226
0.38912594 0.53847174 0.32582139
0.39162209 0.54286487 0.31097603
0.39730973 0.54839116 0.28055590
0.41204157 0.55395492 0.24225207
0.44073911 0.55801864 0.21791256
0.47785502 0.56012478 0.20988236
0.51614986 0.56023109 0.21274138
0.55193240 0.55838559 0.23323059
0.58398994 0.55500907 0.27180249
0.61274151 0.55022666 0.31018356
0.63920265 0.54278626 0.33700787
0.66409429 0.53011751 0.35119327
0.68752780 0.51067216 0.35706301
0.70817892 0.49043686 0.36463864
0.72138847 0.48989273 0.39208249
0.72498202 0.51865721 0.44172515
0.72592058 0.55530678 0.49108261
0.72784289 0.58974213 0.53488725
0.73094213 0.62164982 0.57602482
0.73414602 0.65238479 0.61701497
0.73874703 0.68195145 0.65681596
0.74469521 0.70960639 0.69387655
0.74925739 0.73291975 0.72554580
0.75141275 0.74718816 0.74527067
0.75182710 0.75155343 0.75138634
0.41264133 0.56375426 0.35353989
0.41277363 0.56390349 0.35363330
0.41301187 0.56417269 0.35378964
0.41333919 0.56454182 0.35396816
0.41379442 0.56504766 0.35418991
0.41443783 0.56574341 0.35457080
0.41533416 0.56670015 0.35531847
0.41651594 0.56803773 0.35644549
0.41793377 0.56997862 0.35672183
0.41954046 0.57286499 0.35203651
0.42187215 0.57698718 0.33533547
0.42753326 0.58209950 0.30258343
0.44250010 0.58706337 0.26248990
0.47137740 0.59035919 0.23715771
0.50832208 0.59154175 0.22937428
0.54607312 0.59057110 0.23616592
0.58082956 0.58758600 0.26260772
0.61146540 0.58311152 0.30406319
0.63852775 0.57736176 0.34229594
0.66317467 0.56920567 0.36864445
0.68624812 0.55663596 0.38342169
0.70710288 0.54062882 0.39326196
0.72158366 0.53146403 0.41328301
0.72580842 0.54139750 0.45311774
0.72646731 0.56453167 0.49660528
0.72816317 0.59307756 0.53759993
0.73111799 0.62310994 0.57759374
0.73426157 0.65327521 0.61807026
0.73887817 0.68255324 0.65751616
0.74478311 0.70998689 0.69432480
0.74929166 0.73311213 0.72578454
0.75141763 0.74723697 0.74533455
0.75182710 0.75154790 0.75138003
0.44168047 0.59599771 0.37716005
0.44176848 0.59609467 0.37724269
0.44192682 0.59626937 0.37738946
0.44214327 0.59650875 0.37757775
0.44244180 0.59683754 0.37782007
0.44286227 0.59729155 0.37817341
0.44345809 0.59791451 0.37878625
0.44428657 0.59877016 0.37988971
0.44537003 0.59997439 0.38143968
0.44664619 0.60174749 0.38199388
0.44806270 0.60443594 0.37688802
0.45017697 0.60830215 0.35884098
0.45566325 0.61304666 0.32405704
0.47061349 0.61748269 0.28187980
0.49958515 0.62006610 0.25579594
0.53636289 0.62037231 0.24896681
0.57349365 0.61839683 0.25923202
0.60725207 0.61432875 0.29286129
0.63645928 0.60886602 0.33698548
0.66181261 0.60231546 0.37493997
0.68468723 0.59380944 0.40127440
0.70545490 0.58269116 0.41855634
0.72114453 0.57263156 0.43747429
0.72699602 0.57162094 0.46969484
0.72768238 0.58119829 0.50652249
0.72892319 0.60030104 0.54279362
0.73144353 0.62601560 0.58031162
0.73442276 0.65461470 0.61961746
0.73905490 0.68332515 0.65844773
0.74490132 0.71047135 0.69491462
0.74933767 0.73336642 0.72610535
0.75142439 0.74730469 0.74542263
0.75182710 0.75154321 0.75137353
0.46848581 0.62559990 0.39940420
0.46854339 0.62566311 0.39946645
0.46864694 0.62577687 0.39958016
0.46878810 0.62593255 0.39973439
0.46898160 0.62614667 0.39993904
0.46925180 0.62644382 0.40021833
0.46963386 0.62685358 0.40064265
0.47017662 0.62741316 0.40139407
0.47093004 0.62817792 0.40276994
0.47190277 0.62925442 0.40476981
0.47302029 0.63086541 0.40567769
0.47422756 0.63336897 0.40014840
0.47609607 0.63699884 0.38065148
0.48140866 0.64138679 0.34385317
0.49643116 0.64529829 0.29980948
0.52539456 0.64721310 0.27214687
0.56179581 0.64671525 0.26534555
0.59847382 0.64372541 0.28507176
0.63130967 0.63865064 0.32780360
0.65896418 0.63239650 0.37273244
0.68259517 0.62533066 0.40920918
0.70346689 0.61716543 0.43598964
0.72028848 0.60873239 0.45882420
0.72861720 0.60364961 0.48780163
0.72993783 0.60472331 0.52067661
0.73042279 0.61382359 0.55225206
0.73205057 0.63219984 0.58560720
0.73467205 0.65716401 0.62230960
0.73929707 0.68446725 0.65981081
0.74505569 0.71108862 0.69569352
0.74939538 0.73368261 0.72652040
0.75143225 0.74738889 0.74553582
0.75182710 0.75153784 0.75136496
0.49309266 0.65253496 0.42257999
0.49313047 0.65257606 0.42262471
0.49319850 0.65264999 0.42270688
0.49329132 0.65275110 0.42282055
0.49341841 0.65289028 0.42297426
0.49359485 0.65308419 0.42317982
0.49384219 0.65335352 0.42346246
0.49419400 0.65372344 0.42390751
0.49469767 0.65422501 0.42473894
0.49539610 0.65490753 0.42628096
0.49629151 0.65587943 0.42837282
0.49730616 0.65737708 0.42879291
0.49837611 0.65974042 0.42201311
0.50007804 0.66312928 0.40109169
0.50525023 0.66715086 0.36227772
0.52002410 0.67058847 0.31461562
0.54852900 0.67191048 0.28341618
0.58496770 0.67050736 0.28530797
0.62161971 0.66643063 0.32326609
0.65312128 0.66058140 0.36931695
0.67898959 0.65383613 0.41057159
0.70077868 0.64671327 0.44499778
0.71873157 0.63961281 0.47414463
0.72983917 0.63375865 0.50393966
0.73242693 0.63106369 0.53691013
0.73236255 0.63349122 0.56655568
0.73301234 0.64366091 0.59532131
0.73515163 0.66237907 0.62742654
0.73969642 0.68657284 0.66214287
0.74527063 0.71198971 0.69682116
0.74946460 0.73407457 0.72705934
0.75143821 0.74747871 0.74566909
0.75182710 0.75152218 0.75134509
0.51585760 0.67687362 0.44701454
0.51588296 0.67690049 0.44704019
0.51592867 0.67694886 0.44708680
0.51599121 0.67701502 0.44715130
0.51607705 0.67710610 0.44723938
0.51619607 0.67723323 0.44735692
0.51636167 0.67741080 0.44750926
0.51659440 0.67765716 0.44771780
0.51692605 0.67799465 0.44806734
0.51739938 0.67845289 0.44874574
0.51805776 0.67908756 0.44987466
0.51890322 0.68001755 0.45095997
0.51983611 0.68145085 0.45002467
0.52075083 0.68365805 0.44229579
0.52218706 0.68679530 0.42000052
0.52687132 0.69048526 0.37797002
0.54109596 0.69346999 0.32665051
0.57004098 0.69398414 0.30356549
0.60758679 0.69140744 0.32867757
0.64318566 0.68651711 0.37191027
0.67257387 0.68023392 0.41220438
0.69647970 0.67334287 0.44888999
0.71594970 0.66662348 0.48299800
0.72956751 0.66076894 0.51613028
0.73437951 0.65667172 0.55163594
0.73449941 0.65567136 0.58279194
0.73460845 0.66002879 0.60919744
0.73638008 0.67172261 0.63611381
0.74053007 0.69073133 0.66636925
0.74562891 0.71360481 0.69870425
0.74955745 0.73463671 0.72782907
0.75143954 0.74756822 0.74582367
0.75182710 0.75147701 0.75129604
0.53613340 0.69904603 0.46824204
0.53615016 0.69906399 0.46824721
0.53618032 0.69909637 0.46825571
0.53622160 0.69914074 0.46826649
0.53627838 0.69920183 0.46828078
0.53635723 0.69928713 0.46829841
0.53646656 0.69940657 0.46831490
0.53661861 0.69957350 0.46832261
0.53683235 0.69980516 0.46832495
0.53713684 0.70012346 0.46836552
0.53757188 0.70055954 0.46854137
0.53817263 0.70116550 0.46895438
0.53892384 0.70203829 0.46937161
0.53970055 0.70335904 0.46801345
0.54033961 0.70539392 0.45952155
0.54128867 0.70829380 0.43519426
0.54553058 0.71162055 0.39123148
0.56073089 0.71385601 0.34818710
0.59248775 0.71306970 0.35009973
0.62983355 0.70950721 0.38405429
0.66271483 0.70417558 0.42056293
0.68955154 0.69773276 0.45428294
0.71126191 0.69099643 0.48841062
0.72758500 0.68488336 0.52350352
0.73606054 0.68002374 0.56065139
0.73767508 0.67724759 0.59553688
0.73771057 0.67824223 0.62326290
0.73897365 0.68478580 0.64755022
0.74211406 0.69796944 0.67332533
0.74626374 0.71666137 0.70202032
0.74971175 0.73562196 0.72908492
0.75144046 0.74769148 0.74603877
0.75182710 0.75138563 0.75120259
