resources/flame/Syncolor/Shared/transforms/camera_manufacturer_luts/arri/ARRI_Alexa_LUTs/ARRI_LogC4_v1_LUT_Package/LUTs/ARRI_LogC4-to-Gamma26_P3-DCI_v1-33.cube
LUT_3D_SIZE 9
0.00000000 0.00000000 0.00000000
0.02452466 0.00340860 0.00885706
0.21683211 0.01176401 0.04995146
0.61960379 0.04016127 0.12549121
0.96803566 0.06085744 0.20558245
0.99984430 0.47448590 0.40266077
1.00000000 0.75039657 0.68843557
0.99999998 0.96714535 0.95657297
1.00000000 0.99897810 0.99861944
0.00250092 0.02644811 0.01592250
0.03726042 0.04088918 0.00679507
0.25493993 0.02847240 0.02945151
0.63962835 0.03187590 0.12019786
0.97225360 0.07094390 0.20488196
0.99982030 0.47612642 0.40360470
1.00000000 0.75078187 0.68880775
0.99999999 0.96717191 0.95660440
1.00000000 0.99897818 0.99861953
0.01068867 0.21371884 0.09953691
0.00726767 0.24254361 0.09752217
0.35456634 0.36081753 0.00352358
0.71105820 0.27660012 0.07898843
0.99219067 0.11854727 0.19836893
0.99987660 0.48279001 0.40740323
1.00000000 0.75228447 0.69026727
1.00000000 0.96727332 0.95672463
1.00000000 0.99897848 0.99861981
0.01325029 0.56129763 0.24115762
0.01248343 0.57362318 0.24370302
0.05917730 0.64114407 0.15636903
0.66962786 0.67419530 0.04565270
0.99837075 0.51810794 0.26130768
0.99976571 0.51244864 0.42441177
1.00000000 0.75822177 0.69605677
0.99999999 0.96765811 0.95718151
1.00000000 0.99897971 0.99862100
0.00000000 0.88952677 0.33541167
0.00000000 0.89237505 0.33620820
0.00000000 0.90427064 0.34471961
0.11442494 0.95748334 0.17538962
0.88328120 0.90268959 0.08863103
1.00000000 0.73235663 0.56307607
0.99997254 0.78297281 0.72047547
1.00000000 0.96913917 0.95893294
0.99999999 0.99898362 0.99862504
0.72289661 1.00000000 0.69921679
0.72477580 1.00000000 0.70076051
0.73198351 1.00000000 0.70668301
0.75549299 1.00000000 0.73134352
0.85014578 1.00000000 0.80104765
0.97638491 0.98780050 0.72280630
1.00000000 0.91364948 0.84562846
0.99999347 0.97459747 0.96554848
1.00000000 0.99901200 0.99865240
0.89616800 1.00000000 0.87599041
0.89627062 1.00000000 0.87608199
0.89667030 1.00000000 0.87644328
0.89832302 1.00000000 0.87790581
0.90475971 0.99999062 0.88362417
0.93995169 1.00000000 0.91137368
0.99342908 0.99899126 0.94384516
1.00000000 0.99251818 0.98544039
0.99999884 0.99908017 0.99874266
0.98617560 0.99999994 0.98207469
0.98618549 0.99999994 0.98208671
0.98622351 0.99999995 0.98213295
0.98636810 0.99999997 0.98230907
0.98693258 0.99999997 0.98299366
0.98893724 1.00000000 0.98550865
0.99494033 1.00000000 0.99222204
0.99944096 0.99994074 0.99606443
1.00000000 0.99981617 0.99967879
0.99956648 1.00000000 0.99942604
0.99956648 1.00000000 0.99942604
0.99956647 1.00000000 0.99942600
0.99956646 1.00000000 0.99942586
0.99956688 1.00000000 0.99942618
0.99957729 0.99999996 0.99943676
0.99959722 1.00000000 0.99946483
0.99971235 0.99999909 0.99954227
0.99996529 0.99999920 0.99971808
0.00230799 0.00130703 0.01311309
0.03397482 0.00578088 0.02893793
0.23625099 0.01540899 0.09035857
0.63058127 0.05024714 0.15717262
0.97119366 0.06784684 0.21648143
0.99982258 0.47588080 0.40571074
1.00000000 0.75068802 0.68905817
0.99999999 0.96716196 0.95660614
1.00000000 0.99897798 0.99861938
0.00240059 0.03571942 0.03356623
0.06385230 0.06385230 0.06385230
0.30434905 0.02541544 0.09470764
0.65171216 0.06293988 0.15517223
0.97516326 0.09239211 0.21626823
0.99980998 0.47748053 0.40665329
1.00000000 0.75107320 0.68943037
0.99999999 0.96718852 0.95663756
1.00000000 0.99897807 0.99861946
0.01096920 0.23272312 0.12421606
0.00801450 0.28425432 0.13902429
0.36484266 0.36917522 0.05154357
0.72286806 0.28457597 0.13695998
0.99243753 0.16344722 0.21402505
0.99989793 0.48408469 0.41044108
1.00000000 0.75257615 0.69088959
1.00000000 0.96728993 0.95675776
1.00000000 0.99897836 0.99861975
0.01298093 0.57112374 0.25054298
0.01150364 0.58548820 0.25384843
0.06788170 0.65259251 0.17391689
0.67125910 0.67582488 0.09104944
0.99735033 0.52255601 0.27698332
0.99977332 0.51394242 0.42750330
1.00000000 0.75851479 0.69667708
0.99999998 0.96767469 0.95721451
1.00000000 0.99897960 0.99862094
0.00000000 0.89165089 0.34010877
0.00000000 0.89457570 0.34096742
0.00000000 0.90671533 0.34927529
0.11188961 0.95948129 0.18490880
0.88329300 0.90294854 0.09960150
1.00000000 0.73321158 0.56557187
0.99997353 0.78325784 0.72107143
1.00000000 0.96915557 0.95896540
0.99999999 0.99898351 0.99862499
0.72414275 1.00000000 0.70076156
0.72601493 1.00000000 0.70230157
0.73308191 1.00000000 0.70825945
0.75656346 1.00000000 0.73279101
0.85054117 1.00000000 0.80169941
0.97639342 0.98779288 0.72319223
1.00000000 0.91375347 0.84595619
0.99999349 0.97461291 0.96557850
1.00000000 0.99901189 0.99865235
0.89627933 1.00000000 0.87614628
0.89638192 1.00000000 0.87623817
0.89678290 1.00000000 0.87660061
0.89843916 1.00000000 0.87806719
0.90487599 0.99999056 0.88378914
0.94002350 1.00000000 0.91150242
0.99343655 0.99898898 0.94386472
1.00000000 0.99252102 0.98545083
0.99999884 0.99908015 0.99874272
0.98618557 0.99999994 0.98208892
0.98619546 0.99999994 0.98210094
0.98623348 0.99999996 0.98214718
0.98637807 0.99999997 0.98232329
0.98694244 0.99999997 0.98300774
0.98894635 1.00000000 0.98552157
0.99494220 1.00000000 0.99222570
0.99944110 0.99994071 0.99606514
1.00000000 0.99981614 0.99967877
0.99956647 1.00000000 0.99942604
0.99956647 1.00000000 0.99942604
0.99956647 1.00000000 0.99942600
0.99956645 1.00000000 0.99942586
0.99956689 1.00000000 0.99942621
0.99957733 0.99999996 0.99943683
0.99959724 1.00000000 0.99946487
0.99971236 0.99999909 0.99954229
0.99996529 0.99999920 0.99971809
0.00302678 0.05156115 0.14031130
0.05514030 0.01148124 0.20646560
0.32931719 0.02680909 0.29084053
0.67041601 0.04779906 0.33915848
0.98666151 0.11139991 0.31473804
0.99984622 0.48212888 0.41959408
1.00000000 0.75183236 0.69153788
1.00000000 0.96722525 0.95673239
1.00000000 0.99897754 0.99861914
0.00443735 0.08219601 0.17055716
0.04303957 0.04917772 0.25761216
0.36462327 0.02900267 0.32357027
0.69195967 0.06989340 0.34714789
0.98917020 0.15061309 0.31644764
0.99987521 0.48370963 0.42049790
1.00000000 0.75221781 0.69191012
1.00000000 0.96725180 0.95676378
1.00000000 0.99897762 0.99861922
0.00879558 0.30811458 0.29613399
0.00145329 0.33444381 0.32094077
0.35939108 0.35939108 0.35939108
0.73532037 0.30683309 0.37757862
0.99616431 0.24207355 0.32581554
0.99991254 0.49041616 0.42422117
1.00000000 0.75372217 0.69336882
1.00000000 0.96735317 0.95688383
1.00000000 0.99897792 0.99861951
0.02172995 0.60144045 0.37661210
0.02749434 0.61616738 0.38419241
0.12581007 0.66649964 0.37673426
0.66220240 0.67098959 0.40273478
0.98464752 0.55770034 0.40327478
0.99982453 0.52043150 0.44106263
1.00000000 0.75966713 0.69915050
0.99999998 0.96773778 0.95734003
1.00000000 0.99897916 0.99862070
0.00170989 0.89772943 0.38639302
0.00157355 0.90092952 0.38742108
0.00163515 0.91407697 0.39230571
0.15003320 0.96386469 0.27124696
0.87881689 0.90371430 0.24726140
1.00000000 0.73697308 0.57536703
0.99997504 0.78438303 0.72346113
1.00000000 0.96921792 0.95908871
0.99999999 0.99898310 0.99862478
0.72849572 1.00000000 0.70605448
0.73039243 1.00000000 0.70762545
0.73727942 1.00000000 0.71380487
0.76080442 1.00000000 0.73767214
0.85210830 1.00000000 0.80230206
0.97642633 0.98773894 0.72449686
1.00000000 0.91416758 0.84727788
0.99999354 0.97467222 0.96569330
1.00000000 0.99901147 0.99865213
0.89671034 1.00000000 0.87678052
0.89681290 1.00000000 0.87687295
0.89721849 1.00000000 0.87723760
0.89888365 1.00000000 0.87870391
0.90532792 0.99999053 0.88444664
0.94030657 1.00000000 0.91202000
0.99346626 0.99897944 0.94393924
1.00000000 0.99253198 0.98549118
0.99999884 0.99908009 0.99874291
0.98622371 0.99999994 0.98214326
0.98623360 0.99999994 0.98215527
0.98627160 0.99999996 0.98220148
0.98641618 0.99999997 0.98237767
0.98697982 0.99999996 0.98306123
0.98898127 1.00000000 0.98557101
0.99494925 1.00000000 0.99223956
0.99944164 0.99994055 0.99606786
1.00000000 0.99981604 0.99967865
0.99956646 1.00000000 0.99942605
0.99956646 1.00000000 0.99942605
0.99956646 1.00000000 0.99942601
0.99956643 1.00000000 0.99942587
0.99956700 1.00000000 0.99942638
0.99957751 0.99999996 0.99943711
0.99959731 1.00000000 0.99946497
0.99971241 0.99999909 0.99954240
0.99996530 0.99999920 0.99971813
0.00693508 0.21533030 0.50086816
0.01107068 0.17806773 0.56959108
0.33285456 0.13123376 0.63953405
0.69923177 0.03430492 0.62059764
0.99414799 0.16780504 0.53906882
0.99985158 0.51577026 0.51660955
1.00000000 0.75676112 0.70262830
1.00000000 0.96746296 0.95721368
1.00000000 0.99897574 0.99861775
0.00746658 0.22928493 0.51261139
0.00945292 0.20735940 0.57251802
0.33574133 0.16447031 0.65027884
0.70715109 0.06977087 0.62806681
0.99605213 0.19196086 0.54165677
0.99985775 0.51756197 0.51760464
1.00000000 0.75714593 0.70299205
1.00000000 0.96748950 0.95724497
1.00000000 0.99897583 0.99861784
0.01713946 0.33896183 0.55528640
0.03114475 0.34209736 0.58102652
0.31497678 0.33335541 0.66383188
0.72618199 0.25068351 0.64893938
0.99902707 0.27913102 0.55235642
0.99986103 0.52484888 0.52165456
1.00000000 0.75864581 0.70441691
1.00000000 0.96759085 0.95736467
1.00000000 0.99897613 0.99861814
0.03073731 0.63729109 0.61408279
0.05250807 0.64283036 0.61971288
0.22318737 0.65792511 0.63693063
0.64560049 0.64560049 0.64560049
0.96467629 0.59458044 0.63265524
1.00000000 0.55585130 0.53932945
0.99999454 0.76455699 0.71003549
0.99999998 0.96797549 0.95781978
1.00000000 0.99897739 0.99861936
0.07136779 0.90029489 0.57720546
0.07923601 0.90292874 0.57859761
0.12397360 0.91241894 0.58371141
0.42750872 0.92316281 0.59636920
0.86005345 0.88226848 0.66108186
1.00000000 0.76737517 0.66836659
0.99995729 0.78902817 0.73365906
1.00000000 0.96945411 0.95956197
0.99999999 0.99898144 0.99862361
0.73562089 1.00000000 0.73217359
0.73769922 1.00000000 0.73356725
0.74508809 1.00000000 0.73907941
0.76790708 1.00000000 0.75874525
0.84956845 1.00000000 0.80243947
0.97581461 0.98726478 0.73776217
1.00000000 0.91583423 0.85267643
0.99999387 0.97489739 0.96613593
1.00000000 0.99900980 0.99865103
0.89831797 1.00000000 0.87913956
0.89842185 1.00000000 0.87923150
0.89882892 1.00000000 0.87959099
0.90047896 1.00000000 0.88102364
0.90699922 0.99997545 0.88692710
0.94141380 1.00000000 0.91412736
0.99357728 0.99894267 0.94415604
1.00000000 0.99257338 0.98564831
0.99999883 0.99907981 0.99874351
0.98637893 0.99999987 0.98236212
0.98638879 0.99999987 0.98237413
0.98642671 0.99999988 0.98242037
0.98657126 0.99999986 0.98259700
0.98712880 1.00000000 0.98327373
0.98911787 1.00000000 0.98576380
0.99497596 1.00000000 0.99229212
0.99944370 0.99993994 0.99607807
1.00000000 0.99981565 0.99967820
0.99956614 1.00000000 0.99942576
0.99956615 1.00000000 0.99942576
0.99956614 1.00000000 0.99942572
0.99956609 1.00000000 0.99942554
0.99956733 1.00000000 0.99942690
0.99957807 0.99999996 0.99943797
0.99959754 1.00000000 0.99946538
0.99971257 0.99999909 0.99954282
0.99996533 0.99999920 0.99971828
0.01042888 0.35208361 0.82427984
0.01122212 0.34401105 0.84740300
0.13664597 0.31746859 0.91598329
0.55272107 0.36252439 0.91190277
0.95706373 0.13721283 0.84883177
1.00000000 0.54401376 0.67409428
1.00000000 0.77717867 0.76307047
0.99999982 0.96836409 0.95909866
1.00000000 0.99897045 0.99862052
0.00955776 0.35798272 0.82696996
0.01084376 0.35113346 0.84826753
0.13291383 0.32496035 0.91810196
0.55368361 0.36938078 0.91341233
0.95814393 0.14364027 0.84978201
1.00000000 0.54575860 0.67491483
1.00000000 0.77757473 0.76340894
0.99999982 0.96839040 0.95912912
1.00000000 0.99897054 0.99862061
0.00894212 0.38058586 0.83920992
0.02537285 0.37708537 0.85520323
0.13131661 0.35725350 0.92222011
0.55728977 0.39631284 0.91775280
0.96180586 0.20107609 0.85305769
1.00000000 0.55254645 0.67821502
1.00000000 0.77911567 0.76473224
0.99999983 0.96849082 0.95924578
1.00000000 0.99897087 0.99862091
0.18632480 0.58786218 0.88990771
0.20443911 0.58903881 0.89295945
0.27447335 0.59381666 0.90158195
0.58281575 0.61356482 0.89534673
0.94824103 0.49251278 0.85413962
1.00000000 0.57949776 0.69185360
1.00000000 0.78516680 0.76992253
0.99999977 0.96887164 0.95968929
1.00000000 0.99897220 0.99862214
0.57020809 0.86010662 0.83715803
0.57288527 0.86071882 0.83797799
0.58298540 0.86279804 0.84089920
0.65957186 0.86445377 0.84777416
0.85144700 0.85144700 0.85144700
0.99979494 0.79948367 0.81320798
0.99995265 0.80928899 0.79103426
1.00000000 0.97033634 0.96138889
0.99999999 0.99897657 0.99862647
0.70098164 1.00000000 0.80791012
0.70251868 1.00000000 0.80859577
0.70848992 1.00000000 0.81120600
0.72869346 1.00000000 0.82036259
0.81603002 0.99614346 0.84111490
0.96108748 0.97467349 0.85834205
1.00000000 0.92641648 0.89055598
0.99999188 0.97571405 0.96779609
1.00000000 0.99900458 0.99865220
0.91458774 0.99994964 0.90212624
0.91468082 0.99994981 0.90221413
0.91503751 0.99995059 0.90255537
0.91646334 0.99994800 0.90388443
0.92215463 0.99995576 0.90944868
0.95085672 1.00000000 0.93156041
0.99400809 0.99855119 0.94435904
1.00000000 0.99271465 0.98619642
0.99999885 0.99907889 0.99874841
0.98681146 1.00000000 0.98298312
0.98682118 1.00000000 0.98299485
0.98685847 1.00000000 0.98303994
0.98699957 1.00000000 0.98321123
0.98753617 1.00000000 0.98385804
0.98952847 0.99999799 0.98632326
0.99505862 1.00000000 0.99246702
0.99945205 0.99993824 0.99611582
1.00000000 0.99981397 0.99967661
0.99956917 0.99999998 0.99943069
0.99956920 0.99999998 0.99943072
0.99956933 0.99999998 0.99943086
0.99956990 0.99999998 0.99943147
0.99957275 0.99999997 0.99943482
0.99958205 0.99999996 0.99944435
0.99959869 1.00000000 0.99946725
0.99971315 0.99999907 0.99954434
0.99996545 0.99999921 0.99971883
0.27985974 0.55252000 1.00000000
0.28849104 0.55380748 1.00000000
0.31023318 0.55822570 1.00000000
0.38082236 0.57196795 1.00000000
0.72846623 0.60954280 1.00000000
1.00000000 0.58986371 0.90141373
0.99989574 0.80320814 0.84881429
1.00000000 0.97177618 0.96901360
0.99999996 0.99893492 0.99856924
0.28242417 0.55447830 1.00000000
0.29083449 0.55572687 1.00000000
0.31217292 0.56010440 1.00000000
0.38211256 0.57375701 1.00000000
0.72880965 0.61117043 1.00000000
1.00000000 0.59092770 0.90154169
0.99989685 0.80356446 0.84905292
1.00000000 0.97180192 0.96903959
0.99999996 0.99893503 0.99856937
0.29315152 0.56217904 1.00000000
0.29918819 0.56331891 1.00000000
0.31921558 0.56744105 1.00000000
0.38728086 0.58078157 1.00000000
0.73013017 0.61743182 1.00000000
1.00000000 0.59511982 0.90203618
0.99989876 0.80495153 0.84998482
1.00000000 0.97190008 0.96913919
0.99999996 0.99893546 0.99856985
0.32058877 0.58967576 1.00000000
0.32586696 0.59065099 1.00000000
0.34415850 0.59421274 1.00000000
0.40732569 0.60631431 1.00000000
0.73535238 0.64067872 1.00000000
1.00000000 0.61117738 0.90407956
0.99990026 0.81031825 0.85357742
1.00000000 0.97227170 0.96951704
0.99999996 0.99893718 0.99857173
0.55836781 0.79474121 0.99492907
0.56032125 0.79504311 0.99497848
0.56823266 0.79614726 0.99518904
0.59894655 0.80029634 0.99350162
0.79023158 0.81905765 0.98415887
0.99776063 0.74686431 0.92740330
0.99992990 0.83013616 0.86721371
1.00000000 0.97369932 0.97095655
0.99999993 0.99894289 0.99857842
0.82473468 0.96419335 0.94939935
0.82514257 0.96423754 0.94948629
0.82672190 0.96439902 0.94981244
0.83259299 0.96489035 0.95096281
0.87358683 0.96329199 0.95334574
0.95524661 0.95524661 0.95524661
1.00000000 0.93896120 0.94213282
0.99998777 0.97862565 0.97602010
1.00000000 0.99897418 0.99861158
0.93259395 1.00000000 0.95101115
0.93268164 1.00000000 0.95106543
0.93301869 1.00000000 0.95127497
0.93429245 1.00000000 0.95205488
0.93847479 1.00000000 0.95474300
0.95640890 0.99996332 0.95980987
0.99097742 0.99445573 0.96730390
1.00000000 0.99307676 0.98922943
0.99999863 0.99907188 0.99874858
0.99026110 0.99999036 0.98803928
0.99026882 0.99999036 0.98804818
0.99029855 0.99999038 0.98808263
0.99041151 0.99999048 0.98821385
0.99083502 0.99998962 0.98869722
0.99221814 0.99998963 0.99036718
0.99471616 1.00000000 0.99220514
0.99949136 0.99990960 0.99629325
1.00000000 0.99980800 0.99966699
0.99958548 1.00000000 0.99945115
0.99958552 1.00000000 0.99945119
0.99958564 1.00000000 0.99945132
0.99958608 1.00000000 0.99945179
0.99958771 1.00000000 0.99945371
0.99959454 1.00000000 0.99946027
0.99960548 0.99999969 0.99947682
0.99971520 0.99999862 0.99955102
0.99996589 0.99999910 0.99972063
0.72214227 0.84151524 0.99998540
0.72267896 0.84170415 0.99999094
0.72474734 0.84243555 1.00000000
0.73250402 0.84517006 1.00000000
0.76114729 0.85500357 0.99988070
0.90974495 0.87626752 1.00000000
1.00000000 0.88876679 0.96075941
0.99998645 0.98119904 0.98529910
1.00000000 0.99869412 0.99854496
0.72253578 0.84178069 0.99998590
0.72306802 0.84196938 0.99999121
0.72513184 0.84269959 1.00000000
0.73287684 0.84542876 1.00000000
0.76146864 0.85524281 0.99988082
0.90983203 0.87647206 1.00000000
1.00000000 0.88889281 0.96080371
0.99998646 0.98121594 0.98531168
1.00000000 0.99869431 0.99854516
0.72403696 0.84279894 0.99998906
0.72456810 0.84298696 0.99999302
0.72661807 0.84371350 1.00000000
0.73431389 0.84642164 1.00000000
0.76271592 0.85616288 0.99988106
0.91017062 0.87725915 1.00000000
1.00000000 0.88938152 0.96097517
0.99998654 0.98128078 0.98536008
1.00000000 0.99869506 0.99854592
0.72980390 0.84671154 0.99999082
0.73031968 0.84689561 0.99999154
0.73229931 0.84760402 0.99999237
0.73978273 0.85023050 0.99999360
0.76742360 0.85969423 0.99987959
0.91143839 0.88027230 1.00000000
1.00000000 0.89123811 0.96163055
0.99998674 0.98152501 0.98554244
1.00000000 0.99869793 0.99854884
0.74859233 0.85938087 0.99998742
0.74906310 0.85954636 0.99998755
0.75088299 0.86018618 0.99998757
0.75779589 0.86256588 1.00000000
0.78364920 0.87110933 1.00000000
0.91592633 0.89013210 1.00000000
1.00000000 0.89791042 0.96409749
0.99998704 0.98243910 0.98621895
1.00000000 0.99870841 0.99855975
0.86439707 0.94019403 1.00000000
0.86459671 0.94024608 1.00000000
0.86537090 0.94044729 1.00000000
0.86832974 0.94119569 1.00000000
0.87932601 0.94383383 0.99976735
0.94191357 0.95225476 0.99766479
1.00000000 0.94067264 0.97978962
0.99998787 0.98519655 0.98831578
1.00000000 0.99875698 0.99860720
0.95746141 0.99178054 0.98793958
0.95749593 0.99178282 0.98794654
0.95762880 0.99179142 0.98797325
0.95813093 0.99182221 0.98807244
0.95989923 0.99191968 0.98842112
0.96976704 0.99148730 0.98919675
0.98977052 0.98977052 0.98977052
1.00000000 0.99365828 0.99389713
0.99999807 0.99891769 0.99877990
0.98949916 1.00000000 0.99184523
0.98950525 1.00000000 0.99184959
0.98952887 1.00000000 0.99186654
0.98961818 1.00000000 0.99193066
0.98995414 1.00000000 0.99216927
0.99106740 1.00000000 0.99299622
0.99462027 0.99998809 0.99487374
0.99950865 0.99971704 0.99727703
1.00000000 0.99971197 0.99956882
0.99964105 0.99999796 0.99951526
0.99964103 0.99999796 0.99951526
0.99964089 0.99999796 0.99951520
0.99964039 0.99999797 0.99951496
0.99963830 0.99999801 0.99951396
0.99963031 0.99999796 0.99950835
0.99962170 0.99999700 0.99951503
0.99972550 0.99999823 0.99959623
0.99996940 1.00000000 0.99974144
0.97697556 0.98770119 0.99999775
0.97699314 0.98770849 0.99999777
0.97705948 0.98773593 0.99999779
0.97730858 0.98783924 0.99999765
0.97826622 0.98821286 0.99999926
0.98082176 0.98946172 0.99994729
0.99336803 0.99131194 1.00000000
1.00000000 0.99481414 0.99813382
0.99999849 0.99881719 0.99908613
0.97699065 0.98770975 0.99999776
0.97700826 0.98771705 0.99999777
0.97707457 0.98774447 0.99999779
0.97732347 0.98784769 0.99999764
0.97828028 0.98822099 0.99999923
0.98083388 0.98946850 0.99994734
0.99337028 0.99131641 1.00000000
1.00000000 0.99481537 0.99813432
0.99999849 0.99881736 0.99908625
0.97704753 0.98774190 0.99999777
0.97706514 0.98774918 0.99999778
0.97713128 0.98777650 0.99999779
0.97737946 0.98787940 0.99999763
0.97833301 0.98825148 0.99999911
0.98088007 0.98949398 0.99994754
0.99337893 0.99133311 1.00000000
1.00000000 0.99481997 0.99813618
0.99999849 0.99881803 0.99908672
0.97725916 0.98786070 0.99999777
0.97727660 0.98786790 0.99999778
0.97734213 0.98789490 0.99999779
0.97758789 0.98799670 0.99999735
0.97853047 0.98836428 0.99999887
0.98105354 0.98958857 0.99994838
0.99341140 0.99139558 1.00000000
1.00000000 0.99483743 0.99814322
0.99999849 0.99882056 0.99908851
0.97808740 0.98833883 0.99999771
0.97810402 0.98834558 0.99999766
0.97816627 0.98837089 0.99999749
0.97839999 0.98846651 0.99999677
0.97928637 0.98881289 0.99999615
0.98169248 0.98996526 0.99995065
0.99352757 0.99163739 1.00000000
1.00000000 0.99490276 0.99816985
0.99999849 0.99883013 0.99909528
0.98004618 0.98937955 0.99999362
0.98006129 0.98938557 0.99999362
0.98011855 0.98940844 0.99999363
0.98033355 0.98949437 0.99999367
0.98113290 0.98980565 0.99999517
0.98348519 0.99080532 0.99999633
0.99388399 0.99217063 1.00000000
1.00000000 0.99511022 0.99825554
0.99999855 0.99886664 0.99912088
0.98783062 0.99470938 0.99974605
0.98783621 0.99471106 0.99974608
0.98785764 0.99471752 0.99974619
0.98793845 0.99474178 0.99974660
0.98824242 0.99482949 0.99974830
0.98919367 0.99509906 0.99975993
0.99419414 0.99530821 0.99970436
1.00000000 0.99608348 0.99870188
0.99999715 0.99897687 0.99919892
0.99486877 0.99951037 0.99904744
0.99486996 0.99951059 0.99904779
0.99487457 0.99951142 0.99904913
0.99489204 0.99951456 0.99905417
0.99495759 0.99952603 0.99907288
0.99518624 0.99956294 0.99913740
0.99625741 0.99959356 0.99929351
0.99941240 0.99941240 0.99941240
1.00000000 0.99954324 0.99956153
0.99976447 1.00000000 0.99976233
0.99976448 1.00000000 0.99976234
0.99976448 1.00000000 0.99976238
0.99976451 1.00000000 0.99976254
0.99976463 1.00000000 0.99976314
0.99976578 1.00000000 0.99976545
0.99977012 0.99999970 0.99977754
0.99981835 1.00000000 0.99981408
0.99998186 1.00000000 0.99987189
0.99828088 0.99910152 1.00000000
0.99828112 0.99910160 1.00000000
0.99828208 0.99910192 1.00000000
0.99828585 0.99910311 1.00000000
0.99829791 0.99910740 1.00000000
0.99836023 0.99912302 1.00000000
0.99846647 0.99917202 0.99999677
0.99945468 0.99918732 1.00000000
1.00000000 0.99944359 0.99979791
0.99828106 0.99910163 1.00000000
0.99828131 0.99910171 1.00000000
0.99828226 0.99910203 1.00000000
0.99828603 0.99910322 1.00000000
0.99829809 0.99910751 1.00000000
0.99836039 0.99912313 1.00000000
0.99846662 0.99917212 0.99999677
0.99945471 0.99918740 1.00000000
1.00000000 0.99944362 0.99979792
0.99828180 0.99910207 1.00000000
0.99828204 0.99910215 1.00000000
0.99828300 0.99910246 1.00000000
0.99828676 0.99910365 1.00000000
0.99829882 0.99910793 1.00000000
0.99836101 0.99912353 1.00000000
0.99846718 0.99917250 0.99999677
0.99945480 0.99918772 1.00000000
1.00000000 0.99944374 0.99979797
0.99828467 0.99910379 1.00000000
0.99828492 0.99910387 1.00000000
0.99828587 0.99910418 1.00000000
0.99828961 0.99910536 1.00000000
0.99830164 0.99910962 1.00000000
0.99836338 0.99912513 1.00000000
0.99846932 0.99917394 0.99999679
0.99945519 0.99918900 1.00000000
1.00000000 0.99944420 0.99979816
0.99829380 0.99910901 1.00000000
0.99829404 0.99910908 1.00000000
0.99829500 0.99910940 1.00000000
0.99829869 0.99911059 1.00000000
0.99831086 0.99911488 1.00000000
0.99837171 0.99913020 1.00000000
0.99847742 0.99917891 0.99999680
0.99945657 0.99919363 1.00000000
1.00000000 0.99944596 0.99979889
0.99833798 0.99913687 1.00000000
0.99833821 0.99913694 1.00000000
0.99833907 0.99913721 1.00000000
0.99834238 0.99913822 1.00000000
0.99835390 0.99914192 1.00000000
0.99840780 0.99915526 1.00000000
0.99850732 0.99920120 0.99999677
0.99946110 0.99921100 1.00000000
1.00000000 0.99945246 0.99980159
0.99845352 0.99919156 0.99999814
0.99845371 0.99919162 0.99999814
0.99845442 0.99919184 0.99999814
0.99845716 0.99919269 0.99999814
0.99846729 0.99919590 0.99999815
0.99850926 0.99920753 0.99999796
0.99861024 0.99925007 0.99999647
0.99947703 0.99925972 1.00000000
1.00000000 0.99947556 0.99981103
0.99882316 0.99952176 1.00000000
0.99882328 0.99952179 1.00000000
0.99882374 0.99952190 1.00000000
0.99882559 0.99952235 1.00000000
0.99883232 0.99952397 1.00000000
0.99885748 0.99952960 1.00000000
0.99893274 0.99954947 1.00000000
0.99945629 0.99955607 1.00000000
1.00000000 0.99959539 0.99987050
0.99958936 1.00000000 0.99996622
0.99958939 1.00000000 0.99996622
0.99958948 1.00000000 0.99996623
0.99958986 1.00000000 0.99996626
0.99959129 1.00000000 0.99996638
0.99959660 1.00000000 0.99996682
0.99961363 1.00000000 0.99996848
0.99971857 0.99999838 0.99997850
1.00000000 1.00000000 1.00000000
