resources/flame/Syncolor/Shared/transforms/camera_manufacturer_luts/arri/ARRI_Alexa_LUTs/ARRI_LogC4_v1_LUT_Package/LUTs/ARRI_LogC4-to-HLG-1K_P3-D65_DW100_v1-33.cube
LUT_3D_SIZE 33
0.00000000 0.00000000 0.00000000
0.00000000 0.00053990 0.00044718
0.00026838 0.00170039 0.00165901
0.00438055 0.00146062 0.00221607
0.01283524 0.00110107 0.00355352
0.02634853 0.00193473 0.00660950
0.04967628 0.00279004 0.01113351
0.08789390 0.00374124 0.01743617
0.14346570 0.00479566 0.02586578
0.21479664 0.00530157 0.03638375
0.30010634 0.00573458 0.04912842
0.39814735 0.00573004 0.06417525
0.50282165 0.00766203 0.08147540
0.59877503 0.01131353 0.10070609
0.67718560 0.01547611 0.12138836
0.74150963 0.01722499 0.14301356
0.79639157 0.02016177 0.16546182
0.84471966 0.02251567 0.18851213
0.88839928 0.01935927 0.21161804
0.92894327 0.00875533 0.23398491
0.96630476 0.00286273 0.25766833
0.99351651 0.09912208 0.29935508
1.00000000 0.34129312 0.37996973
1.00000000 0.52996441 0.47658986
1.00000000 0.64211336 0.56912564
0.99994566 0.71690633 0.65033089
0.99997877 0.77888205 0.72329154
0.99999963 0.83491177 0.79118643
1.00000000 0.88631345 0.85500169
1.00000000 0.93223008 0.91267597
0.99999996 0.96979575 0.96058102
0.99999995 0.99261030 0.99018704
0.99999999 0.99962798 0.99941908
0.00064742 0.00000000 0.00041950
0.00051372 0.00055225 0.00105848
0.00086925 0.00167052 0.00222948
0.00503056 0.00129249 0.00255320
0.01365679 0.00072091 0.00378091
0.02735910 0.00147879 0.00688531
0.05132164 0.00231596 0.01151685
0.09069369 0.00336554 0.01795382
0.14700117 0.00453580 0.02640104
0.21830350 0.00514105 0.03680097
0.30321389 0.00577247 0.04938857
0.40074627 0.00601702 0.06429332
0.50480413 0.00785863 0.08148691
0.60005044 0.01150173 0.10065965
0.67795785 0.01569517 0.12132060
0.74199355 0.01747602 0.14294365
0.79670690 0.02044415 0.16539982
0.84493104 0.02272884 0.18845677
0.88854259 0.01957315 0.21156994
0.92904067 0.00905512 0.23394508
0.96636925 0.00321738 0.25763989
0.99354893 0.09932247 0.29935910
1.00000000 0.34142454 0.38001445
1.00000000 0.53001225 0.47663593
1.00000000 0.64213829 0.56915862
0.99994565 0.71692855 0.65035221
0.99997880 0.77889874 0.72330551
0.99999963 0.83492205 0.79119575
1.00000000 0.88631928 0.85500769
1.00000000 0.93223329 0.91267958
0.99999996 0.96979732 0.96058290
0.99999995 0.99261075 0.99018759
0.99999999 0.99962800 0.99941911
0.00188278 0.00079772 0.00179590
0.00177103 0.00134366 0.00241958
0.00209808 0.00235827 0.00339387
0.00638288 0.00191939 0.00306014
0.01567679 0.00084355 0.00383361
0.03034834 0.00100217 0.00691513
0.05604497 0.00142289 0.01178712
0.09742499 0.00233153 0.01856776
0.15438054 0.00351161 0.02716978
0.22510656 0.00424544 0.03752257
0.30901973 0.00528508 0.04994473
0.40550108 0.00609284 0.06462402
0.50837438 0.00802725 0.08159129
0.60232353 0.01177287 0.10060796
0.67933129 0.01602755 0.12119417
0.74286172 0.01783364 0.14279955
0.79727950 0.02082620 0.16526954
0.84531766 0.02297669 0.18834298
0.88880519 0.01981443 0.21147360
0.92921934 0.00946853 0.23386554
0.96648542 0.00398511 0.25758581
0.99360249 0.10021564 0.29937118
1.00000000 0.34192080 0.38010020
1.00000000 0.53012318 0.47672149
1.00000000 0.64216804 0.56921875
0.99994568 0.71696217 0.65039068
0.99997886 0.77892799 0.72333067
0.99999964 0.83494071 0.79121257
1.00000000 0.88632980 0.85501850
1.00000000 0.93223903 0.91268609
0.99999996 0.96980009 0.96058626
0.99999995 0.99261149 0.99018854
0.99999999 0.99962797 0.99941908
0.00145120 0.00492183 0.00329817
0.00122622 0.00558513 0.00379861
0.00154832 0.00691161 0.00436277
0.00659536 0.00754708 0.00328165
0.01897514 0.00628608 0.00266344
0.03767425 0.00549800 0.00487659
0.06739052 0.00457590 0.00954311
0.11079769 0.00390011 0.01657166
0.16722896 0.00321234 0.02574407
0.23612412 0.00270589 0.03687935
0.31794882 0.00361255 0.04997919
0.41247087 0.00506933 0.06496734
0.51336070 0.00762519 0.08187663
0.60537982 0.01190003 0.10068380
0.68115189 0.01631811 0.12108802
0.74402526 0.01815213 0.14260666
0.79806258 0.02116728 0.16507007
0.84585460 0.02312256 0.18816337
0.88917267 0.01991759 0.21132256
0.92947022 0.00981840 0.23374160
0.96664355 0.00547322 0.25751110
0.99365987 0.10338112 0.29941559
1.00000000 0.34340578 0.38023317
1.00000000 0.53040136 0.47684269
1.00000000 0.64220458 0.56930158
0.99994582 0.71700120 0.65044326
0.99997899 0.77896650 0.72336508
0.99999966 0.83496619 0.79123561
1.00000000 0.88634423 0.85503334
1.00000000 0.93224687 0.91269501
0.99999996 0.96980385 0.96059084
0.99999995 0.99261244 0.99018976
0.99999999 0.99962786 0.99941896
0.00088964 0.01327576 0.00625264
0.00054898 0.01409582 0.00674629
0.00040722 0.01599121 0.00723255
0.00473522 0.01914797 0.00560331
0.02121445 0.02279142 0.00202605
0.04867557 0.02559306 0.00144743
0.08514220 0.02548689 0.00362480
0.13123809 0.02141130 0.00812755
0.18732761 0.01418518 0.01678149
0.25416361 0.00674692 0.02944004
0.33292150 0.00326143 0.04542777
0.42393618 0.00298848 0.06309273
0.52109110 0.00585694 0.08151318
0.60981027 0.01111715 0.10075914
0.68364885 0.01609516 0.12107482
0.74558218 0.01823671 0.14242853
0.79911567 0.02144398 0.16481928
0.84658887 0.02318899 0.18790669
0.88968311 0.01989578 0.21109567
0.92982254 0.01003893 0.23355278
0.96686285 0.00751779 0.25740899
0.99372708 0.10912990 0.29952310
1.00000000 0.34585354 0.38043495
1.00000000 0.53086940 0.47701281
1.00000000 0.64226925 0.56941562
0.99994609 0.71705498 0.65051548
0.99997917 0.77901847 0.72341243
0.99999967 0.83500095 0.79126737
1.00000000 0.88636409 0.85505378
1.00000000 0.93225769 0.91270729
0.99999996 0.96980902 0.96059714
0.99999995 0.99261374 0.99019143
0.99999999 0.99962768 0.99941877
0.00195855 0.02691012 0.01163830
0.00163738 0.02789518 0.01221182
0.00088682 0.03053213 0.01294914
0.00315762 0.03679479 0.01131417
0.02052332 0.04798154 0.00495371
0.05638597 0.05903151 0.00100821
0.09971945 0.06441730 0.00070211
0.14869285 0.06306360 0.00158813
0.20682190 0.05399820 0.00439946
0.27611627 0.03675488 0.01214228
0.35542254 0.01807317 0.02916118
0.44327166 0.00654448 0.05244904
0.53445993 0.00431664 0.07647901
0.61729598 0.00870897 0.09909177
0.68759989 0.01432202 0.12064273
0.74784737 0.01732767 0.14219654
0.80056633 0.02133043 0.16454310
0.84758701 0.02311937 0.18758712
0.89038448 0.01981117 0.21078352
0.93031520 0.01008578 0.23327668
0.96717277 0.00928252 0.25725686
0.99382085 0.11450798 0.29968229
1.00000000 0.34846276 0.38072196
1.00000000 0.53146001 0.47725077
1.00000000 0.64238644 0.56957449
0.99994652 0.71713823 0.65061621
0.99997941 0.77909067 0.72347855
0.99999969 0.83504883 0.79131171
1.00000000 0.88639174 0.85508230
1.00000000 0.93227283 0.91272443
0.99999996 0.96981626 0.96060593
0.99999995 0.99261554 0.99019376
0.99999999 0.99962743 0.99941851
0.00266150 0.05004756 0.01987051
0.00245449 0.05160762 0.02062365
0.00148370 0.05573047 0.02196128
0.00182738 0.06508182 0.02125476
0.01533085 0.08129757 0.01300418
0.05469746 0.09820434 0.00366141
0.10562741 0.10911725 0.00092720
0.15907443 0.11294887 0.00053324
0.21874491 0.10957356 0.00019477
0.29028262 0.09623274 0.00076402
0.37520521 0.07008875 0.00817853
0.46767027 0.03664073 0.02837691
0.55517761 0.01492122 0.05940784
0.63022608 0.00952516 0.09072916
0.69465895 0.01174773 0.11739842
0.75168207 0.01441851 0.14099719
0.80278343 0.01979992 0.16398820
0.84899299 0.02232529 0.18717102
0.89134107 0.01951207 0.21039141
0.93099003 0.01000654 0.23290560
0.96760379 0.01078531 0.25703916
0.99395279 0.11978619 0.29989946
1.00000000 0.35133005 0.38112138
1.00000000 0.53225225 0.47758241
1.00000000 0.64259501 0.56979604
0.99994719 0.71726608 0.65075694
0.99997972 0.77919059 0.72357106
0.99999968 0.83511467 0.79137377
1.00000000 0.88643026 0.85512220
1.00000000 0.93229408 0.91274839
0.99999996 0.96982642 0.96061821
0.99999995 0.99261807 0.99019701
0.99999999 0.99962709 0.99941814
0.00297686 0.08699398 0.03178009
0.00283857 0.08959130 0.03277574
0.00187369 0.09547296 0.03475267
0.00078121 0.10620308 0.03528507
0.00750764 0.12299973 0.02707515
0.04173947 0.14186615 0.01062036
0.09950975 0.15647090 0.00213776
0.16109169 0.16490764 0.00067817
0.22464038 0.16713655 0.00042987
0.29695557 0.16170738 0.00000000
0.38366920 0.14397666 0.00000000
0.48219339 0.10929281 0.00696016
0.57492258 0.06617103 0.03286874
0.64743030 0.03537811 0.07187515
0.70620336 0.01957544 0.10725922
0.75855905 0.01264192 0.13621140
0.80666822 0.01630250 0.16190579
0.85122560 0.01941496 0.18621442
0.89271665 0.01811036 0.20981861
0.93191331 0.00952924 0.23243169
0.96818911 0.01217732 0.25676195
0.99412933 0.12565029 0.30021469
1.00000000 0.35488256 0.38168429
1.00000000 0.53340764 0.47804596
1.00000000 0.64294344 0.57010453
0.99994845 0.71745458 0.65095300
0.99998021 0.77932713 0.72370026
0.99999966 0.83520476 0.79146054
1.00000000 0.88648382 0.85517800
1.00000000 0.93232388 0.91278187
0.99999996 0.96984068 0.96063537
0.99999996 0.99262161 0.99020156
0.99999999 0.99962660 0.99941763
0.00157920 0.13908554 0.04749037
0.00149205 0.14226110 0.04851934
0.00084662 0.14858333 0.05060301
0.00000000 0.15848551 0.05200629
0.00007334 0.17320197 0.04601564
0.02121710 0.19152712 0.02619327
0.07884668 0.20823786 0.00702831
0.15068784 0.22012906 0.00065550
0.22266365 0.22660678 0.00035897
0.29820767 0.22696321 0.00000000
0.38493315 0.21858433 0.00000000
0.48420670 0.19661835 0.00038548
0.58121125 0.15990373 0.01789773
0.65865866 0.11519745 0.05441997
0.71898651 0.06766372 0.09147664
0.76895870 0.03013941 0.12514558
0.81348012 0.01687273 0.15567607
0.85519942 0.01416481 0.18320385
0.89496522 0.01402753 0.20844895
0.93326623 0.00744458 0.23168258
0.96899128 0.01288637 0.25641601
0.99435231 0.13246723 0.30070972
1.00000000 0.35954595 0.38250387
1.00000000 0.53513226 0.47870392
1.00000000 0.64350533 0.57053590
0.99995085 0.71773105 0.65122584
0.99998114 0.77951417 0.72388028
0.99999966 0.83532786 0.79158170
1.00000000 0.88655800 0.85525597
1.00000000 0.93236553 0.91282866
0.99999996 0.96986065 0.96065935
0.99999996 0.99262658 0.99020790
0.99999999 0.99962592 0.99941692
0.00008988 0.20352546 0.06626301
0.00009315 0.20653758 0.06709834
0.00000000 0.21218096 0.06884178
0.00000000 0.22036957 0.07068094
0.00000000 0.23229026 0.06793890
0.00452934 0.24854293 0.05118821
0.04610724 0.26626407 0.02209982
0.12282691 0.28077596 0.00313005
0.20713192 0.29051797 0.00000000
0.29110838 0.29488107 0.00000000
0.38055444 0.29247897 0.00000000
0.47972697 0.28063532 0.00000000
0.57799882 0.25726897 0.01301970
0.65910897 0.22256580 0.04881178
0.72435549 0.17028657 0.08345570
0.77856678 0.10095847 0.11274129
0.82300936 0.04497538 0.14407327
0.86197405 0.01605948 0.17566188
0.89899765 0.00833319 0.20455382
0.93554205 0.00165503 0.22983431
0.97020576 0.01149352 0.25574649
0.99464935 0.14012471 0.30145099
1.00000000 0.36563327 0.38372530
1.00000000 0.53766229 0.47966015
1.00000000 0.64439775 0.57114795
0.99995448 0.71814919 0.65160765
0.99998282 0.77977766 0.72413131
0.99999979 0.83549766 0.79175072
1.00000000 0.88666051 0.85536481
1.00000000 0.93242345 0.91289399
0.99999996 0.96988854 0.96069283
0.99999996 0.99263354 0.99021676
0.99999999 0.99962500 0.99941593
0.00019542 0.27780086 0.08776389
0.00033500 0.28034117 0.08836391
0.00041804 0.28498462 0.08964660
0.00000000 0.29148620 0.09145254
0.00000000 0.30080770 0.09137230
0.00000000 0.31422137 0.08137338
0.01491142 0.33131335 0.05338128
0.07649642 0.34812866 0.01859137
0.17112526 0.36072245 0.00184597
0.26905195 0.36827554 0.00000000
0.36679490 0.36990638 0.00000000
0.46902230 0.36400842 0.00000000
0.56946342 0.34941402 0.01128788
0.65359268 0.32636891 0.04765358
0.72176393 0.28907628 0.08549662
0.78033261 0.22596693 0.11219877
0.83031723 0.13796803 0.13506797
0.87082989 0.05649843 0.16374611
0.90575003 0.01319327 0.19571868
0.93969523 0.00000000 0.22481435
0.97236019 0.00613144 0.25370201
0.99517488 0.14760399 0.30223950
1.00000000 0.37294664 0.38548178
1.00000000 0.54107466 0.48105808
1.00000000 0.64573064 0.57202926
0.99995812 0.71878840 0.65214835
0.99998534 0.78016263 0.72448347
1.00000000 0.83573712 0.79198699
1.00000000 0.88680304 0.85551675
1.00000000 0.93250377 0.91298513
0.99999995 0.96992728 0.96073952
0.99999997 0.99264323 0.99022911
1.00000000 0.99962373 0.99941456
0.00193652 0.36113670 0.11187703
0.00225677 0.36318038 0.11227553
0.00273376 0.36688722 0.11311627
0.00248018 0.37199300 0.11451838
0.00053721 0.37917906 0.11571270
0.00000000 0.38966081 0.11194043
0.00000000 0.40439882 0.09307176
0.02963425 0.42190174 0.05497742
0.11294151 0.43741096 0.01825340
0.22383885 0.44781552 0.00273257
0.33644619 0.45262030 0.00041609
0.44780433 0.45081280 0.00109061
0.55436567 0.44142753 0.01086409
0.64384739 0.42510624 0.04463095
0.71506856 0.40029099 0.08830706
0.77582896 0.35702455 0.12020572
0.82995310 0.28153708 0.14013979
0.87655734 0.17086631 0.15770742
0.91419848 0.05971179 0.18322377
0.94653342 0.00000000 0.21437800
0.97632081 0.00060619 0.24822493
0.99630902 0.15487890 0.30231361
1.00000000 0.38088620 0.38774150
1.00000000 0.54505782 0.48302898
1.00000000 0.64747021 0.57329016
0.99995938 0.71971297 0.65291882
0.99998821 0.78072999 0.72498159
1.00000000 0.83608257 0.79231915
1.00000000 0.88700416 0.85572943
1.00000000 0.93261567 0.91311233
0.99999994 0.96998097 0.96080457
0.99999997 0.99265657 0.99024626
1.00000000 0.99962192 0.99941261
0.00350821 0.45211838 0.13830241
0.00367163 0.45369525 0.13854917
0.00389103 0.45654821 0.13903926
0.00360767 0.46044211 0.13992201
0.00237754 0.46580903 0.14123818
0.00000000 0.47350834 0.14107601
0.00000000 0.48470504 0.13241282
0.00299260 0.49974353 0.10488793
0.04778333 0.51602172 0.05899126
0.15108926 0.52873054 0.01916577
0.27992204 0.53587685 0.00412712
0.40828822 0.53726445 0.00190793
0.52799687 0.53213131 0.00864683
0.62798921 0.52043643 0.03499175
0.70518921 0.50276398 0.08373490
0.76817372 0.47487637 0.12651899
0.82398539 0.42477575 0.15338479
0.87450560 0.33478717 0.16827881
0.91847217 0.19744902 0.18077760
0.95416366 0.06087469 0.20277205
0.98218389 0.02509044 0.23906478
0.99833759 0.17294645 0.30119718
1.00000000 0.39147079 0.39042239
1.00000000 0.54943354 0.48565397
0.99998938 0.64941105 0.57503296
0.99995652 0.72091282 0.65400214
0.99999045 0.78153481 0.72568613
1.00000000 0.83658210 0.79278852
1.00000000 0.88729224 0.85602877
1.00000000 0.93277345 0.91329049
0.99999991 0.97005572 0.96089527
0.99999997 0.99267486 0.99027000
1.00000000 0.99961920 0.99940978
0.00214324 0.54319708 0.16683650
0.00214579 0.54427549 0.16698783
0.00208282 0.54621864 0.16725752
0.00183392 0.54884878 0.16772450
0.00141099 0.55240819 0.16863447
0.00021792 0.55737590 0.16965421
0.00000000 0.56453660 0.16756621
0.00000000 0.57474430 0.15360277
0.00929665 0.58767035 0.11794523
0.06882799 0.60057975 0.06441060
0.19164284 0.60960291 0.02259074
0.33921009 0.61348541 0.00696897
0.48103888 0.61205711 0.00845620
0.60029396 0.60494959 0.02461264
0.68989538 0.59254764 0.06777514
0.75808825 0.57446500 0.12176569
0.81538836 0.54501565 0.16286378
0.86720908 0.48950512 0.18672560
0.91464230 0.38772735 0.19795765
0.95603604 0.24256149 0.20754179
0.98675706 0.14138356 0.23528754
1.00000000 0.23482742 0.30217286
1.00000000 0.41404513 0.39433499
1.00000000 0.55583315 0.48915497
0.99995746 0.65158242 0.57736726
0.99995007 0.72232913 0.65548116
0.99999093 0.78259906 0.72666584
1.00000000 0.83728375 0.79344885
1.00000000 0.88770517 0.85645145
1.00000000 0.93299877 0.91354141
0.99999989 0.97016110 0.96102230
0.99999996 0.99270012 0.99030292
1.00000000 0.99961501 0.99940558
0.00496040 0.62269278 0.19775631
0.00501985 0.62334156 0.19785502
0.00511618 0.62450471 0.19801130
0.00524695 0.62607335 0.19823515
0.00543426 0.62818356 0.19871221
0.00546503 0.63108031 0.19964285
0.00486545 0.63518821 0.20018476
0.00352870 0.64119761 0.19581015
0.00343743 0.64974738 0.17635639
0.01879296 0.66036275 0.13257628
0.08892960 0.67054309 0.07140027
0.23192095 0.67691089 0.02605681
0.39923143 0.67846213 0.01120309
0.54944387 0.67511794 0.01558514
0.66272181 0.66680461 0.04219527
0.74325249 0.65404734 0.09961893
0.80486890 0.63615257 0.15794706
0.85769187 0.60631346 0.19917099
0.90610195 0.54851612 0.22170368
0.95024950 0.44976691 0.23250405
0.98500306 0.34856545 0.25203328
1.00000000 0.35739955 0.31254990
1.00000000 0.46022112 0.40203237
1.00000000 0.56883213 0.49447480
0.99995420 0.65511321 0.58063606
0.99994186 0.72409019 0.65748183
0.99998843 0.78392226 0.72799104
1.00000000 0.83821678 0.79435883
1.00000000 0.88828301 0.85704381
1.00000000 0.93332094 0.91389557
0.99999987 0.97031168 0.96120138
0.99999993 0.99273586 0.99034903
1.00000000 0.99960883 0.99939951
0.01237106 0.68886963 0.23041302
0.01243999 0.68925512 0.23049014
0.01256173 0.68994439 0.23060523
0.01273830 0.69087714 0.23072440
0.01300129 0.69213835 0.23092510
0.01334117 0.69386133 0.23143196
0.01361086 0.69625840 0.23233880
0.01298864 0.69972963 0.23222956
0.00927660 0.70491202 0.22530588
0.00525257 0.71233811 0.20011480
0.02222175 0.72144957 0.14739308
0.10422504 0.72984897 0.07565947
0.27214250 0.73436484 0.02404390
0.45812839 0.73416838 0.00583649
0.61069231 0.72923514 0.01614498
0.71687309 0.71970793 0.06270223
0.79013525 0.70635885 0.13244302
0.84659795 0.68813934 0.19471490
0.89571569 0.65771960 0.23711476
0.94070493 0.60345701 0.26121051
0.97844587 0.53269739 0.28253599
0.99854275 0.50106551 0.33424860
1.00000000 0.53294661 0.41690288
1.00000000 0.59518711 0.50411428
0.99999871 0.66309949 0.58597462
0.99993404 0.72701409 0.66039351
0.99998120 0.78561071 0.72977957
1.00000000 0.83939109 0.79557697
1.00000000 0.88905331 0.85785433
1.00000000 0.93377136 0.91439022
0.99999990 0.97052702 0.96145403
0.99999990 0.99278794 0.99041460
0.99999997 0.99960084 0.99939149
0.01427721 0.74553904 0.26211739
0.01425435 0.74577463 0.26222006
0.01420984 0.74619682 0.26238642
0.01414623 0.74677312 0.26255481
0.01406366 0.74756090 0.26273937
0.01394163 0.74864096 0.26308586
0.01364256 0.75012300 0.26386618
0.01256226 0.75220555 0.26503902
0.00969061 0.75527485 0.26452921
0.00425716 0.75992048 0.25528087
0.00065016 0.76658089 0.22432730
0.02492681 0.77462861 0.16148133
0.12664771 0.78170590 0.07706379
0.31570800 0.78478838 0.01708593
0.51374977 0.78309812 0.00159437
0.66490304 0.77666843 0.02771229
0.76434319 0.76585788 0.08899362
0.83170374 0.75140989 0.16767481
0.88395329 0.73193422 0.23403485
0.92961076 0.70187063 0.27959077
0.96926195 0.65946406 0.31331992
0.99467780 0.62438812 0.36277921
1.00000000 0.61870205 0.44042793
1.00000000 0.63921073 0.52171853
1.00000000 0.68056004 0.59596433
0.99992873 0.73332224 0.66539737
0.99996612 0.78824214 0.73240734
0.99999788 0.84088558 0.79720672
1.00000000 0.89002783 0.85892937
1.00000000 0.93437146 0.91506177
1.00000000 0.97082679 0.96180500
0.99999987 0.99286403 0.99050795
0.99999991 0.99959258 0.99938240
0.01873329 0.79552385 0.29086766
0.01874113 0.79567122 0.29098084
0.01875174 0.79593574 0.29118207
0.01876454 0.79629757 0.29143795
0.01878245 0.79679449 0.29176398
0.01881413 0.79747944 0.29224168
0.01887658 0.79841566 0.29309214
0.01898638 0.79969857 0.29466494
0.01908290 0.80151432 0.29683958
0.01754628 0.80422993 0.29699762
0.01246937 0.80841625 0.28632291
0.01035286 0.81445622 0.24987426
0.03813161 0.82167607 0.17644197
0.14833691 0.82771357 0.07926437
0.35579753 0.82958065 0.01570280
0.56391393 0.82657060 0.00694209
0.71232355 0.81879247 0.03966503
0.80608185 0.80657986 0.12086508
0.86865032 0.79064861 0.20908704
0.91711694 0.77006398 0.27946185
0.95841759 0.74310605 0.33304210
0.98894478 0.71488819 0.38890594
1.00000000 0.69791361 0.46787198
1.00000000 0.69603861 0.54763301
1.00000000 0.71199859 0.61380390
0.99994139 0.74694739 0.67492599
0.99994373 0.79346766 0.73693887
0.99998847 0.84313762 0.79959185
1.00000000 0.89127003 0.86035806
1.00000000 0.93512915 0.91594274
1.00000000 0.97122103 0.96227524
0.99999994 0.99296950 0.99063659
0.99999983 0.99958603 0.99937338
0.02296655 0.83997775 0.32086432
0.02296683 0.84007140 0.32096173
0.02296652 0.84023956 0.32114105
0.02296407 0.84046952 0.32138597
0.02295779 0.84078597 0.32171300
0.02295115 0.84122492 0.32216216
0.02297434 0.84182845 0.32284976
0.02310890 0.84264875 0.32408620
0.02334328 0.84376651 0.32640424
0.02281583 0.84534829 0.32981033
0.01922430 0.84775504 0.33091805
0.01045685 0.85156523 0.31858723
0.00372612 0.85711614 0.27581609
0.03332579 0.86364012 0.19135804
0.16351902 0.86874957 0.08200820
0.39278197 0.86957866 0.01326385
0.60708092 0.86544752 0.00479849
0.75320581 0.85626276 0.06777073
0.84277460 0.84259774 0.16934614
0.90099181 0.82548345 0.26115385
0.94551185 0.80513044 0.33600209
0.98038166 0.78301586 0.40551526
0.99872721 0.76486696 0.48997696
1.00000000 0.75479126 0.57548983
1.00000000 0.75548547 0.63925849
1.00000000 0.77169381 0.69169615
0.99991940 0.80437143 0.74554874
0.99996732 0.84745524 0.80374077
0.99999704 0.89312288 0.86245082
1.00000000 0.93609011 0.91710174
1.00000000 0.97170722 0.96288013
1.00000000 0.99309969 0.99080120
0.99999983 0.99957868 0.99936171
0.01956131 0.87951942 0.35689325
0.01957025 0.87957907 0.35697246
0.01958658 0.87968620 0.35711909
0.01960818 0.87983260 0.35732347
0.01963513 0.88003421 0.35760161
0.01966903 0.88031522 0.35797630
0.01972493 0.88070522 0.35849444
0.01985620 0.88123935 0.35931215
0.02012424 0.88196049 0.36085326
0.02031905 0.88293899 0.36376165
0.01924095 0.88434195 0.36767664
0.01416720 0.88654699 0.36773545
0.00436640 0.89009578 0.35144716
0.00040248 0.89520274 0.30181356
0.03957224 0.90108552 0.20586614
0.18305714 0.90544974 0.08201187
0.42232205 0.90544823 0.00845078
0.64272209 0.90000711 0.02835068
0.78939238 0.88920985 0.13003737
0.87417101 0.87448851 0.23512710
0.92799993 0.85705581 0.32454140
0.96806347 0.83825909 0.40814466
0.99395625 0.82089748 0.49909043
1.00000000 0.80838111 0.59489986
1.00000000 0.80227465 0.66558939
1.00000000 0.80621550 0.71514659
0.99992541 0.82411923 0.76086683
0.99993156 0.85627596 0.81165989
0.99997820 0.89657580 0.86605144
1.00000000 0.93750156 0.91877848
1.00000000 0.97230676 0.96366030
1.00000000 0.99323678 0.99099307
1.00000000 0.99955520 0.99933363
0.03065200 0.91473774 0.39957181
0.03067932 0.91477630 0.39961668
0.03073005 0.91484561 0.39969853
0.03080131 0.91494036 0.39981228
0.03089889 0.91507082 0.39996787
0.03103073 0.91525303 0.40017560
0.03121015 0.91550767 0.40044452
0.03147547 0.91586080 0.40081281
0.03189749 0.91634347 0.40144133
0.03249316 0.91699633 0.40269122
0.03293576 0.91789999 0.40473265
0.03196437 0.91923695 0.40634627
0.02727346 0.92133583 0.40294430
0.01761997 0.92462409 0.38297926
0.01183276 0.92931959 0.32631792
0.04554518 0.93469571 0.21769394
0.18922706 0.93840757 0.08404347
0.44759372 0.93716534 0.03196034
0.68127232 0.92985837 0.10631760
0.82209698 0.91792237 0.21602376
0.89921738 0.90283188 0.31041755
0.94924354 0.88591086 0.40078645
0.98385377 0.86926500 0.49831086
0.99996141 0.85552321 0.60159723
1.00000000 0.84643286 0.68565982
1.00000000 0.84416254 0.74072118
1.00000000 0.85187065 0.78283640
0.99991361 0.87192783 0.82538772
0.99995204 0.90336741 0.87260987
0.99999079 0.94005146 0.92158531
1.00000000 0.97317076 0.96477273
1.00000000 0.99337179 0.99121288
1.00000000 0.99948532 0.99926226
0.02472709 0.94663693 0.43783354
0.02473996 0.94666257 0.43783296
0.02476247 0.94670881 0.43782963
0.02479281 0.94677220 0.43782233
0.02483444 0.94685950 0.43781043
0.02488992 0.94698142 0.43778879
0.02495449 0.94715227 0.43774170
0.02502637 0.94739139 0.43764325
0.02509488 0.94772362 0.43748154
0.02514161 0.94817955 0.43731346
0.02527486 0.94880104 0.43729763
0.02554095 0.94966142 0.43761858
0.02450319 0.95090840 0.43766933
0.01863922 0.95282826 0.43293971
0.00534102 0.95584395 0.40954767
0.00000000 0.96017059 0.34450045
0.03167055 0.96496157 0.22734469
0.21404373 0.96736378 0.11363451
0.51305906 0.96387775 0.12994458
0.73360996 0.95513327 0.22096011
0.85112837 0.94283039 0.31110954
0.91911925 0.92795931 0.39784769
0.96539429 0.91207969 0.49381426
0.99322503 0.89746704 0.59691630
1.00000000 0.88621625 0.69261715
1.00000000 0.88039954 0.76027651
1.00000000 0.88217229 0.80576973
0.99998946 0.89338327 0.84371613
0.99993515 0.91502216 0.88334749
0.99997320 0.94487700 0.92653180
0.99999614 0.97469916 0.96659876
1.00000000 0.99355939 0.99151901
1.00000000 0.99934324 0.99912465
