resources/flame/Syncolor/Shared/transforms/camera_manufacturer_luts/arri/ARRI_Alexa_LUTs/ARRI_LogC4_v1_LUT_Package/LUTs/ARRI_LogC4-to-Gamma26_P3-DCI_v1-33.cube
LUT_3D_SIZE 33
0.00000000 0.00000000 0.00000000
0.00000000 0.00127921 0.00108048
0.00078017 0.00391598 0.00383823
0.00894203 0.00384028 0.00547777
0.02452466 0.00340860 0.00885706
0.04829014 0.00504316 0.01578346
0.08629171 0.00747724 0.02529702
0.14242722 0.00926057 0.03663849
0.21683211 0.01176401 0.04995146
0.30661929 0.01292416 0.06544288
0.40735176 0.01768647 0.08346981
0.51373580 0.02818926 0.10386071
0.61960379 0.04016127 0.12549121
0.72011951 0.04655467 0.14669540
0.81340076 0.04101154 0.16602427
0.89888308 0.02348619 0.18334152
0.96803566 0.06085744 0.20558245
0.99981689 0.20562733 0.24713722
1.00000000 0.33258138 0.29959908
1.00000000 0.41147927 0.35045740
0.99984430 0.47448590 0.40266077
0.99986320 0.53816598 0.46113786
0.99995269 0.60605933 0.52865225
1.00000000 0.67749740 0.60522305
1.00000000 0.75039657 0.68843557
1.00000000 0.82070237 0.77254251
0.99999988 0.88317332 0.84983584
0.99999989 0.93286689 0.91252104
0.99999998 0.96714535 0.95657297
1.00000000 0.98667212 0.98216470
1.00000000 0.99523004 0.99356290
1.00000000 0.99810806 0.99744138
1.00000000 0.99897810 0.99861944
0.00147615 0.00011837 0.00094889
0.00133030 0.00149593 0.00233910
0.00216757 0.00400701 0.00496589
0.01034445 0.00367301 0.00613652
0.02618719 0.00291163 0.00928820
0.05010519 0.00435132 0.01622686
0.08814986 0.00678194 0.02568217
0.14431263 0.00877636 0.03683313
0.21885377 0.01113397 0.04990365
0.30887991 0.01215280 0.06520030
0.40974196 0.01750376 0.08310489
0.51601110 0.02782263 0.10340172
0.62159212 0.03891794 0.12495557
0.72172774 0.04538942 0.14617928
0.81463917 0.04029531 0.16558980
0.89976110 0.02427890 0.18305140
0.96850178 0.06233470 0.20552095
0.99989328 0.20708740 0.24730386
1.00000000 0.33324452 0.29976872
1.00000000 0.41178172 0.35058800
0.99984136 0.47467597 0.40276766
0.99986376 0.53830298 0.46122724
0.99995375 0.60615666 0.52872539
1.00000000 0.67756433 0.60528048
1.00000000 0.75044075 0.68847783
1.00000000 0.82072967 0.77257066
0.99999988 0.88318870 0.84985256
0.99999989 0.93287454 0.91252969
0.99999998 0.96714857 0.95657675
1.00000000 0.98667319 0.98216600
1.00000000 0.99523029 0.99356320
1.00000000 0.99810810 0.99744143
1.00000000 0.99897811 0.99861946
0.00407772 0.00227434 0.00403497
0.00404468 0.00344629 0.00534323
0.00499516 0.00567050 0.00745450
0.01322387 0.00519459 0.00720778
0.02995395 0.00341172 0.00928824
0.05443162 0.00366262 0.01594379
0.09248423 0.00533434 0.02532466
0.14857708 0.00714674 0.03636188
0.22335878 0.00905417 0.04933181
0.31373928 0.00967392 0.06458200
0.41461384 0.01592976 0.08244528
0.52046126 0.02551771 0.10260121
0.62537890 0.03484921 0.12397722
0.72471000 0.04256246 0.14524569
0.81689104 0.03958526 0.16481897
0.90137005 0.02591653 0.18251221
0.96936156 0.06494200 0.20538690
1.00000000 0.20965839 0.24760712
1.00000000 0.33443551 0.30008505
1.00000000 0.41231638 0.35082814
0.99983603 0.47501240 0.40296234
0.99986513 0.53854913 0.46139011
0.99995582 0.60633287 0.52885884
1.00000000 0.67768563 0.60538527
1.00000000 0.75052067 0.68855477
1.00000000 0.82077889 0.77262174
0.99999987 0.88321628 0.84988270
0.99999989 0.93288812 0.91254511
0.99999999 0.96715417 0.95658337
1.00000000 0.98667497 0.98216818
1.00000000 0.99523067 0.99356367
1.00000000 0.99810815 0.99744149
1.00000000 0.99897813 0.99861948
0.00327240 0.01071374 0.00824219
0.00315680 0.01206621 0.00933447
0.00425705 0.01474050 0.01060698
0.01382328 0.01604978 0.00842269
0.03508708 0.01340413 0.00705681
0.06313263 0.01137669 0.01153807
0.10245969 0.01042932 0.02017369
0.15867617 0.00958044 0.03115629
0.23342628 0.00847213 0.04486971
0.32338328 0.00699127 0.06127493
0.42320457 0.01230017 0.08028619
0.52757130 0.02147814 0.10112975
0.63090322 0.03214910 0.12278436
0.72884854 0.04172213 0.14418081
0.81995277 0.04078003 0.16390177
0.90360312 0.02778695 0.18177863
0.97056605 0.06775611 0.20517644
1.00000000 0.21296192 0.24802888
1.00000000 0.33606189 0.30053162
1.00000000 0.41305580 0.35116324
0.99982894 0.47547402 0.40323153
0.99986744 0.53888676 0.46161528
0.99995873 0.60657504 0.52904351
1.00000000 0.67785242 0.60553018
1.00000000 0.75063048 0.68866101
1.00000000 0.82084637 0.77269206
0.99999987 0.88325392 0.84992398
0.99999990 0.93290651 0.91256606
0.99999999 0.96716166 0.95659224
1.00000000 0.98667728 0.98217103
1.00000000 0.99523111 0.99356423
1.00000000 0.99810820 0.99744155
1.00000000 0.99897815 0.99861950
0.00250092 0.02644811 0.01592250
0.00190432 0.02808628 0.01701397
0.00185465 0.03156717 0.01814514
0.00981424 0.03642113 0.01487992
0.03726042 0.04088918 0.00679507
0.07648514 0.04413928 0.00494752
0.12283188 0.04448930 0.00899021
0.18112158 0.03943640 0.01614185
0.25493993 0.02847240 0.02945151
0.34245715 0.01599622 0.04788541
0.43897912 0.01280426 0.07107724
0.53969634 0.01935340 0.09602551
0.63962835 0.03187590 0.12019786
0.73490403 0.04485850 0.14271501
0.82427440 0.04431566 0.16275239
0.90674495 0.02997088 0.18078699
0.97225360 0.07094390 0.20488196
1.00000000 0.21726052 0.24863341
1.00000000 0.33832552 0.30116765
1.00000000 0.41411799 0.35163355
0.99982030 0.47612642 0.40360470
0.99987129 0.53935540 0.46192671
0.99996259 0.60690917 0.52929900
1.00000000 0.67808234 0.60573056
1.00000000 0.75078187 0.68880775
1.00000000 0.82093936 0.77278906
0.99999987 0.88330574 0.84998084
0.99999991 0.93293178 0.91259485
0.99999999 0.96717191 0.95660440
1.00000000 0.98668042 0.98217490
1.00000000 0.99523170 0.99356498
1.00000000 0.99810826 0.99744161
1.00000000 0.99897818 0.99861953
0.00445031 0.05093008 0.02848771
0.00376852 0.05263987 0.02963816
0.00260183 0.05631630 0.03108106
0.00641186 0.06345603 0.02809319
0.03394606 0.07705707 0.01506728
0.09049434 0.09606697 0.00525716
0.15265534 0.10900923 0.00367657
0.21549811 0.11001893 0.00462376
0.28718058 0.09792430 0.00916551
0.37114828 0.07168595 0.02098145
0.46382584 0.04394186 0.04647286
0.55953567 0.03298835 0.08048761
0.65391831 0.04030513 0.11261750
0.74457821 0.05256498 0.13925629
0.83097132 0.04915054 0.16063477
0.91146947 0.03165654 0.17917126
0.97472362 0.07429121 0.20441001
1.00000000 0.22271849 0.24951730
1.00000000 0.34142424 0.30209585
1.00000000 0.41564594 0.35230806
0.99981405 0.47706378 0.40412900
0.99987975 0.54001765 0.46236247
0.99996820 0.60737714 0.52965661
1.00000000 0.67840336 0.60601079
1.00000000 0.75099313 0.68901276
1.00000000 0.82106915 0.77292449
0.99999988 0.88337809 0.85006021
0.99999992 0.93296706 0.91263504
0.99999999 0.96718622 0.95662137
1.00000000 0.98668481 0.98218031
1.00000000 0.99523253 0.99356602
1.00000000 0.99810835 0.99744171
1.00000000 0.99897822 0.99861957
0.00603265 0.08930440 0.04660940
0.00540897 0.09094802 0.04766227
0.00384077 0.09436255 0.04932320
0.00427203 0.10199259 0.04763811
0.02470482 0.12075464 0.03351144
0.09050119 0.15286954 0.01316285
0.17465125 0.18158281 0.00420566
0.25043414 0.19350480 0.00174246
0.32251190 0.18980165 0.00131924
0.40183767 0.17071014 0.00345099
0.49131538 0.13532708 0.01778195
0.58485328 0.09505362 0.05352540
0.67451149 0.07741666 0.09679565
0.75975303 0.07217100 0.13120127
0.84193992 0.05604132 0.15568644
0.91912013 0.03191940 0.17578915
0.97858751 0.07755791 0.20334377
1.00000000 0.22947797 0.25072855
1.00000000 0.34546699 0.30343723
1.00000000 0.41775273 0.35327964
0.99982353 0.47839091 0.40486717
0.99989883 0.54095766 0.46297534
0.99997699 0.60803704 0.53015940
1.00000000 0.67885347 0.60640387
1.00000000 0.75128859 0.68929980
1.00000000 0.82125059 0.77311395
0.99999988 0.88347924 0.85017120
0.99999994 0.93301641 0.91269125
1.00000000 0.96720625 0.95664511
1.00000000 0.98669096 0.98218789
1.00000000 0.99523370 0.99356749
1.00000000 0.99810848 0.99744186
1.00000000 0.99897828 0.99861962
0.00762010 0.14402006 0.07050572
0.00790672 0.14556776 0.07133335
0.00705650 0.14872622 0.07300702
0.00500283 0.15609491 0.07308763
0.01410397 0.17541743 0.06192749
0.06893121 0.21102228 0.03207319
0.16840398 0.24910430 0.00943524
0.26593309 0.27290231 0.00230580
0.34950308 0.27891925 0.00151847
0.42943150 0.26984641 0.00083323
0.51527433 0.24531068 0.00779174
0.60686227 0.20575177 0.03502827
0.69620398 0.16208616 0.08000034
0.77961660 0.12046826 0.11929125
0.85872845 0.07441151 0.14618081
0.93145688 0.03616011 0.16885215
0.98461408 0.08567872 0.20100201
1.00000000 0.23947230 0.25226280
1.00000000 0.35076510 0.30529685
1.00000000 0.42054258 0.35465714
0.99984813 0.48024154 0.40591642
0.99992824 0.54229534 0.46384645
0.99998887 0.60897327 0.53087050
1.00000000 0.67948721 0.60695671
1.00000000 0.75170245 0.68970205
1.00000000 0.82150414 0.77337895
0.99999987 0.88362052 0.85032633
0.99999996 0.93308535 0.91276980
1.00000000 0.96723425 0.95667829
1.00000000 0.98669956 0.98219848
1.00000000 0.99523533 0.99356955
1.00000000 0.99810865 0.99744206
1.00000000 0.99897836 0.99861970
0.01068867 0.21371884 0.09953691
0.01079375 0.21526413 0.10010614
0.01015705 0.21847401 0.10160800
0.00709164 0.22551052 0.10322751
0.00726767 0.24254361 0.09752217
0.03677936 0.27440805 0.06858500
0.12949789 0.31333226 0.02646053
0.24881920 0.34476159 0.00611110
0.35456634 0.36081753 0.00352358
0.44553275 0.36086659 0.00480599
0.53277146 0.34649904 0.01307351
0.62223949 0.31823245 0.03832129
0.71105820 0.27660012 0.07898843
0.79666965 0.21548138 0.11483308
0.87818451 0.13156870 0.13666967
0.94824006 0.06612291 0.15906397
0.99219067 0.11854727 0.19836893
1.00000000 0.25822794 0.25453826
1.00000000 0.35811612 0.30779120
1.00000000 0.42418165 0.35654579
0.99987660 0.48279001 0.40740323
0.99995856 0.54419272 0.46509226
1.00000000 0.61030594 0.53188283
1.00000000 0.68038435 0.60773806
1.00000000 0.75228447 0.69026727
0.99999989 0.82185903 0.77374997
0.99999986 0.88381777 0.85054311
0.99999997 0.93318153 0.91287948
1.00000000 0.96727332 0.95672463
1.00000000 0.98671158 0.98221328
1.00000000 0.99523762 0.99357243
1.00000000 0.99810890 0.99744234
1.00000000 0.99897848 0.99861981
0.01354344 0.29425017 0.13229941
0.01383111 0.29590243 0.13268795
0.01392561 0.29930376 0.13391113
0.01109331 0.30578688 0.13620428
0.00487205 0.31935090 0.13552188
0.01090032 0.34436906 0.11693948
0.06815524 0.37897344 0.06761265
0.19458341 0.41264188 0.02106215
0.32744578 0.43609840 0.00923152
0.43986679 0.44508022 0.01251086
0.53743554 0.43917357 0.02328117
0.62946194 0.42009418 0.04881593
0.71865603 0.38863948 0.08694118
0.80516559 0.33697382 0.12344007
0.89039323 0.25010813 0.14086770
0.96289001 0.15805022 0.15623634
0.99861968 0.18724207 0.20036750
1.00000000 0.28869458 0.25906703
1.00000000 0.36855127 0.31129249
0.99996286 0.42908725 0.35910057
0.99989133 0.48628474 0.40947759
0.99997763 0.54684876 0.46686326
1.00000000 0.61219388 0.53332679
1.00000000 0.68165864 0.60884826
1.00000000 0.75310777 0.69106553
0.99999973 0.82235794 0.77427104
0.99999984 0.88409367 0.85084636
0.99999998 0.93331565 0.91303255
1.00000000 0.96732775 0.95678924
1.00000000 0.98672833 0.98223392
1.00000000 0.99524083 0.99357646
1.00000000 0.99810926 0.99744274
1.00000000 0.99897864 0.99861997
0.01264903 0.38128945 0.16741118
0.01306364 0.38298710 0.16767778
0.01327438 0.38634755 0.16852891
0.01107868 0.39195278 0.17056780
0.00466697 0.40211652 0.17257029
0.00098159 0.42021260 0.16527761
0.02347834 0.44774590 0.12939058
0.11446351 0.47984762 0.06550817
0.26132256 0.50705504 0.02779888
0.40231444 0.52326751 0.02361445
0.52089318 0.52557318 0.03027308
0.62375055 0.51393142 0.05392979
0.71804688 0.49014451 0.08976053
0.80657767 0.45198125 0.13193415
0.89260470 0.38868267 0.15708678
0.96634258 0.31210356 0.17324842
1.00000000 0.29345436 0.21443752
1.00000000 0.33418697 0.26875112
1.00000000 0.38520123 0.31705128
0.99987606 0.43667650 0.36283120
0.99987793 0.49122232 0.41238154
0.99997967 0.55050866 0.46934676
1.00000000 0.61482677 0.53537061
1.00000000 0.68346077 0.61042692
1.00000000 0.75427682 0.69219858
0.99999972 0.82306368 0.77500678
0.99999982 0.88448145 0.85127210
0.99999997 0.93350308 0.91324647
1.00000000 0.96740349 0.95687926
1.00000000 0.98675158 0.98226262
1.00000000 0.99524527 0.99358205
1.00000000 0.99810977 0.99744330
1.00000000 0.99897889 0.99862021
0.01180377 0.47137280 0.20392147
0.01205999 0.47292455 0.20409927
0.01220131 0.47589048 0.20460081
0.01123324 0.48041773 0.20592825
0.00796632 0.48776865 0.20829211
0.00344546 0.50019050 0.20798386
0.00525282 0.52007207 0.19162699
0.04244027 0.54713907 0.14254788
0.15826063 0.57537546 0.07586598
0.32151530 0.59659390 0.03956635
0.47203157 0.60625950 0.03321178
0.59733380 0.60216405 0.04627052
0.70452421 0.58445207 0.07690713
0.80030307 0.55405881 0.12206787
0.88855651 0.50810333 0.16487833
0.96337058 0.44949097 0.19520819
0.99978605 0.40806788 0.23850119
1.00000000 0.39870985 0.28696500
1.00000000 0.41495757 0.32810299
0.99981033 0.45052634 0.36930879
0.99982958 0.49886095 0.41673495
0.99994977 0.55559784 0.47283098
1.00000000 0.61842862 0.53821721
1.00000000 0.68596901 0.61264975
1.00000000 0.75592856 0.69380552
0.99999992 0.82406525 0.77605012
0.99999981 0.88503002 0.85187319
0.99999995 0.93376657 0.91354678
1.00000000 0.96750923 0.95700494
1.00000000 0.98678379 0.98230248
1.00000000 0.99525136 0.99358976
1.00000000 0.99811046 0.99744407
1.00000000 0.99897924 0.99862055
0.01325029 0.56129763 0.24115762
0.01336402 0.56257169 0.24126156
0.01349776 0.56495400 0.24149605
0.01344351 0.56841264 0.24212612
0.01248343 0.57362318 0.24370302
0.00911263 0.58192084 0.24564504
0.00336764 0.59530030 0.24195167
0.00750086 0.61547098 0.21710320
0.05917730 0.64114407 0.15636903
0.19584983 0.66568751 0.07959310
0.37602685 0.68155654 0.03703346
0.53753206 0.68503399 0.02944554
0.66962786 0.67419530 0.04565270
0.78066872 0.64907174 0.08328502
0.87722385 0.61098657 0.14272749
0.95665293 0.56300759 0.20043942
0.99837075 0.51810794 0.26130768
1.00000000 0.48441146 0.31502766
1.00000000 0.46736161 0.34973416
0.99981716 0.47762235 0.38241174
0.99976571 0.51244864 0.42441177
0.99987766 0.56326505 0.47804161
0.99998382 0.62339205 0.54217428
1.00000000 0.68939160 0.61572342
1.00000000 0.75822177 0.69605677
1.00000000 0.82547669 0.77752480
0.99999983 0.88580774 0.85272448
0.99999993 0.93413965 0.91397091
0.99999999 0.96765811 0.95718151
1.00000000 0.98682871 0.98235807
1.00000000 0.99525966 0.99360035
1.00000000 0.99811134 0.99744508
1.00000000 0.99897971 0.99862100
0.01411881 0.64872624 0.27808802
0.01414247 0.64969764 0.27814637
0.01421032 0.65149348 0.27823341
0.01432061 0.65403707 0.27842792
0.01414109 0.65770341 0.27911884
0.01241663 0.66323442 0.28075391
0.00750428 0.67192162 0.28188135
0.00205092 0.68559449 0.27444558
0.01324811 0.70554389 0.24029848
0.07548999 0.72972074 0.16437824
0.22936694 0.75084852 0.07382039
0.42652225 0.76165056 0.02570537
0.59869113 0.75880998 0.01971832
0.73674837 0.74053834 0.03393282
0.85073832 0.70745496 0.08467045
0.94212616 0.66426621 0.16986722
0.99504196 0.62015609 0.26336820
1.00000000 0.57994247 0.34311446
1.00000000 0.54453819 0.38435663
1.00000000 0.52680933 0.40832197
0.99970959 0.53867232 0.43996846
0.99983983 0.57660078 0.48708951
0.99997160 0.63082181 0.54805159
1.00000000 0.69410333 0.61997630
1.00000000 0.76134259 0.69915439
1.00000000 0.82742623 0.77957721
0.99999989 0.88689929 0.85392204
0.99999991 0.93466827 0.91457071
0.99999995 0.96786963 0.95743135
0.99999998 0.98689235 0.98243650
1.00000000 0.99527126 0.99361513
1.00000000 0.99811244 0.99744637
1.00000000 0.99898027 0.99862154
0.01551298 0.73288438 0.30918195
0.01548108 0.73358571 0.30924670
0.01543064 0.73487359 0.30933915
0.01539875 0.73667730 0.30944789
0.01545096 0.73922024 0.30974617
0.01559339 0.74290957 0.31071809
0.01472044 0.74846291 0.31271394
0.01064368 0.75713491 0.31349709
0.00533425 0.77065485 0.30286295
0.01595457 0.79000623 0.25957364
0.08389234 0.81254273 0.16749144
0.25783634 0.83031203 0.06497089
0.47088875 0.83608214 0.01661057
0.65160767 0.82675087 0.00466092
0.79513309 0.80091927 0.02480687
0.90905593 0.76130415 0.10142849
0.98345629 0.71666510 0.22417917
1.00000000 0.67436452 0.34992646
1.00000000 0.63345189 0.42103244
1.00000000 0.59958518 0.44923922
0.99982308 0.58570040 0.46977215
0.99978752 0.60179456 0.50467881
0.99993261 0.64367420 0.55816962
0.99999380 0.70116902 0.62631054
0.99999623 0.76563925 0.70343891
1.00000000 0.83006416 0.78238158
1.00000000 0.88839558 0.85557562
1.00000000 0.93540635 0.91540954
0.99999994 0.96816962 0.95778439
0.99999995 0.98698377 0.98254825
0.99999999 0.99528817 0.99363644
1.00000000 0.99811400 0.99744822
1.00000000 0.99898092 0.99862219
0.00817235 0.81368679 0.32627858
0.00808005 0.81416878 0.32638211
0.00788417 0.81504983 0.32655818
0.00759530 0.81627663 0.32677544
0.00747921 0.81798932 0.32709526
0.00875948 0.82041752 0.32781013
0.01142988 0.82392775 0.32958420
0.01118213 0.82919675 0.33284263
0.00440062 0.83743416 0.33483445
0.00000000 0.85029163 0.32345061
0.00435930 0.86865853 0.27298399
0.08575510 0.88930759 0.16798596
0.28079423 0.90359088 0.05743723
0.50812849 0.90408033 0.00256566
0.69660531 0.88806799 0.00000000
0.84306077 0.85551884 0.03219305
0.94924912 0.81173449 0.14447095
0.99899885 0.76618919 0.31288474
1.00000000 0.72255787 0.43742212
1.00000000 0.68323148 0.49285862
1.00000000 0.65421288 0.51488329
0.99984056 0.64622135 0.53701818
0.99987437 0.66760552 0.57726864
0.99996157 0.71329906 0.63710246
0.99999502 0.77207095 0.70980412
1.00000000 0.83368799 0.78626198
1.00000000 0.89040423 0.85782250
1.00000000 0.93640719 0.91655597
1.00000000 0.96858546 0.95827424
0.99999994 0.98711418 0.98270650
0.99999996 0.99531363 0.99366783
0.99999999 0.99811671 0.99745133
1.00000000 0.99898182 0.99862314
0.00000000 0.88952677 0.33541167
0.00000000 0.88984726 0.33551258
0.00000000 0.89043177 0.33569073
0.00000000 0.89124395 0.33591821
0.00000000 0.89237505 0.33620820
0.00000000 0.89396543 0.33666773
0.00000000 0.89621081 0.33769226
0.00000000 0.89943908 0.34014266
0.00000000 0.90427064 0.34471961
0.00000000 0.91181648 0.34862661
0.00000000 0.92358185 0.33805163
0.00264277 0.94014857 0.28451244
0.11442494 0.95748334 0.17538962
0.34397734 0.96597736 0.07359585
0.57247989 0.95997013 0.03994950
0.74777402 0.93882216 0.03904312
0.88328120 0.90268959 0.08863103
0.97164695 0.85681255 0.23853505
1.00000000 0.80973399 0.41434613
1.00000000 0.76709523 0.51873156
1.00000000 0.73235663 0.56307607
1.00000000 0.70999005 0.58454377
0.99988392 0.70889120 0.61100035
0.99991393 0.73541225 0.65685026
0.99997254 0.78297281 0.72047547
0.99999762 0.83911005 0.79205795
1.00000000 0.89315256 0.86093202
1.00000000 0.93773285 0.91809594
1.00000000 0.96913917 0.95893294
1.00000000 0.98729268 0.98292326
0.99999995 0.99535096 0.99371299
0.99999997 0.99812180 0.99745691
0.99999999 0.99898362 0.99862504
0.03518944 0.95464199 0.35789015
0.03532126 0.95483136 0.35801609
0.03555237 0.95517472 0.35824485
0.03583930 0.95565033 0.35855255
0.03623398 0.95631258 0.35895467
0.03692215 0.95724364 0.35948933
0.03803755 0.95854960 0.36030761
0.03929016 0.96038533 0.36191440
0.03991154 0.96301835 0.36540292
0.04044338 0.96692567 0.37179677
0.04946150 0.97277973 0.37860434
0.08143881 0.98121240 0.37287286
0.16316654 0.99156150 0.33433241
0.34020730 0.99840995 0.28096639
0.52844505 0.99849146 0.25610494
0.68037944 0.99144484 0.22716051
0.80884650 0.97297611 0.18710199
0.91793820 0.93900489 0.22855106
0.98343569 0.89415715 0.37108346
1.00000000 0.84835065 0.51377733
1.00000000 0.80989254 0.59661737
1.00000000 0.78155333 0.63517550
1.00000000 0.76667786 0.65887291
0.99991280 0.77236153 0.69010992
0.99993894 0.80225086 0.73916778
0.99997852 0.84817031 0.80161624
0.99999543 0.89725237 0.86556122
1.00000000 0.93953145 0.92021068
1.00000000 0.96985562 0.95980124
1.00000000 0.98752168 0.98320578
1.00000000 0.99540056 0.99377290
0.99999996 0.99813024 0.99746579
0.99999997 0.99898740 0.99862895
0.25717647 0.99398853 0.42962352
0.25770015 0.99404634 0.42986010
0.25866294 0.99414719 0.43029705
0.25999821 0.99428168 0.43090757
0.26182221 0.99446717 0.43174614
0.26436143 0.99472831 0.43289321
0.26791912 0.99509350 0.43446796
0.27275736 0.99559860 0.43675092
0.27913707 0.99629711 0.44048324
0.28906913 0.99725796 0.44720836
0.31133729 0.99847835 0.45872937
0.35244533 0.99994124 0.47378452
0.40945072 1.00000000 0.48522904
0.49946971 1.00000000 0.49202239
0.60069345 1.00000000 0.50153568
0.69554817 1.00000000 0.49921777
0.78379859 1.00000000 0.46355471
0.86979034 0.99019859 0.41014655
0.94667036 0.96362880 0.41082665
0.99028044 0.92373894 0.50474926
1.00000000 0.88301171 0.60999351
1.00000000 0.85088155 0.67462062
1.00000000 0.82969362 0.70891254
1.00000000 0.82213162 0.73489354
0.99994251 0.83322697 0.76919934
0.99995526 0.86369743 0.81777008
0.99998351 0.90400594 0.87303278
0.99999841 0.94221105 0.92334629
1.00000000 0.97081550 0.96098384
1.00000000 0.98780345 0.98356458
1.00000000 0.99545756 0.99384386
0.99999999 0.99814113 0.99747687
0.99999996 0.99899409 0.99863564
0.54014495 1.00000000 0.56087927
0.54055891 1.00000000 0.56113097
0.54133004 1.00000000 0.56159877
0.54240137 1.00000000 0.56225355
0.54386848 1.00000000 0.56315862
0.54590965 1.00000000 0.56441515
0.54876381 1.00000000 0.56614575
0.55268688 1.00000000 0.56853611
0.55793789 1.00000000 0.57198950
0.56531943 1.00000000 0.57744605
0.57704765 1.00000000 0.58644585
0.59416251 1.00000000 0.60004353
0.61770981 1.00000000 0.61752526
0.65483874 1.00000000 0.63804096
0.70415778 1.00000000 0.66216071
0.75860390 1.00000000 0.68405381
0.81239189 1.00000000 0.68819029
0.86441327 1.00000000 0.66000828
0.91725443 0.99770488 0.60840640
0.96612827 0.97907242 0.57937336
0.99360428 0.94668053 0.63283760
1.00000000 0.91355488 0.70210435
1.00000000 0.88872717 0.75020800
1.00000000 0.87458112 0.78092074
1.00000000 0.87328235 0.80799562
0.99995918 0.88753636 0.84222186
0.99996926 0.91519038 0.88507961
0.99999046 0.94658325 0.92834786
0.99999937 0.97225347 0.96274719
1.00000000 0.98817210 0.98404698
1.00000000 0.99551668 0.99392330
1.00000000 0.99815071 0.99748640
0.99999999 0.99900315 0.99864431
0.72289661 1.00000000 0.69921679
0.72311137 1.00000000 0.69938896
0.72350222 1.00000000 0.69970612
0.72403872 1.00000000 0.70014790
0.72477580 1.00000000 0.70076051
0.72580573 1.00000000 0.70161517
0.72725071 1.00000000 0.70279661
0.72926167 1.00000000 0.70442202
0.73198351 1.00000000 0.70668301
0.73561535 1.00000000 0.70995216
0.74047201 1.00000000 0.71479251
0.74672364 1.00000000 0.72169938
0.75549299 1.00000000 0.73134352
0.76982467 0.99998040 0.74475394
0.79172791 0.99999169 0.76286841
0.81998956 1.00000000 0.78397221
0.85014578 1.00000000 0.80104765
0.88074384 1.00000000 0.80511227
0.91243617 1.00000000 0.78684751
0.94541108 1.00000000 0.74845055
0.97638491 0.98780050 0.72280630
0.99539871 0.96415416 0.74036634
1.00000000 0.93939647 0.78188463
1.00000000 0.92164731 0.81810687
1.00000000 0.91364948 0.84562846
1.00000000 0.91685352 0.87166805
0.99997209 0.93156328 0.90234597
0.99997907 0.95359797 0.93617432
0.99999347 0.97459747 0.96554848
0.99999945 0.98873945 0.98478142
1.00000000 0.99558919 0.99402770
1.00000000 0.99815541 0.99749178
1.00000000 0.99901200 0.99865240
0.81376781 1.00000000 0.78788346
0.81384539 1.00000000 0.78795141
0.81398058 1.00000000 0.78807299
0.81416010 1.00000000 0.78823794
0.81440554 1.00000000 0.78846550
0.81475037 1.00000000 0.78878455
0.81524010 1.00000000 0.78922955
0.81593667 1.00000000 0.78984424
0.81690612 1.00000000 0.79068757
0.81819939 1.00000000 0.79184197
0.81977565 0.99997999 0.79335183
0.82143278 0.99994948 0.79514438
0.82349793 0.99990898 0.79755792
0.82710366 0.99985977 0.80138151
0.83374591 0.99981188 0.80755504
0.84491401 0.99981788 0.81683225
0.86130938 1.00000000 0.82899785
0.88219464 1.00000000 0.84189670
0.90620558 1.00000000 0.85015907
0.93233927 1.00000000 0.84755876
0.95901169 1.00000000 0.83230629
0.98248793 0.99331797 0.81281869
0.99669570 0.97732079 0.81646599
1.00000000 0.95977573 0.84639490
1.00000000 0.94816635 0.87583757
1.00000000 0.94506674 0.89941559
1.00000000 0.95071039 0.92233902
0.99998226 0.96336542 0.94688364
0.99998634 0.97825049 0.96978683
0.99999569 0.98969104 0.98596304
0.99999957 0.99572109 0.99420940
1.00000000 0.99815960 0.99749999
1.00000000 0.99901790 0.99865815
