resources/flame/Syncolor/Shared/transforms/camera_manufacturer_luts/arri/ARRI_Alexa_LUTs/ARRI_LogC4_v1_LUT_Package/LUTs/ARRI_LogC4-to-HLG_1K_Rec2100-P3lim-D65_DW100_v1_33.cube
LUT_3D_SIZE 9
0.00000000 0.00000000 0.00000000
0.01136005 0.00298289 0.00350292
0.12614238 0.03158384 0.02545345
0.44400318 0.11005064 0.08000579
0.74609101 0.21932603 0.16236558
0.91783664 0.33974311 0.25339818
0.99191128 0.65989965 0.52520799
0.99278223 0.89360713 0.84946236
1.00000000 0.99964427 0.99937974
0.00609204 0.01288862 0.00640954
0.02233128 0.02290943 0.00370877
0.16459151 0.04477263 0.01598435
0.46110525 0.11334559 0.07984034
0.74885505 0.22113241 0.16169662
0.91843436 0.34036597 0.25304573
0.99189296 0.66038953 0.52559061
0.99278404 0.89365288 0.84951655
1.00000000 0.99964395 0.99937941
0.06291540 0.13478721 0.05063638
0.07661820 0.16774588 0.05192031
0.21708294 0.22468862 0.02834790
0.52519023 0.20854716 0.02368748
0.76327320 0.22520363 0.15186098
0.92078776 0.34269579 0.25146572
0.99182330 0.66231123 0.52709298
0.99279047 0.89383054 0.84972751
1.00000000 0.99964216 0.99937743
0.20322489 0.43821534 0.14974447
0.20946285 0.45157805 0.15298776
0.23947512 0.50124686 0.09753229
0.51715385 0.52988733 0.06859456
0.78055138 0.47513573 0.15778836
0.93499462 0.34970195 0.22993833
0.99148696 0.66952165 0.53311223
0.99281446 0.89451302 0.85053333
1.00000000 0.99963543 0.99936979
0.39689592 0.73315123 0.28489847
0.39896907 0.73518538 0.28573638
0.40647322 0.74292645 0.28764203
0.45775279 0.76965439 0.16174370
0.75065647 0.76332932 0.15610595
0.93069194 0.69558523 0.31819029
0.99108287 0.70290110 0.55838146
0.99300296 0.89706771 0.85350578
1.00000000 0.99960906 0.99934061
0.59898103 0.90301999 0.43609221
0.59938265 0.90335405 0.43651361
0.60093515 0.90462981 0.43813947
0.60603624 0.90960094 0.43887694
0.64672701 0.92681306 0.22571332
0.88768967 0.90087561 0.35515835
0.99096420 0.85766304 0.66198416
0.99414625 0.90948153 0.86726745
1.00000000 0.99950444 0.99921291
0.76299303 0.99935880 0.63643154
0.76317686 0.99938178 0.63660429
0.76389382 0.99946849 0.63727985
0.76667483 0.99973707 0.63977406
0.78063306 1.00000000 0.65340024
0.84787174 1.00000000 0.63745256
0.96499307 0.98015580 0.71153667
0.99915930 0.96545819 0.91879303
1.00000000 0.99888799 0.99858556
0.97376771 0.99997161 0.95595346
0.97378289 0.99997172 0.95597753
0.97384065 0.99997226 0.95606914
0.97406116 0.99997412 0.95642142
0.97488044 0.99998174 0.95763412
0.97771329 0.99996205 0.96263754
0.98320013 1.00000000 0.96519049
0.99636611 0.99957868 0.96566906
1.00000000 0.99968916 0.99956150
0.99978806 1.00000000 0.99963269
0.99978814 1.00000000 0.99963280
0.99978838 1.00000000 0.99963322
0.99978898 1.00000000 0.99963404
0.99979198 0.99999992 0.99964123
0.99980991 1.00000000 0.99966378
1.00000000 1.00000000 1.00000000
1.00000000 0.99999567 1.00000000
0.99999497 0.99999967 0.99998059
0.00167901 0.00092865 0.00776157
0.01725621 0.00475878 0.01675108
0.14841619 0.03760716 0.05344829
0.45404606 0.11298323 0.10106055
0.74801794 0.22045645 0.17089830
0.91833104 0.34014707 0.25713375
0.99189664 0.66031816 0.52658687
0.99278465 0.89363956 0.84955836
1.00000000 0.99964380 0.99937879
0.00957153 0.01898086 0.01806750
0.03369007 0.03369007 0.03369007
0.18529613 0.04605228 0.05217342
0.46999454 0.11641519 0.10112089
0.75067183 0.22247673 0.17036854
0.91890466 0.34088517 0.25685022
0.99187497 0.66081879 0.52697905
0.99278636 0.89368544 0.84961268
1.00000000 0.99964348 0.99937845
0.07407929 0.15775106 0.07051684
0.08535744 0.18677491 0.07457140
0.22429460 0.22915561 0.03336077
0.53289411 0.20923992 0.05647379
0.76420122 0.22839451 0.16230762
0.92111577 0.34394213 0.25569642
0.99179614 0.66276137 0.52850290
0.99279266 0.89386337 0.84982373
1.00000000 0.99964169 0.99937647
0.20801415 0.44814835 0.15712028
0.21401361 0.46076775 0.16029284
0.24089174 0.50773191 0.10396334
0.51913312 0.53138118 0.07662896
0.78114598 0.47705455 0.16832713
0.93499282 0.35237851 0.23543513
0.99146587 0.66989971 0.53446532
0.99281639 0.89454628 0.85062951
1.00000000 0.99963495 0.99936882
0.39843624 0.73457729 0.28867732
0.40048523 0.73657942 0.28942061
0.40793186 0.74418049 0.29112491
0.45849823 0.77044561 0.16569211
0.75088253 0.76350613 0.16348006
0.93063853 0.69624356 0.32321176
0.99105281 0.70316323 0.55963072
0.99300681 0.89709917 0.85359840
1.00000000 0.99960858 0.99933964
0.59928308 0.90323022 0.43800981
0.59968203 0.90356251 0.43843136
0.60122479 0.90483030 0.44008448
0.60632471 0.90979739 0.44019789
0.64697339 0.92690417 0.22825787
0.88771484 0.90089188 0.35738278
0.99092704 0.85775804 0.66281705
0.99415021 0.90950479 0.86734650
1.00000000 0.99950402 0.99921203
0.76310973 0.99937187 0.63679028
0.76329326 0.99939480 0.63696268
0.76400889 0.99948145 0.63763598
0.76681205 0.99974243 0.64016579
0.78077406 1.00000000 0.65380008
0.84794164 1.00000000 0.63789960
0.96499285 0.98015150 0.71181881
0.99916059 0.96546554 0.91883646
1.00000000 0.99888775 0.99858506
0.97377043 0.99997168 0.95596119
0.97378562 0.99997180 0.95598527
0.97384338 0.99997232 0.95607689
0.97406372 0.99997420 0.95642891
0.97488282 0.99998178 0.95764154
0.97771431 0.99996205 0.96264201
0.98319857 1.00000000 0.96518775
0.99636628 0.99957836 0.96567567
1.00000000 0.99968908 0.99956230
0.99978832 1.00000000 0.99963313
0.99978833 1.00000000 0.99963320
0.99978623 1.00000000 0.99962995
0.99978920 1.00000000 0.99963442
0.99979213 0.99999991 0.99964156
0.99981102 1.00000000 0.99966473
1.00000000 1.00000000 1.00000000
1.00000000 0.99999567 1.00000000
0.99999550 0.99999966 0.99998135
0.02408208 0.03227313 0.08870379
0.03925535 0.02560401 0.13545415
0.19488445 0.05340942 0.18980555
0.47776023 0.12218893 0.23972964
0.75517036 0.22626260 0.25581180
0.92035977 0.34242903 0.27509573
0.99184764 0.66193313 0.53208028
0.99279352 0.89376607 0.84993108
1.00000000 0.99964163 0.99937438
0.03099387 0.04531150 0.10803422
0.04372864 0.03746174 0.15527331
0.20841844 0.05470500 0.20472006
0.48960329 0.12504428 0.24407214
0.75770685 0.22831134 0.25568138
0.92092318 0.34314818 0.27477785
0.99182772 0.66242528 0.53246207
0.99279513 0.89381195 0.84998537
1.00000000 0.99964130 0.99937405
0.09867630 0.19618491 0.19101568
0.10212706 0.20697732 0.20140140
0.22529611 0.22529611 0.22529611
0.54073937 0.21078226 0.24339402
0.76961387 0.23659505 0.25241390
0.92308925 0.34622214 0.27350619
0.99174592 0.66434349 0.53396533
0.99280130 0.89398981 0.85019597
1.00000000 0.99963952 0.99937207
0.22174073 0.46859596 0.25900703
0.22633868 0.47783050 0.26363424
0.24665284 0.51522310 0.24189401
0.51905223 0.53100935 0.24515091
0.77819265 0.49679765 0.27719200
0.93533295 0.36228320 0.25875071
0.99137605 0.67143836 0.53991545
0.99282424 0.89467378 0.85100075
1.00000000 0.99963278 0.99936441
0.40398654 0.73919059 0.31738324
0.40592109 0.74106558 0.31801176
0.41290099 0.74812946 0.31910681
0.46313890 0.77211333 0.21065127
0.75069245 0.76385410 0.22935643
0.93024230 0.69935916 0.34565434
0.99094225 0.70418362 0.56458263
0.99302200 0.89722104 0.85395712
1.00000000 0.99960640 0.99933524
0.60036602 0.90401676 0.44607921
0.60075841 0.90434358 0.44645557
0.60230221 0.90560261 0.44759122
0.60736535 0.91056620 0.44504422
0.64810771 0.92724172 0.23842378
0.88778718 0.90093211 0.36722065
0.99077801 0.85814349 0.66616142
0.99416577 0.90959530 0.86765347
1.00000000 0.99950211 0.99920802
0.76354872 0.99942081 0.63819936
0.76373297 0.99944342 0.63837310
0.76444980 0.99952931 0.63905017
0.76734387 0.99975913 0.64172727
0.78131698 1.00000000 0.65538862
0.84821304 1.00000000 0.63966568
0.96498956 0.98013184 0.71296267
0.99916584 0.96549435 0.91900420
1.00000000 0.99888668 0.99858284
0.97377987 0.99997202 0.95598849
0.97379502 0.99997214 0.95601252
0.97385274 0.99997263 0.95610410
0.97407270 0.99997456 0.95645545
0.97489107 0.99998200 0.95766753
0.97771764 0.99996204 0.96265752
0.98319234 1.00000000 0.96517467
0.99636699 0.99957708 0.96570175
1.00000000 0.99968876 0.99955523
0.99978939 1.00000000 0.99963507
0.99978946 1.00000000 0.99963513
0.99978967 1.00000000 0.99963549
0.99978883 1.00000000 0.99963375
0.99979286 0.99999988 0.99964153
0.99981244 1.00000000 0.99966679
1.00000000 0.99999875 1.00000000
1.00000000 0.99999571 1.00000000
0.99999559 0.99999946 0.99998138
0.09620042 0.14173080 0.33142058
0.09820703 0.14221979 0.35681281
0.22706189 0.07534963 0.52883342
0.51577715 0.14118168 0.50358328
0.76277176 0.23707558 0.48618533
0.92828917 0.35091650 0.42179528
0.99165182 0.66902879 0.55722870
0.99282738 0.89424189 0.85137564
1.00000000 0.99963330 0.99935659
0.09902806 0.14664430 0.34025178
0.10101191 0.14746704 0.36364456
0.22957527 0.07761299 0.53958192
0.52011139 0.14265930 0.50839707
0.76469953 0.23877985 0.48774852
0.92879608 0.35184228 0.42178194
0.99163453 0.66947722 0.55755212
0.99282886 0.89428775 0.85142953
1.00000000 0.99963297 0.99935626
0.13429125 0.22485522 0.40615798
0.13611736 0.22744750 0.41783640
0.22989347 0.19380270 0.56491988
0.54430369 0.18547389 0.53700272
0.77346201 0.24398886 0.49364654
0.93073680 0.35589572 0.42171751
0.99156570 0.67120636 0.55882087
0.99283445 0.89446584 0.85163879
1.00000000 0.99963119 0.99935427
0.25057349 0.49809004 0.48623741
0.25255079 0.50148675 0.48998474
0.26752735 0.51775084 0.50839253
0.51680602 0.51680602 0.51680602
0.77222304 0.51169231 0.53760661
0.93952306 0.38641733 0.42156986
0.99125171 0.67759296 0.56378595
0.99285614 0.89515121 0.85243925
1.00000000 0.99962442 0.99934659
0.41633529 0.74317778 0.50386735
0.41793567 0.74450898 0.50516648
0.42355590 0.74949672 0.50940164
0.51959166 0.76015023 0.50191322
0.74747374 0.75764469 0.56188384
0.92084768 0.72543192 0.54254824
0.99071349 0.70860806 0.58591608
0.99308089 0.89768084 0.85535074
1.00000000 0.99959799 0.99931752
0.60376292 0.90609735 0.49931438
0.60412937 0.90641143 0.49939201
0.60555757 0.90761770 0.49954378
0.60904149 0.91237819 0.49570532
0.66509942 0.92481178 0.36406330
0.88660222 0.90040353 0.47734088
0.99012726 0.85987441 0.67999035
0.99422355 0.90994234 0.86886767
1.00000000 0.99949472 0.99919160
0.76518467 0.99961893 0.64316505
0.76536540 0.99964041 0.64333394
0.76606276 0.99971416 0.64398172
0.76957769 0.99982466 0.64754362
0.78310358 1.00000000 0.65996230
0.84919998 1.00000000 0.64539672
0.96497204 0.98002417 0.71770689
0.99918594 0.96560689 0.91967406
1.00000000 0.99888249 0.99857335
0.97380516 0.99997317 0.95610005
0.97382024 0.99997328 0.95612395
0.97387807 0.99997376 0.95621564
0.97409420 0.99997607 0.95656029
0.97491614 0.99998210 0.95778625
0.97772761 0.99995979 0.96275341
0.98316379 1.00000000 0.96512762
0.99636943 0.99957199 0.96580344
1.00000000 0.99968652 0.99955271
0.99979407 1.00000000 0.99964255
0.99979393 1.00000000 0.99964227
0.99979418 0.99999999 0.99964266
0.99979341 0.99999998 0.99964119
0.99979837 0.99999987 0.99965195
0.99981706 1.00000000 0.99967414
1.00000000 0.99999876 1.00000000
1.00000000 0.99999576 1.00000000
0.99999545 0.99999862 0.99997448
0.20616621 0.31027695 0.65204766
0.20820674 0.31059557 0.65802300
0.21573246 0.29321478 0.71201317
0.50120986 0.23472581 0.80466691
0.76563813 0.24727124 0.75606470
0.93096302 0.35747806 0.68584353
0.99156998 0.69182402 0.68134852
0.99303002 0.89620197 0.85769384
1.00000000 0.99960107 0.99929728
0.20754009 0.31282895 0.65435381
0.20955867 0.31313287 0.66023478
0.21682409 0.29715156 0.71234019
0.50182388 0.23865503 0.80532039
0.76634012 0.24844501 0.75683838
0.93131510 0.35845412 0.68615190
0.99155150 0.69221503 0.68153712
0.99303386 0.89624624 0.85774219
1.00000000 0.99960074 0.99929694
0.21281420 0.32219180 0.66378047
0.21472979 0.32235796 0.66941264
0.22165097 0.30988192 0.71544034
0.50404582 0.25465291 0.80759557
0.76917020 0.25254512 0.75999597
0.93266037 0.36278818 0.68737175
0.99147926 0.69371019 0.68227315
0.99305001 0.89641797 0.85792936
1.00000000 0.99959894 0.99929499
0.30075036 0.50969404 0.73908977
0.30199132 0.51029092 0.74146347
0.30604455 0.51239290 0.75365131
0.52226633 0.51124866 0.78233619
0.77421618 0.43414073 0.76451000
0.93830272 0.38847960 0.69256772
0.99120748 0.69921042 0.68511390
0.99311354 0.89707609 0.85864375
1.00000000 0.99959218 0.99928746
0.51236898 0.74725101 0.73760548
0.51407309 0.74764172 0.73809281
0.52069758 0.74902934 0.73983636
0.59918821 0.75043324 0.74325204
0.74463837 0.74463837 0.74463837
0.90713898 0.74307168 0.75331091
0.99096013 0.72620500 0.69859287
0.99334859 0.89954426 0.86134662
1.00000000 0.99956573 0.99925900
0.63688144 0.89868454 0.70111878
0.63751137 0.89885626 0.70143284
0.64004915 0.89950472 0.70264596
0.65115719 0.90165851 0.70745294
0.74740378 0.89871251 0.72748389
0.88137417 0.89056694 0.77490340
0.98510472 0.87293996 0.77740354
0.99450113 0.91133707 0.87387284
1.00000000 0.99946734 0.99913837
0.76402666 0.99991453 0.68250791
0.76422488 0.99992690 0.68268200
0.76501518 0.99996563 0.68337889
0.76847145 1.00000000 0.68646283
0.78462205 1.00000000 0.69918010
0.85633585 0.99751734 0.71078454
0.96388330 0.97821057 0.76581227
0.99931474 0.96607849 0.92208090
1.00000000 0.99886660 0.99855069
0.97399613 0.99995452 0.95628985
0.97401066 0.99995460 0.95631330
0.97406674 0.99995503 0.95640336
0.97427888 0.99995673 0.95674438
0.97508745 0.99995716 0.95800500
0.97773367 0.99994852 0.96271859
0.98300882 1.00000000 0.96437121
0.99637730 0.99955099 0.96617243
1.00000000 0.99968255 0.99954384
0.99978173 1.00000000 0.99965043
0.99980551 1.00000000 0.99966400
0.99980686 1.00000000 0.99966759
0.99980768 1.00000000 0.99966889
0.99980869 1.00000000 0.99967271
0.99983001 1.00000000 0.99969674
1.00000000 1.00000000 1.00000000
1.00000000 0.99999562 1.00000000
0.99999544 0.99999984 0.99998249
0.33909188 0.51636622 0.84557419
0.33990524 0.51645816 0.84714104
0.34340791 0.51719441 0.85294246
0.36531443 0.49097808 0.90774913
0.71242729 0.50289329 0.94235315
0.91581527 0.41630132 0.90320817
0.99359100 0.69677192 0.82579926
0.99434445 0.90273729 0.89109320
1.00000000 0.99945257 0.99880714
0.33964744 0.51733031 0.84609262
0.34046248 0.51742502 0.84764619
0.34395606 0.51814247 0.85343743
0.36571537 0.49234533 0.90783310
0.71255730 0.50419179 0.94243608
0.91587773 0.41735914 0.90327185
0.99357317 0.69709675 0.82587080
0.99434843 0.90277800 0.89112955
1.00000000 0.99945226 0.99880694
0.34193344 0.52131193 0.84818408
0.34275761 0.52142020 0.84968170
0.34620479 0.52208307 0.85540966
0.36740123 0.49784093 0.90820901
0.71306024 0.50957553 0.94269858
0.91611164 0.42167509 0.90351062
0.99350291 0.69835192 0.82615093
0.99436408 0.90293595 0.89127102
1.00000000 0.99945060 0.99880559
0.35047616 0.53688164 0.85770686
0.35125816 0.53696843 0.85907592
0.35451522 0.53721377 0.86471101
0.37452366 0.51958045 0.91119744
0.71491768 0.53136159 0.94336246
0.91698717 0.43902599 0.90435663
0.99324711 0.70320048 0.82725885
0.99442329 0.90353940 0.89181130
1.00000000 0.99944441 0.99880049
0.53214709 0.73409939 0.91395448
0.53302680 0.73421768 0.91415713
0.53675304 0.73467815 0.91492166
0.55664273 0.73681274 0.91789575
0.74748689 0.75057912 0.90936884
0.90715133 0.67891196 0.89491966
0.99253445 0.72424029 0.83224398
0.99463045 0.90586591 0.89387882
1.00000000 0.99941968 0.99878119
0.77172301 0.88191986 0.87525838
0.77191427 0.88198092 0.87533822
0.77267223 0.88221143 0.87564357
0.77534947 0.88302174 0.87675825
0.81266237 0.88293283 0.87846321
0.87977324 0.87977324 0.87977324
0.97689285 0.88326217 0.88607479
0.99603677 0.91643829 0.90320908
1.00000000 0.99933772 0.99870387
0.83405761 0.97979194 0.85135833
0.83417083 0.97980588 0.85143304
0.83460248 0.97986128 0.85171590
0.83604651 0.98011284 0.85260404
0.84215019 0.98080574 0.85613877
0.89025641 0.97528145 0.87206769
0.95988224 0.96700419 0.90392923
0.99973170 0.96927947 0.94362077
0.99998955 0.99876882 0.99826919
0.96903772 1.00000000 0.95194053
0.96905167 1.00000000 0.95196054
0.96910541 1.00000000 0.95203805
0.96931102 1.00000000 0.95233352
0.97007646 1.00000000 0.95342484
0.97243994 1.00000000 0.95698643
0.97967960 1.00000000 0.95857685
0.99624120 0.99919531 0.97042847
1.00000000 0.99966244 0.99942471
0.99997718 1.00000000 0.99995848
0.99997683 1.00000000 0.99995728
0.99997633 1.00000000 0.99995744
0.99997743 1.00000000 0.99995926
0.99997945 1.00000000 0.99996338
1.00000000 1.00000000 0.99998495
1.00000000 0.99999283 1.00000000
1.00000000 0.99999441 1.00000000
0.99999462 0.99999931 0.99998998
0.54397911 0.73204007 0.99861191
0.54442786 0.73211460 0.99873889
0.54611767 0.73234656 0.99911985
0.55166903 0.73311019 0.99950629
0.60850919 0.74193793 1.00000000
0.85590710 0.77337994 0.99980247
0.98683432 0.76272985 0.96752575
0.99563817 0.91239772 0.93729829
1.00000000 0.99894554 0.99835231
0.54416635 0.73222245 0.99866032
0.54464943 0.73230942 0.99878754
0.54634954 0.73254604 0.99913522
0.55189493 0.73330568 0.99952342
0.60866912 0.74214073 1.00000000
0.85593956 0.77353719 0.99980332
0.98683423 0.76284053 0.96753067
0.99564096 0.91242853 0.93731722
1.00000000 0.99894530 0.99835219
0.54500071 0.73296749 0.99884880
0.54551358 0.73306534 0.99896436
0.54725079 0.73331841 0.99918500
0.55278127 0.73406549 0.99958609
0.60930137 0.74292723 1.00000000
0.85606560 0.77414597 0.99980589
0.98683339 0.76327209 0.96754901
0.99565203 0.91254842 0.93739122
1.00000000 0.99894396 0.99835138
0.54841935 0.73598589 0.99915385
0.54894070 0.73608747 0.99919274
0.55084245 0.73641452 0.99934608
0.55636634 0.73713606 0.99977395
0.61187099 0.74609130 1.00000000
0.85656407 0.77655994 0.99982344
0.98682166 0.76497169 0.96761562
0.99569639 0.91300457 0.93767464
1.00000000 0.99893901 0.99834834
0.55958192 0.74723658 1.00000000
0.56014313 0.74735060 1.00000000
0.56236495 0.74779844 1.00000000
0.56981735 0.74907156 1.00000000
0.62324424 0.75848753 1.00000000
0.85858503 0.78460053 1.00000000
0.98688830 0.77082834 0.96794819
0.99587435 0.91480876 0.93877791
1.00000000 0.99891833 0.99833641
0.77092678 0.88163637 0.98742301
0.77106277 0.88166478 0.98743125
0.77159535 0.88177474 0.98746254
0.77377774 0.88220214 0.98756758
0.78515697 0.88401249 0.98755812
0.88587376 0.89260073 0.97840351
0.97752528 0.86166999 0.96512338
0.99693402 0.92182423 0.94348754
1.00000000 0.99886653 0.99829735
0.90860835 0.96073341 0.95700461
0.90863630 0.96074178 0.95701585
0.90874443 0.96077404 0.95705909
0.90916633 0.96089332 0.95722064
0.91064591 0.96131509 0.95781407
0.92942231 0.96093597 0.95856563
0.95965023 0.95965023 0.95965023
0.99855058 0.97328998 0.97341058
0.99998931 0.99833492 0.99796323
0.96273829 0.99957661 0.96412661
0.96274931 0.99957675 0.96413603
0.96279214 0.99957723 0.96417269
0.96295457 0.99957906 0.96431173
0.96357615 0.99958427 0.96483316
0.96583254 0.99960384 0.96673604
0.97793908 0.99831216 0.97250933
0.99576140 0.99696372 0.98701954
1.00000000 0.99944561 0.99898438
1.00000000 0.99998738 1.00000000
1.00000000 0.99998738 1.00000000
1.00000000 0.99998739 1.00000000
1.00000000 0.99998744 1.00000000
1.00000000 0.99998762 1.00000000
1.00000000 0.99998638 1.00000000
1.00000000 0.99999210 1.00000000
1.00000000 1.00000000 1.00000000
0.99999249 1.00000000 1.00000000
0.87203630 0.93072118 0.99994668
0.87208796 0.93073875 0.99994729
0.87228265 0.93080556 0.99995008
0.87304489 0.93105979 0.99996898
0.87573013 0.93197503 0.99999280
0.89130377 0.93639035 0.99995475
0.96437615 0.94601142 1.00000000
0.99975919 0.96458206 0.99255802
0.99999198 0.99800758 0.99844740
0.87207497 0.93074275 0.99994690
0.87212599 0.93076009 0.99994747
0.87232051 0.93082684 0.99995033
0.87308252 0.93108102 0.99996913
0.87576702 0.93199596 0.99999284
0.89133090 0.93640904 0.99995476
0.96438180 0.94602678 1.00000000
0.99975932 0.96459087 0.99255995
0.99999197 0.99800749 0.99844737
0.87222151 0.93082499 0.99994770
0.87227205 0.93084211 0.99994826
0.87246633 0.93090875 0.99995143
0.87322744 0.93116273 0.99996980
0.87590953 0.93207668 0.99999295
0.89143688 0.93648131 0.99995481
0.96440379 0.94608617 1.00000000
0.99975978 0.96462510 0.99256741
0.99999197 0.99800707 0.99844720
0.87277311 0.93113544 0.99995249
0.87282381 0.93115197 0.99995322
0.87301716 0.93121756 0.99995642
0.87377534 0.93147070 0.99997357
0.87645019 0.93238104 0.99999427
0.89184081 0.93675390 0.99995549
0.96448758 0.94631102 1.00000000
0.99976150 0.96475527 0.99259577
0.99999197 0.99800549 0.99844657
0.87497462 0.93238316 0.99996148
0.87502466 0.93239855 0.99996182
0.87521431 0.93245868 0.99996341
0.87594741 0.93270313 0.99997126
0.87855251 0.93359660 0.99997540
0.89341417 0.93786185 0.99993625
0.96480318 0.94721392 1.00000000
0.99976707 0.96525647 0.99270423
0.99999203 0.99799897 0.99844414
0.88181318 0.93638848 1.00000000
0.88186182 0.93640162 1.00000000
0.88205060 0.93645273 1.00000000
0.88277218 0.93664766 1.00000000
0.88543967 0.93745276 1.00000000
0.89930067 0.94125780 1.00000000
0.96600620 0.94976020 1.00000000
0.99979146 0.96685426 0.99306947
0.99999201 0.99799688 0.99844281
0.94444359 0.97419851 0.99983310
0.94445785 0.97420265 0.99983316
0.94451331 0.97421871 0.99983330
0.94472502 0.97427964 0.99983385
0.94556062 0.97450774 0.99983467
0.94919667 0.97530194 0.99982235
0.97581218 0.97836543 0.99834734
0.99857748 0.98203249 0.99552850
0.99999733 0.99784990 0.99839466
0.98559408 0.99561685 0.99473959
0.98559664 0.99561754 0.99474053
0.98560652 0.99562023 0.99474416
0.98564409 0.99563042 0.99475793
0.98578822 0.99566819 0.99480930
0.98625925 0.99580803 0.99499856
0.98985364 0.99590144 0.99539274
0.99596596 0.99596596 0.99596596
1.00000000 0.99898346 0.99896569
1.00000000 1.00000000 1.00000000
1.00000000 1.00000000 1.00000000
1.00000000 1.00000000 1.00000000
1.00000000 1.00000000 1.00000000
1.00000000 1.00000000 1.00000000
1.00000000 1.00000000 1.00000000
1.00000000 1.00000000 1.00000000
1.00000000 1.00000000 1.00000000
0.99999654 1.00000000 1.00000000
0.99848526 0.99922216 1.00000000
0.99848473 0.99922189 1.00000000
0.99848239 0.99922070 1.00000000
0.99847344 0.99921620 1.00000000
0.99844004 0.99919936 0.99999982
0.99833505 0.99912992 1.00000000
0.99742862 0.99887841 0.99998650
0.99881731 0.99837807 1.00000000
1.00000000 0.99842277 0.99967676
0.99848478 0.99922190 1.00000000
0.99848426 0.99922163 1.00000000
0.99848192 0.99922044 1.00000000
0.99847297 0.99921594 1.00000000
0.99843957 0.99919910 0.99999982
0.99833462 0.99912968 1.00000000
0.99742854 0.99887825 0.99998650
0.99881732 0.99837803 1.00000000
1.00000000 0.99842283 0.99967677
0.99848265 0.99922071 1.00000000
0.99848212 0.99922044 1.00000000
0.99847978 0.99921925 1.00000000
0.99847084 0.99921475 1.00000000
0.99843745 0.99919793 0.99999983
0.99833267 0.99912860 1.00000000
0.99742810 0.99887753 0.99998651
0.99881733 0.99837786 1.00000000
1.00000000 0.99842307 0.99967684
0.99847484 0.99921638 1.00000000
0.99847431 0.99921612 1.00000000
0.99847196 0.99921493 1.00000000
0.99846299 0.99921043 1.00000000
0.99842958 0.99919364 0.99999980
0.99832531 0.99912466 1.00000000
0.99742642 0.99887489 0.99998654
0.99881735 0.99837721 1.00000000
1.00000000 0.99842396 0.99967707
0.99843996 0.99919674 1.00000000
0.99843944 0.99919648 1.00000000
0.99843713 0.99919530 1.00000000
0.99842828 0.99919082 1.00000000
0.99839617 0.99917439 0.99999997
0.99829591 0.99910693 1.00000000
0.99741992 0.99886299 0.99998692
0.99881751 0.99837425 1.00000000
1.00000000 0.99842738 0.99967794
0.99838994 0.99917484 1.00000000
0.99838942 0.99917457 1.00000000
0.99838707 0.99917338 1.00000000
0.99837805 0.99916887 1.00000000
0.99834484 0.99915223 1.00000000
0.99822813 0.99908441 1.00000000
0.99740670 0.99885798 0.99998431
0.99881756 0.99838049 1.00000000
1.00000000 0.99843946 0.99968125
0.99757905 0.99868212 0.99998531
0.99757890 0.99868204 0.99998532
0.99757813 0.99868163 0.99998533
0.99757525 0.99868012 0.99998537
0.99756377 0.99867445 0.99998560
0.99753388 0.99865380 0.99998401
0.99723649 0.99856782 0.99998812
0.99883690 0.99828804 1.00000000
1.00000000 0.99848452 0.99969109
0.99772940 0.99905773 1.00000000
0.99772946 0.99905773 1.00000000
0.99772970 0.99905772 1.00000000
0.99773062 0.99905767 1.00000000
0.99773393 0.99905748 1.00000000
0.99775365 0.99905706 1.00000000
0.99778969 0.99905846 1.00000000
0.99881277 0.99896853 1.00000000
1.00000000 0.99889589 0.99981496
0.99912035 0.99999764 0.99992301
0.99912037 0.99999764 0.99992301
0.99912046 0.99999763 0.99992302
0.99912077 0.99999763 0.99992303
0.99912197 0.99999759 0.99992309
0.99912663 0.99999754 0.99992340
0.99913963 0.99999754 0.99992489
0.99937606 0.99999066 0.99994720
1.00000000 1.00000000 1.00000000
