resources/flame/Syncolor/Shared/transforms/camera_manufacturer_luts/arri/ARRI_Alexa_LUTs/ARRI_LogC4_v1_LUT_Package/LUTs/ARRI_LogC4-to-HLG_1K_Rec2100-D65_DW100_v1_33.cube
LUT_3D_SIZE 33
0.00000000 0.00000000 0.00000000
0.00000000 0.00052682 0.00051663
0.00076675 0.00167765 0.00170443
0.00452221 0.00139738 0.00193622
0.01227352 0.00088659 0.00265381
0.02511655 0.00127436 0.00468068
0.04728585 0.00184798 0.00733366
0.08353603 0.00287021 0.01037522
0.13626750 0.00408761 0.01387515
0.20391049 0.00518058 0.01816874
0.28473667 0.00656171 0.02391462
0.37786418 0.00686588 0.03148796
0.47905366 0.01041795 0.04124565
0.57534224 0.01879308 0.05306554
0.65543525 0.02545559 0.06607832
0.72110908 0.02336837 0.07919472
0.77691192 0.01716529 0.09266720
0.82568968 0.02019640 0.10694573
0.87004668 0.01435011 0.11922646
0.91122923 0.00189790 0.12983400
0.94707938 0.04424002 0.15193603
0.97674309 0.15630647 0.18941554
0.99609679 0.28424493 0.24159058
1.00000000 0.41713578 0.31227444
1.00000000 0.55999332 0.41688269
1.00000000 0.68777747 0.54963008
0.99995979 0.77492907 0.66467713
0.99998604 0.83814810 0.75672510
1.00000000 0.89025103 0.83359483
1.00000000 0.93521007 0.90009486
1.00000000 0.97150711 0.95515375
0.99999996 0.99319406 0.98900216
0.99999995 0.99967531 0.99932997
0.00055442 0.00000000 0.00050645
0.00059611 0.00056774 0.00115804
0.00131974 0.00165997 0.00228269
0.00515272 0.00122378 0.00224680
0.01305543 0.00050886 0.00281342
0.02609650 0.00073627 0.00481092
0.04890074 0.00122877 0.00743516
0.08629104 0.00223600 0.01041482
0.13974900 0.00338969 0.01378942
0.20735270 0.00447789 0.01795215
0.28775852 0.00629834 0.02363118
0.38036674 0.00703499 0.03118255
0.48096175 0.01101322 0.04096356
0.57657481 0.01964389 0.05283427
0.65615521 0.02657751 0.06590665
0.72153896 0.02507557 0.07907000
0.77717521 0.01991640 0.09259752
0.82585817 0.02243371 0.10690387
0.87015875 0.01534594 0.11919507
0.91128974 0.00243346 0.12986607
0.94710873 0.04551425 0.15200482
0.97675745 0.15709655 0.18948389
0.99610073 0.28457798 0.24164876
1.00000000 0.41729593 0.31232574
1.00000000 0.56008821 0.41693353
1.00000000 0.68782170 0.54966603
0.99995980 0.77494834 0.66469737
0.99998604 0.83815793 0.75673651
1.00000000 0.89025663 0.83360145
1.00000000 0.93521326 0.90009885
1.00000000 0.97150865 0.95515586
0.99999996 0.99319448 0.98900279
0.99999995 0.99967532 0.99933000
0.00158560 0.00091255 0.00178240
0.00159256 0.00145990 0.00238356
0.00224590 0.00243133 0.00325719
0.00633815 0.00188493 0.00259434
0.01487502 0.00066995 0.00275369
0.02875667 0.00041470 0.00461087
0.05320048 0.00072179 0.00709088
0.09263229 0.00140425 0.00986047
0.14686826 0.00214846 0.01300633
0.21403327 0.00300412 0.01702703
0.29351441 0.00517865 0.02273983
0.38508691 0.00657071 0.03041677
0.48452772 0.01134876 0.04034443
0.57885329 0.02056976 0.05234851
0.65747615 0.02798527 0.06553247
0.72233428 0.02709817 0.07876728
0.77767659 0.02292472 0.09238010
0.82618740 0.02502531 0.10674232
0.87038028 0.01653424 0.11906810
0.91141370 0.00321969 0.12986681
0.94716318 0.04762939 0.15212359
0.97678174 0.15852052 0.18961450
0.99610690 0.28518395 0.24175817
1.00000000 0.41758124 0.31242049
1.00000000 0.56025636 0.41702668
1.00000000 0.68789959 0.54973179
0.99995983 0.77498162 0.66473385
0.99998606 0.83817496 0.75675682
1.00000000 0.89026651 0.83361324
1.00000000 0.93521895 0.90010601
1.00000000 0.97151140 0.95515965
0.99999996 0.99319518 0.98900385
0.99999995 0.99967527 0.99932996
0.00104280 0.00513845 0.00250793
0.00087760 0.00582201 0.00289307
0.00140958 0.00714256 0.00324345
0.00655260 0.00770298 0.00218907
0.01787614 0.00656000 0.00168361
0.03482910 0.00623396 0.00298203
0.06246749 0.00653630 0.00478683
0.10376779 0.00613118 0.00689006
0.15781847 0.00538566 0.00970024
0.22387328 0.00419756 0.01364624
0.30199329 0.00416534 0.01981729
0.39207520 0.00504325 0.02824100
0.48978319 0.01042581 0.03887574
0.58216285 0.02054061 0.05137769
0.65937222 0.02873243 0.06483972
0.72348290 0.02822176 0.07818329
0.77841560 0.02476513 0.09191441
0.82668112 0.02671020 0.10637534
0.87071705 0.01724733 0.11877160
0.91160781 0.00401255 0.12977262
0.94723881 0.05032949 0.15228311
0.97681197 0.16044902 0.18980728
0.99611397 0.28602479 0.24191495
1.00000000 0.41797625 0.31255288
1.00000000 0.56048637 0.41715577
1.00000000 0.68800427 0.54982256
0.99995988 0.77502567 0.66478375
0.99998608 0.83819768 0.75678442
1.00000000 0.89027992 0.83362928
1.00000000 0.93522673 0.90011578
1.00000000 0.97151513 0.95516481
0.99999996 0.99319608 0.98900523
0.99999995 0.99967513 0.99932980
0.00067221 0.01365878 0.00397828
0.00028595 0.01451906 0.00424017
0.00032562 0.01643332 0.00430087
0.00556168 0.01940757 0.00285056
0.02159724 0.02299489 0.00105838
0.04512809 0.02721499 0.00109702
0.07680373 0.03035542 0.00169301
0.11850264 0.03072105 0.00244125
0.17132867 0.02783300 0.00382434
0.23619539 0.02089065 0.00642637
0.31330419 0.01271810 0.01265119
0.40207238 0.00710748 0.02229845
0.49760164 0.00956842 0.03485135
0.58713828 0.01943847 0.04900731
0.66222156 0.02844303 0.06338613
0.72520144 0.02821794 0.07706439
0.77951940 0.02542612 0.09102823
0.82741652 0.02742831 0.10568446
0.87121341 0.01739713 0.11824061
0.91188771 0.00478421 0.12959072
0.94733803 0.05368744 0.15252159
0.97684907 0.16299978 0.19009193
0.99612253 0.28718678 0.24213747
1.00000000 0.41853349 0.31273656
1.00000000 0.56080722 0.41733345
1.00000000 0.68814817 0.54994744
0.99995994 0.77508578 0.66485240
0.99998611 0.83822883 0.75682239
1.00000000 0.89029839 0.83365133
1.00000000 0.93523746 0.90012923
1.00000000 0.97152027 0.95517192
0.99999996 0.99319731 0.98900711
0.99999995 0.99967492 0.99932956
0.00112099 0.02766562 0.00668552
0.00065636 0.02870703 0.00690605
0.00035468 0.03138036 0.00682086
0.00556599 0.03728319 0.00481437
0.02591766 0.04758949 0.00175992
0.05688058 0.05902897 0.00108804
0.09231750 0.06696212 0.00132049
0.13360346 0.07088106 0.00140174
0.18440329 0.07074916 0.00145510
0.24761931 0.06447152 0.00160209
0.32451939 0.04993832 0.00444843
0.41376925 0.02969797 0.01179209
0.50799401 0.01931660 0.02638157
0.59420287 0.02245090 0.04405782
0.66641323 0.02959331 0.06065458
0.72775954 0.02858067 0.07514931
0.78117277 0.02573938 0.08950184
0.82852257 0.02726317 0.10446832
0.87193812 0.01672809 0.11738588
0.91225128 0.00535830 0.12944260
0.94745747 0.05773594 0.15292777
0.97689416 0.16629035 0.19051579
0.99613349 0.28876138 0.24245392
1.00000000 0.41931768 0.31299328
1.00000000 0.56126017 0.41758039
1.00000000 0.68834989 0.55012120
0.99996004 0.77516972 0.66494818
0.99998615 0.83827234 0.75687545
1.00000000 0.89032421 0.83368214
1.00000000 0.93525245 0.90014801
1.00000000 0.97152744 0.95518185
0.99999996 0.99319902 0.98900974
0.99999995 0.99967462 0.99932923
0.00209192 0.05139798 0.01005134
0.00160046 0.05304124 0.01022483
0.00099510 0.05727759 0.00998525
0.00560886 0.06628854 0.00742988
0.02860195 0.08085793 0.00324329
0.06538875 0.09659213 0.00204380
0.10515514 0.10845345 0.00212590
0.14774858 0.11545686 0.00221178
0.19737742 0.11864124 0.00209537
0.25833214 0.11717047 0.00123073
0.33352925 0.10755746 0.00151651
0.42283411 0.08677635 0.00474041
0.51754927 0.06179055 0.01729155
0.60158489 0.04836017 0.03879501
0.67122621 0.04487390 0.05821198
0.73089083 0.03852061 0.07349609
0.78337765 0.03082142 0.08769280
0.83013087 0.02747575 0.10257601
0.87300134 0.01519874 0.11602299
0.91272657 0.00604277 0.12937296
0.94760349 0.06302971 0.15357834
0.97695104 0.17057395 0.19113267
0.99614801 0.29084904 0.24290173
1.00000000 0.42039997 0.31335321
1.00000000 0.56189532 0.41792455
1.00000000 0.68863263 0.55036355
0.99996018 0.77528713 0.66508209
0.99998620 0.83833321 0.75694972
1.00000000 0.89036034 0.83372524
1.00000000 0.93527341 0.90017427
1.00000000 0.97153747 0.95519572
0.99999996 0.99320141 0.98901342
0.99999995 0.99967422 0.99932877
0.00329183 0.08925731 0.01356375
0.00273037 0.09196925 0.01364244
0.00201779 0.09805851 0.01320080
0.00569133 0.10860550 0.01027692
0.02882448 0.12347779 0.00500988
0.06929372 0.13959435 0.00296776
0.11315521 0.15362729 0.00300451
0.15887646 0.16353453 0.00307153
0.20952503 0.16929198 0.00291477
0.26929234 0.17118794 0.00187847
0.34215431 0.16747901 0.00135758
0.42945707 0.15470812 0.00221479
0.52292963 0.13364486 0.01440380
0.60563261 0.11213377 0.03986946
0.67436314 0.09236604 0.06083138
0.73339824 0.07300787 0.07538617
0.78560795 0.05233312 0.08755061
0.83217306 0.03416387 0.10058903
0.87448102 0.01611098 0.11415437
0.91337789 0.01101510 0.12933978
0.94780381 0.07275143 0.15450564
0.97703088 0.17670968 0.19199385
0.99616842 0.29366357 0.24353082
1.00000000 0.42189270 0.31386032
1.00000000 0.56278488 0.41840608
1.00000000 0.68902841 0.55070199
0.99996042 0.77545099 0.66526918
0.99998629 0.83841808 0.75705351
1.00000000 0.89041075 0.83378547
1.00000000 0.93530270 0.90021095
1.00000000 0.97155149 0.95521510
0.99999996 0.99320476 0.98901856
0.99999995 0.99967365 0.99932814
0.00499917 0.14258398 0.01681738
0.00483298 0.14587745 0.01673365
0.00394228 0.15245211 0.01591620
0.00595562 0.16236947 0.01248492
0.02629116 0.17544328 0.00632835
0.06861462 0.18992041 0.00363635
0.11608809 0.20418256 0.00362005
0.16526857 0.21628204 0.00379032
0.21853088 0.22467108 0.00364876
0.27901121 0.22891972 0.00266249
0.35053554 0.22857697 0.00203827
0.43527472 0.22207224 0.00282896
0.52608468 0.20926034 0.01692772
0.60694146 0.19218993 0.04616648
0.67522876 0.16691199 0.06898812
0.73463385 0.13329024 0.08228592
0.78724679 0.09685259 0.09135479
0.83410811 0.06104328 0.10084535
0.87613047 0.03205089 0.11309895
0.91413603 0.03117157 0.12991021
0.94807747 0.09133252 0.15583793
0.97715102 0.18560337 0.19316423
0.99619883 0.29751647 0.24440796
1.00000000 0.42398992 0.31457839
1.00000000 0.56404225 0.41908262
1.00000000 0.68958477 0.55117567
0.99996078 0.77568014 0.66553066
0.99998645 0.83853633 0.75719842
1.00000000 0.89048090 0.83386951
1.00000000 0.93534348 0.90026216
1.00000000 0.97157106 0.95524217
0.99999996 0.99320945 0.98902573
0.99999995 0.99967288 0.99932725
0.00605223 0.20854624 0.01964103
0.00620736 0.21165720 0.01935214
0.00569559 0.21753734 0.01820150
0.00650295 0.22591119 0.01446424
0.02181024 0.23681548 0.00768986
0.06298130 0.24921256 0.00423263
0.11376560 0.26235311 0.00407738
0.16629572 0.27516607 0.00408922
0.22244751 0.28576118 0.00386898
0.28498607 0.29249473 0.00287640
0.35683638 0.29450349 0.00176503
0.44005322 0.29133159 0.00223584
0.52843090 0.28375123 0.01923218
0.60728313 0.27298759 0.05381531
0.67456532 0.25328376 0.08057596
0.73412505 0.21793246 0.09480778
0.78763235 0.16842392 0.10117175
0.83521903 0.11695809 0.10640550
0.87736939 0.07751629 0.11562225
0.91486877 0.07240310 0.13206506
0.94844867 0.11639565 0.15778888
0.97733945 0.19699204 0.19472351
0.99624799 0.30272546 0.24561521
1.00000000 0.42697689 0.31559446
1.00000000 0.56583143 0.42003522
1.00000000 0.69037224 0.55184119
0.99996117 0.77600397 0.66589731
0.99998674 0.83870245 0.75740097
1.00000000 0.89057864 0.83398666
1.00000000 0.93540011 0.90033353
1.00000000 0.97159825 0.95527993
0.99999996 0.99321598 0.98903576
0.99999995 0.99967183 0.99932602
0.00648828 0.28466877 0.02261191
0.00704680 0.28728303 0.02218558
0.00755496 0.29211693 0.02093991
0.00804427 0.29888596 0.01742946
0.01765646 0.30783774 0.01071775
0.05248075 0.31839125 0.00604645
0.10502384 0.32988759 0.00570499
0.16138855 0.34203834 0.00640201
0.22044295 0.35360418 0.00644289
0.28526350 0.36258078 0.00501929
0.35857201 0.36713598 0.00327531
0.44171347 0.36642580 0.00317376
0.52903948 0.36144304 0.02165870
0.60696066 0.35410627 0.06066586
0.67333001 0.34087867 0.09257804
0.73230682 0.31389495 0.11101610
0.78618090 0.26618334 0.11818414
0.83488946 0.20236965 0.11964880
0.87784740 0.14572716 0.12381737
0.91550316 0.12240973 0.13684361
0.94894391 0.14545109 0.16076499
0.97763558 0.21112454 0.19680955
0.99633607 0.30978082 0.24724028
1.00000000 0.43118998 0.31701145
1.00000000 0.56834889 0.42137636
1.00000000 0.69148181 0.55277972
0.99996119 0.77646659 0.66641450
0.99998711 0.83893988 0.75768552
1.00000000 0.89071623 0.83415024
1.00000000 0.93547885 0.90043291
1.00000000 0.97163589 0.95533251
0.99999995 0.99322501 0.98904972
0.99999995 0.99967037 0.99932433
0.00904346 0.37013106 0.02665838
0.00978031 0.37222035 0.02618651
0.01058087 0.37605527 0.02498355
0.01053706 0.38141223 0.02195702
0.01475334 0.38866214 0.01568064
0.03886263 0.39762957 0.00922283
0.08840766 0.40755701 0.00755496
0.14876042 0.41825193 0.00858497
0.21170968 0.42935277 0.00933672
0.27894957 0.43937422 0.00839625
0.35399060 0.44614897 0.00722977
0.43816445 0.44797423 0.00749972
0.52622899 0.44487969 0.02442712
0.60510996 0.43877081 0.06517795
0.67155617 0.42903400 0.10242490
0.72991409 0.41048834 0.12716289
0.78333166 0.37446261 0.13958432
0.83256084 0.31478405 0.14181011
0.87687740 0.24195008 0.14078114
0.91560449 0.18972478 0.14698317
0.94942079 0.18456533 0.16619764
0.97804569 0.23085314 0.19991413
0.99649583 0.31972244 0.24943119
1.00000000 0.43699775 0.31893045
1.00000000 0.57174508 0.42322358
1.00000000 0.69298796 0.55409193
0.99995995 0.77711999 0.66714572
0.99998731 0.83928376 0.75808839
1.00000000 0.89091332 0.83438017
1.00000000 0.93558936 0.90057155
1.00000000 0.97168802 0.95540561
0.99999995 0.99323734 0.98906906
0.99999995 0.99966825 0.99932193
0.01472974 0.46294471 0.03252660
0.01546321 0.46452885 0.03207523
0.01629536 0.46742274 0.03102669
0.01605778 0.47145424 0.02867594
0.01666889 0.47700111 0.02357180
0.02839353 0.48420641 0.01617323
0.06622148 0.49248046 0.01190068
0.12656541 0.50125048 0.01171704
0.19435895 0.51052653 0.01232947
0.26517680 0.51969163 0.01187991
0.34217319 0.52711212 0.01085383
0.42786329 0.53086161 0.01058834
0.51823435 0.52984497 0.02520815
0.60032163 0.52483818 0.06537234
0.66856024 0.51680157 0.10743261
0.72701846 0.50380835 0.13970019
0.77983816 0.47964160 0.16031219
0.82877032 0.43519586 0.16880283
0.87383391 0.36663315 0.16805381
0.91421050 0.29096990 0.16710145
0.94932125 0.24814814 0.17762407
0.97839840 0.26382808 0.20569932
0.99673236 0.33550928 0.25273020
1.00000000 0.44524936 0.32151589
1.00000000 0.57615868 0.42568767
1.00000000 0.69490340 0.55588437
0.99995658 0.77799847 0.66816965
0.99998678 0.83977625 0.75866107
1.00000000 0.89119904 0.83470640
1.00000000 0.93574685 0.90076626
1.00000000 0.97176088 0.95550742
0.99999994 0.99325415 0.98909572
0.99999994 0.99966502 0.99931841
0.02362641 0.55428661 0.04050673
0.02400218 0.55534472 0.04007342
0.02430346 0.55726252 0.03915673
0.02378451 0.55991077 0.03739389
0.02255077 0.56357658 0.03364217
0.02518499 0.56852779 0.02676639
0.04569515 0.57457566 0.01901603
0.09574420 0.58106588 0.01574749
0.16579234 0.58772268 0.01576083
0.24200006 0.59456555 0.01628112
0.32237396 0.60088714 0.01665816
0.40984401 0.60527226 0.01680523
0.50318875 0.60614094 0.02839805
0.59055103 0.60294178 0.06240103
0.66301630 0.59646727 0.10533930
0.72315914 0.58699962 0.14471245
0.77593471 0.57190317 0.17538360
0.82430818 0.54421916 0.19419130
0.86925707 0.49498639 0.20054577
0.91060304 0.42312857 0.19908859
0.94756697 0.35129177 0.20056713
0.97807165 0.32448585 0.21833528
0.99688076 0.36511432 0.25912982
1.00000000 0.45895176 0.32546793
1.00000000 0.58224327 0.42900376
1.00000000 0.69723896 0.55826088
0.99995118 0.77909095 0.66956232
0.99998480 0.84044981 0.75946604
1.00000000 0.89160941 0.83517128
1.00000000 0.93597394 0.90104224
1.00000000 0.97186439 0.95565025
0.99999994 0.99327742 0.98913259
0.99999993 0.99966003 0.99931315
0.02978351 0.63298920 0.05015395
0.03005586 0.63362107 0.04978063
0.03032819 0.63475583 0.04903254
0.03015915 0.63630844 0.04777699
0.02910880 0.63846568 0.04533897
0.02816578 0.64148253 0.04044149
0.03412779 0.64547100 0.03250286
0.06265155 0.65013226 0.02463299
0.12382607 0.65493073 0.02082579
0.20475479 0.65975140 0.02034129
0.29143705 0.66453998 0.02169376
0.38239206 0.66863970 0.02238839
0.47904855 0.67068424 0.02979946
0.57306747 0.66936766 0.05570124
0.65253817 0.66451088 0.09593625
0.71692839 0.65685500 0.13967629
0.77119647 0.64640823 0.18019513
0.81948011 0.63027064 0.21176780
0.86394800 0.60158734 0.23055283
0.90531966 0.55252579 0.23692763
0.94337554 0.48482300 0.23719424
0.97593437 0.42598094 0.24421790
0.99641159 0.42249055 0.27354129
1.00000000 0.48538448 0.33310798
1.00000000 0.59224473 0.43393055
1.00000000 0.70033193 0.56138781
0.99994590 0.78037727 0.67137480
0.99998065 0.84130781 0.76055856
1.00000000 0.89217638 0.83582511
1.00000000 0.93629930 0.90143463
1.00000000 0.97201352 0.95585239
0.99999995 0.99331078 0.98918430
0.99999990 0.99965277 0.99930549
0.02074569 0.69865984 0.05787790
0.02089796 0.69903678 0.05759181
0.02104861 0.69970959 0.05702560
0.02098420 0.70062399 0.05613465
0.02036229 0.70189129 0.05459323
0.01903747 0.70369563 0.05149754
0.01918631 0.70623121 0.04523236
0.03015287 0.70953623 0.03471760
0.07132692 0.71327781 0.02340808
0.14933723 0.71697143 0.01829614
0.24396976 0.72055107 0.01852929
0.34225393 0.72394554 0.01945132
0.44384447 0.72639900 0.02296391
0.54504470 0.72659799 0.03998882
0.63396778 0.72348066 0.07860620
0.70579168 0.71713622 0.12518499
0.76414326 0.70828684 0.17275396
0.81384963 0.69691135 0.21655619
0.85825377 0.68028468 0.25077014
0.89919286 0.65237742 0.27168934
0.93735473 0.60758858 0.28045392
0.97130073 0.55192385 0.28547424
0.99449650 0.51563773 0.30299887
1.00000000 0.53408712 0.34962712
1.00000000 0.61077600 0.44275831
1.00000000 0.70548873 0.56585318
0.99994535 0.78203162 0.67368774
0.99997395 0.84234036 0.76197025
0.99999821 0.89291170 0.83671187
1.00000000 0.93674974 0.90198426
1.00000000 0.97222727 0.95613862
1.00000000 0.99336025 0.98925803
0.99999988 0.99964359 0.99929534
0.00968467 0.75506929 0.05770708
0.00978541 0.75530138 0.05762336
0.00993412 0.75571536 0.05744313
0.01005264 0.75627624 0.05711034
0.01002677 0.75704718 0.05652951
0.00987064 0.75813955 0.05537762
0.01077332 0.75970859 0.05257997
0.01654722 0.76190758 0.04606609
0.03599400 0.76473762 0.03446695
0.08980821 0.76783055 0.02434497
0.18049349 0.77073868 0.02209645
0.28671206 0.77343799 0.02337681
0.39596528 0.77578224 0.02330966
0.50447090 0.77698328 0.02383529
0.60411641 0.77564346 0.05140078
0.68654688 0.77094318 0.10251431
0.75225202 0.76316682 0.15553420
0.80589958 0.75309936 0.20763070
0.85172216 0.74083910 0.25610632
0.89260904 0.72410378 0.29512819
0.93033123 0.69821778 0.32052449
0.96473141 0.66078595 0.33454577
0.99075037 0.62142154 0.34859342
1.00000000 0.60645165 0.38223182
1.00000000 0.64348634 0.46041558
1.00000000 0.71560739 0.57342849
0.99995720 0.78487731 0.67692367
0.99996498 0.84365711 0.76378335
0.99999442 0.89381149 0.83786528
1.00000000 0.93733681 0.90272713
1.00000000 0.97252264 0.95653619
1.00000000 0.99343328 0.98936303
0.99999985 0.99963434 0.99928352
0.02324767 0.80473430 0.04212821
0.02331317 0.80488139 0.04216332
0.02342252 0.80514458 0.04222884
0.02354584 0.80550157 0.04232085
0.02363186 0.80598916 0.04247518
0.02361670 0.80667008 0.04272712
0.02354750 0.80763890 0.04286741
0.02376362 0.80902870 0.04196501
0.02755254 0.81096383 0.03838417
0.04789330 0.81340381 0.03213218
0.10782199 0.81598119 0.02759981
0.20935027 0.81830366 0.02700225
0.32781427 0.82035857 0.02358970
0.44720093 0.82189966 0.01547855
0.55955293 0.82193358 0.02373264
0.65560388 0.81913460 0.07142610
0.73237505 0.81298530 0.13290815
0.79315636 0.80391472 0.19036843
0.84281253 0.79277472 0.24720424
0.88513853 0.77984956 0.30225749
0.92282556 0.76343499 0.34805852
0.95714073 0.74051630 0.38018163
0.98529997 0.71163020 0.40325473
0.99937003 0.68795125 0.43251528
1.00000000 0.69266014 0.49248065
1.00000000 0.73501097 0.58759798
0.99999363 0.79104251 0.68255689
0.99995551 0.84583950 0.76644036
0.99998770 0.89494574 0.83938053
1.00000000 0.93805693 0.90369509
1.00000000 0.97290412 0.95706753
1.00000000 0.99353407 0.98950716
0.99999988 0.99962716 0.99927079
0.02630224 0.84905264 0.01702654
0.02624938 0.84914743 0.01708218
0.02614394 0.84931768 0.01721339
0.02598113 0.84954956 0.01743615
0.02572254 0.84986623 0.01774558
0.02527240 0.85030447 0.01821125
0.02436857 0.85091759 0.01894156
0.02247280 0.85178835 0.01994357
0.01961919 0.85302979 0.02103862
0.02002597 0.85473841 0.02192492
0.04008846 0.85686004 0.02219782
0.10822605 0.85906173 0.01963936
0.22717222 0.86095596 0.01355980
0.36263674 0.86243127 0.00571080
0.49312157 0.86310233 0.00546519
0.60765544 0.86189161 0.03847757
0.70073297 0.85764123 0.10727391
0.77269914 0.85023697 0.17342560
0.82911843 0.84013971 0.23307955
0.87521085 0.82823226 0.29597544
0.91438821 0.81501595 0.35875947
0.94894444 0.79945708 0.41257182
0.97842982 0.78018492 0.45391647
0.99678770 0.76007122 0.48963740
1.00000000 0.75106037 0.53785560
1.00000000 0.76712026 0.61222733
1.00000000 0.80413158 0.69360581
0.99995086 0.85044676 0.77124755
0.99997699 0.89670916 0.84163452
0.99999811 0.93895332 0.90497214
1.00000000 0.97336289 0.95775252
1.00000000 0.99365556 0.98969114
1.00000000 0.99961921 0.99925331
0.00459247 0.88877510 0.01046261
0.00457389 0.88883529 0.01061077
0.00452785 0.88894358 0.01099975
0.00445545 0.88909153 0.01173197
0.00436115 0.88929412 0.01257254
0.00422176 0.88957412 0.01350158
0.00389092 0.88996198 0.01464707
0.00294145 0.89050374 0.01619178
0.00054242 0.89127187 0.01842358
0.00000000 0.89236909 0.02171486
0.00000000 0.89389181 0.02546193
0.01938973 0.89580986 0.02259519
0.10256463 0.89775524 0.00730576
0.24239685 0.89923477 0.00000000
0.39461197 0.90009076 0.00000000
0.53475724 0.89973055 0.01611799
0.65261090 0.89698396 0.08691639
0.74164947 0.89147004 0.16240911
0.80815991 0.88314678 0.22543753
0.86055315 0.87234381 0.28802630
0.90347074 0.86004284 0.35726868
0.93966802 0.84701022 0.42800902
0.97036621 0.83295409 0.49051450
0.99243774 0.81810853 0.54016742
1.00000000 0.80706409 0.58664399
1.00000000 0.80890279 0.64627187
1.00000000 0.82721064 0.71303619
0.99996506 0.86008300 0.78040279
0.99996272 0.90017853 0.84556256
0.99999137 0.94029186 0.90684260
1.00000000 0.97391797 0.95864675
1.00000000 0.99377710 0.98990784
1.00000000 0.99959410 0.99921555
0.00000000 0.92421865 0.05242568
0.00000000 0.92425624 0.05259146
0.00000000 0.92432392 0.05300967
0.00000000 0.92441650 0.05378111
0.00000000 0.92454369 0.05466418
0.00000000 0.92472018 0.05560808
0.00000000 0.92496498 0.05667648
0.00000000 0.92530438 0.05798791
0.00000000 0.92578006 0.05977279
0.00000000 0.92646593 0.06200965
0.00000000 0.92748000 0.06228282
0.00000000 0.92893812 0.05223407
0.01497333 0.93074594 0.02653767
0.11357410 0.93239255 0.00205046
0.27229714 0.93337304 0.00000000
0.43757296 0.93332092 0.01739185
0.58670245 0.93140887 0.08746399
0.69862324 0.92741825 0.16425173
0.77848819 0.92107879 0.22854264
0.83931287 0.91208769 0.28986995
0.88806108 0.90087163 0.35642346
0.92790668 0.88857320 0.43207772
0.96073695 0.87625807 0.50982853
0.98595444 0.86443414 0.57465526
0.99897139 0.85461759 0.62681635
1.00000000 0.85114333 0.68064130
1.00000000 0.85791090 0.73839533
1.00000000 0.87681910 0.79515524
0.99995223 0.90716064 0.85258512
0.99997920 0.94279972 0.90997652
0.99999778 0.97472615 0.95993497
1.00000000 0.99388813 0.99016345
1.00000000 0.99952038 0.99912962
0.00000000 0.95608745 0.09162257
0.00000000 0.95611072 0.09164061
0.00000000 0.95615264 0.09169617
0.00000000 0.95621008 0.09180062
0.00000000 0.95628918 0.09190506
0.00061702 0.95639968 0.09196594
0.00161075 0.95655485 0.09191793
0.00253135 0.95677090 0.09173803
0.00483660 0.95707042 0.09148832
0.00882338 0.95749555 0.09099386
0.01111439 0.95812610 0.08864287
0.01064704 0.95907325 0.07998137
0.01721185 0.96037922 0.06129765
0.06382660 0.96181043 0.04063518
0.18708257 0.96280726 0.03744610
0.35410444 0.96276862 0.06539664
0.52023834 0.96126643 0.12552653
0.64993840 0.95833885 0.18907595
0.74222145 0.95368509 0.24772436
0.81172919 0.94672288 0.30673170
0.86711377 0.93728963 0.36937794
0.91200805 0.92599075 0.43945150
0.94845057 0.91408285 0.51949336
0.97705060 0.90297403 0.59390075
0.99531243 0.89382106 0.65383622
1.00000000 0.88846248 0.70715443
1.00000000 0.88949916 0.76175529
1.00000000 0.89915625 0.81347875
0.99997008 0.91916275 0.86384283
0.99996493 0.94764178 0.91541769
0.99998984 0.97619612 0.96202688
1.00000000 0.99404384 0.99052585
1.00000000 0.99937181 0.99897442
