resources/flame/Syncolor/Shared/transforms/camera_manufacturer_luts/arri/ARRI_Alexa_LUTs/ARRI_LogC4_v1_LUT_Package/LUTs/ARRI_LogC4-to-St2084_1K_Rec2100-P3lim-D65_DW100_v1_33.cube
LUT_3D_SIZE 5
0.00000000 0.00000000 0.00000000
0.17006248 0.06016867 0.04995394
0.55360976 0.29699837 0.25192501
0.72557755 0.54209502 0.48119517
0.75182710 0.75157119 0.75140529
0.11259108 0.18931879 0.09566518
0.27040767 0.27581019 0.06687230
0.56436732 0.30289462 0.24339410
0.72558973 0.54329330 0.48207999
0.75182710 0.75156981 0.75140380
0.41264133 0.56375426 0.35353989
0.41793377 0.56997862 0.35672183
0.58082956 0.58758600 0.26260772
0.72646731 0.56453167 0.49660528
0.75182710 0.75154790 0.75138003
0.61031652 0.74559814 0.54585555
0.61083150 0.74568717 0.54630986
0.62023136 0.74649832 0.55498425
0.72727987 0.73627594 0.58454745
0.75177928 0.75106497 0.75088206
0.75169338 0.75182368 0.75160135
0.75169358 0.75182368 0.75160166
0.75169585 0.75182379 0.75160631
0.75182710 0.75182548 0.75182710
0.75182387 0.75182688 0.75181536
0.04231146 0.05483109 0.12218377
0.23790641 0.10002512 0.23441296
0.55960621 0.30281456 0.32251374
0.72560236 0.54311326 0.48414277
0.75182710 0.75156941 0.75140193
0.16367994 0.24971401 0.24599196
0.27731951 0.27731951 0.27731951
0.56880581 0.31159247 0.32153168
0.72560573 0.54431000 0.48502165
0.75182710 0.75156802 0.75140044
0.41652192 0.56763027 0.37298490
0.42138576 0.57332809 0.37496835
0.58095311 0.58799285 0.32187377
0.72643269 0.56524162 0.49925307
0.75182710 0.75154608 0.75137665
0.61063482 0.74565098 0.54671589
0.61114985 0.74573864 0.54717066
0.62061487 0.74651487 0.55587478
0.72727778 0.73626086 0.58529661
0.75177910 0.75106407 0.75088033
0.75169422 0.75182367 0.75160281
0.75169439 0.75182369 0.75160306
0.75169640 0.75182376 0.75160652
0.75182710 0.75182417 0.75182710
0.75182424 0.75182673 0.75181584
0.27497955 0.34024790 0.49014695
0.28311331 0.33056152 0.52040161
0.56971090 0.32104470 0.56477031
0.72666685 0.55879061 0.55346725
0.75182710 0.75154168 0.75135220
0.28078902 0.34783771 0.49710581
0.28833260 0.34152753 0.52351720
0.57203864 0.32504378 0.56728928
0.72667454 0.55978647 0.55399220
0.75182710 0.75154027 0.75135072
0.46494889 0.57481322 0.56978437
0.46856308 0.57600755 0.57120423
0.57735060 0.57735060 0.57735060
0.72759126 0.57776897 0.56346981
0.75182710 0.75151821 0.75132734
0.61113703 0.74610081 0.56818644
0.61169275 0.74616565 0.56865411
0.62250800 0.74666712 0.57687468
0.72652095 0.73499622 0.61343806
0.75177625 0.75105029 0.75085927
0.75168960 0.75182369 0.75161216
0.75170537 0.75182396 0.75162319
0.75170657 0.75182412 0.75162621
0.75182710 0.75182547 0.75182710
0.75182418 0.75182701 0.75181653
0.48115618 0.57057747 0.73381648
0.48213446 0.57082027 0.73461076
0.51104267 0.57751150 0.74388896
0.72828479 0.60033853 0.71667332
0.75182710 0.75109807 0.75074584
0.48166430 0.57115278 0.73415483
0.48269177 0.57141950 0.73488203
0.51147765 0.57811588 0.74395164
0.72830742 0.60065484 0.71671118
0.75182710 0.75109702 0.75074518
0.48890375 0.57999875 0.73996121
0.49017579 0.58037345 0.74023754
0.51899158 0.58759922 0.74479544
0.72867835 0.60508897 0.71729548
0.75182710 0.75108004 0.75073447
0.69184904 0.72239475 0.72010031
0.69193553 0.72242605 0.72013970
0.69314495 0.72284606 0.72068851
0.72312849 0.72312849 0.72312849
0.75174481 0.75068914 0.75046794
0.75182710 0.75182599 0.75182710
0.75182710 0.75182599 0.75182710
0.75182710 0.75182595 0.75182710
0.75182710 0.75182710 0.75182710
0.75182265 0.75182710 0.75182710
0.75080862 0.75125065 0.75182549
0.75080670 0.75124958 0.75182542
0.75077839 0.75123393 0.75182514
0.75012697 0.75099020 0.75181121
0.75174062 0.75076153 0.75150565
0.75080688 0.75124960 0.75182547
0.75080496 0.75124853 0.75182541
0.75077667 0.75123289 0.75182514
0.75012657 0.75098959 0.75181125
0.75174064 0.75076172 0.75150571
0.75077870 0.75123237 0.75182552
0.75077681 0.75123131 0.75182555
0.75074938 0.75121600 0.75182566
0.75012041 0.75097963 0.75181189
0.75174090 0.75076463 0.75150672
0.75020341 0.75086148 0.75182600
0.75020280 0.75086113 0.75182601
0.75019344 0.75085594 0.75182619
0.74998329 0.75077550 0.75182710
0.75174403 0.75080313 0.75151900
0.75127656 0.75180572 0.75176375
0.75127663 0.75180571 0.75176376
0.75127755 0.75180564 0.75176381
0.75128844 0.75180523 0.75176487
0.75182710 0.75182710 0.75182710
