resources/flame/Syncolor/Shared/transforms/camera_manufacturer_luts/arri/ARRI_Alexa_LUTs/ARRI_LogC4_v1_LUT_Package/LUTs/ARRI_LogC4-to-HLG-1K_P3-D65_DW100_v1-33.cube
LUT_3D_SIZE 9
0.00000000 0.00000000 0.00000000
0.01283524 0.00110107 0.00355352
0.14346570 0.00479566 0.02586578
0.50282165 0.00766203 0.08147540
0.79639157 0.02016177 0.16546182
0.96630476 0.00286273 0.25766833
1.00000000 0.64211336 0.56912564
1.00000000 0.88631345 0.85500169
0.99999999 0.99962798 0.99941908
0.00088964 0.01327576 0.00625264
0.02121445 0.02279142 0.00202605
0.18732761 0.01418518 0.01678149
0.52109110 0.00585694 0.08151318
0.79911567 0.02144398 0.16481928
0.96686285 0.00751779 0.25740899
1.00000000 0.64226925 0.56941562
1.00000000 0.88636409 0.85505378
0.99999999 0.99962768 0.99941877
0.00157920 0.13908554 0.04749037
0.00007334 0.17320197 0.04601564
0.22266365 0.22660678 0.00035897
0.58121125 0.15990373 0.01789773
0.81348012 0.01687273 0.15567607
0.96899128 0.01288637 0.25641601
1.00000000 0.64350533 0.57053590
1.00000000 0.88655800 0.85525597
0.99999999 0.99962592 0.99941692
0.00350821 0.45211838 0.13830241
0.00237754 0.46580903 0.14123818
0.04778333 0.51602172 0.05899126
0.52799687 0.53213131 0.00864683
0.82398539 0.42477575 0.15338479
0.98218389 0.02509044 0.23906478
0.99998938 0.64941105 0.57503296
1.00000000 0.88729224 0.85602877
1.00000000 0.99961920 0.99940978
0.01427721 0.74553904 0.26211739
0.01406366 0.74756090 0.26273937
0.00969061 0.75527485 0.26452921
0.12664771 0.78170590 0.07706379
0.76434319 0.76585788 0.08899362
0.96926195 0.65946406 0.31331992
1.00000000 0.68056004 0.59596433
1.00000000 0.89002783 0.85892937
0.99999991 0.99959258 0.99938240
0.03065200 0.91473774 0.39957181
0.03089889 0.91507082 0.39996787
0.03189749 0.91634347 0.40144133
0.02727346 0.92133583 0.40294430
0.18922706 0.93840757 0.08404347
0.89921738 0.90283188 0.31041755
1.00000000 0.84643286 0.68565982
0.99995204 0.90336741 0.87260987
1.00000000 0.99948532 0.99926226
0.57921280 1.00000000 0.65888522
0.57990757 1.00000000 0.65913854
0.58247298 1.00000000 0.66012798
0.60524130 1.00000000 0.66453366
0.65986831 1.00000000 0.68364553
0.80641872 1.00000000 0.66579683
0.96732315 0.98143405 0.70523806
1.00000000 0.96261087 0.92405752
0.99999406 0.99884620 0.99865488
0.96505776 0.99998409 0.95409188
0.96506904 0.99998422 0.95410796
0.96511949 0.99998476 0.95416881
0.96531537 0.99998645 0.95440816
0.96609651 0.99999315 0.95520067
0.96900821 0.99996787 0.95892183
0.97851359 1.00000000 0.96550742
0.99669334 0.99953135 0.96777926
1.00000000 0.99967217 0.99965411
0.99939140 0.99999992 0.99912959
0.99939155 0.99999992 0.99912983
0.99939197 0.99999992 0.99913063
0.99939268 0.99999993 0.99913339
0.99939651 0.99999987 0.99914457
0.99939799 1.00000000 0.99915110
0.99939780 1.00000000 0.99915881
0.99946090 0.99999538 0.99920949
0.99989569 0.99999578 0.99898861
0.00037191 0.00082319 0.00771217
0.01921595 0.00204343 0.01675200
0.16863262 0.00586760 0.05361704
0.51351114 0.00843226 0.10207590
0.79822009 0.02173192 0.17388389
0.96675203 0.00487915 0.26140905
1.00000000 0.64226785 0.57020619
1.00000000 0.88634939 0.85508941
0.99999999 0.99962752 0.99941821
0.00100680 0.01948881 0.01811110
0.03369007 0.03369007 0.03369007
0.21115272 0.00853176 0.05279043
0.53021097 0.01061863 0.10228302
0.80082232 0.02608829 0.17339064
0.96727192 0.01267760 0.26126647
1.00000000 0.64244749 0.57049350
1.00000000 0.88639975 0.85514147
0.99999999 0.99962722 0.99941790
0.00257804 0.16274225 0.06764243
0.00000000 0.19284958 0.07020788
0.22970599 0.23081688 0.01489458
0.58909733 0.16163848 0.05517487
0.81429732 0.03634930 0.16575748
0.96926348 0.03059417 0.26064480
1.00000000 0.64365370 0.57160702
1.00000000 0.88659312 0.85534354
0.99999999 0.99962546 0.99941606
0.00273801 0.46229253 0.14582857
0.00189487 0.47516160 0.14861240
0.04589591 0.52260725 0.07070058
0.52986965 0.53355539 0.03413622
0.82449796 0.42669752 0.16382443
0.98214230 0.04280310 0.24437390
0.99999080 0.64957846 0.57607125
1.00000000 0.88732652 0.85611576
1.00000000 0.99961874 0.99940892
0.01441877 0.74694927 0.26612590
0.01427829 0.74893996 0.26665740
0.01152275 0.75651448 0.26803857
0.13133909 0.78249732 0.09033795
0.76451738 0.76603689 0.10530329
0.96909375 0.66049050 0.31857996
1.00000000 0.68079500 0.59687246
1.00000000 0.89006081 0.85901453
0.99999991 0.99959210 0.99938153
0.03144454 0.91494482 0.40167183
0.03167032 0.91527612 0.40206811
0.03253879 0.91654115 0.40357851
0.02881355 0.92153040 0.40413770
0.19148930 0.93849536 0.08563537
0.89919456 0.90284720 0.31299749
1.00000000 0.84652365 0.68631389
0.99995219 0.90339221 0.87268247
1.00000000 0.99948489 0.99926147
0.57963461 1.00000000 0.65927801
0.58032680 1.00000000 0.65953063
0.58285150 1.00000000 0.66051456
0.60631817 1.00000000 0.66498147
0.66018026 1.00000000 0.68397931
0.80651057 1.00000000 0.66617282
0.96732356 0.98142856 0.70555763
1.00000000 0.96261847 0.92409587
0.99999406 0.99884596 0.99865443
0.96506424 0.99998417 0.95410544
0.96507546 0.99998431 0.95412151
0.96512701 0.99998483 0.95418244
0.96532284 0.99998651 0.95442172
0.96610516 0.99999317 0.95521485
0.96901517 0.99996786 0.95893438
0.97851603 1.00000000 0.96551178
0.99669346 0.99953118 0.96778402
1.00000000 0.99967208 0.99965389
0.99939139 0.99999992 0.99912960
0.99939154 0.99999992 0.99912984
0.99939196 0.99999992 0.99913064
0.99939265 0.99999993 0.99913341
0.99939637 0.99999987 0.99914441
0.99939791 1.00000000 0.99915098
0.99939776 1.00000000 0.99915875
0.99946092 0.99999538 0.99920954
0.99989570 0.99999578 0.99898865
0.00003055 0.03165455 0.09146172
0.02065494 0.01698187 0.13910947
0.21894337 0.00932851 0.19106167
0.53719329 0.01226783 0.23996546
0.80515139 0.02370204 0.25726682
0.96864241 0.00897403 0.27920048
1.00000000 0.64326172 0.57449600
1.00000000 0.88648763 0.85542949
0.99999999 0.99962536 0.99941423
0.00011940 0.04526783 0.11052959
0.01662311 0.03043496 0.15936746
0.23480518 0.00716380 0.20613362
0.54925129 0.01364254 0.24430091
0.80763417 0.02878935 0.25715744
0.96914686 0.01466286 0.27903781
1.00000000 0.64359290 0.57477747
1.00000000 0.88653697 0.85548139
0.99999999 0.99962505 0.99941392
0.00231925 0.20164905 0.19137594
0.00000000 0.21302488 0.20179730
0.22529611 0.22529611 0.22529611
0.59552497 0.16018078 0.24335216
0.81939995 0.05278547 0.25406164
0.97106564 0.03606087 0.27837227
1.00000000 0.64488703 0.57587213
1.00000000 0.88672860 0.85568281
0.99999999 0.99962329 0.99941207
0.00067192 0.48280947 0.25326791
0.00104010 0.49216951 0.25778422
0.05395341 0.52987675 0.23355780
0.52675987 0.53288437 0.23714800
0.82017669 0.45181950 0.27391109
0.98221516 0.10032468 0.26702891
0.99999359 0.65052113 0.58024049
1.00000000 0.88746002 0.85645233
1.00000000 0.99961656 0.99940494
0.01322389 0.75150574 0.29707196
0.01451111 0.75336977 0.29752172
0.01781245 0.76040646 0.29787018
0.15489178 0.78409665 0.16450616
0.76317389 0.76631543 0.19421787
0.96818601 0.66512043 0.34187642
1.00000000 0.68170358 0.60048845
1.00000000 0.89018899 0.85934394
0.99999990 0.99958988 0.99937756
0.03279931 0.91571798 0.41053291
0.03297232 0.91604412 0.41087604
0.03396018 0.91730258 0.41181576
0.03321548 0.92229244 0.40853575
0.20608850 0.93882016 0.11347279
0.89901675 0.90288274 0.32400930
1.00000000 0.84689281 0.68893065
0.99995277 0.90348861 0.87296419
1.00000000 0.99948292 0.99925784
0.58128179 1.00000000 0.66082618
0.58196611 1.00000000 0.66107768
0.58420143 1.00000000 0.66204327
0.61021915 1.00000000 0.66675609
0.66121974 1.00000000 0.68519553
0.80684891 1.00000000 0.66766291
0.96732564 0.98140484 0.70682488
1.00000000 0.96264824 0.92424408
0.99999406 0.99884486 0.99865240
0.96508887 0.99998453 0.95415632
0.96510043 0.99998466 0.95417241
0.96516091 0.99998512 0.95423395
0.96535332 0.99998677 0.95447261
0.96614016 0.99999334 0.95526775
0.96904191 0.99996783 0.95898186
0.97852540 1.00000000 0.96552711
0.99669390 0.99953048 0.96780242
1.00000000 0.99967175 0.99965294
0.99939116 0.99999992 0.99912943
0.99939133 0.99999992 0.99912968
0.99939162 0.99999992 0.99913047
0.99939231 0.99999993 0.99913332
0.99939571 0.99999987 0.99914364
0.99939750 1.00000000 0.99915040
0.99939755 1.00000000 0.99915842
0.99946101 0.99999538 0.99920971
0.99989572 0.99999578 0.99898879
0.00077191 0.14209913 0.33771988
0.00000000 0.14306372 0.36366734
0.22414331 0.00000000 0.53903442
0.57020676 0.01022720 0.50750328
0.81207577 0.01903495 0.48671153
0.97551993 0.01693758 0.42565876
1.00000000 0.64938800 0.59390388
1.00000000 0.88700276 0.85674496
1.00000000 0.99961689 0.99939827
0.00043900 0.14718246 0.34640049
0.00000000 0.14829226 0.37082493
0.22503239 0.00952883 0.54985447
0.57437174 0.01430986 0.51229252
0.81395133 0.02581173 0.48827372
0.97597163 0.01941897 0.42576142
1.00000000 0.64979290 0.59414627
1.00000000 0.88705144 0.85679632
1.00000000 0.99961657 0.99939796
0.00109588 0.22859535 0.41068020
0.00046560 0.23130797 0.42273489
0.19188725 0.18153208 0.57225017
0.59498957 0.10541401 0.53985968
0.82258747 0.04854063 0.49420485
0.97769382 0.04802770 0.42612327
1.00000000 0.65112628 0.59509353
1.00000000 0.88724030 0.85699552
1.00000000 0.99961480 0.99939611
0.00450375 0.51107611 0.48714425
0.00597293 0.51445986 0.49089753
0.06699075 0.53058442 0.50930089
0.51680602 0.51680602 0.51680602
0.81124727 0.47038607 0.53691945
0.98480144 0.16287851 0.42918498
0.99996792 0.65608879 0.59874171
1.00000000 0.88796493 0.85775685
1.00000000 0.99960809 0.99938899
0.01970359 0.75514656 0.49479113
0.02316076 0.75646807 0.49605942
0.04142704 0.76144274 0.50012084
0.32625776 0.77057946 0.49156742
0.75589535 0.75951226 0.55558475
0.95594806 0.69949979 0.54061103
1.00000000 0.68581867 0.61618911
1.00000000 0.89067784 0.86062520
0.99999988 0.99958130 0.99936165
0.02497641 0.91777561 0.46878979
0.02546126 0.91808991 0.46881038
0.02660529 0.91929719 0.46871244
0.03839781 0.92410025 0.46353941
0.31784481 0.93599366 0.30748232
0.89546887 0.90237961 0.44663697
1.00000000 0.84853564 0.69933721
0.99995142 0.90385890 0.87408301
1.00000000 0.99947532 0.99924300
0.58857149 1.00000000 0.66618039
0.58989223 1.00000000 0.66646673
0.59829576 1.00000000 0.66773004
0.62176367 1.00000000 0.67268805
0.66570022 1.00000000 0.68825600
0.80744143 1.00000000 0.67182755
0.96734413 0.98129046 0.71180852
1.00000000 0.96276420 0.92483929
0.99999411 0.99884058 0.99864373
0.96516640 0.99998584 0.95436766
0.96518074 0.99998595 0.95438385
0.96523512 0.99998638 0.95444537
0.96542990 0.99998809 0.95468033
0.96627513 0.99999363 0.95549548
0.96915433 0.99996577 0.95920795
0.97855627 1.00000000 0.96559314
0.99669543 0.99952767 0.96787448
1.00000000 0.99967046 0.99964914
0.99939087 0.99999989 0.99912874
0.99939097 0.99999989 0.99912900
0.99939111 0.99999989 0.99912988
0.99939266 0.99999990 0.99913355
0.99939374 0.99999983 0.99914080
0.99939592 1.00000000 0.99914760
0.99939681 1.00000000 0.99915673
0.99946133 0.99999539 0.99921031
0.99989580 0.99999578 0.99898936
0.00449506 0.31238573 0.65823882
0.00313318 0.31217638 0.66493193
0.00000000 0.29129163 0.71941450
0.51020422 0.17490944 0.81045663
0.81056325 0.01308022 0.75896633
0.97694727 0.01994354 0.68682532
0.99998423 0.67303235 0.69366939
1.00000000 0.88907864 0.86249724
1.00000000 0.99958384 0.99934419
0.00455019 0.31501304 0.66048369
0.00382088 0.31482233 0.66700842
0.00000000 0.29517410 0.71990940
0.51024739 0.18099271 0.81108545
0.81122361 0.01528055 0.75972177
0.97725813 0.02031494 0.68715066
0.99998339 0.67339629 0.69382843
1.00000000 0.88912613 0.86254504
1.00000000 0.99958351 0.99934387
0.00194296 0.32463233 0.66967907
0.00634485 0.32445655 0.67556730
0.00000000 0.30848843 0.72295544
0.51010816 0.20540681 0.81327103
0.81392394 0.03494012 0.76282024
0.97842688 0.02654983 0.68842989
0.99998212 0.67471416 0.69445131
1.00000000 0.88930935 0.86273080
1.00000000 0.99958171 0.99934202
0.04162514 0.51808224 0.74312049
0.04428987 0.51859722 0.74548785
0.05602486 0.52036247 0.75785110
0.48733522 0.50551955 0.78623160
0.81206442 0.35657067 0.76626481
0.98284998 0.15229104 0.69408406
0.99996528 0.67894096 0.69688298
1.00000000 0.89001214 0.86344108
1.00000000 0.99957495 0.99933490
0.30074460 0.75686017 0.73832417
0.30422791 0.75722410 0.73881172
0.31741675 0.75850403 0.74055460
0.49575864 0.75798488 0.74380627
0.74463837 0.74463837 0.74463837
0.93839710 0.72134616 0.75247290
1.00000000 0.70431450 0.70903388
0.99999681 0.89266758 0.86613717
0.99999988 0.99954807 0.99930787
0.23863942 0.90946575 0.69398495
0.24024475 0.90962983 0.69430334
0.24814158 0.91024659 0.69553340
0.30941640 0.91225576 0.70045941
0.65332167 0.90680227 0.72151673
0.88507976 0.89191783 0.77157936
0.99938622 0.86217249 0.78272017
0.99994488 0.90534203 0.87867144
1.00000000 0.99944703 0.99919391
0.58590850 1.00000000 0.70464066
0.58668332 1.00000000 0.70486334
0.59022592 1.00000000 0.70574071
0.60346068 1.00000000 0.70927314
0.66912481 1.00000000 0.72160777
0.81294692 0.99967921 0.72522310
0.96609383 0.97949812 0.76136866
1.00000000 0.96324070 0.92691861
0.99999421 0.99882440 0.99862248
0.96598813 0.99996958 0.95507496
0.96600261 0.99996965 0.95509122
0.96605554 0.99996996 0.95515313
0.96625764 0.99997133 0.95538848
0.96706859 0.99997026 0.95626653
0.96965868 0.99994710 0.95985671
0.97865694 1.00000000 0.96537328
0.99670108 0.99951854 0.96811639
1.00000000 0.99966542 0.99963854
0.99937799 1.00000000 0.99911572
0.99937797 1.00000000 0.99911580
0.99937781 1.00000000 0.99911601
0.99937782 1.00000000 0.99911702
0.99937785 1.00000000 0.99912291
0.99938162 1.00000000 0.99912762
0.99938988 1.00000000 0.99914699
0.99946228 0.99999532 0.99921364
0.99989617 0.99999580 0.99899122
0.00000000 0.52026968 0.85087182
0.00036290 0.52021799 0.85252377
0.00000000 0.52027870 0.85882369
0.01111068 0.48524002 0.91573620
0.72212763 0.46133311 0.94619693
0.95763803 0.18038525 0.90486872
1.00000000 0.68151167 0.81684326
1.00000000 0.89590704 0.89240145
0.99999985 0.99943210 0.99890917
0.00000000 0.52126906 0.85135389
0.00034668 0.52122092 0.85299315
0.00012640 0.52127299 0.85927658
0.01093361 0.48676947 0.91580166
0.72214716 0.46288757 0.94627772
0.95767887 0.18446118 0.90492663
1.00000000 0.68176984 0.81692120
1.00000000 0.89595126 0.89243826
0.99999985 0.99943178 0.99890897
0.00000000 0.52539634 0.85329697
0.00035766 0.52536546 0.85488170
0.00081103 0.52539376 0.86108732
0.01024555 0.49310642 0.91598919
0.72220837 0.46916064 0.94654556
0.95782405 0.19539851 0.90513911
1.00000000 0.68282092 0.81722786
1.00000000 0.89612219 0.89258151
0.99999985 0.99943009 0.99890766
0.00000000 0.54151593 0.86212073
0.00000000 0.54149322 0.86355418
0.00039259 0.54122535 0.86952891
0.01069632 0.51712372 0.91842011
0.72215793 0.49410043 0.94737744
0.95843154 0.23804499 0.90589877
1.00000000 0.68685196 0.81844568
1.00000000 0.89677284 0.89312875
0.99999983 0.99942381 0.99890271
0.22297145 0.74086852 0.91761899
0.22641987 0.74096394 0.91782547
0.24021192 0.74132699 0.91860689
0.30759403 0.74294601 0.92175777
0.73031368 0.74916720 0.91191032
0.93918622 0.62948268 0.89632419
1.00000000 0.70450100 0.82416690
0.99999158 0.89929295 0.89522476
0.99999982 0.99939850 0.99888380
0.71673077 0.88801866 0.87571335
0.71698721 0.88807452 0.87579268
0.71802736 0.88828360 0.87609724
0.72134031 0.88901419 0.87721255
0.78279113 0.88723125 0.87880740
0.87977324 0.87977324 0.87977324
0.99174380 0.87413974 0.88453252
1.00000000 0.91061426 0.90466035
1.00000000 0.99931486 0.99880906
0.76062933 0.98618907 0.85025320
0.76091313 0.98619751 0.85034305
0.76183244 0.98624361 0.85065215
0.76488055 0.98643620 0.85171273
0.77526566 0.98702282 0.85534749
0.85911649 0.97997188 0.87074428
0.96079928 0.96794950 0.90210887
1.00000000 0.96649607 0.94556750
0.99998948 0.99872600 0.99837516
0.96263488 1.00000000 0.95414951
0.96264991 1.00000000 0.95416680
0.96270792 1.00000000 0.95423365
0.96293108 1.00000000 0.95448775
0.96379573 1.00000000 0.95543384
0.96626530 1.00000000 0.95856502
0.97580626 1.00000000 0.96151462
0.99657629 0.99922115 0.97126354
1.00000000 0.99964613 0.99954226
0.99932752 1.00000000 0.99907157
0.99932759 1.00000000 0.99907167
0.99932779 1.00000000 0.99907195
0.99932868 1.00000000 0.99907304
0.99933078 1.00000000 0.99907732
0.99934990 1.00000000 0.99908879
0.99940935 0.99999465 0.99920246
0.99947249 0.99999409 0.99924139
0.99989681 0.99999523 0.99900551
0.19969828 0.74015157 0.99953021
0.20759931 0.74025484 0.99957361
0.22167470 0.74059613 0.99976237
0.25305836 0.74222994 1.00000000
0.42904135 0.74929568 1.00000000
0.85612758 0.76172249 1.00000000
1.00000000 0.74211464 0.95577301
0.99995430 0.90484743 0.93546489
1.00000000 0.99891610 0.99842036
0.20113728 0.74035012 0.99954558
0.20908934 0.74045324 0.99958902
0.22254792 0.74079610 0.99977626
0.25366123 0.74242225 1.00000000
0.42934862 0.74948236 1.00000000
0.85613574 0.76188771 1.00000000
1.00000000 0.74223302 0.95578298
0.99995431 0.90488113 0.93548489
1.00000000 0.99891583 0.99842025
0.20941457 0.74111994 0.99959863
0.21387721 0.74122282 0.99964247
0.22587889 0.74157115 0.99982437
0.25603171 0.74316436 1.00000000
0.43057238 0.75019968 1.00000000
0.85616598 0.76253570 1.00000000
1.00000000 0.74269242 0.95582031
0.99995435 0.90501242 0.93556300
1.00000000 0.99891440 0.99841949
0.22531607 0.74420945 0.99977844
0.22822293 0.74431196 0.99981925
0.23803935 0.74468336 0.99997600
0.26530486 0.74616506 1.00000000
0.43544523 0.75309943 1.00000000
0.85627454 0.76516656 1.00000000
1.00000000 0.74451296 0.95596192
0.99995470 0.90551203 0.93586124
1.00000000 0.99890909 0.99841663
0.26531047 0.75580641 1.00000000
0.26718441 0.75589734 1.00000000
0.27583433 0.75625072 1.00000000
0.30962346 0.75760474 1.00000000
0.45698348 0.76365471 1.00000000
0.85680518 0.77344681 1.00000000
1.00000000 0.75078429 0.95648833
0.99995008 0.90749449 0.93701782
1.00000000 0.99888690 0.99840521
0.68948469 0.88551237 0.98841145
0.68975184 0.88553176 0.98841664
0.69077678 0.88560656 0.98843754
0.69500581 0.88589199 0.98848790
0.71753616 0.88697882 0.98755867
0.87542504 0.89142027 0.97786690
0.99314113 0.85013526 0.96177580
1.00000000 0.91521291 0.94181259
1.00000000 0.99883153 0.99837035
0.88714741 0.96425853 0.95713930
0.88718503 0.96426583 0.95715053
0.88733054 0.96429395 0.95719374
0.88790018 0.96439687 0.95735476
0.88986204 0.96475987 0.95795607
0.91749570 0.96321196 0.95866882
0.95965023 0.95965023 0.95965023
1.00000000 0.97101231 0.97286185
0.99998637 0.99826765 0.99803853
0.95346801 1.00000000 0.96520808
0.95348205 1.00000000 0.96521720
0.95353657 1.00000000 0.96525266
0.95374280 1.00000000 0.96538712
0.95453201 1.00000000 0.96589024
0.95733576 1.00000000 0.96771514
0.97286381 0.99895345 0.97292347
0.99595976 0.99709964 0.98685951
1.00000000 0.99942328 0.99913211
0.99966827 0.99998694 0.99929175
0.99966835 0.99998695 0.99929193
0.99966854 0.99998696 0.99929250
0.99966935 0.99998700 0.99929469
0.99967208 0.99998722 0.99930329
0.99969619 0.99998563 0.99933965
0.99960380 0.99998727 0.99936770
0.99952420 1.00000000 0.99927273
0.99990579 0.99999712 0.99914322
0.84448194 0.92701955 0.99995179
0.84452130 0.92703774 0.99995258
0.84471904 0.92710839 0.99995599
0.84557030 0.92737336 0.99997387
0.84857438 0.92837127 0.99999655
0.86827410 0.93284978 0.99994143
0.96165016 0.94182961 1.00000000
1.00000000 0.96152009 0.99035462
0.99999509 0.99788108 0.99843182
0.84452400 0.92704229 0.99995205
0.84456433 0.92706047 0.99995283
0.84476336 0.92713108 0.99995623
0.84561497 0.92739596 0.99997403
0.84861984 0.92839348 0.99999657
0.86830775 0.93286957 0.99994146
0.96165590 0.94184620 1.00000000
1.00000000 0.96152966 0.99035715
0.99999509 0.99788098 0.99843179
0.84468053 0.92713022 0.99995319
0.84473133 0.92714835 0.99995395
0.84493234 0.92721882 0.99995730
0.84578553 0.92748341 0.99997470
0.84879456 0.92847952 0.99999665
0.86843926 0.93294626 0.99994158
0.96167828 0.94191038 1.00000000
1.00000000 0.96156681 0.99036697
0.99999509 0.99788052 0.99843160
0.84530211 0.92746213 0.99995820
0.84535641 0.92747998 0.99995891
0.84556125 0.92754967 0.99996215
0.84642963 0.92781323 0.99997801
0.84945796 0.92880346 0.99999716
0.86894031 0.93323514 0.99994242
0.96176360 0.94215323 1.00000000
1.00000000 0.96170811 0.99040432
0.99999509 0.99787881 0.99843089
0.84790684 0.92879510 0.99996613
0.84796516 0.92881236 0.99996651
0.84818298 0.92887942 0.99996813
0.84905051 0.92913810 0.99997602
0.85205102 0.93010474 0.99997985
0.87088755 0.93441778 0.99993167
0.96208526 0.94313183 1.00000000
1.00000000 0.96225202 0.99054789
0.99999511 0.99787173 0.99842810
0.85577933 0.93297185 1.00000000
0.85584047 0.93298713 1.00000000
0.85607780 0.93304679 1.00000000
0.85698506 0.93327380 1.00000000
0.86034257 0.93414505 1.00000000
0.87822053 0.93795173 1.00000000
0.96333610 0.94585627 1.00000000
1.00000000 0.96398315 0.99102285
0.99999529 0.99786945 0.99842690
0.93208427 0.97351874 0.99966306
0.93210247 0.97352290 0.99966312
0.93217319 0.97353907 0.99966327
0.93244308 0.97360053 0.99966365
0.93351081 0.97383275 0.99966486
0.93816695 0.97471015 0.99959096
0.97315558 0.97764499 0.99800155
0.99991225 0.98056907 0.99494723
0.99998894 0.99771026 0.99836746
0.98213040 0.99637886 0.99476706
0.98213364 0.99637941 0.99476800
0.98214614 0.99638153 0.99477165
0.98219362 0.99638956 0.99478549
0.98237646 0.99641896 0.99483713
0.98296576 0.99653028 0.99502854
0.98780746 0.99635731 0.99541733
0.99596596 0.99596596 0.99596596
1.00000000 0.99892673 0.99899793
0.99973908 1.00000000 0.99966310
0.99973903 1.00000000 0.99966306
0.99973876 1.00000000 0.99966290
0.99973774 1.00000000 0.99966228
0.99973385 1.00000000 0.99966008
0.99972535 1.00000000 0.99965294
0.99966522 1.00000000 0.99964218
0.99964912 1.00000000 0.99961617
0.99994829 1.00000000 0.99958428
0.99828861 0.99919201 1.00000000
0.99828756 0.99919171 1.00000000
0.99828395 0.99919039 1.00000000
0.99827179 0.99918540 0.99999999
0.99822869 0.99916699 0.99999981
0.99811217 0.99909250 1.00000000
0.99698368 0.99883493 0.99997946
0.99874871 0.99827312 1.00000000
1.00000000 0.99830298 0.99956592
0.99828789 0.99919172 1.00000000
0.99828691 0.99919143 1.00000000
0.99828335 0.99919011 1.00000000
0.99827122 0.99918512 0.99999999
0.99822812 0.99916672 0.99999981
0.99811165 0.99909224 1.00000000
0.99698359 0.99883476 0.99997946
0.99874871 0.99827307 1.00000000
1.00000000 0.99830304 0.99956594
0.99828495 0.99919043 1.00000000
0.99828407 0.99919014 1.00000000
0.99828066 0.99918882 1.00000000
0.99826862 0.99918384 0.99999998
0.99822559 0.99916546 0.99999981
0.99810928 0.99909109 1.00000000
0.99698309 0.99883397 0.99997948
0.99874869 0.99827288 1.00000000
1.00000000 0.99830330 0.99956602
0.99827511 0.99918574 1.00000000
0.99827434 0.99918544 1.00000000
0.99827116 0.99918414 1.00000000
0.99825920 0.99917918 0.99999997
0.99821623 0.99916089 0.99999980
0.99810039 0.99908692 1.00000000
0.99698122 0.99883108 0.99997956
0.99874862 0.99827216 1.00000000
1.00000000 0.99830425 0.99956631
0.99823064 0.99916458 1.00000000
0.99822996 0.99916429 1.00000000
0.99822695 0.99916302 1.00000000
0.99821540 0.99915817 1.00000000
0.99817552 0.99914040 1.00000000
0.99806491 0.99906796 1.00000000
0.99697401 0.99881801 0.99998011
0.99874839 0.99826887 1.00000000
1.00000000 0.99830793 0.99956742
0.99817349 0.99914123 1.00000000
0.99817283 0.99914095 1.00000000
0.99816987 0.99913969 1.00000000
0.99815866 0.99913492 1.00000000
0.99811810 0.99911731 1.00000000
0.99798288 0.99904558 1.00000000
0.99695894 0.99881318 0.99997837
0.99874685 0.99827566 1.00000000
1.00000000 0.99832085 0.99957161
0.99721474 0.99861245 0.99998701
0.99721455 0.99861236 0.99998701
0.99721359 0.99861191 0.99998702
0.99721002 0.99861022 0.99998708
0.99719565 0.99860389 0.99998732
0.99716139 0.99857975 0.99998695
0.99677395 0.99848813 0.99999379
0.99875866 0.99817190 1.00000000
1.00000000 0.99836951 0.99958465
0.99733333 0.99898827 1.00000000
0.99733341 0.99898827 1.00000000
0.99733369 0.99898828 1.00000000
0.99733475 0.99898830 1.00000000
0.99733854 0.99898841 1.00000000
0.99736260 0.99898885 1.00000000
0.99739831 0.99899610 1.00000000
0.99866038 0.99890202 1.00000000
1.00000000 0.99881044 0.99974277
0.99894203 0.99999871 0.99991068
0.99894205 0.99999871 0.99991068
0.99894215 0.99999871 0.99991069
0.99894249 0.99999871 0.99991074
0.99894383 0.99999871 0.99991092
0.99894901 0.99999869 0.99991160
0.99896390 0.99999855 0.99991309
0.99924402 0.99999247 0.99994011
1.00000000 1.00000000 1.00000000
