resources/flame/Syncolor/Shared/transforms/camera_manufacturer_luts/arri/ARRI_Alexa_LUTs/ARRI_HDR_Lookfiles_3DLUTs_190319/3D_LUTs_to_simulate_SDR_in_HDR/ARRI_DCID65-100-in-PQ.cube
LUT_3D_SIZE 33
1e-06 1e-06 1e-06
2.7e-05 7e-06 7e-06
0.000314 1.2e-05 1.5e-05
0.001728 1e-06 1.2e-05
0.005754 1e-06 1.5e-05
0.013929 1e-06 3e-05
0.02716 1e-06 5.5e-05
0.045442 1e-06 9.7e-05
0.066082 1e-06 0.000159
0.085176 1e-06 0.000248
0.104887 1e-06 0.000387
0.126396 1e-06 0.000622
0.149212 1e-06 0.00101
0.172844 1e-06 0.001642
0.196828 1e-06 0.002638
0.220746 1e-06 0.004148
0.244572 1e-06 0.006376
0.268173 1e-06 0.009559
0.291102 1e-06 0.013883
0.312936 1e-06 0.019441
0.333283 1e-06 0.026181
0.351777 1e-06 0.033858
0.368051 1e-06 0.042017
0.382105 1e-06 0.050223
0.395204 1e-06 0.058373
0.407506 1e-06 0.066233
0.419025 1e-06 0.073757
0.429774 1e-06 0.080911
0.439767 1e-06 0.087669
0.449014 1e-06 0.09401
0.457543 1e-06 0.099931
0.465418 1e-06 0.105455
0.472701 1e-06 0.110613
9.6e-05 0.000225 0.000106
0.000434 0.000482 0.000125
0.00184 0.000794 8.4e-05
0.005703 0.001072 1e-06
0.013425 0.001079 7e-06
0.026186 0.000789 2.9e-05
0.044282 0.000279 7.4e-05
0.065396 1e-06 0.000157
0.084974 1e-06 0.000247
0.10494 1e-06 0.000388
0.12616 1e-06 0.000618
0.148706 1e-06 0.001
0.172223 1e-06 0.001622
0.196263 1e-06 0.00261
0.220418 1e-06 0.004123
0.24432 1e-06 0.006348
0.267698 1e-06 0.009483
0.290746 1e-06 0.013804
0.31319 1e-06 0.019516
0.334605 1e-06 0.026678
0.35462 1e-06 0.035183
0.372899 1e-06 0.044726
0.389125 1e-06 0.054561
0.402987 1e-06 0.063323
0.415038 1e-06 0.071136
0.426308 1e-06 0.078591
0.436814 1e-06 0.085662
0.446568 1e-06 0.092325
0.455584 1e-06 0.098565
0.463917 1e-06 0.104398
0.471632 1e-06 0.109853
0.478786 1e-06 0.114957
0.485431 1e-06 0.119736
0.000333 0.002422 0.000461
0.001313 0.003742 0.00029
0.004374 0.005167 4.5e-05
0.010995 0.006343 1e-06
0.022254 0.006968 1e-06
0.038855 0.007024 1e-06
0.059856 0.006393 2.4e-05
0.080422 0.00507 9.1e-05
0.101065 0.003185 0.000223
0.123252 0.001121 0.000472
0.146171 1e-06 0.000902
0.169523 1e-06 0.001536
0.193473 1e-06 0.002472
0.217715 1e-06 0.003921
0.241884 1e-06 0.00608
0.265646 1e-06 0.009162
0.288694 1e-06 0.013362
0.311005 1e-06 0.018885
0.332765 1e-06 0.025988
0.353619 1e-06 0.034712
0.373218 1e-06 0.044908
0.391236 1e-06 0.055879
0.407369 1e-06 0.066145
0.421328 1e-06 0.075279
0.432903 1e-06 0.083016
0.443253 1e-06 0.09005
0.452849 1e-06 0.096664
0.461732 1e-06 0.102862
0.469964 1e-06 0.10867
0.477607 1e-06 0.114113
0.484713 1e-06 0.119219
0.491331 1e-06 0.124011
0.497505 1e-06 0.128513
0.00026 0.009947 0.000701
0.001871 0.013153 0.00016
0.006618 0.016311 1e-06
0.015807 0.01862 1e-06
0.03036 0.020363 1e-06
0.050338 0.021376 1e-06
0.071872 0.021514 1e-06
0.092782 0.02068 1e-06
0.115435 0.018806 9.3e-05
0.139342 0.015953 0.000335
0.163707 0.012314 0.000819
0.187958 0.008167 0.001657
0.212411 0.003611 0.003037
0.23684 9.3e-05 0.005174
0.260959 1e-06 0.008298
0.284486 1e-06 0.012491
0.307199 1e-06 0.017826
0.32896 1e-06 0.024609
0.350043 1e-06 0.033069
0.370336 1e-06 0.043277
0.389501 1e-06 0.054795
0.407222 1e-06 0.066049
0.423208 1e-06 0.076526
0.437185 1e-06 0.085913
0.448886 1e-06 0.093922
0.458523 1e-06 0.100615
0.467386 1e-06 0.106844
0.475622 1e-06 0.112694
0.483287 1e-06 0.118191
0.490421 1e-06 0.123349
0.497007 1e-06 0.128123
0.503069 1e-06 0.132338
0.508078 1e-06 0.136235
1e-06 0.02551 0.000312
0.001203 0.030928 1e-06
0.007002 0.035243 1e-06
0.018619 0.038964 1e-06
0.036277 0.042002 1e-06
0.058806 0.044226 1e-06
0.080773 0.04552 1e-06
0.103595 0.045748 1e-06
0.128105 0.044808 1e-06
0.153485 0.042605 0.000129
0.179005 0.039217 0.000599
0.204029 0.034843 0.00154
0.228775 0.029322 0.003157
0.253306 0.022541 0.005708
0.277385 0.014707 0.009447
0.300796 0.006485 0.014598
0.323341 0.000234 0.021323
0.344852 1e-06 0.029681
0.365365 1e-06 0.039722
0.385132 1e-06 0.051529
0.403863 1e-06 0.063607
0.421259 1e-06 0.075124
0.437043 1e-06 0.085782
0.450962 1e-06 0.095313
0.462814 1e-06 0.103495
0.472425 1e-06 0.110134
0.480738 1e-06 0.115888
0.488404 1e-06 0.121232
0.495473 1e-06 0.126189
0.501988 1e-06 0.130778
0.507991 1e-06 0.135021
0.508078 1e-06 0.138937
0.508078 1e-06 0.142544
1e-06 0.049733 1e-06
1e-06 0.055895 1e-06
0.004663 0.060938 1e-06
0.018214 0.065163 1e-06
0.038927 0.068603 1e-06
0.063843 0.071246 1e-06
0.087399 0.073029 1e-06
0.112387 0.073906 1e-06
0.138563 0.073858 1e-06
0.165259 0.072879 1e-06
0.191845 0.07099 0.000278
0.217742 0.068261 0.001221
0.242962 0.064578 0.003019
0.267732 0.059605 0.005959
0.291879 0.053063 0.010311
0.31523 0.044655 0.016296
0.337629 0.034856 0.024049
0.358934 0.024094 0.033589
0.379051 0.01301 0.044824
0.398307 0.002813 0.057369
0.416593 1e-06 0.069689
0.433631 1e-06 0.081405
0.449186 1e-06 0.09227
0.463007 1e-06 0.102041
0.474896 1e-06 0.110515
0.484681 1e-06 0.117504
0.492518 1e-06 0.12308
0.499622 1e-06 0.128153
0.506162 1e-06 0.132827
0.508078 1e-06 0.137116
0.508078 1e-06 0.141039
0.508078 1e-06 0.144612
0.508078 1e-06 0.147851
1e-06 0.075835 1e-06
1e-06 0.081326 1e-06
0.000537 0.086106 1e-06
0.013703 0.090283 1e-06
0.036894 0.093845 1e-06
0.064676 0.096777 1e-06
0.091014 0.099049 1e-06
0.118521 0.100604 1e-06
0.146649 0.101416 1e-06
0.174848 0.101483 1e-06
0.202606 0.100839 1e-06
0.229445 0.099567 0.000626
0.255333 0.097676 0.002438
0.280493 0.095028 0.005682
0.30482 0.091545 0.010619
0.328197 0.087145 0.017442
0.350512 0.08175 0.026238
0.371656 0.075297 0.036965
0.39153 0.067765 0.049432
0.410296 0.058693 0.062373
0.428035 0.047066 0.074864
0.444548 0.033921 0.086675
0.459654 0.021085 0.097605
0.473181 0.010284 0.107475
0.484967 0.003406 0.11611
0.494849 0.001034 0.123339
0.502679 0.002353 0.128997
0.508078 0.007708 0.133759
0.508078 0.017297 0.138109
0.508078 0.031448 0.142066
0.508078 0.050017 0.145651
0.508078 0.069801 0.148879
0.508078 0.08943 0.15126
1e-06 0.10103 1e-06
1e-06 0.107074 1e-06
1e-06 0.112457 1e-06
0.004309 0.117214 1e-06
0.028104 0.121367 1e-06
0.059856 0.124928 1e-06
0.090678 0.127891 1e-06
0.121632 0.130233 1e-06
0.152306 0.131955 1e-06
0.182378 0.133072 1e-06
0.211529 0.13363 1e-06
0.239439 0.133715 1e-06
0.266181 0.133374 0.000989
0.291882 0.132591 0.004057
0.316505 0.131372 0.009273
0.339996 0.129743 0.016738
0.362226 0.12761 0.026436
0.383075 0.124901 0.038195
0.402493 0.12172 0.051639
0.420582 0.118092 0.064987
0.437674 0.113758 0.077729
0.453646 0.1089 0.08972
0.468338 0.103929 0.100802
0.481595 0.099546 0.110824
0.493267 0.096789 0.119638
0.503205 0.09697 0.127092
0.508078 0.101356 0.133027
0.508078 0.1097 0.137603
0.508078 0.119226 0.141691
0.508078 0.129518 0.145369
0.508078 0.140353 0.148657
0.508078 0.153861 0.148636
0.508078 0.167173 0.147769
1e-06 0.128427 1e-06
1e-06 0.135084 1e-06
1e-06 0.141139 1e-06
1e-06 0.146523 1e-06
0.012745 0.151305 1e-06
0.047467 0.155517 1e-06
0.085689 0.159173 1e-06
0.121643 0.162283 1e-06
0.155742 0.164868 1e-06
0.188198 0.166963 1e-06
0.219035 0.168623 1e-06
0.248231 0.169932 1e-06
0.275953 0.17094 1e-06
0.302173 0.171507 0.000997
0.32692 0.171611 0.005492
0.350219 0.171288 0.013002
0.372069 0.170595 0.023178
0.392475 0.169609 0.035645
0.41145 0.168428 0.049958
0.429058 0.16714 0.0642
0.445644 0.165622 0.077557
0.461168 0.163992 0.090002
0.475501 0.162517 0.101437
0.488508 0.161575 0.111756
0.500057 0.161647 0.120843
0.508078 0.16329 0.128576
0.508078 0.167049 0.134816
0.508078 0.17325 0.139471
0.508078 0.180571 0.143367
0.508078 0.188845 0.146006
0.508078 0.198896 0.145008
0.508078 0.208645 0.143909
0.508078 0.218094 0.142705
1e-06 0.158005 1e-06
1e-06 0.165036 1e-06
1e-06 0.171575 1e-06
1e-06 0.177541 1e-06
1e-06 0.182965 1e-06
0.026019 0.18783 1e-06
0.074622 0.192164 1e-06
0.118412 0.195999 1e-06
0.157234 0.199376 1e-06
0.192675 0.202286 1e-06
0.225343 0.204647 1e-06
0.255685 0.206518 1e-06
0.283993 0.20795 1e-06
0.31046 0.208986 1e-06
0.335215 0.20967 0.000328
0.358347 0.210055 0.005755
0.379934 0.210198 0.015441
0.400035 0.210166 0.028148
0.418693 0.210042 0.043076
0.435967 0.209912 0.058899
0.452173 0.20972 0.073504
0.467336 0.209531 0.086867
0.481359 0.209514 0.098992
0.494137 0.209898 0.109849
0.505556 0.210964 0.11938
0.508078 0.213029 0.127502
0.508078 0.216413 0.134108
0.508078 0.2214 0.139063
0.508078 0.228006 0.141274
0.508078 0.235691 0.140029
0.508078 0.243263 0.138672
0.508078 0.250701 0.137199
0.508078 0.258001 0.135601
1e-06 0.189407 1e-06
1e-06 0.196751 1e-06
1e-06 0.20362 1e-06
1e-06 0.209977 1e-06
1e-06 0.215845 1e-06
0.000614 0.221246 1e-06
0.053509 0.226064 1e-06
0.110914 0.230236 1e-06
0.155915 0.233796 1e-06
0.194628 0.236793 1e-06
0.229252 0.23928 1e-06
0.260802 0.241316 1e-06
0.289828 0.242958 1e-06
0.316664 0.244262 1e-06
0.341548 0.245282 1e-06
0.364655 0.246072 1e-06
0.386117 0.246685 0.00381
0.406033 0.247184 0.015
0.424475 0.247634 0.029861
0.441519 0.248109 0.046888
0.457452 0.248585 0.063985
0.47233 0.249107 0.079131
0.486093 0.249786 0.092552
0.498662 0.250772 0.104377
0.508078 0.252246 0.114654
0.508078 0.254414 0.123372
0.508078 0.257468 0.130472
0.508078 0.26173 0.13472
0.508078 0.267615 0.133234
0.508078 0.273568 0.1316
0.508078 0.279529 0.129817
0.508078 0.285477 0.127875
0.508078 0.291364 0.126694
1e-06 0.222131 1e-06
1e-06 0.229728 1e-06
1e-06 0.236845 1e-06
1e-06 0.243325 1e-06
1e-06 0.249165 1e-06
1e-06 0.254392 1e-06
0.012025 0.259014 1e-06
0.093298 0.263048 1e-06
0.149362 0.266525 1e-06
0.193145 0.269487 1e-06
0.230529 0.271981 1e-06
0.263691 0.274063 1e-06
0.293667 0.275791 1e-06
0.321049 0.277225 1e-06
0.346215 0.278419 1e-06
0.369428 0.279425 1e-06
0.390878 0.280292 1e-06
0.410703 0.281073 0.000201
0.429009 0.281828 0.010317
0.445902 0.282611 0.026563
0.461649 0.283419 0.045572
0.476307 0.284292 0.064389
0.489851 0.285304 0.080364
0.502214 0.286524 0.093999
0.508078 0.288061 0.105593
0.508078 0.290039 0.115346
0.508078 0.292523 0.123491
0.508078 0.296381 0.123829
0.508078 0.300996 0.121898
0.508078 0.305787 0.119737
0.508078 0.310648 0.117362
0.508078 0.315557 0.114756
0.508078 0.320297 0.120249
1e-06 0.255365 1e-06
1e-06 0.262725 1e-06
1e-06 0.26945 1e-06
1e-06 0.275542 1e-06
1e-06 0.281026 1e-06
1e-06 0.285933 1e-06
1e-06 0.290279 1e-06
0.052518 0.294088 1e-06
0.13525 0.297389 1e-06
0.187644 0.300221 1e-06
0.229106 0.302631 1e-06
0.264486 0.304673 1e-06
0.295746 0.306404 1e-06
0.323882 0.307876 1e-06
0.349478 0.309138 1e-06
0.37291 0.310239 1e-06
0.394438 0.311224 1e-06
0.414249 0.312141 1e-06
0.432482 0.313038 1e-06
0.449289 0.313953 0.001852
0.464883 0.31486 0.017161
0.479322 0.315795 0.037438
0.492617 0.316816 0.058506
0.504756 0.317998 0.075978
0.508078 0.319378 0.090413
0.508078 0.321029 0.10246
0.508078 0.323212 0.110214
0.508078 0.326463 0.108083
0.508078 0.330169 0.105487
0.508078 0.33411 0.102511
0.508078 0.338153 0.099197
0.508078 0.342235 0.098375
0.508078 0.346183 0.110246
1e-06 0.28714 1e-06
1e-06 0.294044 1e-06
1e-06 0.300332 1e-06
1e-06 0.306011 1e-06
1e-06 0.311109 1e-06
1e-06 0.31566 1e-06
1e-06 0.319687 1e-06
1e-06 0.323215 1e-06
0.108065 0.32628 1e-06
0.177139 0.328926 1e-06
0.224831 0.3312 1e-06
0.263289 0.333153 1e-06
0.296254 0.334829 1e-06
0.325381 0.336276 1e-06
0.351554 0.337537 1e-06
0.375308 0.338654 1e-06
0.396978 0.339654 1e-06
0.416794 0.340553 1e-06
0.43494 0.341398 1e-06
0.451651 0.342227 1e-06
0.467097 0.343065 1e-06
0.481351 0.343947 0.002934
0.494526 0.344899 0.021432
0.50672 0.345944 0.044029
0.508078 0.347132 0.065261
0.508078 0.348527 0.08189
0.508078 0.350552 0.086973
0.508078 0.353202 0.083853
0.508078 0.356234 0.080009
0.508078 0.359517 0.075468
0.508078 0.362921 0.070275
0.508078 0.36629 0.080465
0.508078 0.369692 0.095094
1e-06 0.317204 1e-06
1e-06 0.323513 1e-06
1e-06 0.329297 1e-06
1e-06 0.334554 1e-06
1e-06 0.339257 1e-06
1e-06 0.343438 1e-06
1e-06 0.347123 1e-06
1e-06 0.350349 1e-06
0.045595 0.353163 1e-06
0.159602 0.355606 1e-06
0.217386 0.357723 1e-06
0.260148 0.359553 1e-06
0.295344 0.361136 1e-06
0.325697 0.362485 1e-06
0.352538 0.36363 1e-06
0.376626 0.364613 1e-06
0.398434 0.365476 1e-06
0.418281 0.36626 1e-06
0.436428 0.367008 1e-06
0.453108 0.367751 1e-06
0.468491 0.368514 1e-06
0.482777 0.369309 1e-06
0.496047 0.370151 1e-06
0.508078 0.371069 0.001952
0.508078 0.3721 0.021746
0.508078 0.373295 0.045366
0.508078 0.37514 0.045887
0.508078 0.377344 0.040465
0.508078 0.379863 0.034107
0.508078 0.382623 0.026994
0.508078 0.385485 0.025147
0.508078 0.388323 0.050592
0.508078 0.391273 0.071183
1e-06 0.345447 1e-06
1e-06 0.351209 1e-06
1e-06 0.356437 1e-06
1e-06 0.361156 1e-06
1e-06 0.365394 1e-06
1e-06 0.369186 1e-06
1e-06 0.372543 1e-06
1e-06 0.375488 1e-06
1e-06 0.378061 1e-06
0.130155 0.380296 1e-06
0.20614 0.382204 1e-06
0.254909 0.383821 1e-06
0.292879 0.385187 1e-06
0.3247 0.386343 1e-06
0.352366 0.387324 1e-06
0.376919 0.38817 1e-06
0.398979 0.388917 1e-06
0.418968 0.389607 1e-06
0.437201 0.390273 1e-06
0.453972 0.390945 1e-06
0.469492 0.391633 1e-06
0.483893 0.392345 1e-06
0.497261 0.393097 1e-06
0.508078 0.39391 1e-06
0.508078 0.394815 1e-06
0.508078 0.395875 1e-06
0.508078 0.397521 1e-06
0.508078 0.399381 1e-06
0.508078 0.401506 1e-06
0.508078 0.403843 1e-06
0.508078 0.406217 1e-06
0.508078 0.408674 0.007407
0.508078 0.411243 0.030464
1e-06 0.371648 1e-06
1e-06 0.376946 1e-06
1e-06 0.381693 1e-06
1e-06 0.385927 1e-06
1e-06 0.389699 1e-06
1e-06 0.393061 1e-06
1e-06 0.396033 1e-06
1e-06 0.398629 1e-06
1e-06 0.40088 1e-06
0.069385 0.402818 1e-06
0.189558 0.40447 1e-06
0.247273 0.40587 1e-06
0.288938 0.407051 1e-06
0.322637 0.408049 1e-06
0.351344 0.408899 1e-06
0.376498 0.409639 1e-06
0.398919 0.410302 1e-06
0.419149 0.410929 1e-06
0.437598 0.41155 1e-06
0.454553 0.412171 1e-06
0.470218 0.4128 1e-06
0.484735 0.413446 1e-06
0.498201 0.414124 1e-06
0.508078 0.414851 1e-06
0.508078 0.415654 1e-06
0.508078 0.41666 1e-06
0.508078 0.418074 1e-06
0.508078 0.419666 1e-06
0.508078 0.421479 1e-06
0.508078 0.423442 1e-06
0.508078 0.425454 1e-06
0.508078 0.427592 1e-06
0.508078 0.429832 1e-06
1e-06 0.395634 1e-06
1e-06 0.400551 1e-06
1e-06 0.404904 1e-06
1e-06 0.408726 1e-06
1e-06 0.412075 1e-06
1e-06 0.415007 1e-06
1e-06 0.417566 1e-06
1e-06 0.419792 1e-06
1e-06 0.42172 1e-06
1e-06 0.423379 1e-06
0.164706 0.424799 1e-06
0.237121 0.426009 1e-06
0.283747 0.427035 1e-06
0.319785 0.427908 1e-06
0.349755 0.428657 1e-06
0.375637 0.42932 1e-06
0.398505 0.429947 1e-06
0.419059 0.430552 1e-06
0.437751 0.431141 1e-06
0.454893 0.431724 1e-06
0.470704 0.432308 1e-06
0.485338 0.432903 1e-06
0.498903 0.433522 1e-06
0.508078 0.43418 1e-06
0.508078 0.434899 1e-06
0.508078 0.435847 1e-06
0.508078 0.437076 1e-06
0.508078 0.438457 1e-06
0.508078 0.44002 1e-06
0.508078 0.441649 1e-06
0.508078 0.443402 1e-06
0.508078 0.445264 1e-06
0.508078 0.447203 1e-06
1e-06 0.417229 1e-06
1e-06 0.421807 1e-06
1e-06 0.425801 1e-06
1e-06 0.429271 1e-06
1e-06 0.432287 1e-06
1e-06 0.434903 1e-06
1e-06 0.437165 1e-06
1e-06 0.439118 1e-06
1e-06 0.440797 1e-06
1e-06 0.442237 1e-06
0.123473 0.443466 1e-06
0.22402 0.444512 1e-06
0.277444 0.445402 1e-06
0.316382 0.446164 1e-06
0.347778 0.446859 1e-06
0.374451 0.447509 1e-06
0.397833 0.448125 1e-06
0.418742 0.448712 1e-06
0.437692 0.449279 1e-06
0.455028 0.449833 1e-06
0.470988 0.450383 1e-06
0.48574 0.450938 1e-06
0.499404 0.45151 1e-06
0.508078 0.452114 1e-06
0.508078 0.452767 1e-06
0.508078 0.453658 1e-06
0.508078 0.454743 1e-06
0.508078 0.455954 1e-06
0.508078 0.457243 1e-06
0.508078 0.458595 1e-06
0.508078 0.460023 1e-06
0.508078 0.461494 1e-06
0.508078 0.462983 1e-06
1e-06 0.436183 1e-06
1e-06 0.440555 1e-06
1e-06 0.444344 1e-06
1e-06 0.447614 1e-06
1e-06 0.450433 1e-06
1e-06 0.452854 1e-06
1e-06 0.454928 1e-06
1e-06 0.456699 1e-06
1e-06 0.458208 1e-06
1e-06 0.459491 1e-06
0.031018 0.460578 1e-06
0.208307 0.461499 1e-06
0.270469 0.462309 1e-06
0.31251 0.463058 1e-06
0.34544 0.463752 1e-06
0.373007 0.4644 1e-06
0.396957 0.465008 1e-06
0.418249 0.465585 1e-06
0.437471 0.466137 1e-06
0.455006 0.466673 1e-06
0.471116 0.467199 1e-06
0.485986 0.467725 1e-06
0.499745 0.468262 1e-06
0.508078 0.468826 1e-06
0.508078 0.469423 1e-06
0.508078 0.470232 1e-06
0.508078 0.471121 1e-06
0.508078 0.472025 1e-06
0.508078 0.472939 1e-06
0.508078 0.473883 1e-06
0.508078 0.474834 1e-06
0.508078 0.475768 1e-06
0.508078 0.476668 1e-06
1e-06 0.452843 1e-06
1e-06 0.456948 1e-06
1e-06 0.460658 1e-06
1e-06 0.463863 1e-06
1e-06 0.466606 1e-06
1e-06 0.468943 1e-06
1e-06 0.470927 1e-06
1e-06 0.472606 1e-06
1e-06 0.474022 1e-06
1e-06 0.475213 1e-06
1e-06 0.476228 1e-06
0.1901 0.477145 1e-06
0.262855 0.477982 1e-06
0.308358 0.47875 1e-06
0.342951 0.479457 1e-06
0.371461 0.480114 1e-06
0.395997 0.480726 1e-06
0.417679 0.481303 1e-06
0.437171 0.48185 1e-06
0.454901 0.482378 1e-06
0.471157 0.482892 1e-06
0.486126 0.483388 1e-06
0.499934 0.483858 1e-06
0.508078 0.484297 1e-06
0.508078 0.484702 1e-06
0.508078 0.485253 1e-06
0.508078 0.485757 1e-06
0.508078 0.486209 1e-06
0.508078 0.486639 1e-06
0.508078 0.487034 1e-06
0.508078 0.487374 1e-06
0.508078 0.487653 1e-06
0.508078 0.487939 1e-06
1e-06 0.468007 1e-06
1e-06 0.471718 1e-06
1e-06 0.475081 1e-06
1e-06 0.478136 1e-06
1e-06 0.480882 1e-06
1e-06 0.483238 1e-06
1e-06 0.485226 1e-06
1e-06 0.486896 1e-06
1e-06 0.488298 1e-06
1e-06 0.489526 1e-06
1e-06 0.490624 1e-06
0.169865 0.491611 1e-06
0.255511 0.492503 1e-06
0.304521 0.493315 1e-06
0.340703 0.494057 1e-06
0.370088 0.494739 1e-06
0.395163 0.495374 1e-06
0.417192 0.495963 1e-06
0.436897 0.496499 1e-06
0.454733 0.496972 1e-06
0.470999 0.497373 1e-06
0.485903 0.497696 1e-06
0.499589 0.497934 1e-06
0.508078 0.498081 1e-06
0.508078 0.49814 1e-06
0.508078 0.498225 1e-06
0.508078 0.498203 1e-06
0.508078 0.498102 1e-06
0.508078 0.497948 1e-06
0.508078 0.497802 1e-06
0.508078 0.497671 1e-06
0.508078 0.497562 1e-06
0.508078 0.497481 1e-06
1e-06 0.481899 1e-06
1e-06 0.485245 1e-06
1e-06 0.488313 1e-06
1e-06 0.491109 1e-06
1e-06 0.493622 1e-06
1e-06 0.495874 1e-06
1e-06 0.497879 1e-06
1e-06 0.499659 1e-06
1e-06 0.501227 1e-06
1e-06 0.502612 1e-06
1e-06 0.50384 1e-06
0.152475 0.504936 1e-06
0.250238 0.505919 1e-06
0.301966 0.506807 1e-06
0.3393 0.507604 1e-06
0.369256 0.508078 1e-06
0.394599 0.508078 1e-06
0.416708 0.508078 1e-06
0.436369 0.508078 1e-06
0.454073 0.508078 1e-06
0.470142 0.508078 1e-06
0.484799 0.508078 1e-06
0.498197 0.508078 1e-06
0.508078 0.508078 1e-06
0.508078 0.508078 1e-06
0.508078 0.508078 1e-06
0.508078 0.508078 1e-06
0.508078 0.507857 1e-06
0.508078 0.507377 1e-06
0.508078 0.506905 1e-06
0.508078 0.50645 1e-06
0.508078 0.506022 1e-06
0.508078 0.505624 1e-06
1e-06 0.494723 1e-06
1e-06 0.497745 1e-06
1e-06 0.500521 1e-06
1e-06 0.503059 1e-06
1e-06 0.505367 1e-06
1e-06 0.507468 1e-06
1e-06 0.508078 1e-06
1e-06 0.508078 1e-06
1e-06 0.508078 1e-06
1e-06 0.508078 1e-06
1e-06 0.508078 1e-06
0.148853 0.508078 1e-06
0.249531 0.508078 1e-06
0.301675 0.508078 1e-06
0.339019 0.508078 1e-06
0.368826 0.508078 1e-06
0.393933 0.508078 1e-06
0.415747 0.508078 1e-06
0.435071 0.508078 1e-06
0.452404 0.508078 1e-06
0.468073 0.508078 1e-06
0.482314 0.508078 1e-06
0.495348 0.508078 1e-06
0.507272 0.508078 1e-06
0.508078 0.508078 1e-06
0.508078 0.508078 1e-06
0.508078 0.508078 1e-06
0.508078 0.508078 1e-06
0.508078 0.508078 1e-06
0.508078 0.508078 1e-06
0.508078 0.508078 1e-06
0.508078 0.508078 1e-06
0.508078 0.508078 1e-06
1e-06 0.506589 1e-06
1e-06 0.508078 1e-06
1e-06 0.508078 1e-06
1e-06 0.508078 1e-06
1e-06 0.508078 1e-06
1e-06 0.508078 1e-06
1e-06 0.508078 1e-06
1e-06 0.508078 1e-06
1e-06 0.508078 1e-06
1e-06 0.508078 1e-06
1e-06 0.508078 1e-06
0.161567 0.508078 1e-06
0.253739 0.508078 1e-06
0.303554 0.508078 1e-06
0.339552 0.508078 1e-06
0.368383 0.508078 1e-06
0.392697 0.508078 1e-06
0.413814 0.508078 1e-06
0.432539 0.508078 1e-06
0.449419 0.508078 1e-06
0.464784 0.508078 1e-06
0.478825 0.508078 1e-06
0.491673 0.508078 1e-06
0.503426 0.508078 1e-06
0.508078 0.508078 1e-06
0.508078 0.508078 1e-06
0.508078 0.508078 1e-06
0.508078 0.508078 1e-06
0.508078 0.508078 1e-06
0.508078 0.508078 1e-06
0.508078 0.508078 1e-06
0.508078 0.508078 1e-06
0.508078 0.508078 1e-06
1e-06 0.508078 1e-06
1e-06 0.508078 1e-06
1e-06 0.508078 1e-06
1e-06 0.508078 1e-06
1e-06 0.508078 1e-06
1e-06 0.508078 1e-06
1e-06 0.508078 1e-06
1e-06 0.508078 1e-06
1e-06 0.508078 1e-06
1e-06 0.508078 1e-06
1e-06 0.508078 1e-06
0.209922 0.508078 1e-06
0.27527 0.508078 1e-06
0.316598 0.508078 1e-06
0.347827 0.508078 1e-06
0.373484 0.508078 1e-06
0.395535 0.508078 1e-06
0.414991 0.508078 1e-06
0.432489 0.508078 1e-06
0.448405 0.508078 1e-06
0.462964 0.508078 1e-06
0.476319 0.508078 1e-06
0.488579 0.508078 1e-06
0.499824 0.508078 1e-06
0.508078 0.508078 1e-06
0.508078 0.508078 1e-06
0.508078 0.508078 1e-06
0.508078 0.508078 1e-06
0.508078 0.508078 1e-06
0.508078 0.508078 1e-06
0.508078 0.508078 1e-06
0.508078 0.508078 1e-06
0.508078 0.508078 0.08066
1e-06 0.508078 1e-06
1e-06 0.508078 1e-06
1e-06 0.508078 1e-06
1e-06 0.508078 1e-06
1e-06 0.508078 1e-06
1e-06 0.508078 1e-06
1e-06 0.508078 1e-06
1e-06 0.508078 1e-06
1e-06 0.508078 1e-06
1e-06 0.508078 1e-06
0.157712 0.508078 1e-06
0.24492 0.508078 1e-06
0.292249 0.508078 1e-06
0.3264 0.508078 1e-06
0.353773 0.508078 1e-06
0.376946 0.508078 1e-06
0.397252 0.508078 1e-06
0.415477 0.508078 1e-06
0.432034 0.508078 1e-06
0.447186 0.508078 1e-06
0.46111 0.508078 1e-06
0.473929 0.508078 1e-06
0.48573 0.508078 1e-06
0.496573 0.508078 1e-06
0.506506 0.508078 1e-06
0.508078 0.508078 1e-06
0.508078 0.508078 1e-06
0.508078 0.508078 1e-06
0.508078 0.508078 1e-06
0.508078 0.508078 1e-06
0.508078 0.508078 1e-06
0.508078 0.508078 0.076701
0.508078 0.508078 0.170047
1e-06 0.508078 1e-06
1e-06 0.508078 1e-06
1e-06 0.508078 1e-06
1e-06 0.508078 1e-06
1e-06 0.508078 1e-06
1e-06 0.508078 1e-06
1e-06 0.508078 1e-06
1e-06 0.508078 1e-06
1e-06 0.508078 1e-06
