resources/flame/Syncolor/Shared/transforms/camera_manufacturer_luts/arri/ARRI_Alexa_LUTs/ARRI_HDR_Lookfiles_3DLUTs_190319/3D_LUTs_to_simulate_SDR_in_HDR/ARRI_Rec2020-100-in-PQ.cube
LUT_3D_SIZE 33
1e-06 1e-06 1e-06
3.2e-05 1.1e-05 1e-05
0.000303 2.9e-05 2.3e-05
0.001413 3.6e-05 1.7e-05
0.004308 6.8e-05 2e-05
0.009928 0.000149 3.9e-05
0.018839 0.000292 7.1e-05
0.031094 0.000525 0.00012
0.046299 0.00087 0.000192
0.063779 0.001345 0.000291
0.083346 0.002056 0.000441
0.104635 0.003187 0.000682
0.12715 0.004941 0.001069
0.150411 0.007572 0.001674
0.173976 0.011371 0.002593
0.19745 0.016622 0.00394
0.220712 0.023639 0.005857
0.24373 0.03274 0.008516
0.266346 0.044147 0.012087
0.288433 0.057986 0.01673
0.309888 0.073623 0.022582
0.330629 0.089182 0.029739
0.350578 0.104417 0.03824
0.369631 0.119188 0.048046
0.387617 0.133312 0.058983
0.404527 0.146742 0.070548
0.420375 0.159456 0.081666
0.435177 0.171439 0.092225
0.448952 0.182683 0.102193
0.46172 0.193182 0.111546
0.473516 0.202949 0.120282
0.484418 0.21203 0.128432
0.494501 0.220477 0.136036
0.000173 0.000305 0.000158
0.000575 0.000636 0.000187
0.001844 0.00106 0.000133
0.004805 0.00151 9e-06
0.010218 0.001748 1.6e-05
0.01877 0.001732 4.5e-05
0.03068 0.001415 1e-04
0.045735 0.000856 0.000189
0.063578 0.001339 0.00029
0.083399 0.002059 0.000441
0.104402 0.003172 0.000679
0.126652 0.004894 0.001059
0.1498 0.007491 0.001655
0.173422 0.011266 0.002567
0.197129 0.016539 0.003918
0.220576 0.023592 0.005844
0.24349 0.032633 0.008484
0.26595 0.043925 0.012015
0.287904 0.057621 0.016604
0.309221 0.073127 0.022377
0.329818 0.088568 0.029428
0.349638 0.103694 0.037801
0.368635 0.118411 0.047489
0.386773 0.132646 0.058431
0.403933 0.146268 0.070135
0.419996 0.15915 0.081397
0.434978 0.171277 0.092082
0.448897 0.182637 0.102153
0.461779 0.19323 0.11159
0.473689 0.203092 0.120411
0.484708 0.212272 0.12865
0.494906 0.220817 0.136342
0.504351 0.228773 0.143522
0.000841 0.002702 0.00065
0.002029 0.004082 0.000444
0.004785 0.005616 0.000104
0.009856 0.007016 1e-06
0.017788 0.008045 1e-06
0.029013 0.008712 1.2e-05
0.043531 0.008913 6e-05
0.06097 0.008593 0.000147
0.08072 0.007843 0.000298
0.102099 0.006915 0.000557
0.124301 0.006042 0.000975
0.147145 0.007143 0.001574
0.170682 0.010759 0.002442
0.194476 0.015863 0.00374
0.218186 0.022778 0.005615
0.241496 0.031752 0.008219
0.264112 0.042902 0.011685
0.285946 0.056284 0.016142
0.307161 0.071601 0.021756
0.327691 0.08696 0.028626
0.347475 0.102032 0.036805
0.366461 0.116717 0.046292
0.384609 0.130938 0.057033
0.401886 0.144635 0.068716
0.418257 0.15775 0.080168
0.433558 0.170123 0.091062
0.447753 0.181701 0.10132
0.460894 0.192501 0.110938
0.47306 0.202569 0.119942
0.484324 0.211952 0.128362
0.494759 0.220694 0.136231
0.50443 0.228839 0.143582
0.507239 0.231213 0.145728
0.001781 0.009782 0.001028
0.004028 0.01278 0.000334
0.008457 0.015818 1e-06
0.01558 0.018258 1e-06
0.025896 0.020378 1e-06
0.039505 0.022069 1e-06
0.05623 0.023232 1e-06
0.075483 0.023844 5.6e-05
0.096774 0.024116 0.000205
0.119462 0.024274 0.000498
0.142774 0.024613 0.001007
0.166125 0.02545 0.001816
0.189775 0.026887 0.003067
0.213488 0.029233 0.004918
0.236972 0.032939 0.00753
0.259982 0.04067 0.010972
0.282281 0.053845 0.015308
0.303654 0.06901 0.02073
0.32424 0.084356 0.027362
0.344096 0.09944 0.03529
0.363168 0.114155 0.044523
0.381414 0.128422 0.055016
0.398797 0.142175 0.06658
0.41529 0.155363 0.078076
0.430869 0.16794 0.089135
0.44548 0.17984 0.099668
0.459032 0.190965 0.109568
0.471592 0.201351 0.118851
0.483235 0.211042 0.127544
0.494018 0.220071 0.13567
0.503952 0.228436 0.143218
0.507239 0.231213 0.145728
0.507239 0.231213 0.145728
0.002389 0.023226 0.000647
0.005855 0.028005 1e-06
0.011885 0.031992 1e-06
0.021112 0.035637 1e-06
0.033697 0.038892 1e-06
0.049505 0.041676 1e-06
0.068076 0.043918 1e-06
0.088705 0.045727 1e-06
0.111233 0.047296 6.6e-05
0.134905 0.048779 0.000353
0.158995 0.050483 0.00093
0.182843 0.052785 0.001901
0.206594 0.055953 0.003415
0.23027 0.06032 0.005658
0.253614 0.066219 0.008805
0.276394 0.073615 0.013012
0.298402 0.082443 0.018387
0.319455 0.0925 0.02497
0.339511 0.103504 0.032772
0.358774 0.115219 0.041872
0.377212 0.127389 0.05223
0.39479 0.139775 0.063738
0.411477 0.152303 0.075398
0.427255 0.165013 0.086554
0.442142 0.177113 0.097249
0.456175 0.188613 0.107471
0.469236 0.199398 0.117102
0.481276 0.209407 0.126076
0.492366 0.219008 0.134385
0.502574 0.228065 0.142078
0.507245 0.232577 0.145579
0.507248 0.2333 0.1455
0.507252 0.234141 0.145406
0.0022 0.043222 1e-06
0.006612 0.048845 1e-06
0.014368 0.053936 1e-06
0.02575 0.05864 1e-06
0.040598 0.062901 1e-06
0.058511 0.066553 1e-06
0.078367 0.069524 1e-06
0.100149 0.072056 1e-06
0.123585 0.074351 1e-06
0.148021 0.076649 0.000145
0.17278 0.079227 0.000728
0.197216 0.08237 0.001828
0.221247 0.086284 0.003597
0.245025 0.091132 0.006239
0.268339 0.097054 0.009938
0.290992 0.10411 0.014843
0.312805 0.112255 0.021045
0.33362 0.121346 0.028556
0.353315 0.131165 0.037306
0.372076 0.141543 0.047316
0.389959 0.152304 0.058533
0.406937 0.163262 0.070484
0.42301 0.174252 0.08203
0.438146 0.185048 0.093041
0.452363 0.195535 0.103497
0.465699 0.205661 0.113402
0.478153 0.215365 0.122734
0.489638 0.224547 0.131403
0.500205 0.233191 0.139433
0.507276 0.239258 0.144813
0.50728 0.239957 0.144729
0.507284 0.240765 0.144631
0.507289 0.241723 0.144513
0.003095 0.068108 1e-06
0.006132 0.073938 1e-06
0.01552 0.079293 1e-06
0.028966 0.084117 1e-06
0.04594 0.088402 1e-06
0.065765 0.092141 1e-06
0.086708 0.095391 1e-06
0.109647 0.098318 1e-06
0.134055 0.101053 1e-06
0.159295 0.103776 1e-06
0.184732 0.106706 0.000353
0.20976 0.110077 0.001478
0.234214 0.11408 0.003457
0.258211 0.118852 0.006489
0.281586 0.124503 0.010752
0.304182 0.131081 0.016377
0.325853 0.138562 0.023425
0.346467 0.146843 0.031869
0.365907 0.155758 0.041586
0.38422 0.165107 0.052471
0.401509 0.174646 0.064419
0.417805 0.18425 0.076336
0.433147 0.193818 0.087671
0.447573 0.203266 0.098425
0.461122 0.212527 0.108604
0.47383 0.221546 0.11822
0.485729 0.23028 0.127282
0.496745 0.238647 0.135716
0.50687 0.246602 0.143502
0.50732 0.247869 0.143724
0.507327 0.249002 0.143572
0.507334 0.250331 0.143391
0.507342 0.251871 0.143177
0.005304 0.094008 1e-06
0.005993 0.100182 1e-06
0.015387 0.105976 1e-06
0.030959 0.111254 1e-06
0.050269 0.115981 1e-06
0.071916 0.12017 1e-06
0.094069 0.123907 1e-06
0.118144 0.127335 1e-06
0.143511 0.130565 1e-06
0.169535 0.133744 1e-06
0.19561 0.137044 1e-06
0.221182 0.140657 0.000605
0.246115 0.144751 0.002536
0.270389 0.149446 0.005802
0.293874 0.15483 0.010534
0.316451 0.160951 0.01682
0.337942 0.167693 0.024659
0.358193 0.174906 0.033941
0.377127 0.182507 0.044464
0.394776 0.190391 0.056018
0.411395 0.198487 0.068374
0.427046 0.206711 0.080275
0.44177 0.214983 0.091523
0.455607 0.223231 0.102138
0.468595 0.231391 0.112141
0.48077 0.239412 0.121554
0.492166 0.247252 0.130396
0.502773 0.254861 0.13865
0.507384 0.258954 0.142136
0.507392 0.260371 0.141916
0.507402 0.262008 0.141657
0.507414 0.263878 0.141355
0.507428 0.265949 0.141011
0.009044 0.121898 1e-06
0.010221 0.128642 1e-06
0.015629 0.134866 1e-06
0.033557 0.140654 1e-06
0.055366 0.145875 1e-06
0.078481 0.15056 1e-06
0.101608 0.154808 1e-06
0.126621 0.158748 1e-06
0.152812 0.162483 1e-06
0.179517 0.166137 1e-06
0.206139 0.16985 1e-06
0.23221 0.17378 1e-06
0.257571 0.178057 0.000727
0.281974 0.182613 0.003713
0.305301 0.187477 0.008616
0.327481 0.192703 0.015341
0.348443 0.198314 0.023763
0.36814 0.204303 0.03369
0.386549 0.210631 0.044876
0.403681 0.217238 0.057049
0.419766 0.224066 0.069834
0.434893 0.231055 0.081951
0.449107 0.238143 0.093303
0.46245 0.245273 0.10394
0.474963 0.252392 0.113904
0.486682 0.259452 0.12323
0.497641 0.266415 0.131949
0.507476 0.273038 0.139761
0.507487 0.274647 0.139461
0.507501 0.276483 0.139111
0.507516 0.27854 0.138708
0.507533 0.280757 0.138262
0.507551 0.283124 0.13777
0.015262 0.151782 1e-06
0.017156 0.15886 1e-06
0.019082 0.165435 1e-06
0.039383 0.171698 1e-06
0.063664 0.177445 1e-06
0.087155 0.182656 1e-06
0.11073 0.187431 1e-06
0.13627 0.19189 1e-06
0.162981 0.196132 1e-06
0.190081 0.200208 1e-06
0.21685 0.204095 1e-06
0.242922 0.207912 1e-06
0.268072 0.211763 1e-06
0.292161 0.215737 0.000482
0.315096 0.219907 0.004538
0.336819 0.224327 0.011206
0.357303 0.229032 0.019941
0.376533 0.234032 0.030371
0.394502 0.239317 0.042142
0.411216 0.244856 0.054908
0.426869 0.250611 0.068329
0.441564 0.256537 0.080988
0.455352 0.262589 0.092707
0.468278 0.268723 0.103577
0.480383 0.274897 0.113673
0.491707 0.281071 0.123055
0.502283 0.287211 0.131772
0.507618 0.291275 0.135953
0.507635 0.293186 0.135497
0.507653 0.295261 0.134988
0.507673 0.297454 0.134434
0.507694 0.299755 0.133834
0.507717 0.302163 0.133186
0.025212 0.183334 1e-06
0.028145 0.190694 1e-06
0.03112 0.197574 1e-06
0.050553 0.204104 1e-06
0.076568 0.210209 1e-06
0.099294 0.215857 1e-06
0.122607 0.221003 1e-06
0.147751 0.225641 1e-06
0.173951 0.229849 1e-06
0.200496 0.233719 1e-06
0.226819 0.23735 1e-06
0.25251 0.240844 1e-06
0.277291 0.244297 1e-06
0.300989 0.247791 1e-06
0.32351 0.251399 1e-06
0.34481 0.255175 0.004337
0.364874 0.259158 0.012659
0.383695 0.263369 0.023294
0.401276 0.267813 0.035536
0.41763 0.272478 0.048875
0.432922 0.277342 0.063047
0.447254 0.282375 0.076766
0.460678 0.287545 0.089239
0.473243 0.292817 0.100643
0.484993 0.29816 0.111111
0.495968 0.303541 0.120741
0.506199 0.308919 0.129607
0.50781 0.311341 0.130501
0.507831 0.31326 0.129894
0.507853 0.31528 0.129235
0.507877 0.317404 0.128522
0.507902 0.31963 0.12775
0.507929 0.321955 0.126916
0.040344 0.21609 1e-06
0.044675 0.223683 1e-06
0.049038 0.230792 1e-06
0.06858 0.237376 1e-06
0.092738 0.243383 1e-06
0.113493 0.248787 1e-06
0.135498 0.253652 1e-06
0.159499 0.258039 1e-06
0.184742 0.262008 1e-06
0.210502 0.265634 1e-06
0.236179 0.268999 1e-06
0.261317 0.27219 1e-06
0.285602 0.275292 1e-06
0.308841 0.278384 1e-06
0.330927 0.281534 1e-06
0.35181 0.284792 1e-06
0.371471 0.288197 0.002572
0.389907 0.291775 0.012058
0.407125 0.29554 0.02435
0.423148 0.299493 0.038164
0.438124 0.303623 0.052955
0.452135 0.307912 0.068179
0.465238 0.312336 0.082062
0.477466 0.316844 0.094476
0.488861 0.3214 0.105664
0.49951 0.325985 0.115847
0.508031 0.330123 0.123739
0.508053 0.33187 0.123005
0.508078 0.333677 0.122225
0.508078 0.335574 0.121381
0.508078 0.337567 0.120467
0.508078 0.339655 0.119476
0.508078 0.341836 0.118405
0.06186 0.249279 1e-06
0.067442 0.256621 1e-06
0.072582 0.26333 1e-06
0.088703 0.269483 1e-06
0.109769 0.275085 1e-06
0.128451 0.280121 1e-06
0.148903 0.284653 1e-06
0.171538 0.288734 1e-06
0.19562 0.292417 1e-06
0.220408 0.295765 1e-06
0.245267 0.29885 1e-06
0.269704 0.301751 1e-06
0.29338 0.304543 1e-06
0.316082 0.307293 1e-06
0.337683 0.310061 1e-06
0.358119 0.312892 1e-06
0.377364 0.315826 1e-06
0.395412 0.31889 1e-06
0.412269 0.322102 0.008599
0.42797 0.325464 0.022096
0.44262 0.328943 0.037367
0.456284 0.33253 0.05346
0.469023 0.336215 0.069606
0.480902 0.339986 0.083906
0.492097 0.343827 0.096628
0.502706 0.347722 0.108161
0.508078 0.350592 0.11368
0.508078 0.352204 0.112729
0.508078 0.353871 0.111716
0.508078 0.355616 0.110622
0.508078 0.357451 0.109434
0.508078 0.359374 0.108143
0.508078 0.361385 0.106743
0.086257 0.280968 1e-06
0.091651 0.287851 1e-06
0.096587 0.294119 1e-06
0.109314 0.299833 1e-06
0.127525 0.305018 1e-06
0.14418 0.309667 1e-06
0.162955 0.313839 1e-06
0.184073 0.317583 1e-06
0.206836 0.320951 1e-06
0.230491 0.324006 1e-06
0.254373 0.326816 1e-06
0.277973 0.329446 1e-06
0.300929 0.331958 1e-06
0.323003 0.334409 1e-06
0.344049 0.33685 1e-06
0.363989 0.339323 1e-06
0.382768 0.341847 1e-06
0.40036 0.344427 1e-06
0.416774 0.347088 1e-06
0.432082 0.34985 0.002435
0.446367 0.352721 0.015955
0.459688 0.355701 0.032349
0.472174 0.358786 0.049669
0.483966 0.361961 0.067266
0.495127 0.365217 0.083017
0.505709 0.36854 0.096799
0.508078 0.370522 0.099627
0.508078 0.371989 0.098354
0.508078 0.373508 0.096994
0.508078 0.375097 0.095521
0.508078 0.376767 0.093915
0.508078 0.37852 0.092163
0.508078 0.380356 0.090249
0.10989 0.310871 1e-06
0.114954 0.317197 1e-06
0.119604 0.322985 1e-06
0.130155 0.328266 1e-06
0.145797 0.333036 1e-06
0.160561 0.337294 1e-06
0.177675 0.341096 1e-06
0.197221 0.344498 1e-06
0.218548 0.347558 1e-06
0.240928 0.350335 1e-06
0.263701 0.352884 1e-06
0.286342 0.35526 1e-06
0.308468 0.357514 1e-06
0.32979 0.359667 1e-06
0.350142 0.361754 1e-06
0.369437 0.363819 1e-06
0.387629 0.365898 1e-06
0.404703 0.368024 1e-06
0.420679 0.370223 1e-06
0.435615 0.372517 1e-06
0.449583 0.374914 1e-06
0.462734 0.377419 0.006272
0.475147 0.380025 0.02333
0.486884 0.382722 0.042369
0.498002 0.385501 0.061881
0.508078 0.388355 0.07981
0.508078 0.389713 0.079013
0.508078 0.391038 0.077183
0.508078 0.392414 0.075209
0.508078 0.393853 0.073058
0.508078 0.395366 0.070693
0.508078 0.396956 0.068086
0.508078 0.398623 0.065205
0.132542 0.338984 1e-06
0.137219 0.34473 1e-06
0.141496 0.34997 1e-06
0.150799 0.354741 1e-06
0.164246 0.359058 1e-06
0.177371 0.362922 1e-06
0.192949 0.366378 1e-06
0.21094 0.36947 1e-06
0.230783 0.37225 1e-06
0.251796 0.37476 1e-06
0.273307 0.377024 1e-06
0.294799 0.37909 1e-06
0.31589 0.381005 1e-06
0.33631 0.382815 1e-06
0.355886 0.384563 1e-06
0.374507 0.386288 1e-06
0.392114 0.388022 1e-06
0.408688 0.389798 1e-06
0.424246 0.391644 1e-06
0.438882 0.393583 1e-06
0.452681 0.395621 1e-06
0.46571 0.397756 1e-06
0.478029 0.399982 1e-06
0.489696 0.402295 0.011208
0.500761 0.404689 0.031585
0.508078 0.406925 0.049036
0.508078 0.408073 0.046622
0.508078 0.409269 0.044065
0.508078 0.410513 0.041357
0.508078 0.411814 0.03847
0.508078 0.413183 0.035375
0.508078 0.414623 0.032059
0.508078 0.416134 0.028516
0.154052 0.365266 1e-06
0.158316 0.370432 1e-06
0.162195 0.375121 1e-06
0.170782 0.379372 1e-06
0.182393 0.38321 1e-06
0.194214 0.386656 1e-06
0.208467 0.389738 1e-06
0.224972 0.392476 1e-06
0.243266 0.394911 1e-06
0.262771 0.397085 1e-06
0.282913 0.399037 1e-06
0.303198 0.400811 1e-06
0.323236 0.402449 1e-06
0.342746 0.403991 1e-06
0.361532 0.405475 1e-06
0.37947 0.406938 1e-06
0.39649 0.408411 1e-06
0.412583 0.409933 1e-06
0.427796 0.41153 1e-06
0.442178 0.413209 1e-06
0.455782 0.41497 1e-06
0.46866 0.416814 1e-06
0.480864 0.418739 1e-06
0.492443 0.420744 1e-06
0.503441 0.422825 1e-06
0.508078 0.424544 0.008317
0.508078 0.42558 0.005979
0.508078 0.426661 0.003703
0.508078 0.427786 0.001636
0.508078 0.428965 0.000131
0.508078 0.430206 1e-06
0.508078 0.431511 1e-06
0.508078 0.432882 1e-06
0.174322 0.389706 1e-06
0.178154 0.394294 1e-06
0.181625 0.39844 1e-06
0.189856 0.402175 1e-06
0.199817 0.405515 1e-06
0.210498 0.408486 1e-06
0.223496 0.411133 1e-06
0.238646 0.413487 1e-06
0.255553 0.415585 1e-06
0.273706 0.417461 1e-06
0.292579 0.419148 1e-06
0.311705 0.420683 1e-06
0.330708 0.422099 1e-06
0.349304 0.423432 1e-06
0.367291 0.424713 1e-06
0.384535 0.425983 1e-06
0.400973 0.427289 1e-06
0.416606 0.428646 1e-06
0.431454 0.430061 1e-06
0.445547 0.431539 1e-06
0.458924 0.433086 1e-06
0.471625 0.434702 1e-06
0.48369 0.43639 1e-06
0.495161 0.438148 1e-06
0.506075 0.439975 1e-06
0.508078 0.441306 1e-06
0.508078 0.442247 1e-06
0.508078 0.443227 1e-06
0.508078 0.44425 1e-06
0.508078 0.445323 1e-06
0.508078 0.446454 1e-06
0.508078 0.447637 1e-06
0.508078 0.448875 1e-06
0.193248 0.412263 1e-06
0.196605 0.416239 1e-06
0.199621 0.419804 1e-06
0.207577 0.423014 1e-06
0.216178 0.425881 1e-06
0.225973 0.428436 1e-06
0.237941 0.430712 1e-06
0.25195 0.432741 1e-06
0.267657 0.434551 1e-06
0.284608 0.436172 1e-06
0.302324 0.437633 1e-06
0.320371 0.438964 1e-06
0.338387 0.440195 1e-06
0.356093 0.441356 1e-06
0.373263 0.44251 1e-06
0.389793 0.44368 1e-06
0.40564 0.444877 1e-06
0.420788 0.446109 1e-06
0.435243 0.447385 1e-06
0.449018 0.44871 1e-06
0.46214 0.450089 1e-06
0.474637 0.451527 1e-06
0.486541 0.453026 1e-06
0.497884 0.454586 1e-06
0.508078 0.456207 1e-06
0.508078 0.457247 1e-06
0.508078 0.458109 1e-06
0.508078 0.459006 1e-06
0.508078 0.459922 1e-06
0.508078 0.460849 1e-06
0.508078 0.461785 1e-06
0.508078 0.462727 1e-06
0.508078 0.46364 1e-06
0.21066 0.432806 1e-06
0.213578 0.436229 1e-06
0.216198 0.439298 1e-06
0.224031 0.442065 1e-06
0.231627 0.444532 1e-06
0.240735 0.446731 1e-06
0.251879 0.448693 1e-06
0.264944 0.450443 1e-06
0.279629 0.452006 1e-06
0.295527 0.453408 1e-06
0.312203 0.454675 1e-06
0.329254 0.455833 1e-06
0.346302 0.456934 1e-06
0.363068 0.458026 1e-06
0.37941 0.459116 1e-06
0.395233 0.460213 1e-06
0.410484 0.461327 1e-06
0.425134 0.462464 1e-06
0.439175 0.463634 1e-06
0.45261 0.464841 1e-06
0.465454 0.466091 1e-06
0.477724 0.467389 1e-06
0.489444 0.468737 1e-06
0.500642 0.470142 1e-06
0.508078 0.471593 1e-06
0.508078 0.472382 1e-06
0.508078 0.473106 1e-06
0.508078 0.473804 1e-06
0.508078 0.474467 1e-06
0.508078 0.475093 1e-06
0.508078 0.475677 1e-06
0.508078 0.476192 1e-06
0.508078 0.476647 1e-06
0.226665 0.451518 1e-06
0.229226 0.454498 1e-06
0.232512 0.457153 1e-06
0.239365 0.459538 1e-06
0.246271 0.461665 1e-06
0.254868 0.463562 1e-06
0.265374 0.465254 1e-06
0.277677 0.466764 1e-06
0.291505 0.468115 1e-06
0.306492 0.46933 1e-06
0.322219 0.470445 1e-06
0.338243 0.471527 1e-06
0.354288 0.472589 1e-06
0.370155 0.473636 1e-06
0.385704 0.474678 1e-06
0.400838 0.47572 1e-06
0.415497 0.47677 1e-06
0.429643 0.477836 1e-06
0.443258 0.478923 1e-06
0.456338 0.480041 1e-06
0.468886 0.481193 1e-06
0.480899 0.482369 1e-06
0.492377 0.483556 1e-06
0.503327 0.48474 1e-06
0.508078 0.485854 1e-06
0.508078 0.486343 1e-06
0.508078 0.486765 1e-06
0.508078 0.487107 1e-06
0.508078 0.487365 1e-06
0.508078 0.487537 1e-06
0.508078 0.4876 1e-06
0.508078 0.487569 1e-06
0.508078 0.487527 1e-06
0.241357 0.468558 1e-06
0.243631 0.471184 1e-06
0.247703 0.473526 1e-06
0.253694 0.475608 1e-06
0.260213 0.477447 1e-06
0.268458 0.479084 1e-06
0.278488 0.480545 1e-06
0.290191 0.48185 1e-06
0.303309 0.483022 1e-06
0.317414 0.484136 1e-06
0.332134 0.485216 1e-06
0.347174 0.486269 1e-06
0.362298 0.487299 1e-06
0.377325 0.488313 1e-06
0.392121 0.489317 1e-06
0.406591 0.490316 1e-06
0.420671 0.491321 1e-06
0.434314 0.492331 1e-06
0.447474 0.493336 1e-06
0.460125 0.494326 1e-06
0.472249 0.495289 1e-06
0.483842 0.496214 1e-06
0.494902 0.497089 1e-06
0.505434 0.497902 1e-06
0.508078 0.498544 1e-06
0.508078 0.498633 1e-06
0.508078 0.498599 1e-06
0.508078 0.498438 1e-06
0.508078 0.498177 1e-06
0.508078 0.49787 1e-06
0.508078 0.497533 1e-06
0.508078 0.497193 1e-06
0.508078 0.496866 1e-06
0.254876 0.484125 1e-06
0.256898 0.486444 1e-06
0.261838 0.48852 1e-06
0.267181 0.490359 1e-06
0.273576 0.491987 1e-06
0.281598 0.493424 1e-06
0.29129 0.494695 1e-06
0.302478 0.495862 1e-06
0.314836 0.496989 1e-06
0.328065 0.498079 1e-06
0.341881 0.499136 1e-06
0.356032 0.500166 1e-06
0.370312 0.501172 1e-06
0.384562 0.502163 1e-06
0.398639 0.503132 1e-06
0.412432 0.50407 1e-06
0.425858 0.504965 1e-06
0.438857 0.505807 1e-06
0.451388 0.506586 1e-06
0.463425 0.507293 1e-06
0.474952 0.507916 1e-06
0.485959 0.508078 1e-06
0.496446 0.508078 1e-06
0.506399 0.508078 1e-06
0.508078 0.508078 1e-06
0.508078 0.508078 1e-06
0.508078 0.508078 1e-06
0.508078 0.507885 1e-06
0.508078 0.507326 1e-06
0.508078 0.506729 1e-06
0.508078 0.506122 1e-06
0.508078 0.505523 1e-06
0.508078 0.504947 1e-06
0.267346 0.498391 1e-06
0.270123 0.500448 1e-06
0.275007 0.502287 1e-06
0.280087 0.503918 1e-06
0.286501 0.505363 1e-06
0.294419 0.506659 1e-06
0.303761 0.507887 1e-06
0.314364 0.508078 1e-06
0.326009 0.508078 1e-06
0.338457 0.508078 1e-06
0.351467 0.508078 1e-06
0.364796 0.508078 1e-06
0.378242 0.508078 1e-06
0.391641 0.508078 1e-06
0.404863 0.508078 1e-06
0.417808 0.508078 1e-06
0.430401 0.508078 1e-06
0.442588 0.508078 1e-06
0.454329 0.508078 1e-06
0.465599 0.508078 1e-06
0.47638 0.508078 1e-06
0.486674 0.508078 1e-06
0.496537 0.508078 1e-06
0.505963 0.508078 1e-06
0.508078 0.508078 1e-06
0.508078 0.508078 1e-06
0.508078 0.508078 1e-06
0.508078 0.508078 1e-06
0.508078 0.508078 1e-06
0.508078 0.508078 1e-06
0.508078 0.508078 1e-06
0.508078 0.508078 1e-06
0.508078 0.508078 1e-06
0.278876 0.508078 1e-06
0.282951 0.508078 1e-06
0.287343 0.508078 1e-06
0.292564 0.508078 1e-06
0.299059 0.508078 1e-06
0.306841 0.508078 1e-06
0.315848 0.508078 1e-06
0.325937 0.508078 1e-06
0.336912 0.508078 1e-06
0.348556 0.508078 1e-06
0.360653 0.508078 1e-06
0.372996 0.508078 1e-06
0.385235 0.508078 1e-06
0.397503 0.508078 1e-06
0.409663 0.508078 1e-06
0.421611 0.508078 1e-06
0.433264 0.508078 1e-06
0.444562 0.508078 1e-06
0.455498 0.508078 1e-06
0.466103 0.508078 1e-06
0.476373 0.508078 1e-06
0.48624 0.508078 1e-06
0.495683 0.508078 1e-06
0.504714 0.508078 1e-06
0.508078 0.508078 1e-06
0.508078 0.508078 1e-06
0.508078 0.508078 1e-06
0.508078 0.508078 1e-06
0.508078 0.508078 1e-06
0.508078 0.508078 1e-06
0.508078 0.508078 1e-06
0.508078 0.508078 1e-06
0.508078 0.508078 1e-06
0.290732 0.508078 1e-06
0.294488 0.508078 1e-06
0.297666 0.508078 1e-06
0.302069 0.508078 1e-06
0.307777 0.508078 1e-06
0.314781 0.508078 1e-06
0.322994 0.508078 1e-06
0.332265 0.508078 1e-06
0.3424 0.508078 1e-06
0.353197 0.508078 1e-06
0.364451 0.508078 1e-06
0.375972 0.508078 1e-06
0.387592 0.508078 1e-06
0.399173 0.508078 1e-06
0.410603 0.508078 1e-06
0.421864 0.508078 1e-06
0.432925 0.508078 1e-06
0.443742 0.508078 1e-06
0.45431 0.508078 1e-06
0.464605 0.508078 1e-06
0.474587 0.508078 1e-06
0.484218 0.508078 1e-06
0.493467 0.508078 1e-06
0.502303 0.508078 1e-06
0.508078 0.508078 1e-06
0.508078 0.508078 1e-06
0.508078 0.508078 1e-06
0.508078 0.508078 1e-06
0.508078 0.508078 1e-06
0.508078 0.508078 1e-06
0.508078 0.508078 1e-06
0.508078 0.508078 1e-06
0.508078 0.508078 1e-06
0.293559 0.508078 1e-06
0.296361 0.508078 1e-06
0.30018 0.508078 1e-06
0.305167 0.508078 1e-06
0.311333 0.508078 1e-06
0.318619 0.508078 1e-06
0.326913 0.508078 1e-06
0.336057 0.508078 1e-06
0.345875 0.508078 1e-06
0.356184 0.508078 1e-06
0.366808 0.508078 1e-06
0.37761 0.508078 1e-06
0.38853 0.508078 1e-06
0.399473 0.508078 1e-06
0.410369 0.508078 1e-06
0.42115 0.508078 1e-06
0.431786 0.508078 1e-06
0.442269 0.508078 1e-06
0.452547 0.508078 1e-06
0.462569 0.508078 1e-06
0.472291 0.508078 1e-06
0.481672 0.508078 1e-06
0.490676 0.508078 1e-06
0.499267 0.508078 1e-06
0.507407 0.508078 1e-06
0.508078 0.508078 1e-06
0.508078 0.508078 1e-06
0.508078 0.508078 1e-06
0.508078 0.508078 1e-06
0.508078 0.508078 1e-06
0.508078 0.508078 1e-06
0.508078 0.508078 1e-06
0.508078 0.508078 1e-06
0.295364 0.508078 1e-06
0.298689 0.508078 1e-06
0.30303 0.508078 1e-06
0.308405 0.508078 1e-06
0.314778 0.508078 1e-06
0.322063 0.508078 1e-06
0.33014 0.508078 1e-06
0.338863 0.508078 1e-06
0.348125 0.508078 1e-06
