resources/flame/Syncolor/Shared/transforms/camera_manufacturer_luts/arri/ARRI_Alexa_LUTs/ARRI_HDR_Lookfiles_3DLUTs_190319/3D_LUTs_to_simulate_SDR_in_HDR/ARRI_DCID65-100-in-PQ.cube
LUT_3D_SIZE 5
1e-06 1e-06 1e-06
0.066082 1e-06 0.000159
0.244572 1e-06 0.006376
0.395204 1e-06 0.058373
0.472701 1e-06 0.110613
1e-06 0.128427 1e-06
0.155742 0.164868 1e-06
0.372069 0.170595 0.023178
0.500057 0.161647 0.120843
0.508078 0.218094 0.142705
1e-06 0.371648 1e-06
1e-06 0.40088 1e-06
0.398919 0.410302 1e-06
0.508078 0.415654 1e-06
0.508078 0.429832 1e-06
1e-06 0.506589 1e-06
1e-06 0.508078 1e-06
0.392697 0.508078 1e-06
0.508078 0.508078 1e-06
0.508078 0.508078 1e-06
1e-06 0.508078 0.162723
0.199064 0.508078 1e-06
0.401054 0.508078 1e-06
0.487239 0.508078 0.222231
0.508078 0.508078 0.377027
1e-06 1e-06 0.023081
0.114913 1e-06 0.106918
0.311218 1e-06 0.157157
0.446004 1e-06 0.180108
0.4995 1e-06 0.193321
1e-06 0.13678 0.134463
0.153724 0.153724 0.153724
0.397201 0.139733 0.17002
0.508078 0.117404 0.211199
0.508078 0.185588 0.248263
1e-06 0.388273 0.135616
1e-06 0.408309 0.066191
0.401867 0.412497 0.105326
0.508078 0.413989 0.202289
0.508078 0.423651 0.251628
1e-06 0.508078 0.174106
1e-06 0.508078 1e-06
0.369986 0.508078 1e-06
0.508078 0.508078 0.103398
0.508078 0.508078 0.301067
1e-06 0.508078 0.322325
1e-06 0.508078 0.261564
0.377293 0.508078 0.255881
0.482335 0.508078 0.349387
0.508078 0.508078 0.43702
1e-06 1e-06 0.145211
0.11924 1e-06 0.268029
0.342154 1e-06 0.331666
0.455463 1e-06 0.333475
0.502428 1e-06 0.318193
1e-06 1e-06 0.315904
1e-06 1e-06 0.37039
0.393665 1e-06 0.38351
0.508078 1e-06 0.385012
0.508078 1e-06 0.387488
1e-06 0.378093 0.375126
1e-06 0.391506 0.388746
0.393804 0.393804 0.393804
0.508078 0.393779 0.400446
0.508078 0.407802 0.413208
1e-06 0.508078 0.394496
1e-06 0.508078 0.391098
0.340523 0.508078 0.380489
0.507135 0.508078 0.391723
0.508078 0.504258 0.430639
1e-06 0.508078 0.419316
1e-06 0.508078 0.396675
0.374308 0.508078 0.401735
0.482808 0.508078 0.44117
0.508078 0.508078 0.482214
1e-06 1e-06 0.278348
1e-06 1e-06 0.392647
0.318658 1e-06 0.432531
0.434025 1e-06 0.42299
0.489627 1e-06 0.404306
1e-06 1e-06 0.442872
1e-06 1e-06 0.485702
0.361245 1e-06 0.495106
0.505692 1e-06 0.494697
0.508078 1e-06 0.482835
1e-06 0.305871 0.490439
1e-06 0.306035 0.508078
0.367192 0.313419 0.508078
0.508078 0.322365 0.508078
0.508078 0.372837 0.508078
1e-06 0.502193 0.499079
1e-06 0.508078 0.506433
0.303911 0.507881 0.505769
0.496938 0.496938 0.496938
0.508078 0.494263 0.494734
1e-06 0.508078 0.492328
1e-06 0.508078 0.48409
0.403257 0.508078 0.48208
0.488567 0.508078 0.490928
0.508078 0.508078 0.503999
1e-06 1e-06 0.367593
1e-06 1e-06 0.451729
0.248021 1e-06 0.4776
0.397143 1e-06 0.46902
0.470498 1e-06 0.459298
1e-06 1e-06 0.495593
1e-06 1e-06 0.508078
0.336091 1e-06 0.508078
0.48346 1e-06 0.508078
0.508078 1e-06 0.508078
1e-06 0.239836 0.508078
1e-06 0.304613 0.508078
0.372657 0.323989 0.508078
0.508078 0.348287 0.508078
0.508078 0.39865 0.508078
1e-06 0.496703 0.507059
1e-06 0.508078 0.50655
0.369547 0.499948 0.507536
0.494309 0.492365 0.508078
0.508078 0.494937 0.508078
1e-06 0.508078 0.506522
0.255106 0.508078 0.506844
0.444143 0.508078 0.507439
0.498307 0.508078 0.507952
0.508078 0.508078 0.508078
