resources/flame/Syncolor/Shared/transforms/camera_manufacturer_luts/arri/ARRI_Alexa_LUTs/ARRI_HDR_Lookfiles_3DLUTs_190319/3D_LUTs_to_simulate_SDR_in_HDR/ARRI_Rec2020-100-in-PQ.cube
LUT_3D_SIZE 5
1e-06 1e-06 1e-06
0.046299 0.00087 0.000192
0.220712 0.023639 0.005857
0.387617 0.133312 0.058983
0.494501 0.220477 0.136036
0.009044 0.121898 1e-06
0.152812 0.162483 1e-06
0.348443 0.198314 0.023763
0.474963 0.252392 0.113904
0.507551 0.283124 0.13777
0.154052 0.365266 1e-06
0.243266 0.394911 1e-06
0.39649 0.408411 1e-06
0.503441 0.422825 1e-06
0.508078 0.432882 1e-06
0.278876 0.508078 1e-06
0.336912 0.508078 1e-06
0.433264 0.508078 1e-06
0.508078 0.508078 1e-06
0.508078 0.508078 1e-06
0.303236 0.508078 1e-06
0.349248 0.508078 1e-06
0.421767 0.508078 1e-06
0.488631 0.508078 1e-06
0.508078 0.508078 0.336831
1e-06 1e-06 0.022214
0.093182 1e-06 0.103207
0.286169 0.006021 0.153784
0.432712 0.153698 0.181851
0.507099 0.224132 0.202363
0.000523 0.130808 0.133143
0.152583 0.152583 0.152583
0.372522 0.189508 0.167378
0.488577 0.251195 0.206786
0.507268 0.275269 0.235263
0.160563 0.381821 0.15691
0.232237 0.402198 0.118697
0.399607 0.410725 0.14028
0.508078 0.422462 0.212056
0.508078 0.430532 0.255058
0.279231 0.508078 0.162232
0.328749 0.508078 0.126771
0.425794 0.508078 0.072367
0.508078 0.508078 0.189893
0.508078 0.508078 0.310404
0.289534 0.508078 0.250073
0.335331 0.508078 0.181422
0.420338 0.508078 0.231792
0.48833 0.508078 0.345478
0.508078 0.508078 0.432057
1e-06 1e-06 0.142351
0.096799 1e-06 0.265913
0.316682 1e-06 0.329618
0.449234 1e-06 0.347817
0.505944 0.119642 0.343761
1e-06 1e-06 0.314086
1e-06 1e-06 0.368442
0.368972 1e-06 0.381394
0.489416 0.112666 0.382557
0.505382 0.192665 0.387495
0.026525 0.37215 0.375089
0.178764 0.38602 0.38875
0.393627 0.393627 0.393627
0.507499 0.405887 0.399846
0.50754 0.417687 0.412735
0.254534 0.508078 0.395617
0.30635 0.508078 0.395974
0.414326 0.508078 0.385969
0.505558 0.508078 0.395551
0.508078 0.504188 0.432245
0.263248 0.508078 0.400241
0.326664 0.508078 0.387267
0.427471 0.508078 0.405619
0.489721 0.508078 0.443069
0.508078 0.508078 0.482773
1e-06 1e-06 0.291524
1e-06 1e-06 0.401867
0.308645 1e-06 0.450598
0.441118 1e-06 0.454982
0.503109 1e-06 0.443694
1e-06 1e-06 0.442385
1e-06 1e-06 0.483623
0.337652 1e-06 0.493064
0.479117 1e-06 0.492696
0.500667 1e-06 0.4911
1e-06 0.302778 0.490313
1e-06 0.305832 0.507681
0.37428 0.324017 0.508078
0.501631 0.353589 0.508078
0.502693 0.39025 0.506864
0.101106 0.501024 0.504136
0.254509 0.503688 0.506629
0.402009 0.503827 0.505905
0.496911 0.496911 0.496911
0.507968 0.495124 0.494671
0.193316 0.50668 0.491628
0.333891 0.508078 0.483463
0.441154 0.508078 0.482754
0.493757 0.508078 0.491304
0.508078 0.508078 0.504073
1e-06 1e-06 0.414063
1e-06 1e-06 0.496407
0.258409 1e-06 0.508078
0.415423 1e-06 0.508078
0.496464 1e-06 0.508078
1e-06 1e-06 0.508078
1e-06 1e-06 0.508078
0.32106 1e-06 0.508078
0.47019 1e-06 0.508078
0.498975 1e-06 0.508078
1e-06 0.262753 0.508078
1e-06 0.305383 0.508078
0.379253 0.333359 0.508078
0.497984 0.370872 0.508078
0.503004 0.410918 0.508078
0.096843 0.499536 0.506699
0.285754 0.503109 0.506701
0.421346 0.496656 0.507496
0.494631 0.492639 0.508078
0.507155 0.495835 0.508078
0.224368 0.503598 0.5066
0.377907 0.504595 0.506925
0.464162 0.506387 0.507515
0.500801 0.507746 0.507967
0.508078 0.508078 0.508078
