resources/flame/Syncolor/Shared/transforms/camera_manufacturer_luts/arri/ARRI_Alexa_LUTs/ARRI_HDR_Lookfiles_3DLUTs_190319/3D_LUTs_to_simulate_SDR_in_HDR/ARRI_DCID65-100-in-PQ.cube
LUT_3D_SIZE 9
1e-06 1e-06 1e-06
0.005754 1e-06 1.5e-05
0.066082 1e-06 0.000159
0.149212 1e-06 0.00101
0.244572 1e-06 0.006376
0.333283 1e-06 0.026181
0.395204 1e-06 0.058373
0.439767 1e-06 0.087669
0.472701 1e-06 0.110613
1e-06 0.02551 0.000312
0.036277 0.042002 1e-06
0.128105 0.044808 1e-06
0.228775 0.029322 0.003157
0.323341 0.000234 0.021323
0.403863 1e-06 0.063607
0.462814 1e-06 0.103495
0.495473 1e-06 0.126189
0.508078 1e-06 0.142544
1e-06 0.128427 1e-06
0.012745 0.151305 1e-06
0.155742 0.164868 1e-06
0.275953 0.17094 1e-06
0.372069 0.170595 0.023178
0.445644 0.165622 0.077557
0.500057 0.161647 0.120843
0.508078 0.180571 0.143367
0.508078 0.218094 0.142705
1e-06 0.255365 1e-06
1e-06 0.281026 1e-06
0.13525 0.297389 1e-06
0.295746 0.306404 1e-06
0.394438 0.311224 1e-06
0.464883 0.31486 0.017161
0.508078 0.319378 0.090413
0.508078 0.330169 0.105487
0.508078 0.346183 0.110246
1e-06 0.371648 1e-06
1e-06 0.389699 1e-06
1e-06 0.40088 1e-06
0.288938 0.407051 1e-06
0.398919 0.410302 1e-06
0.470218 0.4128 1e-06
0.508078 0.415654 1e-06
0.508078 0.421479 1e-06
0.508078 0.429832 1e-06
1e-06 0.452843 1e-06
1e-06 0.466606 1e-06
1e-06 0.474022 1e-06
0.262855 0.477982 1e-06
0.395997 0.480726 1e-06
0.471157 0.482892 1e-06
0.508078 0.484702 1e-06
0.508078 0.486639 1e-06
0.508078 0.487939 1e-06
1e-06 0.506589 1e-06
1e-06 0.508078 1e-06
1e-06 0.508078 1e-06
0.253739 0.508078 1e-06
0.392697 0.508078 1e-06
0.464784 0.508078 1e-06
0.508078 0.508078 1e-06
0.508078 0.508078 1e-06
0.508078 0.508078 1e-06
1e-06 0.508078 1e-06
1e-06 0.508078 1e-06
1e-06 0.508078 1e-06
0.311856 0.508078 1e-06
0.398688 0.508078 1e-06
0.456782 0.508078 1e-06
0.498914 0.508078 1e-06
0.508078 0.508078 0.030674
0.508078 0.508078 0.266752
1e-06 0.508078 0.162723
1e-06 0.508078 1e-06
0.199064 0.508078 1e-06
0.331316 0.508078 1e-06
0.401054 0.508078 1e-06
0.451161 0.508078 1e-06
0.487239 0.508078 0.222231
0.508078 0.508078 0.314633
0.508078 0.508078 0.377027
1e-06 1e-06 0.001268
0.016381 1e-06 0.013972
0.093416 1e-06 0.032621
0.185743 1e-06 0.0461
0.281943 1e-06 0.057528
0.367409 1e-06 0.073897
0.425742 1e-06 0.093935
0.46263 1e-06 0.114169
0.489185 1e-06 0.134556
1e-06 0.026813 0.025732
0.03432 0.03432 0.03432
0.144126 0.028508 0.03355
0.255306 0.00533 0.027387
0.348159 1e-06 0.03445
0.424501 1e-06 0.077386
0.48236 1e-06 0.117523
0.508078 1e-06 0.145237
0.508078 1e-06 0.170016
1e-06 0.138575 0.030942
1e-06 0.157879 0.00959
0.159506 0.168559 1e-06
0.29059 0.170389 0.000146
0.386768 0.165741 0.032866
0.457895 0.158085 0.088219
0.508078 0.152295 0.129754
0.508078 0.168443 0.159433
0.508078 0.209709 0.180201
1e-06 0.269513 1e-06
1e-06 0.291832 1e-06
0.106534 0.304542 1e-06
0.299395 0.310084 1e-06
0.401621 0.312535 1e-06
0.471729 0.315059 0.026539
0.508078 0.318568 0.113678
0.508078 0.326864 0.140444
0.508078 0.341667 0.174147
1e-06 0.382271 1e-06
1e-06 0.397352 1e-06
1e-06 0.406149 1e-06
0.284157 0.410414 1e-06
0.401017 0.412411 1e-06
0.474548 0.413916 1e-06
0.508078 0.41582 0.000189
0.508078 0.420252 0.049119
0.508078 0.42745 0.141797
1e-06 0.462056 1e-06
1e-06 0.472393 1e-06
1e-06 0.477582 1e-06
0.246082 0.480913 1e-06
0.394005 0.48314 1e-06
0.473018 0.484666 1e-06
0.508078 0.485566 1e-06
0.508078 0.486016 1e-06
0.508078 0.48595 0.106819
1e-06 0.508078 1e-06
1e-06 0.508078 1e-06
1e-06 0.508078 1e-06
0.164577 0.508078 1e-06
0.380106 0.508078 1e-06
0.460675 0.508078 1e-06
0.508078 0.508078 1e-06
0.508078 0.508078 1e-06
0.508078 0.508078 0.202205
1e-06 0.508078 0.155233
1e-06 0.508078 1e-06
1e-06 0.508078 1e-06
0.253591 0.508078 1e-06
0.377968 0.508078 1e-06
0.448016 0.508078 1e-06
0.495802 0.508078 1e-06
0.508078 0.508078 0.226799
0.508078 0.508078 0.324916
1e-06 0.508078 0.259836
1e-06 0.508078 0.211137
1e-06 0.508078 0.133848
0.29942 0.508078 0.019744
0.388645 0.508078 0.08888
0.446417 0.508078 0.214477
0.484811 0.508078 0.297067
0.508078 0.508078 0.360048
0.508078 0.508078 0.409827
1e-06 1e-06 0.023081
0.026468 1e-06 0.069221
0.114913 1e-06 0.106918
0.215362 1e-06 0.136135
0.311218 1e-06 0.157157
0.392551 1e-06 0.172566
0.446004 1e-06 0.180108
0.477265 1e-06 0.185097
0.4995 1e-06 0.193321
1e-06 0.014466 0.091819
0.018829 0.002763 0.122797
0.153613 1e-06 0.145977
0.27259 1e-06 0.160665
0.365336 1e-06 0.169044
0.438374 1e-06 0.180555
0.493622 1e-06 0.196977
0.508078 1e-06 0.212883
0.508078 1e-06 0.227721
1e-06 0.13678 0.134463
1e-06 0.14896 0.146702
0.153724 0.153724 0.153724
0.296022 0.151511 0.160032
0.397201 0.139733 0.17002
0.465432 0.127761 0.188672
0.508078 0.117404 0.211199
0.508078 0.136675 0.228546
0.508078 0.185588 0.248263
1e-06 0.276835 0.151201
1e-06 0.295644 0.143972
0.062778 0.304221 0.138855
0.299257 0.308104 0.142398
0.40623 0.309492 0.155583
0.476476 0.310688 0.186702
0.508078 0.313025 0.216939
0.508078 0.320846 0.232922
0.508078 0.332799 0.2537
1e-06 0.388273 0.135616
1e-06 0.400987 0.103476
1e-06 0.408309 0.066191
0.275669 0.411543 0.060997
0.401867 0.412497 0.105326
0.478017 0.412886 0.160179
0.508078 0.413989 0.202289
0.508078 0.417827 0.223248
0.508078 0.423651 0.251628
1e-06 0.466583 0.080876
1e-06 0.474462 1e-06
1e-06 0.479308 1e-06
0.220074 0.482484 1e-06
0.390499 0.48428 1e-06
0.473918 0.485072 0.074607
0.508078 0.484786 0.162107
0.508078 0.483962 0.208217
0.508078 0.482944 0.257532
1e-06 0.508078 0.174106
1e-06 0.508078 0.001174
1e-06 0.508078 1e-06
1e-06 0.508078 1e-06
0.369986 0.508078 1e-06
0.457131 0.508078 1e-06
0.508078 0.508078 0.103398
0.508078 0.508078 0.221728
0.508078 0.508078 0.301067
1e-06 0.508078 0.284035
1e-06 0.508078 0.248
1e-06 0.508078 0.175328
0.078255 0.508078 1e-06
0.357747 0.508078 1e-06
0.441341 0.508078 0.096158
0.492764 0.508078 0.233621
0.508078 0.508078 0.311505
0.508078 0.508078 0.370702
1e-06 0.508078 0.322325
1e-06 0.508078 0.293205
1e-06 0.508078 0.261564
0.259193 0.508078 0.241208
0.377293 0.508078 0.255881
0.441757 0.508078 0.299649
0.482335 0.508078 0.349387
0.506481 0.508078 0.396693
0.508078 0.508078 0.43702
1e-06 1e-06 0.07765
0.025274 1e-06 0.137241
0.126554 1e-06 0.188158
0.235508 1e-06 0.225932
0.331597 1e-06 0.251058
0.408334 1e-06 0.265119
0.45553 1e-06 0.264566
0.483946 1e-06 0.260228
0.503785 1e-06 0.259463
1e-06 1e-06 0.169342
1e-06 1e-06 0.216924
0.146567 1e-06 0.24963
0.278201 1e-06 0.26822
0.373831 1e-06 0.277745
0.445323 1e-06 0.283693
0.498339 1e-06 0.289572
0.508078 1e-06 0.292259
0.508078 1e-06 0.295621
1e-06 0.092203 0.231396
1e-06 0.067759 0.260211
0.11958 0.026435 0.275958
0.295333 1e-06 0.287035
0.399676 1e-06 0.294147
0.467789 1e-06 0.298816
0.508078 1e-06 0.306485
0.508078 1e-06 0.313746
0.508078 0.088032 0.322088
1e-06 0.271066 0.268319
1e-06 0.284846 0.282066
1e-06 0.290416 0.288178
0.292896 0.292896 0.292896
0.404025 0.293767 0.298699
0.47944 0.293112 0.306101
0.508078 0.295618 0.317267
0.508078 0.304725 0.324694
0.508078 0.316479 0.334022
1e-06 0.387827 0.284421
1e-06 0.39841 0.287289
1e-06 0.404777 0.287272
0.26501 0.406438 0.290785
0.399604 0.40717 0.296494
0.479926 0.40736 0.302234
0.508078 0.407916 0.315374
0.508078 0.411686 0.326548
0.508078 0.417855 0.342289
1e-06 0.466465 0.291424
1e-06 0.47324 0.289877
1e-06 0.478237 0.286808
0.163498 0.481665 0.283089
0.383599 0.48341 0.28216
0.473474 0.483261 0.290562
0.508078 0.48158 0.30931
0.508078 0.479781 0.327493
0.508078 0.478775 0.352321
1e-06 0.508078 0.31436
1e-06 0.508078 0.298112
1e-06 0.508078 0.291328
1e-06 0.508078 0.280952
0.35727 0.508078 0.272287
0.452734 0.508078 0.277861
0.508078 0.508078 0.305004
0.508078 0.508078 0.340555
0.508078 0.508078 0.377677
1e-06 0.508078 0.357329
1e-06 0.508078 0.336325
1e-06 0.508078 0.304849
1e-06 0.508078 0.284171
0.347531 0.508078 0.284746
0.438687 0.508078 0.307956
0.490235 0.508078 0.344661
0.508078 0.508078 0.382624
0.508078 0.508078 0.417517
1e-06 0.508078 0.373925
1e-06 0.508078 0.355318
1e-06 0.508078 0.336919
0.211018 0.508078 0.326922
0.369647 0.508078 0.337128
0.440226 0.508078 0.365325
0.481541 0.508078 0.399203
0.504698 0.508078 0.432201
0.508078 0.508078 0.461223
1e-06 1e-06 0.145211
0.00064 1e-06 0.213726
0.11924 1e-06 0.268029
0.243816 1e-06 0.307001
0.342154 1e-06 0.331666
0.413133 1e-06 0.340301
0.455463 1e-06 0.333475
0.483331 1e-06 0.324541
0.502428 1e-06 0.318193
1e-06 1e-06 0.24855
1e-06 1e-06 0.298024
0.088068 1e-06 0.33267
0.270676 1e-06 0.353178
0.373415 1e-06 0.362719
0.44578 1e-06 0.36619
0.496884 1e-06 0.366166
0.508078 1e-06 0.36027
0.508078 1e-06 0.356739
1e-06 1e-06 0.315904
1e-06 1e-06 0.348155
1e-06 1e-06 0.37039
0.282093 1e-06 0.380898
0.393665 1e-06 0.38351
0.464761 1e-06 0.383505
0.508078 1e-06 0.385012
0.508078 1e-06 0.386958
0.508078 1e-06 0.387488
1e-06 0.237039 0.356437
1e-06 0.240945 0.374245
1e-06 0.240185 0.385492
0.274651 0.241858 0.38849
0.399287 0.241469 0.392041
0.477666 0.239339 0.395439
0.508078 0.24619 0.397998
0.508078 0.262741 0.400037
0.508078 0.282102 0.403486
1e-06 0.378093 0.375126
1e-06 0.386403 0.383422
1e-06 0.391506 0.388746
0.237715 0.393059 0.391179
0.393804 0.393804 0.393804
0.477039 0.393812 0.396947
0.508078 0.393779 0.400446
0.508078 0.399325 0.405473
0.508078 0.407802 0.413208
1e-06 0.461385 0.383511
1e-06 0.468031 0.38702
1e-06 0.473022 0.388827
1e-06 0.47674 0.388831
0.37588 0.477389 0.390805
0.470298 0.476665 0.394465
0.508078 0.474643 0.397881
0.508078 0.472748 0.406012
0.508078 0.472858 0.418973
1e-06 0.508078 0.394496
1e-06 0.508078 0.392547
1e-06 0.508078 0.391098
1e-06 0.508078 0.386127
0.340523 0.508078 0.380489
0.447072 0.508078 0.380223
0.507135 0.508078 0.391723
0.508078 0.508078 0.410535
0.508078 0.504258 0.430639
1e-06 0.508078 0.414334
1e-06 0.508078 0.40261
1e-06 0.508078 0.388009
1e-06 0.508078 0.380593
0.341326 0.508078 0.38096
0.437157 0.508078 0.392078
0.487737 0.508078 0.410016
0.508078 0.508078 0.431675
0.508078 0.508078 0.453725
1e-06 0.508078 0.419316
1e-06 0.508078 0.407705
1e-06 0.508078 0.396675
0.183692 0.508078 0.392166
0.374308 0.508078 0.401735
0.444147 0.508078 0.419883
0.482808 0.508078 0.44117
0.503537 0.508078 0.46277
0.508078 0.508078 0.482214
1e-06 1e-06 0.218767
1e-06 1e-06 0.287797
0.053394 1e-06 0.339939
0.236458 1e-06 0.375328
0.339142 1e-06 0.393613
0.404822 1e-06 0.39394
0.447638 1e-06 0.385334
0.476516 1e-06 0.374559
0.497146 1e-06 0.366006
1e-06 1e-06 0.321845
1e-06 1e-06 0.368829
1e-06 1e-06 0.401087
0.244655 1e-06 0.419216
0.364135 1e-06 0.42722
0.439851 1e-06 0.428788
0.48871 1e-06 0.423242
0.508078 1e-06 0.413083
0.508078 1e-06 0.406835
1e-06 1e-06 0.386422
1e-06 1e-06 0.416626
1e-06 1e-06 0.435632
0.245808 1e-06 0.445205
0.380624 1e-06 0.447564
0.457744 1e-06 0.447015
0.508078 1e-06 0.44658
0.508078 1e-06 0.445632
0.508078 1e-06 0.441099
1e-06 0.003542 0.424213
1e-06 1e-06 0.441706
1e-06 1e-06 0.452647
0.229635 1e-06 0.459277
0.389118 1e-06 0.461819
0.471085 1e-06 0.461751
0.508078 1e-06 0.461557
0.508078 0.008926 0.460657
0.508078 0.18402 0.459867
1e-06 0.354535 0.441532
1e-06 0.36031 0.450857
1e-06 0.363539 0.457936
0.139058 0.36437 0.463314
0.382647 0.36524 0.464454
0.472662 0.364669 0.466554
0.508078 0.365792 0.467753
0.508078 0.377232 0.467005
0.508078 0.392237 0.467812
1e-06 0.450948 0.447875
1e-06 0.457493 0.454435
1e-06 0.462095 0.459182
1e-06 0.465314 0.462807
0.362998 0.465688 0.464129
0.464849 0.464849 0.464849
0.508078 0.462973 0.464779
0.508078 0.462447 0.464278
0.508078 0.465617 0.467294
1e-06 0.508078 0.453719
1e-06 0.508078 0.458074
1e-06 0.508078 0.459209
1e-06 0.508078 0.456885
0.319669 0.508078 0.452783
0.443112 0.508078 0.451981
0.502065 0.506614 0.455081
0.508078 0.501629 0.459676
0.508078 0.498922 0.46849
1e-06 0.508078 0.461529
1e-06 0.508078 0.45698
1e-06 0.508078 0.450228
1e-06 0.508078 0.445699
0.342025 0.508078 0.444637
0.436695 0.508078 0.447663
0.485453 0.508078 0.454924
0.508078 0.508078 0.466142
0.508078 0.508078 0.479137
1e-06 0.508078 0.458938
1e-06 0.508078 0.452162
1e-06 0.508078 0.445794
0.220281 0.508078 0.443667
0.386819 0.508078 0.449047
0.450231 0.508078 0.458578
0.485119 0.508078 0.47085
0.503116 0.508078 0.484064
0.508078 0.508078 0.496116
1e-06 1e-06 0.278348
1e-06 1e-06 0.344962
1e-06 1e-06 0.392647
0.199985 1e-06 0.421235
0.318658 1e-06 0.432531
0.388274 1e-06 0.431338
0.434025 1e-06 0.42299
0.465104 1e-06 0.412022
0.489627 1e-06 0.404306
1e-06 1e-06 0.381684
1e-06 1e-06 0.427089
1e-06 1e-06 0.455247
0.17636 1e-06 0.470132
0.34539 1e-06 0.475389
0.425353 1e-06 0.472341
0.473544 1e-06 0.462347
0.50648 1e-06 0.452892
0.508078 1e-06 0.446556
1e-06 1e-06 0.442872
1e-06 1e-06 0.469916
1e-06 1e-06 0.485702
0.15358 1e-06 0.493398
0.361245 1e-06 0.495106
0.447197 1e-06 0.495281
0.505692 1e-06 0.494697
0.508078 1e-06 0.490991
0.508078 1e-06 0.482835
1e-06 1e-06 0.476268
1e-06 1e-06 0.49191
1e-06 1e-06 0.501238
0.092251 1e-06 0.507232
0.370675 1e-06 0.508078
0.461202 1e-06 0.508078
0.508078 1e-06 0.508078
0.508078 1e-06 0.508078
0.508078 1e-06 0.503691
1e-06 0.305871 0.490439
1e-06 0.307315 0.500946
1e-06 0.306035 0.508078
1e-06 0.310275 0.508078
0.367192 0.313419 0.508078
0.466371 0.314758 0.508078
0.508078 0.322365 0.508078
0.508078 0.342681 0.508078
0.508078 0.372837 0.508078
1e-06 0.433888 0.495424
1e-06 0.440049 0.5057
1e-06 0.445127 0.508078
1e-06 0.449438 0.508078
0.34586 0.450833 0.508078
0.458329 0.449523 0.508078
0.508078 0.447404 0.508078
0.508078 0.450367 0.506702
0.508078 0.458558 0.501451
1e-06 0.502193 0.499079
1e-06 0.508078 0.506363
1e-06 0.508078 0.506433
1e-06 0.508078 0.5066
0.303911 0.507881 0.505769
0.439945 0.50181 0.500685
0.496938 0.496938 0.496938
0.508078 0.494381 0.494848
0.508078 0.494263 0.494734
1e-06 0.508078 0.500516
1e-06 0.508078 0.500673
1e-06 0.508078 0.497591
1e-06 0.508078 0.492925
0.35011 0.508078 0.489048
0.438631 0.508078 0.486846
0.485001 0.508078 0.487839
0.508078 0.508078 0.491294
0.508078 0.507317 0.495906
1e-06 0.508078 0.492328
1e-06 0.508078 0.488373
1e-06 0.508078 0.48409
0.275386 0.508078 0.481332
0.403257 0.508078 0.48208
0.45844 0.508078 0.485437
0.488567 0.508078 0.490928
0.50351 0.508078 0.497621
0.508078 0.508078 0.503999
1e-06 1e-06 0.326235
1e-06 1e-06 0.38466
1e-06 1e-06 0.425833
0.106216 1e-06 0.449816
0.288367 1e-06 0.45898
0.366779 1e-06 0.4576
0.416402 1e-06 0.449646
0.451898 1e-06 0.440778
0.480517 1e-06 0.434825
1e-06 1e-06 0.418212
1e-06 1e-06 0.460531
1e-06 1e-06 0.487168
1e-06 1e-06 0.500112
0.311907 1e-06 0.502037
0.401331 1e-06 0.496611
0.455684 1e-06 0.489488
0.493941 1e-06 0.482733
0.508078 1e-06 0.477534
1e-06 1e-06 0.47587
1e-06 1e-06 0.506738
1e-06 1e-06 0.508078
1e-06 1e-06 0.508078
0.34679 1e-06 0.508078
0.438039 1e-06 0.508078
0.496503 1e-06 0.508078
0.508078 1e-06 0.508078
0.508078 1e-06 0.508078
1e-06 1e-06 0.508078
1e-06 1e-06 0.508078
1e-06 1e-06 0.508078
0.071564 1e-06 0.508078
0.367824 1e-06 0.508078
0.457489 1e-06 0.508078
0.508078 1e-06 0.508078
0.508078 1e-06 0.508078
0.508078 1e-06 0.508078
1e-06 0.247988 0.508078
1e-06 0.285247 0.508078
1e-06 0.302426 0.508078
1e-06 0.312408 0.508078
0.369465 0.317886 0.508078
0.463381 0.323056 0.508078
0.508078 0.333885 0.508078
0.508078 0.356346 0.508078
0.508078 0.383394 0.508078
1e-06 0.423305 0.508078
1e-06 0.437488 0.508078
1e-06 0.444651 0.508078
1e-06 0.448835 0.508078
0.357297 0.450362 0.508078
0.458352 0.44955 0.508078
0.508078 0.448851 0.508078
0.508078 0.452731 0.508078
0.508078 0.460175 0.508078
1e-06 0.498727 0.506942
1e-06 0.508078 0.506375
1e-06 0.508078 0.506452
1e-06 0.508078 0.506653
0.338243 0.503526 0.507268
0.443415 0.497429 0.50801
0.494619 0.492722 0.508078
0.508078 0.491022 0.508078
0.508078 0.492332 0.508078
1e-06 0.508078 0.506387
1e-06 0.508078 0.506425
1e-06 0.508078 0.506513
1e-06 0.508078 0.50674
0.372104 0.508078 0.507074
0.445924 0.508078 0.507452
0.486103 0.508078 0.507811
0.506016 0.506017 0.506016
0.508078 0.505388 0.505475
1e-06 0.508078 0.506459
1e-06 0.508078 0.506556
1e-06 0.508078 0.506708
0.327292 0.508078 0.506952
0.422265 0.508078 0.503991
0.468354 0.508078 0.502635
0.493082 0.508078 0.503136
0.50478 0.508078 0.505151
0.507967 0.508038 0.507398
1e-06 1e-06 0.367593
1e-06 1e-06 0.417639
1e-06 1e-06 0.451729
1e-06 1e-06 0.470689
0.248021 1e-06 0.4776
0.341648 1e-06 0.475689
0.397143 1e-06 0.46902
0.438064 1e-06 0.463304
0.470498 1e-06 0.459298
1e-06 1e-06 0.446455
1e-06 1e-06 0.480426
1e-06 1e-06 0.501739
1e-06 1e-06 0.508078
0.270798 1e-06 0.508078
0.376474 1e-06 0.508078
0.437684 1e-06 0.508078
0.480595 1e-06 0.505286
0.508078 1e-06 0.501656
1e-06 1e-06 0.495593
1e-06 1e-06 0.508078
1e-06 1e-06 0.508078
1e-06 1e-06 0.508078
0.336091 1e-06 0.508078
0.426332 1e-06 0.508078
0.48346 1e-06 0.508078
0.508078 1e-06 0.508078
0.508078 1e-06 0.508078
1e-06 1e-06 0.508078
1e-06 1e-06 0.508078
1e-06 1e-06 0.508078
0.118187 1e-06 0.508078
0.366682 1e-06 0.508078
0.453859 1e-06 0.508078
0.508078 1e-06 0.508078
0.508078 1e-06 0.508078
0.508078 1e-06 0.508078
1e-06 0.239836 0.508078
1e-06 0.283213 0.508078
1e-06 0.304613 0.508078
0.008014 0.316033 0.508078
0.372657 0.323989 0.508078
0.46095 0.333054 0.508078
0.508078 0.348287 0.508078
0.508078 0.372762 0.508078
0.508078 0.39865 0.508078
1e-06 0.420383 0.508078
1e-06 0.435137 0.508078
1e-06 0.444117 0.508078
1e-06 0.448477 0.508078
0.370769 0.450504 0.508078
0.45953 0.451005 0.508078
0.507737 0.452673 0.508078
0.508078 0.457993 0.508078
0.508078 0.466284 0.508078
1e-06 0.496703 0.507059
1e-06 0.505495 0.506627
1e-06 0.508078 0.50655
1e-06 0.505021 0.506934
0.369547 0.499948 0.507536
0.451896 0.495295 0.508078
0.494309 0.492365 0.508078
0.508078 0.492239 0.508078
0.508078 0.494937 0.508078
1e-06 0.508078 0.506415
1e-06 0.508078 0.506477
1e-06 0.508078 0.506596
0.254091 0.508078 0.506843
0.400854 0.508078 0.507189
0.45875 0.508078 0.507551
0.490089 0.507168 0.507914
0.505468 0.505122 0.508078
0.508078 0.505302 0.508078
1e-06 0.508078 0.506522
1e-06 0.508078 0.506656
0.255106 0.508078 0.506844
0.379587 0.508078 0.507101
0.444143 0.508078 0.507439
0.479604 0.508078 0.507743
0.498307 0.508078 0.507952
0.506364 0.507805 0.50777
0.508078 0.508078 0.508078
