resources/flame/Syncolor/Shared/transforms/camera_manufacturer_luts/arri/ARRI_Alexa_LUTs/ARRI_HDR_Lookfiles_3DLUTs_190319/3D_LUTs_to_simulate_SDR_in_HDR/ARRI_Rec2020-100-in-PQ.cube
LUT_3D_SIZE 9
1e-06 1e-06 1e-06
0.004308 6.8e-05 2e-05
0.046299 0.00087 0.000192
0.12715 0.004941 0.001069
0.220712 0.023639 0.005857
0.309888 0.073623 0.022582
0.387617 0.133312 0.058983
0.448952 0.182683 0.102193
0.494501 0.220477 0.136036
0.002389 0.023226 0.000647
0.033697 0.038892 1e-06
0.111233 0.047296 6.6e-05
0.206594 0.055953 0.003415
0.298402 0.082443 0.018387
0.377212 0.127389 0.05223
0.442142 0.177113 0.097249
0.492366 0.219008 0.134385
0.507252 0.234141 0.145406
0.009044 0.121898 1e-06
0.055366 0.145875 1e-06
0.152812 0.162483 1e-06
0.257571 0.178057 0.000727
0.348443 0.198314 0.023763
0.419766 0.224066 0.069834
0.474963 0.252392 0.113904
0.507487 0.274647 0.139461
0.507551 0.283124 0.13777
0.06186 0.249279 1e-06
0.109769 0.275085 1e-06
0.19562 0.292417 1e-06
0.29338 0.304543 1e-06
0.377364 0.315826 1e-06
0.44262 0.328943 0.037367
0.492097 0.343827 0.096628
0.508078 0.353871 0.111716
0.508078 0.361385 0.106743
0.154052 0.365266 1e-06
0.182393 0.38321 1e-06
0.243266 0.394911 1e-06
0.323236 0.402449 1e-06
0.39649 0.408411 1e-06
0.455782 0.41497 1e-06
0.503441 0.422825 1e-06
0.508078 0.427786 0.001636
0.508078 0.432882 1e-06
0.226665 0.451518 1e-06
0.246271 0.461665 1e-06
0.291505 0.468115 1e-06
0.354288 0.472589 1e-06
0.415497 0.47677 1e-06
0.468886 0.481193 1e-06
0.508078 0.485854 1e-06
0.508078 0.487365 1e-06
0.508078 0.487527 1e-06
0.278876 0.508078 1e-06
0.299059 0.508078 1e-06
0.336912 0.508078 1e-06
0.385235 0.508078 1e-06
0.433264 0.508078 1e-06
0.476373 0.508078 1e-06
0.508078 0.508078 1e-06
0.508078 0.508078 1e-06
0.508078 0.508078 1e-06
0.297383 0.508078 1e-06
0.31752 0.508078 1e-06
0.349449 0.508078 1e-06
0.387895 0.508078 1e-06
0.428257 0.508078 1e-06
0.466885 0.508078 1e-06
0.500231 0.508078 1e-06
0.508078 0.508078 1e-06
0.508078 0.508078 0.180089
0.303236 0.508078 1e-06
0.322261 0.508078 1e-06
0.349248 0.508078 1e-06
0.383748 0.508078 1e-06
0.421767 0.508078 1e-06
0.45828 0.508078 1e-06
0.488631 0.508078 1e-06
0.508078 0.508078 0.247768
0.508078 0.508078 0.336831
1e-06 1e-06 0.001535
0.011568 1e-06 0.013932
0.07193 1e-06 0.030493
0.163075 0.001881 0.041814
0.25747 0.030233 0.050928
0.342221 0.093628 0.065553
0.41386 0.152989 0.090135
0.468721 0.198746 0.119362
0.507238 0.231165 0.146298
4.7e-05 0.024308 0.025248
0.032892 0.032892 0.032892
0.125748 0.036238 0.031907
0.231926 0.045933 0.025244
0.322563 0.08445 0.028745
0.397666 0.141276 0.0658
0.457156 0.189421 0.108191
0.503353 0.227931 0.142761
0.50724 0.233104 0.15089
0.008192 0.132273 0.032912
0.040492 0.152207 0.014313
0.156648 0.166232 1e-06
0.271091 0.179755 0.002218
0.362525 0.199881 0.031294
0.43185 0.226831 0.0802
0.48342 0.255687 0.120988
0.507474 0.274319 0.147629
0.507514 0.282108 0.158916
0.069914 0.263417 0.006307
0.097351 0.285703 1e-06
0.19107 0.299338 1e-06
0.297029 0.308223 1e-06
0.383963 0.317765 1e-06
0.4492 0.33041 0.045123
0.497894 0.345105 0.116905
0.508078 0.353517 0.140754
0.508078 0.360372 0.155291
0.161572 0.375704 1e-06
0.180143 0.390869 1e-06
0.239144 0.40007 1e-06
0.322402 0.405703 1e-06
0.398596 0.410528 1e-06
0.459811 0.416369 1e-06
0.508078 0.423727 0.070179
0.508078 0.427723 0.102692
0.508078 0.432396 0.134959
0.230988 0.457477 1e-06
0.246119 0.465863 1e-06
0.289149 0.47121 1e-06
0.352175 0.475375 1e-06
0.415293 0.479061 1e-06
0.470631 0.482844 1e-06
0.508078 0.486466 1e-06
0.508078 0.486875 1e-06
0.508078 0.486291 0.116544
0.280921 0.508078 1e-06
0.298205 0.508078 1e-06
0.334254 0.508078 1e-06
0.38139 0.508078 1e-06
0.430132 0.508078 1e-06
0.474762 0.508078 1e-06
0.508078 0.508078 1e-06
0.508078 0.508078 1e-06
0.508078 0.508078 0.185142
0.29325 0.508078 1e-06
0.311049 0.508078 1e-06
0.3417 0.508078 1e-06
0.380929 0.508078 1e-06
0.423779 0.508078 1e-06
0.464419 0.508078 1e-06
0.498528 0.508078 1e-06
0.508078 0.508078 0.20931
0.508078 0.508078 0.301126
0.297108 0.508078 9.1e-05
0.314188 0.508078 1e-06
0.341687 0.508078 1e-06
0.378695 0.508078 1e-06
0.419783 0.508078 1e-06
0.458331 0.508078 0.119296
0.488262 0.508078 0.257503
0.508078 0.508078 0.334264
0.508078 0.508078 0.391515
1e-06 1e-06 0.022214
0.018289 1e-06 0.064241
0.093182 1e-06 0.103207
0.192124 1e-06 0.13288
0.286169 0.006021 0.153784
0.366927 0.084498 0.169001
0.432712 0.153698 0.181851
0.481851 0.20078 0.193878
0.507099 0.224132 0.202363
1e-06 0.014138 0.0883
0.022007 0.005375 0.119921
0.133907 1e-06 0.143247
0.248414 1e-06 0.157658
0.339434 0.050523 0.165419
0.411495 0.132995 0.176014
0.466976 0.186333 0.191707
0.507076 0.22289 0.209037
0.50706 0.224122 0.216137
0.000523 0.130808 0.133143
0.008497 0.143337 0.145602
0.152583 0.152583 0.152583
0.276081 0.166038 0.158438
0.372522 0.189508 0.167378
0.439205 0.220367 0.184994
0.488577 0.251195 0.206786
0.507262 0.267966 0.223217
0.507268 0.275269 0.235263
0.061645 0.27083 0.155085
0.079729 0.289555 0.149897
0.184038 0.299058 0.145946
0.297275 0.306508 0.149009
0.388177 0.315767 0.160078
0.453695 0.328103 0.18824
0.502931 0.342899 0.216487
0.508075 0.349905 0.232748
0.508078 0.35644 0.24741
0.160563 0.381821 0.15691
0.17261 0.394507 0.137618
0.232237 0.402198 0.118697
0.319563 0.406791 0.116701
0.399607 0.410725 0.14028
0.462933 0.415802 0.17808
0.508078 0.422462 0.212056
0.508078 0.425792 0.231545
0.508078 0.430532 0.255058
0.229857 0.460643 0.148761
0.242667 0.467797 0.127409
0.284403 0.472989 0.106839
0.348521 0.476901 0.099305
0.414011 0.480164 0.118365
0.471643 0.483329 0.157315
0.508078 0.485779 0.198823
0.508078 0.485031 0.231406
0.508078 0.484061 0.269179
0.279231 0.508078 0.162232
0.295244 0.508078 0.143252
0.328749 0.508078 0.126771
0.375899 0.508078 0.102356
0.425794 0.508078 0.072367
0.472485 0.508078 0.11096
0.508078 0.508078 0.189893
0.508078 0.508078 0.251129
0.508078 0.508078 0.310404
0.286914 0.508078 0.236478
0.303282 0.508078 0.208888
0.333467 0.508078 0.168866
0.3749 0.508078 0.131881
0.42021 0.508078 0.135513
0.462531 0.508078 0.190862
0.496865 0.508078 0.261399
0.508078 0.508078 0.321683
0.508078 0.508078 0.3717
0.289534 0.508078 0.250073
0.306123 0.508078 0.212929
0.335331 0.508078 0.181422
0.375816 0.508078 0.183991
0.420338 0.508078 0.231792
0.459486 0.508078 0.291796
0.48833 0.508078 0.345478
0.506854 0.508078 0.392389
0.508078 0.508078 0.432057
1e-06 1e-06 0.073081
0.017337 1e-06 0.134274
0.104535 1e-06 0.185747
0.211818 1e-06 0.223635
0.305952 1e-06 0.248448
0.383594 1e-06 0.263767
0.444306 0.106295 0.27199
0.489033 0.177443 0.275913
0.506709 0.200727 0.276463
1e-06 1e-06 0.16704
1e-06 1e-06 0.214829
0.125796 1e-06 0.247523
0.253696 1e-06 0.266
0.347766 1e-06 0.275315
0.418323 0.00902 0.280885
0.471556 0.140084 0.286646
0.506572 0.190761 0.292707
0.506553 0.192978 0.296072
1e-06 0.087614 0.229842
1e-06 0.064837 0.258611
0.12764 0.045343 0.274277
0.275245 0.057675 0.285194
0.374847 0.118562 0.292021
0.441497 0.180319 0.296336
0.490513 0.226116 0.303625
0.506636 0.245917 0.310804
0.506618 0.2543 0.317738
0.005708 0.265467 0.26819
0.007092 0.279213 0.281968
0.160653 0.285849 0.288054
0.292629 0.292629 0.292629
0.38626 0.302653 0.298121
0.456477 0.316141 0.305044
0.505651 0.332946 0.31574
0.507343 0.339405 0.323316
0.507355 0.346451 0.331867
0.138521 0.381535 0.287568
0.149263 0.392084 0.290846
0.216765 0.398802 0.291161
0.315033 0.401947 0.294449
0.397972 0.405842 0.29964
0.464619 0.411229 0.304703
0.508078 0.417415 0.316926
0.508078 0.420641 0.3279
0.508078 0.426001 0.343595
0.218359 0.460195 0.299473
0.230835 0.466725 0.299153
0.275083 0.471976 0.296927
0.342025 0.47611 0.293952
0.410718 0.479329 0.293092
0.471484 0.481713 0.300024
0.508078 0.482884 0.316285
0.508078 0.481243 0.33286
0.508078 0.480361 0.356219
0.271751 0.508078 0.313752
0.287444 0.508078 0.311818
0.320146 0.508078 0.308174
0.368024 0.508078 0.299319
0.420585 0.508078 0.292157
0.469472 0.508078 0.296068
0.508078 0.508078 0.317227
0.508078 0.508078 0.347939
0.508078 0.508078 0.382035
0.276091 0.508078 0.338119
0.292484 0.508078 0.32529
0.32452 0.508078 0.311433
0.368987 0.508078 0.301602
0.417005 0.508078 0.30256
0.460978 0.508078 0.321156
0.495042 0.508078 0.352973
0.508078 0.508078 0.387602
0.508078 0.508078 0.420481
0.279125 0.508078 0.33698
0.297081 0.508078 0.320651
0.33017 0.508078 0.311152
0.375835 0.508078 0.316973
0.423268 0.508078 0.340499
0.461561 0.508078 0.370668
0.488827 0.508078 0.402977
0.505603 0.508078 0.434278
0.508078 0.508078 0.461999
1e-06 1e-06 0.142351
0.000295 1e-06 0.211507
0.096799 1e-06 0.265913
0.219625 1e-06 0.304637
0.316682 1e-06 0.329618
0.392161 1e-06 0.342995
0.449234 1e-06 0.347817
0.490772 0.027442 0.347258
0.505944 0.119642 0.343761
1e-06 1e-06 0.246533
1e-06 1e-06 0.295993
0.065941 1e-06 0.330585
0.246087 1e-06 0.351034
0.347275 1e-06 0.360478
0.418534 1e-06 0.363591
0.47109 1e-06 0.364715
0.505554 0.001566 0.365467
0.505567 0.029486 0.365694
1e-06 1e-06 0.314086
1e-06 1e-06 0.346267
1e-06 1e-06 0.368442
0.262585 1e-06 0.378882
0.368972 1e-06 0.381394
0.43852 1e-06 0.381246
0.489416 0.112666 0.382557
0.505389 0.173493 0.384663
0.505382 0.192665 0.387495
1e-06 0.232975 0.355165
1e-06 0.237194 0.372916
0.049015 0.238497 0.384111
0.279293 0.247539 0.387062
0.382006 0.262131 0.39051
0.454793 0.281841 0.393741
0.505721 0.306819 0.39613
0.505898 0.315291 0.398236
0.505938 0.325685 0.401753
0.026525 0.37215 0.375089
0.029481 0.380484 0.383437
0.178764 0.38602 0.38875
0.304205 0.389282 0.391125
0.393627 0.393627 0.393627
0.462117 0.3995 0.396568
0.507499 0.405887 0.399846
0.507515 0.410507 0.40491
0.50754 0.417687 0.412735
0.185542 0.4553 0.385586
0.20098 0.461698 0.389203
0.256208 0.466939 0.391124
0.330985 0.47136 0.391239
0.406491 0.47363 0.393064
0.468997 0.475611 0.396395
0.508078 0.476646 0.399443
0.508078 0.474932 0.407253
0.508078 0.475072 0.419861
0.254534 0.508078 0.395617
0.270625 0.508078 0.39713
0.30635 0.508078 0.395974
0.358394 0.508078 0.391289
0.414326 0.508078 0.385969
0.465379 0.508078 0.385421
0.505558 0.508078 0.395551
0.508078 0.508078 0.413069
0.508078 0.504188 0.432245
0.257144 0.508078 0.406583
0.276007 0.508078 0.399408
0.313368 0.508078 0.391988
0.363105 0.508078 0.386354
0.414608 0.508078 0.386404
0.460025 0.508078 0.396605
0.493229 0.508078 0.413343
0.508078 0.508078 0.433882
0.508078 0.508078 0.45502
0.263248 0.508078 0.400241
0.285715 0.508078 0.391261
0.326664 0.508078 0.387267
0.379498 0.508078 0.392898
0.427471 0.508078 0.405619
0.464297 0.508078 0.422921
0.489721 0.508078 0.443069
0.504719 0.508078 0.463869
0.508078 0.508078 0.482773
1e-06 1e-06 0.217684
1e-06 1e-06 0.286011
0.033511 1e-06 0.338136
0.213097 1e-06 0.37453
0.317995 1e-06 0.396676
0.393201 1e-06 0.406756
0.448002 1e-06 0.408137
0.487544 1e-06 0.404325
0.50475 1e-06 0.398846
1e-06 1e-06 0.319528
1e-06 1e-06 0.366675
1e-06 1e-06 0.398978
0.219957 1e-06 0.417074
0.337792 1e-06 0.424812
0.413005 1e-06 0.426694
0.466314 1e-06 0.425236
0.503923 1e-06 0.424143
0.504002 1e-06 0.422593
1e-06 1e-06 0.384291
1e-06 1e-06 0.414622
1e-06 1e-06 0.43361
0.229033 1e-06 0.443159
0.356329 1e-06 0.445471
0.431645 1e-06 0.44485
0.4854 1e-06 0.444161
0.503371 1e-06 0.444179
0.503414 1e-06 0.444672
1e-06 0.037666 0.422386
1e-06 1e-06 0.440002
1e-06 1e-06 0.450924
0.249474 1e-06 0.457526
0.372899 1e-06 0.460023
0.448627 0.159474 0.45989
0.50281 0.235667 0.45961
0.503546 0.258064 0.458737
0.503744 0.28314 0.458171
1e-06 0.349528 0.440385
1e-06 0.355377 0.449837
0.023811 0.359324 0.456894
0.27979 0.36241 0.462229
0.385349 0.368022 0.463323
0.458281 0.37516 0.465334
0.504809 0.384117 0.466448
0.505051 0.393054 0.46578
0.505329 0.405149 0.4667
0.062734 0.445539 0.448587
0.107416 0.451464 0.454497
0.216806 0.456392 0.459277
0.313989 0.460408 0.462881
0.399539 0.462617 0.464141
0.464757 0.464757 0.464757
0.507769 0.46628 0.464568
0.507766 0.465801 0.464065
0.507784 0.468688 0.467096
0.217694 0.508078 0.456122
0.238276 0.508078 0.459609
0.284448 0.508078 0.460666
0.346476 0.508078 0.458397
0.407446 0.508078 0.454392
0.461916 0.508078 0.453372
0.501188 0.505901 0.456086
0.508078 0.501821 0.460404
0.508078 0.499329 0.468961
0.221634 0.508078 0.460341
0.249016 0.508078 0.456561
0.299254 0.508078 0.451855
0.358382 0.508078 0.447632
0.414777 0.508078 0.446543
0.459704 0.508078 0.449381
0.491576 0.508078 0.456312
0.508078 0.508078 0.467123
0.508078 0.508078 0.479684
0.237401 0.508078 0.450813
0.271733 0.508078 0.445197
0.327049 0.508078 0.442769
0.385893 0.508078 0.445038
0.433258 0.508078 0.450846
0.467985 0.508078 0.459896
0.491324 0.508078 0.471743
0.504386 0.508078 0.484579
0.508078 0.508078 0.496349
1e-06 1e-06 0.291524
1e-06 1e-06 0.354945
1e-06 1e-06 0.401867
0.181204 1e-06 0.433367
0.308645 1e-06 0.450598
0.386654 1e-06 0.45663
0.441118 1e-06 0.454982
0.48013 1e-06 0.448905
0.503109 1e-06 0.443694
1e-06 1e-06 0.385136
1e-06 1e-06 0.426465
1e-06 1e-06 0.453485
0.150156 1e-06 0.468345
0.320076 1e-06 0.474569
0.402478 1e-06 0.474941
0.459078 1e-06 0.473043
0.501655 1e-06 0.471172
0.50182 1e-06 0.468819
1e-06 1e-06 0.442385
1e-06 1e-06 0.467602
1e-06 1e-06 0.483623
0.149575 1e-06 0.491388
0.337652 1e-06 0.493064
0.421197 1e-06 0.493017
0.479117 1e-06 0.492696
0.500508 1e-06 0.492218
0.500667 1e-06 0.4911
1e-06 1e-06 0.475185
1e-06 1e-06 0.489961
1e-06 1e-06 0.499436
0.194386 1e-06 0.505425
0.356935 1e-06 0.508078
0.439438 1e-06 0.508078
0.497078 1e-06 0.508078
0.500298 1e-06 0.50639
0.500841 0.160206 0.502504
1e-06 0.302778 0.490313
1e-06 0.305506 0.499441
1e-06 0.305832 0.507681
0.247042 0.313691 0.508078
0.37428 0.324017 0.508078
0.452854 0.336685 0.508078
0.501631 0.353589 0.508078
0.5019 0.367709 0.508078
0.502693 0.39025 0.506864
1e-06 0.429593 0.497781
1e-06 0.434647 0.504875
0.111448 0.440108 0.508078
0.296488 0.445347 0.508078
0.39097 0.448749 0.508078
0.459766 0.450859 0.508078
0.504629 0.452694 0.508078
0.50501 0.455285 0.505926
0.505693 0.462555 0.500801
0.101106 0.501024 0.504136
0.166924 0.503491 0.506565
0.254509 0.503688 0.506629
0.334403 0.504137 0.506775
0.402009 0.503827 0.505905
0.458939 0.499647 0.500742
0.496911 0.496911 0.496911
0.507969 0.495234 0.494786
0.507968 0.495124 0.494671
0.132316 0.503982 0.50423
0.20009 0.504566 0.502019
0.283643 0.505703 0.49799
0.357986 0.507203 0.493389
0.417629 0.508078 0.489566
0.460812 0.508078 0.48737
0.491222 0.508078 0.488291
0.507958 0.508078 0.4916
0.508078 0.5073 0.496072
0.193316 0.50668 0.491628
0.259169 0.50773 0.486968
0.333891 0.508078 0.483463
0.395675 0.508078 0.48198
0.441154 0.508078 0.482754
0.473196 0.508078 0.485977
0.493757 0.508078 0.491304
0.504665 0.508078 0.497831
0.508078 0.508078 0.504073
1e-06 1e-06 0.357517
1e-06 1e-06 0.414346
1e-06 1e-06 0.45483
0.0343 1e-06 0.479979
0.285562 1e-06 0.492114
0.372765 1e-06 0.494715
0.429202 1e-06 0.490631
0.47067 1e-06 0.484695
0.50105 1e-06 0.480356
1e-06 1e-06 0.441385
1e-06 1e-06 0.476545
1e-06 1e-06 0.498021
1e-06 1e-06 0.508078
0.293199 1e-06 0.508078
0.388092 1e-06 0.508078
0.449219 1e-06 0.508078
0.494762 1e-06 0.508078
0.499049 1e-06 0.506468
1e-06 1e-06 0.489951
1e-06 1e-06 0.508078
1e-06 1e-06 0.508078
1e-06 1e-06 0.508078
0.324214 1e-06 0.508078
0.413423 1e-06 0.508078
0.473754 1e-06 0.508078
0.498803 1e-06 0.508078
0.498898 1e-06 0.508078
1e-06 1e-06 0.508078
1e-06 1e-06 0.508078
1e-06 1e-06 0.508078
0.192698 1e-06 0.508078
0.355016 1e-06 0.508078
0.43624 1e-06 0.508078
0.492741 1e-06 0.508078
0.499885 1e-06 0.508078
0.500152 0.143586 0.508078
1e-06 0.261291 0.508078
1e-06 0.285636 0.508078
1e-06 0.302799 0.508078
0.258477 0.315954 0.508078
0.37634 0.327942 0.508078
0.450688 0.342457 0.508078
0.501776 0.361479 0.508078
0.502114 0.377719 0.508078
0.502642 0.398721 0.508078
1e-06 0.424262 0.508078
1e-06 0.432772 0.508078
0.150114 0.439683 0.508078
0.307576 0.444916 0.508078
0.396378 0.44849 0.508078
0.459788 0.450886 0.508078
0.503242 0.453831 0.508078
0.504858 0.457425 0.508078
0.505199 0.464084 0.508078
0.080515 0.500304 0.506666
0.178748 0.503508 0.506571
0.267913 0.50374 0.506646
0.345864 0.503975 0.506819
0.410538 0.49982 0.507299
0.460365 0.495618 0.50789
0.494932 0.492989 0.508078
0.506901 0.492211 0.508078
0.506985 0.493422 0.508078
0.133586 0.503455 0.506553
0.209868 0.503564 0.506589
0.297806 0.503884 0.506693
0.371776 0.504517 0.5069
0.426423 0.505413 0.507193
0.465226 0.50642 0.507526
0.491978 0.507374 0.507843
0.506011 0.506011 0.506011
0.508056 0.505547 0.505463
0.182305 0.503513 0.506572
0.272449 0.503759 0.506652
0.350327 0.504281 0.506823
0.409226 0.505076 0.507083
0.451281 0.506733 0.504148
0.479717 0.507978 0.502784
0.496993 0.508078 0.503248
0.505605 0.508078 0.50521
0.507954 0.508026 0.507407
1e-06 1e-06 0.414063
1e-06 1e-06 0.463133
1e-06 1e-06 0.496407
1e-06 1e-06 0.508078
0.258409 1e-06 0.508078
0.356898 1e-06 0.508078
0.415423 1e-06 0.508078
0.460069 1e-06 0.508078
0.496464 1e-06 0.508078
1e-06 1e-06 0.486335
1e-06 1e-06 0.508078
1e-06 1e-06 0.508078
1e-06 1e-06 0.508078
0.283216 1e-06 0.508078
0.380606 1e-06 0.508078
0.442641 1e-06 0.508078
0.488931 1e-06 0.508078
0.498496 1e-06 0.508078
1e-06 1e-06 0.508078
1e-06 1e-06 0.508078
1e-06 1e-06 0.508078
0.000169 1e-06 0.508078
0.32106 1e-06 0.508078
0.40989 1e-06 0.508078
0.47019 1e-06 0.508078
0.498853 1e-06 0.508078
0.498975 1e-06 0.508078
1e-06 1e-06 0.508078
1e-06 1e-06 0.508078
1e-06 1e-06 0.508078
0.20503 1e-06 0.508078
0.354784 1e-06 0.508078
0.433356 1e-06 0.508078
0.488003 1e-06 0.508078
0.500026 0.001242 0.508078
0.500369 0.220801 0.508078
1e-06 0.262753 0.508078
1e-06 0.287748 0.508078
1e-06 0.305383 0.508078
0.270788 0.319634 0.508078
0.379253 0.333359 0.508078
0.449169 0.349857 0.508078
0.497984 0.370872 0.508078
0.502418 0.390332 0.508078
0.503004 0.410918 0.508078
1e-06 0.423997 0.508078
1e-06 0.432807 0.508078
0.18509 0.439457 0.508078
0.321799 0.444781 0.508078
0.403436 0.448887 0.508078
0.460923 0.452296 0.508078
0.499084 0.456822 0.508078
0.505096 0.462126 0.508078
0.505497 0.469588 0.508078
0.096843 0.499536 0.506699
0.19706 0.503511 0.506582
0.285754 0.503109 0.506701
0.361112 0.500294 0.507022
0.421346 0.496656 0.507496
0.46527 0.493814 0.508011
0.494631 0.492639 0.508078
0.506979 0.493336 0.508078
0.507155 0.495835 0.508078
0.15527 0.503477 0.506561
0.239382 0.503639 0.506613
0.325364 0.504065 0.506752
0.392133 0.504795 0.50699
0.439864 0.505719 0.507294
0.473364 0.506684 0.507614
0.494582 0.506453 0.507921
0.505525 0.50517 0.508078
0.507874 0.505482 0.508078
0.224368 0.503598 0.5066
0.310193 0.503959 0.506717
0.377907 0.504595 0.506925
0.428731 0.505462 0.50721
0.464162 0.506387 0.507515
0.487406 0.507193 0.507783
0.500801 0.507746 0.507967
0.506715 0.507738 0.507771
0.508078 0.508078 0.508078
