create_logik_projekt/presets/Syncolor/transforms/r3d/IPP2-Cubes-SDR-Core-V1_13/REC2020/RWG_Log3G10 to REC2020_BT1886 with HIGH_CONTRAST and R_1_Hard size_33 v1.13.cube
# RED Digital Cinema Output Transform LUT for IPP2
# LUT Name = RWG_Log3G10 to REC2020_BT1886 with HIGH_CONTRAST and R_1_Hard size_33 v1.13
# Generated by version 1.13
# Settings used in creation of this LUT are:
# Development Color Space = REC2020
# Output Gamma Curve = BT1886
# Output Tonemap = HIGH_CONTRAST
# Highlight Rolloff = Rolloff 1 - hard
# Resolution = 33 x 33 x 33
TITLE "RED IPP2 LUT to map REDWideGamutRGB/Log3G10 to REC2020/BT1886/HIGH_CONTRAST/Rolloff 1 - hard"
LUT_3D_SIZE 33
0.000000 0.000000 0.000000
0.000001 0.000000 0.000000
0.000008 0.000000 0.000000
0.013580 0.003505 0.003505
0.049586 0.003505 0.003505
0.081294 0.003505 0.003505
0.117495 0.004021 0.003761
0.163671 0.007795 0.005848
0.221401 0.018614 0.012462
0.292081 0.032677 0.022513
0.378005 0.049126 0.034418
0.490141 0.069776 0.049457
0.642200 0.097653 0.069771
0.779049 0.134178 0.096179
0.871236 0.184554 0.133355
0.928233 0.246292 0.188696
0.961334 0.321773 0.262796
0.979807 0.414804 0.351877
0.989735 0.528522 0.459748
0.994865 0.661367 0.587109
0.997550 0.774637 0.722218
0.998907 0.851879 0.817650
0.999583 0.901399 0.879015
0.999931 0.933394 0.918587
1.000002 0.953513 0.943377
1.000002 0.966777 0.959655
1.000002 0.975401 0.970197
1.000002 0.981297 0.977381
1.000002 0.985326 0.982275
1.000002 0.988095 0.985630
1.000002 0.990115 0.988072
1.000002 0.991672 0.989953
1.000002 0.993023 0.991581
0.000000 0.000001 0.000000
0.000001 0.000001 0.000000
0.000010 0.000001 0.000000
0.017613 0.003505 0.003505
0.050407 0.003505 0.003505
0.081738 0.003505 0.003505
0.117797 0.004717 0.003721
0.163909 0.010312 0.005691
0.221621 0.021692 0.012115
0.292312 0.035595 0.022151
0.378272 0.051764 0.034080
0.490521 0.072114 0.049170
0.642659 0.099720 0.069540
0.779387 0.136071 0.096011
0.871463 0.186026 0.133264
0.928375 0.247379 0.188709
0.961420 0.322656 0.262947
0.979857 0.415596 0.352150
0.989762 0.529302 0.460149
0.994879 0.662108 0.587647
0.997558 0.775136 0.722706
0.998912 0.852214 0.818010
0.999585 0.901627 0.879272
0.999933 0.933552 0.918770
1.000002 0.953626 0.943510
1.000002 0.966860 0.959753
1.000002 0.975463 0.970271
1.000002 0.981346 0.977439
1.000002 0.985366 0.982322
1.000002 0.988127 0.985668
1.000002 0.990142 0.988105
1.000002 0.991696 0.989981
1.000002 0.993043 0.991605
0.000000 0.000040 0.000000
0.000001 0.000037 0.000000
0.000013 0.000033 0.000000
0.021588 0.003505 0.003505
0.051488 0.003505 0.003505
0.082333 0.004298 0.003505
0.118203 0.007522 0.003721
0.164230 0.015600 0.005495
0.221917 0.026673 0.011646
0.292623 0.040001 0.021658
0.378631 0.055585 0.033623
0.491033 0.075430 0.048781
0.643277 0.102621 0.069225
0.779842 0.138708 0.095782
0.871769 0.188030 0.133137
0.928568 0.248863 0.188724
0.961535 0.323862 0.263148
0.979923 0.416675 0.352518
0.989799 0.530364 0.460689
0.994900 0.663110 0.588374
0.997569 0.775812 0.723365
0.998918 0.852666 0.818494
0.999589 0.901935 0.879619
0.999935 0.933765 0.919017
1.000002 0.953778 0.943689
1.000002 0.966972 0.959886
1.000002 0.975548 0.970372
1.000002 0.981412 0.977518
1.000002 0.985418 0.982384
1.000002 0.988171 0.985720
1.000002 0.990179 0.988149
1.000002 0.991727 0.990019
1.000002 0.993070 0.991637
0.003505 0.039311 0.003505
0.003505 0.038904 0.003505
0.003505 0.038343 0.003505
0.025681 0.037577 0.003505
0.052882 0.034841 0.003505
0.083116 0.028580 0.003505
0.118740 0.022921 0.003663
0.164655 0.026650 0.005256
0.222308 0.035130 0.011031
0.293036 0.046779 0.021005
0.379110 0.061176 0.033014
0.491715 0.080155 0.048260
0.644097 0.106688 0.068800
0.780445 0.142373 0.095470
0.872175 0.190726 0.132961
0.928823 0.250869 0.188736
0.961688 0.325491 0.263412
0.980010 0.418131 0.353006
0.989848 0.531792 0.461407
0.994927 0.664451 0.589341
0.997584 0.776711 0.724239
0.998926 0.853268 0.819136
0.999593 0.902344 0.880079
0.999937 0.934049 0.919345
1.000002 0.953981 0.943927
1.000002 0.967120 0.960061
1.000002 0.975660 0.970506
1.000002 0.981500 0.977622
1.000002 0.985488 0.982468
1.000002 0.988229 0.985790
1.000002 0.990228 0.988207
1.000002 0.991769 0.990068
1.000002 0.993106 0.991680
0.003505 0.064060 0.003505
0.003505 0.063848 0.003505
0.003505 0.063559 0.003505
0.016877 0.063170 0.003505
0.054596 0.062675 0.003505
0.084100 0.059736 0.003505
0.119419 0.055412 0.003663
0.165191 0.050480 0.004985
0.222804 0.049725 0.010273
0.293559 0.057120 0.020188
0.379716 0.069205 0.032242
0.492579 0.086703 0.047593
0.645129 0.112210 0.068253
0.781205 0.147269 0.095063
0.872686 0.194194 0.132727
0.929145 0.253464 0.188739
0.961879 0.327600 0.263738
0.980120 0.420009 0.353619
0.989909 0.533625 0.462314
0.994961 0.666156 0.590566
0.997602 0.777853 0.725343
0.998936 0.854029 0.819947
0.999599 0.902862 0.880660
0.999941 0.934407 0.919758
1.000002 0.954236 0.944227
1.000002 0.967307 0.960283
1.000002 0.975802 0.970674
1.000002 0.981610 0.977753
1.000002 0.985577 0.982573
1.000002 0.988302 0.985877
1.000002 0.990290 0.988281
1.000002 0.991822 0.990132
1.000002 0.993151 0.991734
0.003505 0.096290 0.003505
0.003663 0.096159 0.003505
0.004270 0.095982 0.003505
0.011990 0.095744 0.003505
0.048742 0.095442 0.003505
0.086295 0.094778 0.003505
0.120942 0.091650 0.003505
0.166393 0.088160 0.004516
0.223908 0.085867 0.008782
0.294723 0.086485 0.018421
0.381062 0.091621 0.030530
0.494494 0.103902 0.046092
0.647401 0.126149 0.067000
0.782873 0.158264 0.094114
0.873808 0.202102 0.132156
0.929851 0.259441 0.188692
0.962301 0.332456 0.264430
0.980363 0.424311 0.354959
0.990044 0.537797 0.464316
0.995036 0.669975 0.593282
0.997643 0.780395 0.727773
0.998958 0.855719 0.821733
0.999612 0.904007 0.881938
0.999948 0.935197 0.920668
1.000002 0.954801 0.944888
1.000002 0.967720 0.960771
1.000002 0.976115 0.971046
1.000002 0.981853 0.978042
1.000002 0.985771 0.982805
1.000002 0.988462 0.986069
1.000002 0.990426 0.988443
1.000002 0.991939 0.990271
1.000002 0.993251 0.991853
0.004393 0.136233 0.003505
0.005038 0.136139 0.003505
0.006854 0.136011 0.003505
0.014000 0.135839 0.003505
0.036649 0.135620 0.003505
0.080526 0.135137 0.003505
0.123742 0.134292 0.003505
0.168587 0.130608 0.003990
0.225902 0.127721 0.006880
0.296807 0.126791 0.015454
0.383464 0.128894 0.027505
0.497896 0.136190 0.043347
0.651364 0.152002 0.064637
0.785779 0.178047 0.092261
0.875764 0.217008 0.130955
0.931081 0.270916 0.188414
0.963038 0.341781 0.265533
0.980785 0.432492 0.357265
0.990280 0.545619 0.467836
0.995166 0.676902 0.598097
0.997714 0.784956 0.732037
0.998997 0.858727 0.824869
0.999633 0.906035 0.884183
0.999960 0.936593 0.922265
1.000002 0.955796 0.946047
1.000002 0.968447 0.961626
1.000002 0.976664 0.971697
1.000002 0.982279 0.978549
1.000002 0.986113 0.983212
1.000002 0.988745 0.986405
1.000002 0.990664 0.988728
1.000002 0.992143 0.990515
1.000002 0.993425 0.992061
0.008525 0.189471 0.003761
0.010315 0.189393 0.003761
0.013584 0.189287 0.003761
0.019607 0.189145 0.003761
0.031132 0.188963 0.003761
0.071786 0.188560 0.003761
0.117166 0.187839 0.003825
0.172407 0.186689 0.003850
0.229281 0.182290 0.005103
0.300265 0.179587 0.011183
0.387407 0.179244 0.022711
0.503402 0.182711 0.038717
0.657568 0.192690 0.060423
0.790313 0.211873 0.088751
0.878817 0.244029 0.128422
0.933006 0.292312 0.187319
0.964191 0.359207 0.266892
0.981449 0.447543 0.360731
0.990651 0.559668 0.473385
0.995371 0.688628 0.605843
0.997825 0.792519 0.738791
0.999058 0.863643 0.829841
0.999667 0.909320 0.887744
0.999980 0.938839 0.924799
1.000002 0.957390 0.947886
1.000002 0.969608 0.962983
1.000002 0.977541 0.972729
1.000002 0.982959 0.979353
1.000002 0.986656 0.983856
1.000002 0.989193 0.986937
1.000002 0.991043 0.989178
1.000002 0.992468 0.990900
1.000002 0.993702 0.992390
0.019457 0.258551 0.004385
0.021468 0.258478 0.004385
0.024559 0.258379 0.004393
0.029431 0.258245 0.004393
0.037129 0.258076 0.004410
0.062988 0.257695 0.004426
0.110243 0.257003 0.004457
0.164955 0.255851 0.004516
0.233427 0.252779 0.005161
0.305179 0.248869 0.007121
0.392845 0.245797 0.016747
0.510670 0.245842 0.032303
0.665276 0.250780 0.054053
0.795910 0.263287 0.082963
0.882595 0.287556 0.123650
0.935403 0.328044 0.184211
0.965637 0.388512 0.267490
0.982284 0.472377 0.364524
0.991118 0.582043 0.480243
0.995631 0.705591 0.615854
0.997966 0.803091 0.747393
0.999135 0.870342 0.836210
0.999710 0.913717 0.892317
1.000002 0.941812 0.928059
1.000002 0.959484 0.950253
1.000002 0.971125 0.964731
1.000002 0.978683 0.974058
1.000002 0.983842 0.980388
1.000002 0.987361 0.984686
1.000002 0.989775 0.987624
1.000002 0.991533 0.989758
1.000002 0.992887 0.991397
1.000002 0.994060 0.992814
0.036218 0.346202 0.005811
0.038110 0.346128 0.005814
0.040864 0.346028 0.005821
0.044920 0.345894 0.005831
0.050799 0.345723 0.005841
0.067588 0.345337 0.005868
0.107457 0.344629 0.005907
0.159449 0.343415 0.005972
0.225703 0.341677 0.006069
0.310289 0.337584 0.007423
0.399441 0.332684 0.011079
0.518490 0.328903 0.025138
0.672643 0.329082 0.046020
0.801167 0.335312 0.074811
0.886176 0.351408 0.115901
0.937713 0.382497 0.177541
0.967054 0.433830 0.265399
0.983115 0.510200 0.366688
0.991590 0.614752 0.486324
0.995894 0.727248 0.625839
0.998110 0.815937 0.756055
0.999214 0.878154 0.842751
0.999755 0.918696 0.897063
1.000002 0.945109 0.931461
1.000002 0.961775 0.952733
1.000002 0.972771 0.966565
1.000002 0.979913 0.975456
1.000002 0.984790 0.981478
1.000002 0.988115 0.985560
1.000002 0.990395 0.988347
1.000002 0.992056 0.990369
1.000002 0.993334 0.991921
1.000002 0.994440 0.993261
0.060964 0.456542 0.009282
0.062665 0.456464 0.009290
0.065083 0.456359 0.009298
0.068533 0.456217 0.009312
0.073331 0.456036 0.009326
0.085994 0.455627 0.009357
0.115490 0.454872 0.009411
0.160327 0.453559 0.009484
0.220883 0.451610 0.009577
0.301236 0.449131 0.009747
0.407298 0.446435 0.010292
0.525129 0.437503 0.018649
0.677476 0.432441 0.037558
0.804339 0.432403 0.065009
0.888402 0.440270 0.105122
0.939246 0.460941 0.166115
0.968056 0.500599 0.258039
0.983734 0.565726 0.364413
0.991954 0.659481 0.488528
0.996103 0.753129 0.632329
0.998227 0.830394 0.762507
0.999279 0.886427 0.847970
0.999792 0.923710 0.900985
1.000002 0.948305 0.934332
1.000002 0.963940 0.954852
1.000002 0.974298 0.968147
1.000002 0.981043 0.976668
1.000002 0.985653 0.982427
1.000002 0.988798 0.986324
1.000002 0.990956 0.988980
1.000002 0.992526 0.990905
1.000002 0.993735 0.992381
1.000002 0.994781 0.993654
0.111532 0.560067 0.020547
0.098414 0.592444 0.016672
0.100545 0.592329 0.016680
0.103541 0.592174 0.016689
0.107626 0.591975 0.016702
0.118009 0.591528 0.016727
0.138441 0.590700 0.016765
0.172601 0.589256 0.016805
0.224076 0.587081 0.016823
0.296440 0.584210 0.016849
0.394742 0.580793 0.017106
0.523533 0.577234 0.018227
0.674833 0.565604 0.030005
0.803406 0.558788 0.055205
0.887907 0.558324 0.092544
0.939178 0.568125 0.150215
0.968184 0.594300 0.242760
0.983898 0.644098 0.354400
0.992088 0.712074 0.482895
0.996196 0.782711 0.630802
0.998286 0.846004 0.763975
0.999314 0.894668 0.850118
0.999813 0.928302 0.902960
1.000002 0.951024 0.935931
1.000002 0.965679 0.956102
1.000002 0.975476 0.969117
1.000002 0.981889 0.977431
1.000002 0.986287 0.983036
1.000002 0.989294 0.986820
1.000002 0.991359 0.989396
1.000002 0.992863 0.991260
1.000002 0.994022 0.992688
1.000002 0.995024 0.993918
0.149541 0.736918 0.028458
0.150686 0.736855 0.028461
0.152255 0.736769 0.028466
0.154383 0.736654 0.028471
0.157150 0.736507 0.028477
0.163573 0.736175 0.028489
0.176066 0.735562 0.028500
0.199749 0.734489 0.028491
0.239855 0.732863 0.028418
0.301264 0.730671 0.028274
0.389242 0.727935 0.028209
0.507986 0.724788 0.028740
0.663660 0.721437 0.031050
0.795785 0.710587 0.047195
0.884974 0.703606 0.081357
0.937729 0.702697 0.133665
0.967497 0.711609 0.220405
0.983603 0.734377 0.336335
0.991976 0.771729 0.468095
0.996161 0.817568 0.619239
0.998279 0.864294 0.759176
0.999316 0.903812 0.848489
0.999816 0.932956 0.902591
1.000002 0.953491 0.936027
1.000002 0.967096 0.956340
1.000002 0.976346 0.969379
1.000002 0.982468 0.977677
1.000002 0.986696 0.983255
1.000002 0.989599 0.987012
1.000002 0.991600 0.989565
1.000002 0.993060 0.991410
1.000002 0.994186 0.992821
1.000002 0.995161 0.994036
0.210259 0.837424 0.046465
0.210908 0.837385 0.046464
0.211805 0.837331 0.046464
0.213033 0.837259 0.046462
0.214651 0.837167 0.046460
0.218493 0.836960 0.046452
0.226290 0.836578 0.046428
0.242102 0.835916 0.046357
0.271314 0.834919 0.046183
0.320125 0.833579 0.045864
0.395154 0.831889 0.045474
0.501369 0.829878 0.045406
0.646111 0.827560 0.046620
0.781099 0.825105 0.051073
0.875998 0.817306 0.073486
0.934413 0.812043 0.120645
0.965933 0.811066 0.196954
0.982872 0.817071 0.312965
0.991647 0.832550 0.445887
0.996014 0.856790 0.598666
0.998217 0.886410 0.748030
0.999290 0.915193 0.843142
0.999804 0.938643 0.900004
1.000002 0.956325 0.934755
1.000002 0.968578 0.955685
1.000002 0.977156 0.969034
1.000002 0.982945 0.977488
1.000002 0.986994 0.983150
1.000002 0.989800 0.986954
1.000002 0.991744 0.989533
1.000002 0.993170 0.991394
1.000002 0.994272 0.992815
1.000002 0.995229 0.994037
0.278838 0.902137 0.073558
0.279234 0.902113 0.073552
0.279782 0.902080 0.073543
0.280537 0.902036 0.073532
0.281537 0.901980 0.073518
0.283937 0.901854 0.073482
0.288911 0.901624 0.073409
0.299374 0.901226 0.073255
0.319820 0.900634 0.072959
0.356481 0.899847 0.072455
0.417051 0.898863 0.071748
0.508137 0.897680 0.071100
0.638044 0.896273 0.071260
0.768354 0.894675 0.073839
0.861454 0.892955 0.081995
0.925983 0.887640 0.113391
0.963079 0.883887 0.181004
0.981581 0.882980 0.289036
0.991051 0.886708 0.418892
0.995738 0.896272 0.570167
0.998090 0.911453 0.729417
0.999232 0.929313 0.833334
0.999777 0.946084 0.894801
1.000002 0.960085 0.931915
1.000002 0.970495 0.954035
1.000002 0.978139 0.968029
1.000002 0.983468 0.976836
1.000002 0.987280 0.982708
1.000002 0.989962 0.986638
1.000002 0.991840 0.989295
1.000002 0.993227 0.991209
1.000002 0.994306 0.992668
1.000002 0.995247 0.993920
0.358057 0.942018 0.114119
0.358304 0.942004 0.114105
0.358646 0.941984 0.114086
0.359120 0.941957 0.114060
0.359749 0.941924 0.114027
0.361272 0.941848 0.113950
0.364477 0.941710 0.113803
0.371395 0.941474 0.113527
0.385443 0.941125 0.113058
0.411965 0.940670 0.112324
0.458556 0.940108 0.111281
0.533111 0.939438 0.110065
0.644931 0.938634 0.109212
0.762239 0.937694 0.110065
0.852762 0.936619 0.115241
0.913720 0.935454 0.129777
0.956080 0.931947 0.175334
0.979441 0.929339 0.273199
0.990121 0.928578 0.393535
0.995311 0.930682 0.538328
0.997894 0.936437 0.703570
0.999140 0.945341 0.818651
0.999732 0.955474 0.886629
1.000002 0.965222 0.927300
1.000002 0.973254 0.951284
1.000002 0.979598 0.966313
1.000002 0.984251 0.975699
1.000002 0.987700 0.981918
1.000002 0.990190 0.986062
1.000002 0.991964 0.988854
1.000002 0.993292 0.990859
1.000002 0.994335 0.992384
1.000002 0.995253 0.993692
0.449915 0.965954 0.176133
0.450066 0.965945 0.176105
0.450276 0.965933 0.176069
0.450567 0.965918 0.176019
0.450957 0.965897 0.175955
0.451912 0.965852 0.175810
0.453957 0.965769 0.175540
0.458495 0.965629 0.175060
0.468039 0.965423 0.174302
0.486816 0.965159 0.173206
0.521448 0.964839 0.171702
0.579983 0.964463 0.169833
0.670089 0.964015 0.167923
0.766360 0.963486 0.167070
0.848376 0.962865 0.169570
0.908017 0.962156 0.179765
0.946698 0.961384 0.206043
0.974083 0.959097 0.269152
0.988631 0.957322 0.378270
0.994676 0.956719 0.510310
0.997609 0.957861 0.673181
0.999008 0.961112 0.799437
0.999668 0.965998 0.875297
0.999994 0.971682 0.920693
1.000002 0.977068 0.947281
1.000002 0.981781 0.963795
1.000002 0.985508 0.974023
1.000002 0.988424 0.980752
1.000002 0.990612 0.985210
1.000002 0.992217 0.988200
1.000002 0.993443 0.990339
1.000002 0.994421 0.991962
1.000002 0.995293 0.993350
0.556820 0.980182 0.271268
0.556904 0.980176 0.271225
0.557022 0.980169 0.271168
0.557187 0.980160 0.271092
0.557411 0.980148 0.270994
0.557971 0.980120 0.270775
0.559214 0.980071 0.270372
0.562096 0.979987 0.269673
0.568451 0.979866 0.268621
0.581513 0.979711 0.267185
0.606652 0.979528 0.265309
0.650346 0.979317 0.262968
0.711992 0.979069 0.260248
0.782785 0.978778 0.257835
0.850535 0.978432 0.257448
0.904969 0.978028 0.262344
0.943015 0.977567 0.277170
0.967268 0.977060 0.307230
0.984656 0.975591 0.372269
0.993654 0.974409 0.494167
0.997190 0.973933 0.644382
0.998820 0.974486 0.777527
0.999579 0.976165 0.861079
0.999949 0.978771 0.911961
1.000002 0.981752 0.941848
1.000002 0.984748 0.960336
1.000002 0.987373 0.971710
1.000002 0.989591 0.979143
1.000002 0.991354 0.984036
1.000002 0.992703 0.987300
1.000002 0.993766 0.989626
1.000002 0.994635 0.991385
1.000002 0.995426 0.992883
0.676145 0.988532 0.377154
0.676175 0.988529 0.377105
0.676218 0.988525 0.377037
0.676280 0.988519 0.376947
0.676367 0.988512 0.376832
0.676598 0.988495 0.376573
0.677156 0.988466 0.376102
0.678581 0.988415 0.375298
0.681974 0.988343 0.374123
0.689256 0.988252 0.372591
0.703330 0.988145 0.370699
0.727272 0.988025 0.368433
0.763540 0.987888 0.365749
0.810082 0.987727 0.362900
0.860447 0.987538 0.360696
0.905941 0.987314 0.361021
0.940958 0.987053 0.367089
0.964928 0.986753 0.383435
0.979933 0.986424 0.415178
0.990654 0.985508 0.483173
0.996508 0.984699 0.626519
0.998544 0.984343 0.757217
0.999452 0.984553 0.845485
0.999887 0.985373 0.901480
1.000002 0.986651 0.934998
1.000002 0.988202 0.955855
1.000002 0.989762 0.968676
1.000002 0.991222 0.977020
1.000002 0.992477 0.982486
1.000002 0.993495 0.986114
1.000002 0.994334 0.988689
1.000002 0.995045 0.990627
1.000002 0.995712 0.992272
0.771157 0.993338 0.490626
0.771155 0.993336 0.490566
0.771154 0.993333 0.490486
0.771156 0.993330 0.490379
0.771161 0.993325 0.490241
0.771190 0.993315 0.489934
0.771312 0.993297 0.489376
0.771754 0.993267 0.488433
0.773060 0.993223 0.487076
0.776231 0.993168 0.485354
0.782874 0.993105 0.483306
0.794975 0.993034 0.480953
0.814781 0.992955 0.478215
0.842783 0.992866 0.475161
0.876784 0.992760 0.472140
0.911454 0.992636 0.470214
0.941263 0.992489 0.471506
0.963571 0.992318 0.479409
0.978481 0.992123 0.498402
0.987580 0.991912 0.532598
0.994386 0.991324 0.607902
0.998095 0.990783 0.744415
0.999267 0.990525 0.831592
0.999801 0.990574 0.890587
1.000002 0.990934 0.927265
1.000002 0.991551 0.950543
1.000002 0.992306 0.964977
1.000002 0.993114 0.974391
1.000002 0.993882 0.980551
1.000002 0.994555 0.984629
1.000002 0.995143 0.987514
1.000002 0.995665 0.989678
1.000002 0.996176 0.991510
0.840176 0.996182 0.617419
0.840164 0.996181 0.617348
0.840148 0.996180 0.617252
0.840127 0.996177 0.617124
0.840104 0.996175 0.616962
0.840059 0.996168 0.616596
0.840011 0.996157 0.615936
0.840045 0.996139 0.614828
0.840421 0.996112 0.613242
0.841650 0.996079 0.611266
0.844579 0.996041 0.608976
0.850350 0.995999 0.606428
0.860493 0.995953 0.603551
0.876074 0.995903 0.600340
0.897025 0.995844 0.596895
0.921035 0.995774 0.593762
0.944260 0.995693 0.592271
0.963555 0.995596 0.594818
0.977568 0.995485 0.604964
0.986653 0.995360 0.626572
0.992333 0.995224 0.662550
0.996510 0.994859 0.724462
0.998950 0.994500 0.822330
0.999670 0.994310 0.880792
0.999990 0.994283 0.919300
1.000002 0.994417 0.944624
1.000002 0.994679 0.960655
1.000002 0.995028 0.971227
1.000002 0.995412 0.978179
1.000002 0.995784 0.982789
1.000002 0.996136 0.986048
1.000002 0.996467 0.988491
1.000002 0.996810 0.990554
0.887817 0.997831 0.733014
0.887803 0.997830 0.732958
0.887784 0.997829 0.732883
0.887760 0.997828 0.732782
0.887731 0.997826 0.732654
0.887668 0.997822 0.732367
0.887572 0.997816 0.731848
0.887465 0.997804 0.730973
0.887475 0.997787 0.729725
0.887868 0.997767 0.728173
0.889088 0.997743 0.726391
0.891769 0.997718 0.724439
0.896828 0.997691 0.722275
0.905165 0.997661 0.719877
0.917361 0.997627 0.717223
0.932829 0.997588 0.714481
0.949558 0.997541 0.712223
0.965056 0.997487 0.711658
0.977426 0.997423 0.714774
0.986059 0.997350 0.723761
0.991755 0.997269 0.740734
0.995060 0.997068 0.760081
0.997712 0.996963 0.803622
0.999440 0.996717 0.874019
0.999892 0.996582 0.912427
1.000002 0.996531 0.938854
1.000002 0.996562 0.956132
1.000002 0.996662 0.967759
1.000002 0.996808 0.975500
1.000002 0.996974 0.980669
1.000002 0.997148 0.984337
1.000002 0.997327 0.987092
1.000002 0.997525 0.989418
0.919635 0.998777 0.810988
0.919623 0.998776 0.810946
0.919606 0.998776 0.810891
0.919584 0.998775 0.810816
0.919557 0.998774 0.810720
0.919497 0.998771 0.810505
0.919398 0.998767 0.810118
0.919259 0.998759 0.809467
0.919146 0.998749 0.808541
0.919204 0.998735 0.807394
0.919677 0.998721 0.806091
0.920920 0.998704 0.804687
0.923468 0.998688 0.803161
0.927939 0.998669 0.801506
0.934935 0.998649 0.799684
0.944563 0.998625 0.797723
0.956021 0.998598 0.795825
0.967769 0.998566 0.794498
0.978088 0.998528 0.794722
0.985893 0.998485 0.797796
0.991374 0.998436 0.805210
0.994873 0.998382 0.817704
0.996853 0.998248 0.829938
0.998499 0.998192 0.858029
0.999708 0.998027 0.906638
1.000002 0.997928 0.934038
1.000002 0.997879 0.951960
1.000002 0.997872 0.964354
1.000002 0.997901 0.972759
1.000002 0.997954 0.978439
1.000002 0.998022 0.982501
1.000002 0.998102 0.985567
1.000002 0.998200 0.988167
0.941373 0.999341 0.863897
0.941363 0.999341 0.863866
0.941348 0.999340 0.863824
0.941330 0.999340 0.863768
0.941307 0.999339 0.863696
0.941255 0.999337 0.863537
0.941167 0.999334 0.863247
0.941035 0.999330 0.862762
0.940892 0.999322 0.862072
0.940823 0.999314 0.861222
0.940967 0.999304 0.860261
0.941528 0.999293 0.859236
0.942820 0.999283 0.858141
0.945237 0.999271 0.856974
0.949243 0.999258 0.855707
0.955132 0.999244 0.854333
0.962718 0.999227 0.852912
0.971228 0.999208 0.851650
0.979421 0.999185 0.851009
0.986154 0.999159 0.851709
0.991215 0.999128 0.854661
0.994622 0.999095 0.860596
0.996746 0.999059 0.869469
0.998065 0.999023 0.880859
0.998967 0.998943 0.894408
0.999859 0.998831 0.927962
1.000002 0.998759 0.948411
1.000002 0.998717 0.961219
1.000002 0.998698 0.970103
1.000002 0.998698 0.976203
1.000002 0.998712 0.980614
1.000002 0.998737 0.983970
1.000002 0.998775 0.986832
0.955914 0.999675 0.898860
0.955905 0.999675 0.898837
0.955894 0.999674 0.898805
0.955879 0.999674 0.898762
0.955859 0.999674 0.898707
0.955817 0.999672 0.898585
0.955742 0.999670 0.898365
0.955626 0.999667 0.897994
0.955487 0.999662 0.897468
0.955378 0.999656 0.896822
0.955384 0.999650 0.896095
0.955630 0.999643 0.895325
0.956305 0.999635 0.894511
0.957662 0.999627 0.893657
0.960029 0.999619 0.892742
0.963697 0.999610 0.891755
0.968726 0.999599 0.890709
0.974798 0.999587 0.889685
0.981130 0.999572 0.888904
0.986753 0.999555 0.888764
0.991277 0.999536 0.889805
0.994494 0.999514 0.892573
0.996585 0.999491 0.897252
0.997923 0.999467 0.903792
0.998742 0.999443 0.911472
0.999311 0.999393 0.919888
0.999941 0.999320 0.941851
1.000002 0.999264 0.958529
1.000002 0.999231 0.967759
1.000002 0.999212 0.974154
1.000002 0.999203 0.978836
1.000002 0.999202 0.982432
1.000002 0.999210 0.985524
0.966122 0.999885 0.923079
0.966115 0.999885 0.923060
0.966106 0.999885 0.923035
0.966093 0.999884 0.923002
0.966077 0.999884 0.922960
0.966042 0.999883 0.922865
0.965980 0.999882 0.922694
0.965882 0.999879 0.922406
0.965757 0.999876 0.921998
0.965642 0.999872 0.921498
0.965590 0.999867 0.920936
0.965682 0.999862 0.920344
0.966035 0.999857 0.919723
0.966815 0.999851 0.919079
0.968248 0.999846 0.918398
0.970569 0.999839 0.917670
0.973918 0.999832 0.916894
0.978214 0.999824 0.916098
0.983014 0.999815 0.915389
0.987589 0.999804 0.914989
0.991520 0.999791 0.915211
0.994478 0.999776 0.916432
0.996487 0.999761 0.918865
0.997815 0.999745 0.922588
0.998648 0.999729 0.927261
0.999187 0.999712 0.932657
0.999535 0.999681 0.937621
0.999985 0.999634 0.951638
1.000002 0.999591 0.965004
1.000002 0.999566 0.972289
1.000002 0.999549 0.977174
1.000002 0.999538 0.980965
1.000002 0.999531 0.984252
0.973176 1.000002 0.939601
0.973170 1.000002 0.939586
0.973162 1.000002 0.939567
0.973152 1.000002 0.939540
0.973139 1.000002 0.939506
0.973109 1.000002 0.939430
0.973057 1.000002 0.939293
0.972974 1.000002 0.939064
0.972865 1.000002 0.938739
0.972756 1.000002 0.938340
0.972683 1.000002 0.937893
0.972702 0.999999 0.937423
