create_logik_projekt/presets/Syncolor/transforms/r3d/IPP2-Cubes-SDR-Core-V1_13/REC2020/RWG_Log3G10 to REC2020_BT1886 with HIGH_CONTRAST and R_1_Hard size_33 v1.13.cube
# RED Digital Cinema Output Transform LUT for IPP2
# LUT Name = RWG_Log3G10 to REC2020_BT1886 with HIGH_CONTRAST and R_1_Hard size_33 v1.13
# Generated by version 1.13
# Settings used in creation of this LUT are:
# Development Color Space = REC2020
# Output Gamma Curve = BT1886
# Output Tonemap = HIGH_CONTRAST
# Highlight Rolloff = Rolloff 1 - hard
# Resolution = 33 x 33 x 33
TITLE "RED IPP2 LUT to map REDWideGamutRGB/Log3G10 to REC2020/BT1886/HIGH_CONTRAST/Rolloff 1 - hard"
LUT_3D_SIZE 9
0.000000 0.000000 0.000000
0.049586 0.003505 0.003505
0.221401 0.018614 0.012462
0.642200 0.097653 0.069771
0.961334 0.321773 0.262796
0.997550 0.774637 0.722218
1.000002 0.953513 0.943377
1.000002 0.985326 0.982275
1.000002 0.993023 0.991581
0.003505 0.064060 0.003505
0.054596 0.062675 0.003505
0.222804 0.049725 0.010273
0.645129 0.112210 0.068253
0.961879 0.327600 0.263738
0.997602 0.777853 0.725343
1.000002 0.954236 0.944227
1.000002 0.985577 0.982573
1.000002 0.993151 0.991734
0.019457 0.258551 0.004385
0.037129 0.258076 0.004410
0.233427 0.252779 0.005161
0.665276 0.250780 0.054053
0.965637 0.388512 0.267490
0.997966 0.803091 0.747393
1.000002 0.959484 0.950253
1.000002 0.987361 0.984686
1.000002 0.994060 0.992814
0.149541 0.736918 0.028458
0.157150 0.736507 0.028477
0.239855 0.732863 0.028418
0.663660 0.721437 0.031050
0.967497 0.711609 0.220405
0.998279 0.864294 0.759176
1.000002 0.967096 0.956340
1.000002 0.989599 0.987012
1.000002 0.995161 0.994036
0.449915 0.965954 0.176133
0.450957 0.965897 0.175955
0.468039 0.965423 0.174302
0.670089 0.964015 0.167923
0.946698 0.961384 0.206043
0.997609 0.957861 0.673181
1.000002 0.977068 0.947281
1.000002 0.990612 0.985210
1.000002 0.995293 0.993350
0.840176 0.996182 0.617419
0.840104 0.996175 0.616962
0.840421 0.996112 0.613242
0.860493 0.995953 0.603551
0.944260 0.995693 0.592271
0.992333 0.995224 0.662550
0.999990 0.994283 0.919300
1.000002 0.995412 0.978179
1.000002 0.996810 0.990554
0.955914 0.999675 0.898860
0.955859 0.999674 0.898707
0.955487 0.999662 0.897468
0.956305 0.999635 0.894511
0.968726 0.999599 0.890709
0.991277 0.999536 0.889805
0.998742 0.999443 0.911472
1.000002 0.999231 0.967759
1.000002 0.999210 0.985524
0.981962 1.000002 0.959864
0.981935 1.000002 0.959799
0.981732 1.000002 0.959275
0.981576 1.000002 0.958053
0.984062 1.000002 0.956635
0.992771 1.000002 0.955200
0.998493 1.000002 0.957453
0.999813 1.000002 0.964830
1.000002 1.000002 0.979550
0.989694 1.000002 0.977311
0.989678 1.000002 0.977273
0.989549 1.000002 0.976965
0.989365 1.000002 0.976253
0.990190 1.000002 0.975462
0.994370 1.000002 0.974593
0.998483 1.000002 0.974747
0.999749 1.000002 0.977132
1.000002 1.000002 0.980104
0.003505 0.003505 0.057779
0.044927 0.003505 0.057346
0.220775 0.015009 0.033307
0.641909 0.095023 0.079662
0.961333 0.321014 0.267108
0.997551 0.774614 0.723047
1.000002 0.953536 0.943446
1.000002 0.985337 0.982292
1.000002 0.993029 0.991590
0.003505 0.049626 0.052032
0.050054 0.050054 0.050054
0.222076 0.040761 0.029086
0.644682 0.109017 0.078319
0.961853 0.326717 0.268136
0.997601 0.777712 0.726048
1.000002 0.954230 0.944261
1.000002 0.985577 0.982578
1.000002 0.993152 0.991736
0.018244 0.255958 0.006110
0.035022 0.256006 0.006001
0.233630 0.252118 0.006846
0.664868 0.248942 0.061416
0.965614 0.387742 0.271570
0.997966 0.802981 0.747977
1.000002 0.959480 0.950280
1.000002 0.987361 0.984690
1.000002 0.994060 0.992815
0.148898 0.735938 0.030754
0.156602 0.736048 0.030669
0.239451 0.732356 0.030756
0.663533 0.720858 0.033790
0.967479 0.711231 0.224282
0.998279 0.864242 0.759657
1.000002 0.967095 0.956362
1.000002 0.989601 0.987016
1.000002 0.995162 0.994038
0.449536 0.965878 0.177637
0.450984 0.965903 0.177679
0.468049 0.965428 0.176124
0.670080 0.964015 0.169922
0.946720 0.961383 0.208630
0.997609 0.957864 0.673823
1.000002 0.977070 0.947308
1.000002 0.990613 0.985215
1.000002 0.995294 0.993352
0.839958 0.996174 0.617349
0.840190 0.996178 0.617572
0.840503 0.996115 0.613878
0.860553 0.995956 0.604245
0.944281 0.995696 0.593014
0.992338 0.995227 0.663202
0.999990 0.994285 0.919350
1.000002 0.995414 0.978186
1.000002 0.996811 0.990556
0.955847 0.999674 0.898730
0.955889 0.999674 0.898808
0.955517 0.999663 0.897572
0.956332 0.999636 0.894621
0.968742 0.999600 0.890828
0.991282 0.999537 0.889925
0.998743 0.999444 0.911565
1.000002 0.999232 0.967776
1.000002 0.999210 0.985529
0.981932 1.000002 0.959801
0.981948 1.000002 0.959835
0.981746 1.000002 0.959312
0.981589 1.000002 0.958091
0.984072 1.000002 0.956674
0.992775 1.000002 0.955241
0.998494 1.000002 0.957491
0.999814 1.000002 0.964862
1.000002 1.000002 0.979565
0.989676 1.000002 0.977273
0.989686 1.000002 0.977293
0.989557 1.000002 0.976986
0.989373 1.000002 0.976274
0.990197 1.000002 0.975483
0.994374 1.000002 0.974615
0.998484 1.000002 0.974769
0.999749 1.000002 0.977152
1.000002 1.000002 0.980121
0.009058 0.004188 0.239990
0.019146 0.004188 0.240071
0.212883 0.004288 0.239534
0.636878 0.068514 0.221399
0.961000 0.310146 0.318231
0.997541 0.772802 0.731980
1.000002 0.953457 0.943881
1.000002 0.985337 0.982357
1.000002 0.993035 0.991614
0.008701 0.005801 0.239735
0.019525 0.005764 0.239399
0.214149 0.006171 0.238775
0.639653 0.079040 0.220152
0.961522 0.315960 0.319074
0.997592 0.775933 0.734808
1.000002 0.954151 0.944684
1.000002 0.985577 0.982641
1.000002 0.993157 0.991759
0.006815 0.224211 0.229374
0.015520 0.224235 0.228997
0.224722 0.224722 0.224722
0.658649 0.225873 0.203559
0.965114 0.376859 0.322184
0.997941 0.800588 0.754721
1.000002 0.959194 0.950372
1.000002 0.987286 0.984652
1.000002 0.994027 0.992789
0.139563 0.724186 0.086158
0.148027 0.724303 0.085813
0.233925 0.724929 0.082332
0.661032 0.712373 0.098135
0.967045 0.705538 0.272494
0.998258 0.863005 0.765113
1.000002 0.966897 0.956412
1.000002 0.989547 0.986985
1.000002 0.995138 0.994018
0.445758 0.965126 0.203536
0.447254 0.965152 0.203519
0.467458 0.965335 0.203080
0.669395 0.963868 0.200091
0.946820 0.961211 0.243334
0.997586 0.957774 0.681310
1.000002 0.976997 0.947377
1.000002 0.990577 0.985183
1.000002 0.995275 0.993332
0.838146 0.996101 0.619713
0.838384 0.996105 0.619917
0.841089 0.996134 0.621448
0.860959 0.995974 0.612710
0.944420 0.995712 0.602275
0.992378 0.995244 0.671122
0.999988 0.994303 0.919632
1.000002 0.995418 0.978150
1.000002 0.996808 0.990530
0.955303 0.999661 0.897899
0.955346 0.999662 0.897975
0.955749 0.999668 0.898569
0.956544 0.999640 0.895706
0.968868 0.999604 0.892022
0.991319 0.999541 0.891160
0.998698 0.999415 0.910279
1.000002 0.999238 0.967845
1.000002 0.999215 0.985516
0.981694 1.000002 0.959336
0.981711 1.000002 0.959369
0.981852 1.000002 0.959628
0.981693 1.000002 0.958424
0.984152 1.000002 0.957028
0.992808 1.000002 0.955613
0.998504 1.000002 0.957841
0.999817 1.000002 0.965146
1.000002 1.000002 0.979658
0.989534 1.000002 0.976982
0.989543 1.000002 0.977002
0.989622 1.000002 0.977155
0.989437 1.000002 0.976450
0.990251 1.000002 0.975667
0.994401 1.000002 0.974807
0.998493 1.000002 0.974958
0.999753 1.000002 0.977322
1.000002 1.000002 0.980269
0.031913 0.007399 0.674442
0.036255 0.007401 0.674951
0.146636 0.007437 0.677592
0.577955 0.010210 0.672889
0.954299 0.204919 0.634299
0.997095 0.735827 0.789826
1.000002 0.948126 0.943331
1.000002 0.983773 0.981206
1.000002 0.992288 0.990919
0.031645 0.008482 0.676283
0.036280 0.008457 0.676133
0.146899 0.008510 0.678749
0.580236 0.012035 0.674037
0.954862 0.212188 0.635474
0.997151 0.739449 0.791627
1.000002 0.948882 0.944079
1.000002 0.984031 0.981494
1.000002 0.992419 0.991071
0.029657 0.052884 0.684013
0.033822 0.052696 0.683886
0.149352 0.051330 0.681373
0.597571 0.063389 0.677883
0.958718 0.284594 0.641150
0.997536 0.768237 0.804401
1.000002 0.954380 0.949403
1.000002 0.985872 0.983540
1.000002 0.993354 0.992144
0.066337 0.634212 0.651626
0.083433 0.616850 0.633861
0.183463 0.634727 0.649814
0.634954 0.634954 0.634954
0.959948 0.642773 0.605957
0.997828 0.842316 0.809736
1.000002 0.962457 0.954507
1.000002 0.988144 0.985702
1.000002 0.994461 0.993315
0.421632 0.960339 0.484359
0.423268 0.960369 0.484187
0.445388 0.960585 0.482451
0.656236 0.960751 0.473122
0.945717 0.957708 0.511193
0.997080 0.955250 0.744753
1.000002 0.975015 0.945170
1.000002 0.989529 0.983740
1.000002 0.994687 0.992562
0.832132 0.995817 0.687058
0.832390 0.995821 0.687127
0.835370 0.995853 0.687596
0.860435 0.995906 0.687280
0.944189 0.995619 0.687095
0.992253 0.995018 0.746577
0.999927 0.994232 0.918767
1.000002 0.995226 0.976204
1.000002 0.996586 0.989478
0.953930 0.999626 0.901067
0.953975 0.999627 0.901128
0.954397 0.999633 0.901601
0.956879 0.999644 0.902492
0.969040 0.999607 0.899956
0.991372 0.999543 0.899693
0.998770 0.999451 0.918823
1.000002 0.999247 0.966743
1.000002 0.999213 0.984333
0.981132 1.000002 0.959154
0.981149 1.000002 0.959184
0.981294 1.000002 0.959421
0.981893 1.000002 0.959904
0.984302 1.000002 0.958714
0.992867 1.000002 0.957485
0.998522 1.000002 0.959625
0.999824 1.000002 0.966536
1.000002 1.000002 0.979475
0.989203 1.000002 0.976624
0.989213 1.000002 0.976642
0.989293 1.000002 0.976788
0.989568 1.000002 0.977091
0.990361 1.000002 0.976381
0.994456 1.000002 0.975593
0.998511 1.000002 0.975756
0.999760 1.000002 0.978029
1.000002 1.000002 0.980865
0.039157 0.008188 0.952835
0.041063 0.008182 0.952974
0.075735 0.008109 0.953836
0.495460 0.008720 0.954044
0.915211 0.026262 0.949302
0.995192 0.531181 0.934989
0.999905 0.922598 0.957114
1.000002 0.977106 0.980195
1.000002 0.989222 0.989314
0.038912 0.008626 0.953383
0.040961 0.008611 0.953385
0.075617 0.008531 0.954239
0.496489 0.009220 0.954434
0.916019 0.027499 0.949751
0.995271 0.535996 0.935492
0.999914 0.923690 0.957559
1.000002 0.977452 0.980456
1.000002 0.989395 0.989473
0.036487 0.019034 0.956473
0.038297 0.018986 0.956479
0.074065 0.018566 0.956263
0.502476 0.020238 0.956401
0.921963 0.045613 0.952639
0.995815 0.578904 0.939158
0.999974 0.931673 0.960803
1.000002 0.979927 0.982330
1.000002 0.990626 0.990604
0.043117 0.387271 0.956404
0.045006 0.386924 0.956412
0.077569 0.383697 0.956296
0.515461 0.377852 0.954611
0.931770 0.420786 0.952616
0.996153 0.731899 0.943194
1.000002 0.943992 0.964566
1.000002 0.982990 0.984406
1.000002 0.992070 0.991853
0.313875 0.939168 0.944161
0.315901 0.939203 0.944185
0.343347 0.939442 0.944305
0.587393 0.939539 0.943346
0.939271 0.939271 0.939271
0.994909 0.939048 0.932679
0.999930 0.965916 0.959824
1.000002 0.985287 0.982406
1.000002 0.992365 0.990834
0.810752 0.994615 0.907512
0.811066 0.994620 0.907501
0.814736 0.994660 0.907378
0.845784 0.994729 0.906530
0.940609 0.994702 0.903013
0.992025 0.994148 0.915449
0.999669 0.993469 0.944325
1.000002 0.994404 0.975176
1.000002 0.995758 0.987275
0.951161 0.999521 0.936223
0.951210 0.999522 0.936235
0.951676 0.999529 0.936327
0.954501 0.999542 0.936418
0.968439 0.999547 0.935865
0.991208 0.999471 0.938004
0.998748 0.999378 0.947975
1.000002 0.999206 0.969365
1.000002 0.999159 0.982525
0.980303 1.000002 0.966107
0.980320 1.000002 0.966124
0.980473 1.000002 0.966248
0.981130 1.000002 0.966491
0.984257 1.000002 0.966569
0.992830 1.000002 0.966407
0.998516 1.000002 0.968229
0.999824 1.000002 0.973191
1.000002 1.000002 0.980833
0.988775 1.000002 0.978927
0.988785 1.000002 0.978940
0.988869 1.000002 0.979040
0.989164 1.000002 0.979243
0.990391 1.000002 0.979377
0.994460 1.000002 0.979039
0.998513 1.000002 0.979330
0.999762 1.000002 0.981189
1.000002 1.000002 0.983478
0.022489 0.005057 0.995608
0.023062 0.005052 0.995630
0.032316 0.004990 0.995782
0.334362 0.004852 0.995818
0.896371 0.006374 0.995331
0.984838 0.063753 0.993307
0.999507 0.828142 0.989333
1.000002 0.958155 0.990099
1.000002 0.981604 0.992330
0.022185 0.005103 0.995697
0.022838 0.005098 0.995700
0.032015 0.005033 0.995850
0.334227 0.004889 0.995883
0.897078 0.006479 0.995397
0.985017 0.064910 0.993396
0.999521 0.830517 0.989445
1.000002 0.958764 0.990208
1.000002 0.981885 0.992424
0.019576 0.006010 0.996263
0.020118 0.006001 0.996266
0.029337 0.005923 0.996262
0.330797 0.005695 0.996278
0.901909 0.008703 0.995789
0.986347 0.078734 0.994021
0.999623 0.848012 0.990282
1.000002 0.963121 0.991018
1.000002 0.983883 0.993117
0.013213 0.098002 0.996089
0.013553 0.097769 0.996092
0.019381 0.095678 0.996094
0.301333 0.088940 0.995791
0.906527 0.103946 0.995517
0.988616 0.256585 0.994665
0.999701 0.876979 0.991779
1.000002 0.968402 0.992299
1.000002 0.986148 0.994089
0.085399 0.876602 0.994667
0.086432 0.876543 0.994671
0.101972 0.875964 0.994690
0.367243 0.873488 0.994565
0.912201 0.871248 0.994029
0.989862 0.887753 0.993566
0.999495 0.937707 0.991930
1.000002 0.974165 0.992497
1.000002 0.986952 0.994066
0.727143 0.990861 0.991924
0.727642 0.990868 0.991930
0.733740 0.990919 0.991972
0.787237 0.991000 0.991992
0.929274 0.990941 0.991629
0.990861 0.990861 0.990861
0.999074 0.990349 0.989567
1.000002 0.991870 0.990765
1.000002 0.993738 0.992720
0.942654 0.999134 0.986638
0.942713 0.999135 0.986640
0.943287 0.999145 0.986652
0.946904 0.999163 0.986644
0.964483 0.999171 0.986407
0.990370 0.999148 0.985705
0.998609 0.999037 0.987346
1.000002 0.998909 0.988343
1.000002 0.998896 0.990462
0.978238 1.000002 0.986924
0.978258 1.000002 0.986926
0.978432 1.000002 0.986939
0.979201 1.000002 0.986950
0.982901 1.000002 0.986863
0.992418 1.000002 0.986502
0.998416 1.000002 0.987467
0.999795 1.000002 0.988899
1.000002 0.999969 0.990162
0.987878 1.000002 0.989088
0.987889 1.000002 0.989090
0.987981 1.000002 0.989110
0.988313 1.000002 0.989144
0.989728 1.000002 0.989129
0.994249 1.000002 0.988955
0.998445 1.000002 0.989441
0.999739 1.000002 0.990273
1.000002 1.000002 0.991203
0.005716 0.003663 1.000002
0.005760 0.003663 1.000002
0.006532 0.003663 1.000002
0.059842 0.003505 1.000002
0.876321 0.003505 1.000002
0.983452 0.005335 0.999781
0.996674 0.138496 0.999127
1.000002 0.907614 0.998052
1.000002 0.964145 0.997799
0.005627 0.003663 1.000002
0.005688 0.003663 1.000002
0.006431 0.003663 1.000002
0.058843 0.003505 1.000002
0.877091 0.003505 1.000002
0.983621 0.005359 0.999793
0.996722 0.140166 0.999146
1.000002 0.908953 0.998080
1.000002 0.964673 0.997829
0.004994 0.003663 1.000002
0.005028 0.003663 1.000002
0.005684 0.003663 1.000002
0.050896 0.003505 1.000002
0.882357 0.003663 1.000002
0.984816 0.005927 0.999862
0.997080 0.157494 0.999284
1.000002 0.918494 0.998290
1.000002 0.968412 0.998052
0.003897 0.006854 1.000002
0.003897 0.006820 1.000002
0.004051 0.006554 1.000002
0.030674 0.005920 1.000002
0.878191 0.006802 1.000002
0.985943 0.052426 0.999782
0.997708 0.297322 0.999474
1.000002 0.929703 0.998704
1.000002 0.972360 0.998476
0.003825 0.744104 0.999823
0.003825 0.743743 0.999824
0.003955 0.740380 0.999826
0.027809 0.721367 0.999766
0.866690 0.701235 0.999627
0.986570 0.746770 0.999533
0.998065 0.842942 0.999386
1.000002 0.947234 0.998948
1.000002 0.974539 0.998748
0.413572 0.983965 0.999238
0.414234 0.983966 0.999239
0.424616 0.983968 0.999247
0.549060 0.983899 0.999250
0.891612 0.983557 0.999178
0.987504 0.983333 0.999017
0.998209 0.984819 0.998924
0.999930 0.986980 0.998679
1.000002 0.989794 0.998589
0.921349 0.998382 0.998658
0.921429 0.998384 0.998659
0.922239 0.998396 0.998670
0.922927 0.998136 0.998432
0.954876 0.998425 0.998660
0.989065 0.998392 0.998527
0.998378 0.998378 0.998378
0.999799 0.998244 0.998141
1.000002 0.998261 0.998091
0.973775 0.999874 0.997822
0.973799 0.999874 0.997823
0.974010 0.999878 0.997830
0.974990 0.999886 0.997842
0.979812 0.999891 0.997826
0.991530 0.999886 0.997715
0.998207 0.999875 0.997560
0.999733 0.999846 0.997776
1.000002 0.999816 0.997711
0.986014 1.000002 0.997488
0.986026 1.000002 0.997489
0.986133 1.000002 0.997494
0.986530 1.000002 0.997503
0.988268 1.000002 0.997494
0.993658 1.000002 0.997412
0.998275 1.000002 0.997280
0.999683 1.000002 0.997482
1.000002 1.000002 0.997659
0.003663 0.003505 1.000002
0.003663 0.003505 1.000002
0.003721 0.003505 1.000002
0.005798 0.003505 1.000002
0.850211 0.003505 1.000002
0.984524 0.003505 1.000002
0.996458 0.030902 1.000002
0.998972 0.246924 1.000001
1.000002 0.894898 0.999692
0.003663 0.003505 1.000002
0.003663 0.003505 1.000002
0.003721 0.003505 1.000002
0.005688 0.003505 1.000002
0.851082 0.003505 1.000002
0.984701 0.003505 1.000002
0.996504 0.031229 1.000002
0.998992 0.249819 1.000002
1.000002 0.896554 0.999701
0.003505 0.003505 1.000002
0.003505 0.003505 1.000002
0.003663 0.003505 1.000002
0.004935 0.003505 1.000002
0.857027 0.003505 1.000002
0.985975 0.003505 1.000002
0.996845 0.035682 1.000002
0.999136 0.277844 1.000002
1.000002 0.908398 0.999769
0.003505 0.003505 1.000002
0.003505 0.003505 1.000002
0.003505 0.003505 1.000002
0.003850 0.003505 1.000002
0.851784 0.003505 1.000002
0.986969 0.003505 1.000002
0.997395 0.084335 1.000002
0.999393 0.436756 1.000002
1.000002 0.923865 0.999905
0.003505 0.474108 1.000002
0.003505 0.473148 1.000002
0.003505 0.464797 1.000002
0.003505 0.430537 1.000002
0.768042 0.351061 1.000002
0.983776 0.433239 1.000002
0.997654 0.671046 1.000002
0.999547 0.839580 1.000002
1.000002 0.943752 0.999992
0.013161 0.977516 1.000002
0.013224 0.977508 1.000002
0.014990 0.977410 1.000002
0.097618 0.976536 1.000002
0.815541 0.975391 1.000002
0.984429 0.974860 1.000002
0.997747 0.977168 1.000002
0.999600 0.980572 0.999995
1.000002 0.984453 0.999930
0.875485 0.997518 0.999931
0.875573 0.997519 0.999931
0.876647 0.997528 0.999934
0.887106 0.997541 0.999940
0.935937 0.997527 0.999930
0.986239 0.997460 0.999885
0.997925 0.997439 0.999826
0.999629 0.997575 0.999806
1.000002 0.997589 0.999753
0.967015 0.999677 0.999785
0.967043 0.999677 0.999786
0.967303 0.999682 0.999790
0.968617 0.999691 0.999797
0.975303 0.999696 0.999795
0.990357 0.999689 0.999763
0.998043 0.999675 0.999708
0.999674 0.999674 0.999674
1.000002 0.999639 0.999618
0.983501 1.000002 0.999599
0.983515 1.000002 0.999599
0.983639 1.000002 0.999603
0.984121 1.000002 0.999609
0.986310 1.000002 0.999609
0.992875 1.000002 0.999582
0.998125 1.000002 0.999528
0.999624 1.000002 0.999490
1.000002 1.000002 0.999532
0.003505 0.003505 1.000002
0.003505 0.003505 1.000002
0.003505 0.003505 1.000002
0.003663 0.003505 1.000002
0.800969 0.003505 1.000002
0.986093 0.003505 1.000002
0.997030 0.003663 1.000002
0.998914 0.113690 1.000002
0.999601 0.370097 1.000002
0.003505 0.003505 1.000002
0.003505 0.003505 1.000002
0.003505 0.003505 1.000002
0.003663 0.003505 1.000002
0.801650 0.003505 1.000002
0.986276 0.003505 1.000002
0.997075 0.003663 1.000002
0.998933 0.114671 1.000002
0.999612 0.374690 1.000002
0.003505 0.003505 1.000002
0.003505 0.003505 1.000002
0.003505 0.003505 1.000002
0.003505 0.003505 1.000002
0.805643 0.003505 1.000002
0.987599 0.003505 1.000002
0.997402 0.003663 1.000002
0.999077 0.124634 1.000002
0.999694 0.414492 1.000002
0.003505 0.003505 1.000002
0.003505 0.003505 1.000002
0.003505 0.003505 1.000002
0.003505 0.003505 1.000002
0.787915 0.003505 1.000002
0.988925 0.003505 1.000002
0.997700 0.004637 1.000002
0.999329 0.193764 1.000002
0.999840 0.561062 1.000002
0.003505 0.222393 1.000002
0.003505 0.221601 1.000002
0.003505 0.215049 1.000002
0.003505 0.194345 1.000002
0.513897 0.141801 1.000002
0.981662 0.180332 1.000002
0.997410 0.397036 1.000002
0.999467 0.728623 1.000002
0.999931 0.854263 1.000002
0.003505 0.974100 1.000002
0.003505 0.974087 1.000002
0.003505 0.973943 1.000002
0.003505 0.972775 1.000002
0.631240 0.967841 1.000002
0.981746 0.966812 1.000002
0.997431 0.969970 1.000002
0.999506 0.974656 1.000002
0.999962 0.978582 1.000002
0.791463 0.996859 1.000002
0.791546 0.996859 1.000002
0.793127 0.996864 1.000002
0.815575 0.996867 1.000002
0.910657 0.996828 1.000002
0.983776 0.996725 1.000002
0.997608 0.996694 1.000002
0.999532 0.996867 1.000002
0.999972 0.997048 1.000002
0.958212 0.999504 1.000002
0.958240 0.999505 1.000002
0.958509 0.999509 1.000002
0.960187 0.999517 1.000002
0.969384 0.999519 1.000002
0.988709 0.999506 1.000002
0.997734 0.999488 1.000002
0.999580 0.999487 1.000002
0.999986 0.999508 1.000002
0.980787 1.000002 1.000002
0.980803 1.000002 1.000002
0.980942 1.000002 1.000002
0.981518 1.000002 1.000002
0.984239 1.000002 1.000002
0.992116 1.000002 1.000002
0.997995 1.000002 1.000002
0.999592 1.000002 1.000002
1.000002 1.000002 1.000002
