create_logik_projekt/presets/Syncolor/transforms/r3d/IPP2-Cubes-SDR-Core-V1_13/REC2020/RWG_Log3G10 to REC2020_BT1886 with MEDIUM_CONTRAST and R_1_Hard size_33 v1.13.cube
# RED Digital Cinema Output Transform LUT for IPP2
# LUT Name = RWG_Log3G10 to REC2020_BT1886 with MEDIUM_CONTRAST and R_1_Hard size_33 v1.13
# Generated by version 1.13
# Settings used in creation of this LUT are:
# Development Color Space = REC2020
# Output Gamma Curve = BT1886
# Output Tonemap = MEDIUM_CONTRAST
# Highlight Rolloff = Rolloff 1 - hard
# Resolution = 33 x 33 x 33
TITLE "RED IPP2 LUT to map REDWideGamutRGB/Log3G10 to REC2020/BT1886/MEDIUM_CONTRAST/Rolloff 1 - hard"
LUT_3D_SIZE 33
0.000000 0.000000 0.000000
0.000000 0.000000 0.000000
0.000004 0.000000 0.000000
0.014493 0.003505 0.003505
0.057505 0.003505 0.003505
0.096039 0.003505 0.003505
0.138706 0.004617 0.004104
0.188202 0.010319 0.007104
0.244448 0.021325 0.014346
0.308409 0.034005 0.023424
0.381470 0.048039 0.033582
0.470481 0.064612 0.045647
0.585582 0.085751 0.061067
0.707026 0.110665 0.079185
0.801988 0.142424 0.102058
0.870249 0.182875 0.131936
0.917128 0.229659 0.172372
0.948382 0.284555 0.226507
0.968561 0.349397 0.289333
0.981086 0.424745 0.361294
0.988936 0.514836 0.446766
0.993667 0.620381 0.546619
0.996437 0.723076 0.659021
0.998091 0.802972 0.757140
0.999041 0.860834 0.828744
0.999603 0.903041 0.881047
0.999922 0.932403 0.917363
1.000002 0.953290 0.943103
1.000002 0.967792 0.960897
1.000002 0.977705 0.973008
1.000002 0.984709 0.981526
1.000002 0.989544 0.987382
1.000002 0.993005 0.991559
0.000000 0.000000 0.000000
0.000000 0.000000 0.000000
0.000005 0.000000 0.000000
0.018996 0.003505 0.003505
0.058341 0.003505 0.003505
0.096494 0.003663 0.003505
0.139032 0.005798 0.004051
0.188481 0.013574 0.006875
0.244721 0.024800 0.013946
0.308701 0.037353 0.023011
0.381801 0.051160 0.033187
0.470924 0.067465 0.045297
0.586120 0.088342 0.060768
0.707529 0.113058 0.078941
0.802374 0.144687 0.101877
0.870532 0.184685 0.131829
0.917326 0.231075 0.172358
0.948517 0.285728 0.226623
0.968649 0.350429 0.289571
0.981144 0.425710 0.361650
0.988972 0.515792 0.447244
0.993689 0.621374 0.547231
0.996451 0.723826 0.659707
0.998099 0.803513 0.757690
0.999047 0.861223 0.829166
0.999606 0.903317 0.881359
0.999924 0.932601 0.917592
1.000002 0.953430 0.943268
1.000002 0.967891 0.961015
1.000002 0.977776 0.973092
1.000002 0.984759 0.981585
1.000002 0.989579 0.987425
1.000002 0.993030 0.991589
0.000000 0.000025 0.000000
0.000000 0.000023 0.000000
0.000007 0.000020 0.000000
0.023374 0.003505 0.003505
0.059440 0.003505 0.003505
0.097101 0.004899 0.003505
0.139468 0.010107 0.003972
0.188853 0.019532 0.006582
0.245085 0.030409 0.013412
0.309092 0.042448 0.022452
0.382245 0.055720 0.032656
0.471517 0.071549 0.044825
0.586841 0.092003 0.060361
0.708202 0.116412 0.078608
0.802891 0.147841 0.101628
0.870910 0.187141 0.131678
0.917592 0.233003 0.172333
0.948697 0.287327 0.226775
0.968767 0.351833 0.289888
0.981220 0.427021 0.362124
0.989021 0.517086 0.447885
0.993719 0.622719 0.548054
0.996469 0.724833 0.660625
0.998111 0.804239 0.758427
0.999053 0.861744 0.829731
0.999610 0.903688 0.881779
0.999926 0.932865 0.917899
1.000002 0.953618 0.943489
1.000002 0.968024 0.961172
1.000002 0.977871 0.973205
1.000002 0.984826 0.981666
1.000002 0.989627 0.987482
1.000002 0.993063 0.991629
0.003505 0.042620 0.003505
0.003505 0.042177 0.003505
0.003505 0.041571 0.003505
0.027842 0.040748 0.003505
0.060854 0.037272 0.003505
0.097896 0.029385 0.003505
0.140040 0.026109 0.003897
0.189343 0.031380 0.006225
0.245565 0.039898 0.012707
0.309608 0.050354 0.021715
0.382832 0.062476 0.031952
0.472302 0.077436 0.044195
0.587793 0.097186 0.059816
0.709087 0.121111 0.078159
0.803571 0.152192 0.101289
0.871406 0.190430 0.131468
0.917940 0.235599 0.172289
0.948933 0.289481 0.226967
0.968923 0.353724 0.290302
0.981321 0.428782 0.362747
0.989084 0.518819 0.448730
0.993758 0.624513 0.549140
0.996493 0.726170 0.661835
0.998125 0.805200 0.759397
0.999062 0.862433 0.830476
0.999615 0.904178 0.882331
0.999929 0.933215 0.918302
1.000002 0.953865 0.943779
1.000002 0.968199 0.961380
1.000002 0.977996 0.973353
1.000002 0.984914 0.981771
1.000002 0.989689 0.987556
1.000002 0.993107 0.991681
0.003505 0.073106 0.003505
0.003505 0.072888 0.003505
0.003505 0.072592 0.003505
0.016822 0.072198 0.003505
0.062900 0.071610 0.003505
0.099069 0.068073 0.003505
0.140888 0.063733 0.003761
0.190068 0.060216 0.005760
0.246276 0.059720 0.011694
0.310373 0.065081 0.020634
0.383703 0.074302 0.030908
0.473466 0.087344 0.043251
0.589201 0.105686 0.058992
0.710391 0.128696 0.077474
0.804572 0.158707 0.100764
0.872138 0.195407 0.131135
0.918454 0.239554 0.172201
0.949281 0.292769 0.227234
0.969152 0.356603 0.290903
0.981469 0.431454 0.363664
0.989177 0.521440 0.449980
0.993816 0.627216 0.550750
0.996529 0.728161 0.663620
0.998147 0.806627 0.760829
0.999075 0.863455 0.831574
0.999623 0.904903 0.883146
0.999934 0.933731 0.918898
1.000002 0.954230 0.944208
1.000002 0.968458 0.961687
1.000002 0.978180 0.973572
1.000002 0.985045 0.981927
1.000002 0.989782 0.987667
1.000002 0.993171 0.991758
0.003663 0.113141 0.003505
0.003825 0.113007 0.003505
0.004774 0.112824 0.003505
0.013363 0.112582 0.003505
0.055841 0.112221 0.003505
0.101775 0.111414 0.003505
0.142844 0.107882 0.003663
0.191732 0.104842 0.004960
0.247900 0.103337 0.009577
0.312114 0.104013 0.018255
0.385681 0.107467 0.028540
0.476101 0.115000 0.041069
0.592376 0.128547 0.057051
0.713305 0.147711 0.075830
0.806807 0.173673 0.099473
0.873772 0.207167 0.130271
0.919602 0.249020 0.171890
0.950060 0.300661 0.227750
0.969665 0.363493 0.292205
0.981800 0.437805 0.365701
0.989386 0.527617 0.452787
0.993945 0.633499 0.554388
0.996609 0.732716 0.667629
0.998195 0.809874 0.764043
0.999105 0.865771 0.834040
0.999641 0.906541 0.884974
0.999945 0.934895 0.920235
1.000002 0.955053 0.945170
1.000002 0.969040 0.962374
1.000002 0.978594 0.974064
1.000002 0.985338 0.982275
1.000002 0.989989 0.987914
1.000002 0.993315 0.991930
0.005179 0.161027 0.003505
0.006177 0.160925 0.003505
0.008819 0.160786 0.003505
0.016837 0.160601 0.003505
0.043114 0.160324 0.003505
0.095295 0.159698 0.003505
0.146233 0.158690 0.003663
0.194568 0.154823 0.004176
0.250623 0.152228 0.007091
0.315006 0.151277 0.014608
0.388951 0.152311 0.024690
0.480427 0.156283 0.037375
0.597533 0.164867 0.053644
0.717958 0.178667 0.072844
0.810373 0.199349 0.097019
0.876379 0.228195 0.128486
0.921435 0.266316 0.170993
0.951304 0.315169 0.228282
0.970484 0.376095 0.294123
0.982331 0.449283 0.368897
0.989720 0.538608 0.457305
0.994152 0.644210 0.560321
0.996736 0.740368 0.674087
0.998273 0.815267 0.769228
0.999152 0.869582 0.838019
0.999669 0.909221 0.887923
0.999962 0.936791 0.922392
1.000002 0.956389 0.946721
1.000002 0.969983 0.963482
1.000002 0.979263 0.974857
1.000002 0.985811 0.982837
1.000002 0.990323 0.988312
1.000002 0.993548 0.992207
0.011420 0.219005 0.003897
0.013623 0.218914 0.003897
0.017307 0.218791 0.003897
0.023849 0.218627 0.003917
0.038477 0.218381 0.003917
0.087666 0.217817 0.003917
0.139525 0.216878 0.003955
0.198790 0.215615 0.004006
0.254541 0.211200 0.005214
0.319068 0.208461 0.010262
0.393486 0.207467 0.019638
0.486290 0.208771 0.032189
0.604368 0.213532 0.048574
0.723970 0.222647 0.068162
0.814972 0.237942 0.092921
0.879746 0.261244 0.125189
0.923809 0.294264 0.168810
0.952919 0.338854 0.228163
0.971551 0.396561 0.296128
0.983022 0.467618 0.372812
0.990155 0.555757 0.463159
0.994422 0.659797 0.568217
0.996903 0.751243 0.682570
0.998374 0.822786 0.776065
0.999213 0.874822 0.843277
0.999705 0.912865 0.891824
0.999983 0.939350 0.925245
1.000002 0.958182 0.948773
1.000002 0.971243 0.964948
1.000002 0.980156 0.975905
1.000002 0.986439 0.983581
1.000002 0.990767 0.988838
1.000002 0.993857 0.992573
0.023099 0.287238 0.004624
0.025402 0.287149 0.004631
0.028912 0.287028 0.004637
0.034408 0.286868 0.004643
0.044826 0.286627 0.004656
0.082234 0.286070 0.004681
0.133773 0.285124 0.004722
0.191606 0.283785 0.004780
0.259559 0.282262 0.004873
0.324018 0.277027 0.006906
0.398840 0.273753 0.014422
0.492825 0.272578 0.026268
0.611641 0.274140 0.042302
0.730133 0.279275 0.061960
0.819677 0.289626 0.087066
0.883204 0.307230 0.119955
0.926262 0.334305 0.164561
0.954601 0.373288 0.226294
0.972668 0.426248 0.297088
0.983750 0.493757 0.376232
0.990616 0.579511 0.469015
0.994709 0.679393 0.576587
0.997080 0.764481 0.691533
0.998482 0.831682 0.783372
0.999279 0.880884 0.848931
0.999745 0.917008 0.896036
1.000002 0.942222 0.928333
1.000002 0.960177 0.950998
1.000002 0.972635 0.966539
1.000002 0.981137 0.977043
1.000002 0.987128 0.984387
1.000002 0.991252 0.989409
1.000002 0.994193 0.992971
0.039159 0.367320 0.006103
0.041351 0.367229 0.006113
0.044553 0.367106 0.006119
0.049291 0.366942 0.006131
0.057581 0.366696 0.006143
0.084114 0.366124 0.006177
0.131654 0.365139 0.006225
0.186531 0.363701 0.006293
0.251522 0.361945 0.006388
0.328450 0.357893 0.007804
0.404768 0.353766 0.010000
0.499196 0.349771 0.020530
0.618032 0.348217 0.035579
0.735236 0.349696 0.054748
0.823549 0.355488 0.079666
0.886080 0.367516 0.112636
0.928337 0.388208 0.157641
0.956048 0.420477 0.221395
0.973645 0.467078 0.295660
0.984396 0.529251 0.377702
0.991030 0.610862 0.473277
0.994968 0.702317 0.583659
0.997241 0.779390 0.699374
0.998580 0.841332 0.789965
0.999339 0.887248 0.854123
0.999781 0.921243 0.899946
1.000002 0.945100 0.931220
1.000002 0.962145 0.953088
1.000002 0.973994 0.968038
1.000002 0.982088 0.978119
1.000002 0.987793 0.985152
1.000002 0.991718 0.989951
1.000002 0.994516 0.993349
0.060786 0.461536 0.009216
0.062808 0.461441 0.009226
0.065699 0.461312 0.009236
0.069854 0.461139 0.009250
0.076824 0.460880 0.009268
0.097236 0.460276 0.009310
0.136278 0.459229 0.009369
0.185766 0.457675 0.009437
0.246414 0.455707 0.009520
0.320581 0.453475 0.009692
0.411448 0.451209 0.010178
0.503696 0.443584 0.015633
0.622369 0.438544 0.029257
0.738184 0.436307 0.047287
0.825708 0.437679 0.071289
0.887737 0.444254 0.103496
0.929603 0.458353 0.147869
0.956984 0.483077 0.212113
0.974311 0.521775 0.290395
0.984854 0.576566 0.375610
0.991333 0.650909 0.474161
0.995164 0.728288 0.587466
0.997366 0.795658 0.704538
0.998657 0.851399 0.794751
0.999386 0.893598 0.858091
0.999809 0.925299 0.903030
1.000002 0.947767 0.933544
1.000002 0.963923 0.954794
1.000002 0.975199 0.969275
1.000002 0.982921 0.979012
1.000002 0.988369 0.985790
1.000002 0.992120 0.990406
1.000002 0.994793 0.993667
0.089416 0.570661 0.015038
0.091266 0.570558 0.015045
0.093881 0.570420 0.015055
0.097585 0.570234 0.015067
0.103661 0.569956 0.015084
0.120426 0.569306 0.015118
0.149801 0.568177 0.015161
0.191655 0.566492 0.015193
0.246206 0.564320 0.015208
0.315035 0.561767 0.015269
0.400731 0.558970 0.015556
0.504813 0.556203 0.016438
0.618414 0.546925 0.023604
0.737892 0.540606 0.040554
0.825262 0.537495 0.062930
0.887504 0.538705 0.093414
0.929598 0.546206 0.135851
0.957111 0.562947 0.197858
0.974481 0.592570 0.279990
0.985014 0.637902 0.368328
0.991462 0.695808 0.469721
0.995258 0.756776 0.585770
0.997431 0.813001 0.705288
0.998700 0.861638 0.796540
0.999414 0.899693 0.860028
0.999827 0.928959 0.904746
1.000002 0.950041 0.934936
1.000002 0.965366 0.955868
1.000002 0.976142 0.970080
1.000002 0.983554 0.979609
1.000002 0.988800 0.986224
1.000002 0.992417 0.990719
1.000002 0.994996 0.993890
0.128057 0.691140 0.023435
0.129766 0.691049 0.023440
0.132159 0.690927 0.023446
0.135392 0.690765 0.023454
0.140294 0.690520 0.023465
0.151923 0.689949 0.023485
0.172871 0.688955 0.023500
0.206144 0.687462 0.023485
0.252968 0.685518 0.023421
0.314932 0.683174 0.023346
0.394288 0.680486 0.023412
0.492232 0.677601 0.023939
0.612767 0.674679 0.025518
0.727147 0.664964 0.034266
0.822014 0.657783 0.055747
0.885641 0.653925 0.084016
0.928503 0.654801 0.123486
0.956495 0.662581 0.181380
0.974154 0.679678 0.264521
0.984860 0.707055 0.355449
0.991402 0.744688 0.459155
0.995241 0.788459 0.577475
0.997432 0.832257 0.700654
0.998706 0.872688 0.794719
0.999421 0.905927 0.859556
0.999832 0.932429 0.904864
1.000002 0.952018 0.935256
1.000002 0.966513 0.956221
1.000002 0.976832 0.970397
1.000002 0.983988 0.979871
1.000002 0.989080 0.986430
1.000002 0.992602 0.990876
1.000002 0.995121 0.994006
0.174418 0.785697 0.035088
0.175493 0.785634 0.035090
0.176971 0.785548 0.035092
0.178986 0.785434 0.035095
0.182106 0.785261 0.035098
0.189808 0.784861 0.035098
0.204605 0.784166 0.035080
0.229999 0.783127 0.035012
0.268439 0.781775 0.034864
0.322269 0.780138 0.034651
0.393962 0.778230 0.034489
0.484699 0.776110 0.034653
0.598092 0.773817 0.035648
0.719613 0.771501 0.038324
0.809652 0.763909 0.049411
0.881760 0.758056 0.076814
0.926330 0.754749 0.112960
0.955268 0.755160 0.165917
0.973481 0.761067 0.246370
0.984496 0.773974 0.339014
0.991213 0.795072 0.444171
0.995148 0.823047 0.564062
0.997387 0.854184 0.691443
0.998686 0.885541 0.789891
0.999412 0.913146 0.857147
0.999829 0.936321 0.903744
1.000002 0.954110 0.934773
1.000002 0.967632 0.956050
1.000002 0.977442 0.970368
1.000002 0.984335 0.979900
1.000002 0.989283 0.986479
1.000002 0.992727 0.990927
1.000002 0.995199 0.994051
0.223643 0.853906 0.051119
0.224350 0.853863 0.051117
0.225327 0.853804 0.051114
0.226667 0.853725 0.051110
0.228764 0.853606 0.051102
0.234037 0.853332 0.051078
0.244529 0.852858 0.051019
0.263473 0.852153 0.050888
0.293886 0.851243 0.050650
0.338931 0.850143 0.050300
0.401748 0.848856 0.049913
0.483968 0.847404 0.049716
0.589081 0.845782 0.050138
0.707043 0.844046 0.051910
0.801090 0.842260 0.056278
0.869004 0.836552 0.070435
0.922418 0.831974 0.105685
0.953155 0.829273 0.153407
0.972316 0.829399 0.227262
0.983849 0.833598 0.319969
0.990864 0.843223 0.425152
0.994963 0.858609 0.545474
0.997291 0.878272 0.676850
0.998637 0.900417 0.781495
0.999387 0.921754 0.852450
0.999817 0.940980 0.901184
1.000002 0.956550 0.933372
1.000002 0.968861 0.955292
1.000002 0.978050 0.969958
1.000002 0.984637 0.979677
1.000002 0.989431 0.986360
1.000002 0.992801 0.990866
1.000002 0.995236 0.994021
0.277702 0.901610 0.072968
0.278184 0.901581 0.072961
0.278853 0.901540 0.072951
0.279775 0.901487 0.072937
0.281224 0.901407 0.072915
0.284912 0.901221 0.072859
0.292408 0.900901 0.072746
0.306402 0.900429 0.072539
0.329870 0.899824 0.072200
0.366355 0.899100 0.071710
0.419656 0.898255 0.071105
0.492196 0.897299 0.070557
0.587720 0.896214 0.070422
0.698856 0.895019 0.071338
0.791533 0.893724 0.074360
0.860742 0.892379 0.081264
0.910592 0.888197 0.099603
0.949715 0.884685 0.146199
0.970527 0.882565 0.211723
0.982879 0.882516 0.301257
0.990339 0.885508 0.404232
0.994681 0.892383 0.523149
0.997139 0.903052 0.656726
0.998558 0.916917 0.769208
0.999345 0.931908 0.845226
0.999795 0.946724 0.897053
1.000002 0.959626 0.930995
1.000002 0.970403 0.953926
1.000002 0.978783 0.969164
1.000002 0.984970 0.979206
1.000002 0.989569 0.986080
1.000002 0.992851 0.990698
1.000002 0.995247 0.993922
0.337933 0.934293 0.102719
0.338267 0.934273 0.102705
0.338732 0.934246 0.102685
0.339373 0.934210 0.102658
0.340388 0.934155 0.102617
0.342991 0.934030 0.102517
0.348372 0.933815 0.102332
0.358669 0.933501 0.102022
0.376509 0.933101 0.101557
0.405343 0.932628 0.100907
0.449268 0.932081 0.100078
0.511490 0.931463 0.099189
0.596269 0.930761 0.098513
0.697201 0.929974 0.098608
0.785179 0.929099 0.100395
0.853695 0.928148 0.105385
0.903353 0.927152 0.116118
0.939569 0.924117 0.140955
0.967736 0.921471 0.204786
0.981466 0.919868 0.286894
0.989600 0.919738 0.384611
0.994288 0.921806 0.499598
0.996927 0.926497 0.631816
0.998445 0.933948 0.753022
0.999285 0.943272 0.835300
0.999763 0.953631 0.891197
1.000002 0.963540 0.927545
1.000002 0.972448 0.951904
1.000002 0.979780 0.967966
1.000002 0.985424 0.978481
1.000002 0.989750 0.985639
1.000002 0.992907 0.990425
1.000002 0.995250 0.993756
0.405971 0.956520 0.144082
0.406200 0.956506 0.144057
0.406520 0.956488 0.144023
0.406964 0.956464 0.143977
0.407669 0.956427 0.143907
0.409498 0.956343 0.143745
0.413343 0.956200 0.143453
0.420870 0.955990 0.142993
0.434274 0.955727 0.142345
0.456637 0.955419 0.141482
0.491941 0.955067 0.140386
0.543851 0.954673 0.139128
0.617141 0.954226 0.137901
0.704104 0.953723 0.137176
0.783599 0.953156 0.137770
0.848892 0.952525 0.141037
0.898227 0.951835 0.149170
0.933491 0.951103 0.166079
0.959387 0.948929 0.201313
0.979270 0.946985 0.281423
0.988538 0.945756 0.370131
0.993746 0.945599 0.478059
0.996641 0.946945 0.604902
0.998293 0.950155 0.733329
0.999204 0.955099 0.822567
0.999720 0.961477 0.883428
1.000002 0.968349 0.922872
1.000002 0.975146 0.949130
1.000002 0.981179 0.966310
1.000002 0.986100 0.977473
1.000002 0.990040 0.985023
1.000002 0.993009 0.990043
1.000002 0.995267 0.993520
0.482955 0.971448 0.203328
0.483108 0.971439 0.203286
0.483321 0.971427 0.203231
0.483619 0.971411 0.203154
0.484096 0.971386 0.203041
0.485352 0.971330 0.202777
0.488055 0.971234 0.202316
0.493495 0.971095 0.201617
0.503462 0.970922 0.200679
0.520568 0.970721 0.199485
0.548405 0.970494 0.198006
0.590697 0.970244 0.196277
0.651586 0.969962 0.194413
0.720707 0.969646 0.192799
0.788310 0.969287 0.192153
0.847510 0.968882 0.193738
0.894685 0.968431 0.199582
0.929821 0.967933 0.213122
0.954517 0.967400 0.238548
0.972466 0.965886 0.277774
0.986887 0.964424 0.365081
0.992972 0.963511 0.462552
0.996250 0.963343 0.580900
0.998091 0.964215 0.711630
0.999097 0.966299 0.807409
0.999664 0.969635 0.873717
0.999973 0.973821 0.916863
1.000002 0.978492 0.945506
1.000002 0.983062 0.964131
1.000002 0.987086 0.976144
1.000002 0.990505 0.984212
1.000002 0.993201 0.989541
1.000002 0.995323 0.993212
0.568506 0.981252 0.281604
0.568599 0.981246 0.281552
0.568733 0.981238 0.281480
0.568920 0.981227 0.281385
0.569226 0.981210 0.281243
0.570050 0.981173 0.280913
0.571896 0.981108 0.280346
0.575764 0.981016 0.279505
0.583108 0.980900 0.278415
0.596094 0.980768 0.277082
0.617816 0.980621 0.275476
0.650935 0.980461 0.273604
0.694736 0.980282 0.271484
0.745943 0.980083 0.269341
0.799829 0.979858 0.267652
0.850514 0.979601 0.267357
0.893538 0.979312 0.269950
0.927280 0.978987 0.277539
0.951957 0.978627 0.292688
0.968853 0.978248 0.317569
0.981707 0.977160 0.359099
0.991782 0.976086 0.457070
0.995700 0.975424 0.564035
0.997822 0.975267 0.691082
0.998958 0.975812 0.791203
0.999592 0.977209 0.862545
0.999935 0.979393 0.909638
1.000002 0.982232 0.941034
1.000002 0.985366 0.961406
1.000002 0.988404 0.974475
1.000002 0.991189 0.983193
1.000002 0.993523 0.988913
1.000002 0.995448 0.992827
0.664119 0.987850 0.365524
0.664160 0.987846 0.365464
0.664220 0.987841 0.365382
0.664307 0.987833 0.365274
0.664455 0.987822 0.365112
0.664880 0.987797 0.364737
0.665906 0.987754 0.364099
0.668209 0.987692 0.363170
0.672772 0.987616 0.361996
0.680967 0.987530 0.360609
0.694511 0.987434 0.359002
0.714801 0.987332 0.357177
0.742977 0.987219 0.355107
0.778147 0.987095 0.352887
0.818000 0.986954 0.350746
0.858487 0.986795 0.349235
0.895450 0.986614 0.349325
0.926329 0.986409 0.352526
0.950099 0.986177 0.360929
0.967022 0.985925 0.376744
0.978869 0.985650 0.403146
0.987776 0.984891 0.447295
0.994813 0.984115 0.557402
0.997427 0.983620 0.674954
0.998766 0.983476 0.775439
0.999495 0.983807 0.850348
0.999885 0.984689 0.901195
1.000002 0.986136 0.935582
1.000002 0.988009 0.958003
1.000002 0.990061 0.972367
1.000002 0.992137 0.981902
1.000002 0.994019 0.988118
1.000002 0.995673 0.992344
0.746189 0.992179 0.456010
0.746194 0.992176 0.455941
0.746202 0.992173 0.455847
0.746219 0.992168 0.455722
0.746252 0.992160 0.455535
0.746376 0.992144 0.455105
0.746759 0.992115 0.454378
0.747778 0.992074 0.453328
0.750023 0.992023 0.452025
0.754331 0.991966 0.450520
0.761808 0.991904 0.448827
0.773528 0.991838 0.446960
0.790638 0.991766 0.444872
0.813300 0.991688 0.442594
0.840825 0.991601 0.440220
0.871006 0.991503 0.438055
0.900770 0.991390 0.436718
0.927482 0.991262 0.437257
0.949349 0.991116 0.441269
0.965704 0.990955 0.450668
0.977594 0.990773 0.468253
0.985699 0.990578 0.496611
0.991701 0.990062 0.542384
0.996785 0.989486 0.667438
0.998486 0.989127 0.763085
0.999363 0.988998 0.838674
0.999819 0.989187 0.892209
1.000002 0.989756 0.929387
1.000002 0.990699 0.953977
1.000002 0.991913 0.969815
1.000002 0.993302 0.980322
1.000002 0.994694 0.987143
1.000002 0.996020 0.991752
0.809131 0.994970 0.553233
0.809120 0.994968 0.553152
0.809105 0.994965 0.553044
0.809089 0.994962 0.552900
0.809071 0.994957 0.552686
0.809055 0.994946 0.552193
0.809125 0.994926 0.551363
0.809489 0.994898 0.550170
0.810499 0.994865 0.548706
0.812657 0.994826 0.547044
0.816648 0.994785 0.545215
0.823205 0.994742 0.543244
0.833227 0.994696 0.541084
0.847205 0.994646 0.538741
0.865251 0.994591 0.536223
0.886473 0.994530 0.533690
0.909037 0.994460 0.531520
0.930855 0.994379 0.530418
0.949980 0.994288 0.531563
0.965134 0.994185 0.536530
0.976673 0.994068 0.547619
0.984826 0.993939 0.567307
0.990276 0.993803 0.597608
0.994483 0.993439 0.647516
0.998022 0.993023 0.756266
0.999172 0.992755 0.829412
0.999729 0.992650 0.883735
1.000002 0.992762 0.922946
1.000002 0.993132 0.949533
1.000002 0.993744 0.966890
1.000002 0.994566 0.978470
1.000002 0.995498 0.985987
1.000002 0.996480 0.991049
0.857732 0.996821 0.659588
0.857715 0.996820 0.659506
0.857693 0.996818 0.659393
0.857665 0.996816 0.659245
0.857627 0.996813 0.659023
0.857554 0.996805 0.658512
0.857483 0.996792 0.657651
0.857529 0.996774 0.656417
0.857899 0.996751 0.654905
0.858891 0.996725 0.653197
0.860914 0.996698 0.651337
0.864433 0.996670 0.649359
0.870066 0.996640 0.647219
0.878301 0.996608 0.644912
0.889519 0.996573 0.642402
0.903574 0.996535 0.639746
0.919620 0.996491 0.637145
0.936345 0.996441 0.635038
0.952122 0.996384 0.634261
0.965475 0.996320 0.636042
0.976223 0.996246 0.642079
0.984166 0.996164 0.654151
0.989661 0.996074 0.673269
0.993436 0.995976 0.700384
0.996256 0.995731 0.737502
0.998831 0.995421 0.822927
0.999593 0.995226 0.876602
0.999961 0.995139 0.916640
1.000002 0.995202 0.944786
1.000002 0.995433 0.963593
1.000002 0.995841 0.976307
1.000002 0.996387 0.984609
1.000002 0.997039 0.990202
0.893641 0.998014 0.747283
0.893624 0.998013 0.747218
0.893601 0.998012 0.747130
0.893572 0.998011 0.747012
0.893530 0.998008 0.746836
0.893441 0.998003 0.746434
0.893322 0.997994 0.745755
0.893233 0.997982 0.744786
0.893302 0.997966 0.743601
0.893706 0.997949 0.742274
0.894688 0.997931 0.740842
0.896537 0.997912 0.739343
0.899651 0.997892 0.737750
0.904406 0.997871 0.736058
0.911191 0.997849 0.734230
0.920161 0.997825 0.732270
0.931063 0.997797 0.730240
0.943242 0.997766 0.728320
0.955590 0.997730 0.726907
0.966785 0.997690 0.726671
0.976367 0.997643 0.728569
0.983826 0.997590 0.733807
0.989202 0.997533 0.743358
0.993016 0.997468 0.758290
0.995558 0.997400 0.778239
0.997545 0.997226 0.806257
0.999345 0.997001 0.870687
0.999869 0.996855 0.911293
1.000002 0.996788 0.940222
1.000002 0.996822 0.960177
1.000002 0.996976 0.973953
1.000002 0.997249 0.983060
1.000002 0.997634 0.989230
0.920858 0.998810 0.813973
0.920842 0.998810 0.813922
0.920822 0.998809 0.813854
0.920795 0.998808 0.813764
0.920756 0.998807 0.813629
0.920671 0.998803 0.813319
0.920545 0.998797 0.812797
0.920409 0.998789 0.812053
0.920344 0.998778 0.811146
0.920455 0.998767 0.810135
0.920885 0.998754 0.809054
0.921810 0.998742 0.807934
0.923474 0.998728 0.806760
0.926134 0.998715 0.805532
0.930097 0.998701 0.804223
0.935590 0.998685 0.802820
0.942644 0.998668 0.801335
0.951042 0.998648 0.799825
0.960167 0.998626 0.798464
0.969042 0.998601 0.797588
0.977160 0.998571 0.797688
0.983865 0.998538 0.799495
0.988941 0.998501 0.803722
0.992686 0.998460 0.811219
0.995260 0.998415 0.822199
0.997035 0.998367 0.837016
0.998374 0.998249 0.856537
0.999686 0.998081 0.905792
1.000002 0.997973 0.936067
1.000002 0.997921 0.956737
1.000002 0.997938 0.971421
1.000002 0.998038 0.981320
1.000002 0.998229 0.988105
0.940782 0.999327 0.862466
0.940769 0.999326 0.862428
0.940752 0.999326 0.862375
0.940729 0.999325 0.862307
0.940696 0.999324 0.862204
0.940621 0.999321 0.861967
0.940505 0.999318 0.861568
0.940366 0.999312 0.860999
0.940252 0.999305 0.860309
0.940231 0.999297 0.859542
0.940388 0.999288 0.858726
0.940829 0.999280 0.857887
