create_logik_projekt/presets/Syncolor/transforms/r3d/IPP2-Cubes-SDR-Core-V1_13/REC2020/RWG_Log3G10 to REC2020_BT1886 with MEDIUM_CONTRAST and R_1_Hard size_33 v1.13.cube
# RED Digital Cinema Output Transform LUT for IPP2
# LUT Name = RWG_Log3G10 to REC2020_BT1886 with MEDIUM_CONTRAST and R_1_Hard size_33 v1.13
# Generated by version 1.13
# Settings used in creation of this LUT are:
# Development Color Space = REC2020
# Output Gamma Curve = BT1886
# Output Tonemap = MEDIUM_CONTRAST
# Highlight Rolloff = Rolloff 1 - hard
# Resolution = 33 x 33 x 33
TITLE "RED IPP2 LUT to map REDWideGamutRGB/Log3G10 to REC2020/BT1886/MEDIUM_CONTRAST/Rolloff 1 - hard"
LUT_3D_SIZE 9
0.000000 0.000000 0.000000
0.057505 0.003505 0.003505
0.244448 0.021325 0.014346
0.585582 0.085751 0.061067
0.917128 0.229659 0.172372
0.988936 0.514836 0.446766
0.999041 0.860834 0.828744
1.000002 0.967792 0.960897
1.000002 0.993005 0.991559
0.003505 0.073106 0.003505
0.062900 0.071610 0.003505
0.246276 0.059720 0.011694
0.589201 0.105686 0.058992
0.918454 0.239554 0.172201
0.989177 0.521440 0.449980
0.999075 0.863455 0.831574
1.000002 0.968458 0.961687
1.000002 0.993171 0.991758
0.023099 0.287238 0.004624
0.044826 0.286627 0.004656
0.259559 0.282262 0.004873
0.611641 0.274140 0.042302
0.926262 0.334305 0.164561
0.990616 0.579511 0.469015
0.999279 0.880884 0.848931
1.000002 0.972635 0.966539
1.000002 0.994193 0.992971
0.128057 0.691140 0.023435
0.140294 0.690520 0.023465
0.252968 0.685518 0.023421
0.612767 0.674679 0.025518
0.928503 0.654801 0.123486
0.991402 0.744688 0.459155
0.999421 0.905927 0.859556
1.000002 0.976832 0.970397
1.000002 0.995121 0.994006
0.337933 0.934293 0.102719
0.340388 0.934155 0.102617
0.376509 0.933101 0.101557
0.596269 0.930761 0.098513
0.903353 0.927152 0.116118
0.989600 0.919738 0.384611
0.999285 0.943272 0.835300
1.000002 0.979780 0.967966
1.000002 0.995250 0.993756
0.664119 0.987850 0.365524
0.664455 0.987822 0.365112
0.672772 0.987616 0.361996
0.742977 0.987219 0.355107
0.895450 0.986614 0.349325
0.978869 0.985650 0.403146
0.998766 0.983476 0.775439
1.000002 0.988009 0.958003
1.000002 0.995673 0.992344
0.893641 0.998014 0.747283
0.893530 0.998008 0.746836
0.893302 0.997966 0.743601
0.899651 0.997892 0.737750
0.931063 0.997797 0.730240
0.976367 0.997643 0.728569
0.995558 0.997400 0.778239
1.000002 0.996788 0.940222
1.000002 0.997634 0.989230
0.966993 0.999902 0.925128
0.966936 0.999900 0.924977
0.966584 0.999891 0.923896
0.966716 0.999876 0.922055
0.970573 0.999859 0.920017
0.982712 0.999835 0.917683
0.994848 0.999795 0.918770
0.999224 0.999734 0.934435
1.000002 0.999559 0.984123
0.989695 1.000002 0.977313
0.989674 1.000002 0.977264
0.989527 1.000002 0.976910
0.989366 1.000002 0.976317
0.989686 1.000002 0.975712
0.991710 1.000002 0.975043
0.995902 1.000002 0.974424
0.999026 1.000002 0.975223
1.000002 1.000002 0.980101
0.003505 0.003505 0.066219
0.052638 0.003505 0.065785
0.243720 0.017003 0.040258
0.585177 0.082257 0.074726
0.917098 0.228012 0.181626
0.988940 0.514415 0.449525
0.999043 0.860863 0.829211
1.000002 0.967816 0.960953
1.000002 0.993012 0.991570
0.003505 0.057625 0.060174
0.058073 0.058073 0.058073
0.245420 0.048504 0.034840
0.588594 0.101187 0.072723
0.918361 0.237782 0.181692
0.989170 0.520818 0.452669
0.999075 0.863383 0.831922
1.000002 0.968454 0.961709
1.000002 0.993171 0.991760
0.021636 0.284123 0.007069
0.042281 0.284183 0.006906
0.258747 0.279657 0.008010
0.611054 0.271849 0.051319
0.926183 0.332944 0.172606
0.990611 0.578952 0.471453
0.999278 0.880830 0.849208
1.000002 0.972633 0.966557
1.000002 0.994194 0.992974
0.127088 0.689549 0.026523
0.139406 0.689700 0.026403
0.252416 0.684609 0.026584
0.612534 0.673675 0.029157
0.928439 0.653987 0.128380
0.991398 0.744408 0.461323
0.999421 0.905896 0.859784
1.000002 0.976832 0.970413
1.000002 0.995121 0.994008
0.337455 0.934083 0.104905
0.340302 0.934139 0.104887
0.376395 0.933078 0.103983
0.596173 0.930725 0.101140
0.903384 0.927112 0.119265
0.989597 0.919712 0.386596
0.999285 0.943267 0.835564
1.000002 0.979781 0.967983
1.000002 0.995251 0.993758
0.663584 0.987817 0.366231
0.664612 0.987831 0.366408
0.672908 0.987624 0.363379
0.743052 0.987226 0.356641
0.895485 0.986621 0.350975
0.978369 0.985269 0.402064
0.998766 0.983482 0.775819
1.000002 0.988013 0.958026
1.000002 0.995675 0.992347
0.893446 0.998008 0.747054
0.893612 0.998011 0.747276
0.893382 0.997969 0.744061
0.899719 0.997895 0.738252
0.931100 0.997800 0.730787
0.976381 0.997645 0.729133
0.995563 0.997403 0.778676
1.000002 0.996790 0.940264
1.000002 0.997636 0.989234
0.966926 0.999900 0.924993
0.966966 0.999901 0.925069
0.966614 0.999892 0.923990
0.966745 0.999877 0.922153
0.970596 0.999860 0.920120
0.982723 0.999836 0.917791
0.994852 0.999796 0.918876
0.999225 0.999735 0.934519
1.000002 0.999559 0.984132
0.989672 1.000002 0.977264
0.989684 1.000002 0.977290
0.989538 1.000002 0.976936
0.989377 1.000002 0.976344
0.989696 1.000002 0.975739
0.991718 1.000002 0.975071
0.995905 1.000002 0.974453
0.999027 1.000002 0.975250
1.000002 1.000002 0.980124
0.010230 0.004298 0.265567
0.022583 0.004307 0.265711
0.234952 0.004418 0.265157
0.578699 0.051224 0.247733
0.915887 0.206507 0.277319
0.988841 0.506625 0.481850
0.999036 0.859786 0.833365
1.000002 0.967728 0.961184
1.000002 0.993008 0.991587
0.009749 0.006445 0.265457
0.023035 0.006391 0.265049
0.236598 0.006945 0.264387
0.582039 0.063868 0.246282
0.917159 0.217006 0.277313
0.989072 0.513060 0.484785
0.999069 0.862327 0.835952
1.000002 0.968367 0.961930
1.000002 0.993167 0.991776
0.007790 0.248244 0.254086
0.019235 0.248270 0.253635
0.248774 0.248774 0.248774
0.602601 0.244572 0.227339
0.924610 0.315234 0.270868
0.990451 0.569936 0.501860
0.999264 0.879274 0.851808
1.000002 0.972381 0.966518
1.000002 0.994146 0.992933
0.113982 0.671177 0.124896
0.126529 0.671342 0.124070
0.245212 0.672007 0.116549
0.608438 0.659676 0.140207
0.927058 0.642500 0.211042
0.991256 0.739681 0.488598
0.999408 0.904869 0.861817
1.000002 0.976640 0.970366
1.000002 0.995085 0.993976
0.332373 0.931983 0.143866
0.335348 0.932042 0.143723
0.374154 0.932383 0.142187
0.594087 0.929863 0.143567
0.903326 0.926176 0.171245
0.989461 0.919054 0.411971
0.999272 0.942921 0.837940
1.000002 0.979648 0.967937
1.000002 0.995219 0.993726
0.659259 0.987541 0.380037
0.660333 0.987555 0.380162
0.673412 0.987643 0.380828
0.743204 0.987234 0.376223
0.895594 0.986619 0.372225
0.978973 0.985655 0.424480
0.998751 0.983495 0.779582
1.000002 0.987991 0.957985
1.000002 0.995654 0.992310
0.892012 0.997960 0.747305
0.892182 0.997963 0.747511
0.893899 0.997983 0.748896
0.900147 0.997908 0.743638
0.931335 0.997813 0.736784
0.976471 0.997659 0.735422
0.995592 0.997417 0.783460
1.000002 0.996805 0.940405
1.000002 0.997637 0.989188
0.966446 0.999891 0.924199
0.966487 0.999891 0.924274
0.966821 0.999896 0.924794
0.966941 0.999881 0.923010
0.970751 0.999864 0.921037
0.982803 0.999839 0.918769
0.994880 0.999800 0.919846
0.999233 0.999739 0.935269
1.000002 0.999564 0.984119
0.989508 1.000002 0.976933
0.989520 1.000002 0.976958
0.989612 1.000002 0.977134
0.989450 1.000002 0.976549
0.989763 1.000002 0.975952
0.991767 1.000002 0.975292
0.995929 1.000002 0.974680
0.999035 1.000002 0.975468
1.000002 1.000002 0.980297
0.029732 0.007003 0.623714
0.035793 0.007008 0.624399
0.186722 0.007071 0.627161
0.534168 0.009093 0.622523
0.904460 0.108878 0.586262
0.987342 0.449243 0.644470
0.998873 0.844347 0.848972
1.000002 0.964905 0.960093
1.000002 0.992414 0.991029
0.029380 0.008489 0.626140
0.035842 0.008453 0.625895
0.187250 0.008565 0.628626
0.536906 0.011537 0.623941
0.905783 0.116480 0.587305
0.987591 0.455661 0.646881
0.998908 0.847137 0.851036
1.000002 0.965585 0.960820
1.000002 0.992582 0.991224
0.027388 0.094619 0.633017
0.033161 0.094191 0.632803
0.191431 0.091769 0.629060
0.555231 0.108819 0.625588
0.913482 0.227041 0.588298
0.989072 0.513122 0.660260
0.999119 0.865844 0.863776
1.000002 0.969863 0.965304
1.000002 0.993619 0.992420
0.055485 0.584033 0.600507
0.063601 0.584140 0.600370
0.207733 0.584450 0.597653
0.584770 0.584770 0.584770
0.914783 0.576622 0.550945
0.989740 0.701367 0.649243
0.999256 0.893878 0.870915
1.000002 0.974149 0.968723
1.000002 0.994539 0.993408
0.306855 0.922293 0.453537
0.310153 0.922361 0.453264
0.352843 0.922760 0.450555
0.578252 0.922854 0.440783
0.900726 0.918509 0.468703
0.987915 0.912903 0.564373
0.999101 0.938840 0.848830
1.000002 0.977822 0.966157
1.000002 0.994719 0.993142
0.645748 0.986603 0.498620
0.646933 0.986618 0.498562
0.661450 0.986715 0.497909
0.739441 0.986813 0.494576
0.894327 0.986117 0.501206
0.978876 0.985128 0.548109
0.998542 0.983121 0.798480
1.000002 0.987442 0.955832
1.000002 0.995293 0.991610
0.889047 0.997847 0.769392
0.889227 0.997850 0.769519
0.891064 0.997870 0.770354
0.900320 0.997898 0.771178
0.931343 0.997797 0.768124
0.976497 0.997637 0.768827
0.995617 0.997396 0.808685
1.000002 0.996796 0.939072
1.000002 0.997547 0.988265
0.965604 0.999872 0.925010
0.965645 0.999873 0.925077
0.965991 0.999877 0.925532
0.967197 0.999884 0.926187
0.970944 0.999866 0.924608
0.982896 0.999842 0.922735
0.994914 0.999802 0.923874
0.999244 0.999742 0.938276
1.000002 0.999568 0.983275
0.989234 1.000002 0.976612
0.989246 1.000002 0.976637
0.989339 1.000002 0.976806
0.989560 1.000002 0.977061
0.989863 1.000002 0.976507
0.991839 1.000002 0.975894
0.995962 1.000002 0.975322
0.999047 1.000002 0.976093
1.000002 1.000002 0.980775
0.039135 0.008442 0.910261
0.042376 0.008438 0.910555
0.106515 0.008393 0.912036
0.475607 0.009202 0.912082
0.856041 0.019677 0.906942
0.982493 0.274799 0.887704
0.998317 0.783030 0.906348
1.000002 0.955101 0.961077
1.000002 0.990464 0.989656
0.038842 0.009278 0.911407
0.042303 0.009254 0.911394
0.106436 0.009200 0.912858
0.477041 0.010195 0.912880
0.857662 0.021442 0.907833
0.982800 0.281764 0.888656
0.998362 0.786876 0.907365
1.000002 0.955944 0.961693
1.000002 0.990666 0.989864
0.036393 0.030820 0.916526
0.039431 0.030711 0.916525
0.104906 0.029870 0.915899
0.485139 0.031798 0.916061
0.868061 0.050946 0.912305
0.984619 0.345230 0.894267
0.998633 0.813076 0.913797
1.000002 0.961261 0.965543
1.000002 0.991912 0.991146
0.045849 0.408595 0.915255
0.049189 0.408248 0.915259
0.106376 0.405453 0.914905
0.499268 0.402115 0.912115
0.880738 0.425537 0.909784
0.985236 0.564149 0.895460
0.998794 0.855171 0.918551
1.000002 0.966690 0.968605
1.000002 0.993010 0.992201
0.216828 0.891118 0.898978
0.221295 0.891187 0.899018
0.276420 0.891572 0.899024
0.531229 0.891515 0.896914
0.891337 0.891337 0.891337
0.982846 0.887385 0.878111
0.998518 0.922712 0.909669
1.000002 0.971760 0.966124
1.000002 0.993134 0.991735
0.603499 0.983528 0.838862
0.604828 0.983546 0.838815
0.621698 0.983663 0.838334
0.715722 0.983786 0.836101
0.887671 0.983704 0.830050
0.977914 0.982538 0.847245
0.997855 0.981003 0.882481
1.000002 0.985571 0.956569
1.000002 0.994173 0.989931
0.882724 0.997538 0.861646
0.882922 0.997542 0.861649
0.884973 0.997566 0.861633
0.895422 0.997598 0.861228
0.929664 0.997606 0.859424
0.975988 0.997418 0.864329
0.995542 0.997169 0.883621
0.999970 0.996641 0.943602
1.000002 0.997265 0.986124
0.964422 0.999836 0.936359
0.964465 0.999837 0.936395
0.964831 0.999842 0.936641
0.966139 0.999849 0.936973
0.970851 0.999854 0.937051
0.982815 0.999826 0.936673
0.994894 0.999784 0.938146
0.999243 0.999724 0.948968
1.000002 0.999561 0.981676
0.988928 1.000002 0.977573
0.988940 1.000002 0.977593
0.989036 1.000002 0.977732
0.989268 1.000002 0.977941
0.989920 1.000002 0.978100
0.991873 1.000002 0.977690
0.995976 1.000002 0.977294
0.999052 1.000002 0.978041
1.000002 1.000002 0.982227
0.033607 0.006794 0.983602
0.035129 0.006783 0.983681
0.061430 0.006682 0.984117
0.381989 0.006685 0.984240
0.828892 0.009234 0.983394
0.962752 0.040052 0.980462
0.997148 0.580217 0.973030
1.000002 0.930004 0.976647
1.000002 0.986432 0.989763
0.033239 0.007036 0.983915
0.034898 0.007023 0.983920
0.061087 0.006916 0.984349
0.382468 0.006919 0.984467
0.830247 0.009743 0.983619
0.963266 0.041527 0.980738
0.997213 0.586570 0.973349
1.000002 0.931289 0.976954
1.000002 0.986707 0.989942
0.030145 0.013255 0.985486
0.031549 0.013209 0.985493
0.057965 0.012858 0.985422
0.382596 0.013004 0.985495
0.838005 0.020025 0.984612
0.966589 0.060488 0.982352
0.997598 0.635471 0.975423
1.000002 0.939411 0.978942
1.000002 0.988403 0.991069
0.027637 0.151772 0.985488
0.028813 0.151315 0.985496
0.050966 0.147466 0.985447
0.378495 0.141300 0.984859
0.846339 0.156115 0.984440
0.970676 0.264482 0.983176
0.997796 0.729530 0.977781
1.000002 0.947857 0.981033
1.000002 0.989877 0.992074
0.088091 0.809149 0.982978
0.090031 0.809046 0.982990
0.119452 0.808084 0.983023
0.399721 0.805274 0.982683
0.855120 0.803429 0.981607
0.973136 0.819858 0.980800
0.997314 0.877588 0.977159
1.000002 0.957555 0.980977
1.000002 0.990099 0.991837
0.493600 0.975410 0.977806
0.470584 0.971884 0.974547
0.513891 0.975564 0.977917
0.635891 0.975681 0.977824
0.871341 0.975538 0.976969
0.975438 0.975438 0.975438
0.996421 0.974162 0.972171
0.999949 0.980678 0.977754
1.000002 0.991926 0.990400
0.865011 0.996617 0.964380
0.865251 0.996621 0.964382
0.867776 0.996652 0.964379
0.880865 0.996693 0.964243
0.922591 0.996704 0.963571
0.974129 0.996658 0.962035
0.995228 0.996365 0.966037
0.999757 0.995973 0.971553
1.000002 0.996693 0.987250
0.961818 0.999731 0.967377
0.961865 0.999732 0.967382
0.962271 0.999738 0.967407
0.963756 0.999747 0.967408
0.969119 0.999752 0.967244
0.982179 0.999749 0.966672
0.994705 0.999697 0.968294
0.999207 0.999635 0.972721
1.000002 0.999502 0.984426
0.988449 1.000002 0.982809
0.988463 1.000002 0.982818
0.988564 1.000002 0.982883
0.988813 1.000002 0.982978
0.989529 1.000002 0.983035
0.991784 1.000002 0.982997
0.995923 1.000002 0.983081
0.999036 1.000002 0.983765
1.000002 1.000002 0.986564
0.015779 0.004360 0.998112
0.016228 0.004352 0.998128
0.023615 0.004298 0.998224
0.185717 0.004188 0.998230
0.789530 0.004352 0.998112
0.957529 0.007634 0.997573
0.990557 0.081206 0.996285
0.999768 0.859578 0.993617
1.000002 0.977689 0.994224
0.015416 0.004377 0.998177
0.015947 0.004377 0.998179
0.023221 0.004326 0.998273
0.184774 0.004208 0.998277
0.790845 0.004368 0.998160
0.958000 0.007813 0.997624
0.990710 0.082812 0.996357
0.999782 0.862111 0.993710
1.000002 0.978124 0.994314
0.012728 0.004825 0.998528
0.013139 0.004819 0.998530
0.020200 0.004769 0.998528
0.176328 0.004592 0.998524
0.798018 0.004857 0.998405
0.960834 0.011882 0.997874
0.991704 0.100247 0.996797
0.999862 0.878172 0.994330
1.000002 0.980810 0.994897
0.007592 0.045788 0.998364
0.007772 0.045589 0.998367
0.011486 0.044063 0.998370
0.149299 0.040459 0.998207
0.791375 0.044284 0.998092
0.963404 0.072178 0.997784
0.992967 0.214503 0.997189
0.999911 0.895243 0.995179
1.000002 0.983047 0.995574
0.011178 0.616893 0.997868
0.011474 0.616254 0.997870
0.016781 0.610701 0.997870
0.149241 0.592827 0.997714
0.793502 0.583676 0.997487
0.965023 0.619621 0.997301
0.993720 0.729748 0.996968
0.999833 0.920174 0.995623
1.000002 0.983414 0.995847
0.223938 0.958048 0.996739
0.225365 0.958045 0.996743
0.247342 0.957995 0.996767
0.418883 0.957703 0.996749
0.813015 0.956983 0.996578
0.967202 0.956624 0.996234
0.994128 0.960147 0.996010
0.999631 0.969772 0.995157
1.000002 0.987373 0.995642
0.815105 0.994620 0.995311
0.815451 0.994625 0.995316
0.819274 0.994662 0.995347
0.840207 0.994710 0.995371
0.903309 0.994714 0.995291
0.970768 0.994648 0.995001
0.994616 0.994616 0.994616
0.999376 0.994251 0.993834
1.000002 0.995360 0.994696
0.955591 0.999459 0.992311
0.955648 0.999460 0.992313
0.956134 0.999468 0.992327
0.957975 0.999479 0.992336
0.964683 0.999487 0.992286
0.980387 0.999484 0.992068
0.994214 0.999467 0.991688
0.999109 0.999393 0.992568
1.000002 0.999293 0.993342
0.987433 1.000002 0.992424
0.987448 1.000002 0.992426
0.987559 1.000002 0.992437
0.987840 1.000002 0.992451
0.988661 1.000002 0.992445
0.991227 1.000002 0.992376
0.995710 1.000002 0.992202
0.998971 1.000002 0.992661
1.000002 1.000002 0.993680
0.004585 0.003505 1.000002
0.004605 0.003505 1.000002
0.005014 0.003505 1.000002
0.020213 0.003505 1.000002
0.699253 0.003505 1.000002
0.955008 0.003505 1.000002
0.989948 0.006371 0.999986
0.997672 0.165669 0.999528
1.000002 0.957208 0.998575
0.004523 0.003505 1.000002
0.004551 0.003505 1.000002
0.004940 0.003505 1.000002
0.019578 0.003505 1.000002
0.700424 0.003505 1.000002
0.955514 0.003505 1.000002
0.990092 0.006417 0.999995
0.997718 0.168184 0.999546
1.000002 0.958017 0.998603
0.004130 0.003505 1.000002
0.004154 0.003505 1.000002
0.004479 0.003505 1.000002
0.015242 0.003505 1.000002
0.705836 0.003505 1.000002
0.958608 0.003505 1.000002
0.990976 0.007696 1.000002
0.998021 0.191908 0.999655
1.000002 0.962982 0.998788
0.003721 0.003897 1.000002
0.003721 0.003897 1.000002
0.003761 0.003850 1.000002
0.008316 0.003793 1.000002
0.683077 0.003721 1.000002
0.959590 0.004188 1.000002
0.991664 0.044161 1.000002
0.998415 0.303236 0.999772
1.000002 0.966827 0.999054
0.003505 0.248111 1.000002
0.003505 0.247288 1.000002
0.003505 0.240896 1.000002
0.004326 0.223659 1.000002
0.591316 0.197514 1.000002
0.954020 0.221586 0.999984
0.992078 0.362370 0.999909
0.998663 0.696333 0.999776
1.000002 0.967548 0.999256
0.004711 0.930139 0.999941
0.004734 0.930074 0.999941
0.005196 0.929445 0.999942
0.031036 0.926525 0.999908
0.620832 0.922209 0.999834
0.955380 0.920799 0.999761
0.992322 0.927700 0.999703
0.998782 0.944130 0.999622
1.000002 0.977549 0.999306
0.609773 0.991034 0.999544
0.610354 0.991036 0.999545
0.619134 0.991048 0.999553
0.680880 0.991044 0.999558
0.839477 0.990959 0.999538
0.959667 0.990774 0.999471
0.992823 0.990707 0.999370
0.998846 0.991407 0.999311
1.000002 0.992896 0.999106
0.940652 0.998961 0.999164
0.940725 0.998962 0.999166
0.941383 0.998972 0.999174
0.944129 0.998987 0.999185
0.954329 0.998995 0.999183
0.976422 0.998988 0.999143
0.993531 0.998964 0.999052
0.998956 0.998956 0.998956
1.000002 0.998856 0.998761
0.985355 1.000002 0.998437
0.985372 1.000002 0.998438
0.985502 1.000002 0.998444
0.985838 1.000002 0.998451
0.986856 1.000002 0.998451
0.990010 1.000002 0.998428
0.995282 1.000002 0.998357
0.998842 1.000002 0.998262
1.000002 1.000002 0.998470
0.003505 0.003505 1.000002
0.003505 0.003505 1.000002
0.003505 0.003505 1.000002
0.003663 0.003505 1.000002
0.098588 0.003505 1.000002
0.955940 0.003505 1.000002
0.991831 0.003505 1.000002
0.997746 0.005901 1.000002
0.999600 0.369462 1.000002
0.003505 0.003505 1.000002
0.003505 0.003505 1.000002
0.003505 0.003505 1.000002
0.003505 0.003505 1.000002
0.094812 0.003505 1.000002
0.956534 0.003505 1.000002
0.991981 0.003505 1.000002
0.997790 0.005891 1.000002
0.999614 0.375415 1.000002
0.003505 0.003505 1.000002
0.003505 0.003505 1.000002
0.003505 0.003505 1.000002
0.003505 0.003505 1.000002
0.070706 0.003505 1.000002
0.960270 0.003505 1.000002
0.992923 0.003505 1.000002
0.998062 0.006287 1.000002
0.999707 0.422091 1.000002
0.003505 0.003505 1.000002
0.003505 0.003505 1.000002
0.003505 0.003505 1.000002
0.003505 0.003505 1.000002
0.038901 0.003505 1.000002
0.962673 0.003505 1.000002
0.993684 0.003505 1.000002
0.998250 0.029376 1.000002
0.999829 0.540994 1.000002
0.003505 0.004925 1.000002
0.003505 0.004883 1.000002
0.003505 0.004631 1.000002
0.003505 0.004288 1.000002
0.011348 0.003955 1.000002
0.944338 0.004208 1.000002
0.990854 0.034656 1.000002
0.998342 0.202999 1.000002
0.999911 0.771002 1.000002
0.003505 0.876584 1.000002
0.003505 0.876350 1.000002
0.003505 0.874391 1.000002
0.003505 0.867661 1.000002
0.005855 0.838772 1.000002
0.928218 0.817925 1.000002
0.990047 0.837658 1.000002
0.998382 0.883745 1.000002
0.999951 0.937835 1.000002
0.004571 0.986600 1.000002
0.004564 0.986596 1.000002
0.004729 0.986538 1.000002
0.014486 0.986126 1.000002
0.407804 0.985193 1.000002
0.934208 0.984604 1.000002
0.990460 0.984405 1.000002
0.998414 0.985605 1.000002
0.999965 0.988249 1.000002
0.886635 0.998143 1.000002
0.886708 0.998144 1.000002
0.887647 0.998151 1.000002
0.894004 0.998158 1.000002
0.919385 0.998154 1.000002
0.964552 0.998124 1.000002
0.991296 0.998074 1.000002
0.998534 0.998061 1.000002
0.999975 0.998216 1.000002
0.980785 1.000002 1.000002
0.980806 1.000002 1.000002
0.980969 1.000002 1.000002
0.981429 1.000002 1.000002
0.982920 1.000002 1.000002
0.987471 1.000002 1.000002
0.994454 1.000002 1.000002
0.998689 1.000002 1.000002
1.000002 1.000002 1.000002
