create_logik_projekt/presets/Syncolor/transforms/r3d/IPP2-Cubes-SDR-Core-V1_13/REC2020/RWG_Log3G10 to REC2020_BT1886 with HIGH_CONTRAST and R_1_Hard size_33 v1.13.cube
# RED Digital Cinema Output Transform LUT for IPP2
# LUT Name = RWG_Log3G10 to REC2020_BT1886 with HIGH_CONTRAST and R_1_Hard size_33 v1.13
# Generated by version 1.13
# Settings used in creation of this LUT are:
# Development Color Space = REC2020
# Output Gamma Curve = BT1886
# Output Tonemap = HIGH_CONTRAST
# Highlight Rolloff = Rolloff 1 - hard
# Resolution = 33 x 33 x 33
TITLE "RED IPP2 LUT to map REDWideGamutRGB/Log3G10 to REC2020/BT1886/HIGH_CONTRAST/Rolloff 1 - hard"
LUT_3D_SIZE 5
0.000000 0.000000 0.000000
0.221401 0.018614 0.012462
0.961334 0.321773 0.262796
1.000002 0.953513 0.943377
1.000002 0.993023 0.991581
0.019457 0.258551 0.004385
0.233427 0.252779 0.005161
0.965637 0.388512 0.267490
1.000002 0.959484 0.950253
1.000002 0.994060 0.992814
0.449915 0.965954 0.176133
0.468039 0.965423 0.174302
0.946698 0.961384 0.206043
1.000002 0.977068 0.947281
1.000002 0.995293 0.993350
0.955914 0.999675 0.898860
0.955487 0.999662 0.897468
0.968726 0.999599 0.890709
0.998742 0.999443 0.911472
1.000002 0.999210 0.985524
0.989694 1.000002 0.977311
0.989549 1.000002 0.976965
0.990190 1.000002 0.975462
0.998483 1.000002 0.974747
1.000002 1.000002 0.980104
0.009058 0.004188 0.239990
0.212883 0.004288 0.239534
0.961000 0.310146 0.318231
1.000002 0.953457 0.943881
1.000002 0.993035 0.991614
0.006815 0.224211 0.229374
0.224722 0.224722 0.224722
0.965114 0.376859 0.322184
1.000002 0.959194 0.950372
1.000002 0.994027 0.992789
0.445758 0.965126 0.203536
0.467458 0.965335 0.203080
0.946820 0.961211 0.243334
1.000002 0.976997 0.947377
1.000002 0.995275 0.993332
0.955303 0.999661 0.897899
0.955749 0.999668 0.898569
0.968868 0.999604 0.892022
0.998698 0.999415 0.910279
1.000002 0.999215 0.985516
0.989534 1.000002 0.976982
0.989622 1.000002 0.977155
0.990251 1.000002 0.975667
0.998493 1.000002 0.974958
1.000002 1.000002 0.980269
0.039157 0.008188 0.952835
0.075735 0.008109 0.953836
0.915211 0.026262 0.949302
0.999905 0.922598 0.957114
1.000002 0.989222 0.989314
0.036487 0.019034 0.956473
0.074065 0.018566 0.956263
0.921963 0.045613 0.952639
0.999974 0.931673 0.960803
1.000002 0.990626 0.990604
0.313875 0.939168 0.944161
0.343347 0.939442 0.944305
0.939271 0.939271 0.939271
0.999930 0.965916 0.959824
1.000002 0.992365 0.990834
0.951161 0.999521 0.936223
0.951676 0.999529 0.936327
0.968439 0.999547 0.935865
0.998748 0.999378 0.947975
1.000002 0.999159 0.982525
0.988775 1.000002 0.978927
0.988869 1.000002 0.979040
0.990391 1.000002 0.979377
0.998513 1.000002 0.979330
1.000002 1.000002 0.983478
0.005716 0.003663 1.000002
0.006532 0.003663 1.000002
0.876321 0.003505 1.000002
0.996674 0.138496 0.999127
1.000002 0.964145 0.997799
0.004994 0.003663 1.000002
0.005684 0.003663 1.000002
0.882357 0.003663 1.000002
0.997080 0.157494 0.999284
1.000002 0.968412 0.998052
0.003825 0.744104 0.999823
0.003955 0.740380 0.999826
0.866690 0.701235 0.999627
0.998065 0.842942 0.999386
1.000002 0.974539 0.998748
0.921349 0.998382 0.998658
0.922239 0.998396 0.998670
0.954876 0.998425 0.998660
0.998378 0.998378 0.998378
1.000002 0.998261 0.998091
0.986014 1.000002 0.997488
0.986133 1.000002 0.997494
0.988268 1.000002 0.997494
0.998275 1.000002 0.997280
1.000002 1.000002 0.997659
0.003505 0.003505 1.000002
0.003505 0.003505 1.000002
0.800969 0.003505 1.000002
0.997030 0.003663 1.000002
0.999601 0.370097 1.000002
0.003505 0.003505 1.000002
0.003505 0.003505 1.000002
0.805643 0.003505 1.000002
0.997402 0.003663 1.000002
0.999694 0.414492 1.000002
0.003505 0.222393 1.000002
0.003505 0.215049 1.000002
0.513897 0.141801 1.000002
0.997410 0.397036 1.000002
0.999931 0.854263 1.000002
0.791463 0.996859 1.000002
0.793127 0.996864 1.000002
0.910657 0.996828 1.000002
0.997608 0.996694 1.000002
0.999972 0.997048 1.000002
0.980787 1.000002 1.000002
0.980942 1.000002 1.000002
0.984239 1.000002 1.000002
0.997995 1.000002 1.000002
1.000002 1.000002 1.000002
