create_logik_projekt/presets/Syncolor/transforms/r3d/IPP2-Cubes-SDR-Core-V1_13/REC2020/RWG_Log3G10 to REC2020_BT1886 with MEDIUM_CONTRAST and R_1_Hard size_33 v1.13.cube
# RED Digital Cinema Output Transform LUT for IPP2
# LUT Name = RWG_Log3G10 to REC2020_BT1886 with MEDIUM_CONTRAST and R_1_Hard size_33 v1.13
# Generated by version 1.13
# Settings used in creation of this LUT are:
# Development Color Space = REC2020
# Output Gamma Curve = BT1886
# Output Tonemap = MEDIUM_CONTRAST
# Highlight Rolloff = Rolloff 1 - hard
# Resolution = 33 x 33 x 33
TITLE "RED IPP2 LUT to map REDWideGamutRGB/Log3G10 to REC2020/BT1886/MEDIUM_CONTRAST/Rolloff 1 - hard"
LUT_3D_SIZE 5
0.000000 0.000000 0.000000
0.244448 0.021325 0.014346
0.917128 0.229659 0.172372
0.999041 0.860834 0.828744
1.000002 0.993005 0.991559
0.023099 0.287238 0.004624
0.259559 0.282262 0.004873
0.926262 0.334305 0.164561
0.999279 0.880884 0.848931
1.000002 0.994193 0.992971
0.337933 0.934293 0.102719
0.376509 0.933101 0.101557
0.903353 0.927152 0.116118
0.999285 0.943272 0.835300
1.000002 0.995250 0.993756
0.893641 0.998014 0.747283
0.893302 0.997966 0.743601
0.931063 0.997797 0.730240
0.995558 0.997400 0.778239
1.000002 0.997634 0.989230
0.989695 1.000002 0.977313
0.989527 1.000002 0.976910
0.989686 1.000002 0.975712
0.995902 1.000002 0.974424
1.000002 1.000002 0.980101
0.010230 0.004298 0.265567
0.234952 0.004418 0.265157
0.915887 0.206507 0.277319
0.999036 0.859786 0.833365
1.000002 0.993008 0.991587
0.007790 0.248244 0.254086
0.248774 0.248774 0.248774
0.924610 0.315234 0.270868
0.999264 0.879274 0.851808
1.000002 0.994146 0.992933
0.332373 0.931983 0.143866
0.374154 0.932383 0.142187
0.903326 0.926176 0.171245
0.999272 0.942921 0.837940
1.000002 0.995219 0.993726
0.892012 0.997960 0.747305
0.893899 0.997983 0.748896
0.931335 0.997813 0.736784
0.995592 0.997417 0.783460
1.000002 0.997637 0.989188
0.989508 1.000002 0.976933
0.989612 1.000002 0.977134
0.989763 1.000002 0.975952
0.995929 1.000002 0.974680
1.000002 1.000002 0.980297
0.039135 0.008442 0.910261
0.106515 0.008393 0.912036
0.856041 0.019677 0.906942
0.998317 0.783030 0.906348
1.000002 0.990464 0.989656
0.036393 0.030820 0.916526
0.104906 0.029870 0.915899
0.868061 0.050946 0.912305
0.998633 0.813076 0.913797
1.000002 0.991912 0.991146
0.216828 0.891118 0.898978
0.276420 0.891572 0.899024
0.891337 0.891337 0.891337
0.998518 0.922712 0.909669
1.000002 0.993134 0.991735
0.882724 0.997538 0.861646
0.884973 0.997566 0.861633
0.929664 0.997606 0.859424
0.995542 0.997169 0.883621
1.000002 0.997265 0.986124
0.988928 1.000002 0.977573
0.989036 1.000002 0.977732
0.989920 1.000002 0.978100
0.995976 1.000002 0.977294
1.000002 1.000002 0.982227
0.015779 0.004360 0.998112
0.023615 0.004298 0.998224
0.789530 0.004352 0.998112
0.990557 0.081206 0.996285
1.000002 0.977689 0.994224
0.012728 0.004825 0.998528
0.020200 0.004769 0.998528
0.798018 0.004857 0.998405
0.991704 0.100247 0.996797
1.000002 0.980810 0.994897
0.011178 0.616893 0.997868
0.016781 0.610701 0.997870
0.793502 0.583676 0.997487
0.993720 0.729748 0.996968
1.000002 0.983414 0.995847
0.815105 0.994620 0.995311
0.819274 0.994662 0.995347
0.903309 0.994714 0.995291
0.994616 0.994616 0.994616
1.000002 0.995360 0.994696
0.987433 1.000002 0.992424
0.987559 1.000002 0.992437
0.988661 1.000002 0.992445
0.995710 1.000002 0.992202
1.000002 1.000002 0.993680
0.003505 0.003505 1.000002
0.003505 0.003505 1.000002
0.098588 0.003505 1.000002
0.991831 0.003505 1.000002
0.999600 0.369462 1.000002
0.003505 0.003505 1.000002
0.003505 0.003505 1.000002
0.070706 0.003505 1.000002
0.992923 0.003505 1.000002
0.999707 0.422091 1.000002
0.003505 0.004925 1.000002
0.003505 0.004631 1.000002
0.011348 0.003955 1.000002
0.990854 0.034656 1.000002
0.999911 0.771002 1.000002
0.004571 0.986600 1.000002
0.004729 0.986538 1.000002
0.407804 0.985193 1.000002
0.990460 0.984405 1.000002
0.999965 0.988249 1.000002
0.980785 1.000002 1.000002
0.980969 1.000002 1.000002
0.982920 1.000002 1.000002
0.994454 1.000002 1.000002
1.000002 1.000002 1.000002
