create_logik_projekt/presets/Syncolor/transforms/r3d/IPP2-Cubes-SDR-Core-V1_13/REC709/RWG_Log3G10 to REC709_BT1886 with LOW_CONTRAST and R_1_Hard size_33 v1.13.cube
# RED Digital Cinema Output Transform LUT for IPP2
# LUT Name = RWG_Log3G10 to REC709_BT1886 with LOW_CONTRAST and R_1_Hard size_33 v1.13
# Generated by version 1.13
# Settings used in creation of this LUT are:
# Development Color Space = REC709
# Output Gamma Curve = BT1886
# Output Tonemap = LOW_CONTRAST
# Highlight Rolloff = Rolloff 1 - hard
# Resolution = 33 x 33 x 33
TITLE "RED IPP2 LUT to map REDWideGamutRGB/Log3G10 to REC709/BT1886/LOW_CONTRAST/Rolloff 1 - hard"
LUT_3D_SIZE 33
0.000000 0.000000 0.000000
0.000000 0.000000 0.000000
0.000662 0.000000 0.000000
0.067175 0.003505 0.003505
0.108301 0.003505 0.003505
0.162836 0.004037 0.004479
0.223711 0.006442 0.008957
0.292300 0.011701 0.017566
0.370655 0.018292 0.026890
0.461550 0.025218 0.036604
0.568627 0.032571 0.046868
0.700434 0.041345 0.059080
0.809184 0.051743 0.073531
0.882265 0.063410 0.089752
0.930513 0.077280 0.109095
0.960750 0.094117 0.132742
0.978823 0.114959 0.162371
0.989205 0.141508 0.200804
0.994877 0.176154 0.252202
0.997784 0.221806 0.320854
0.999238 0.285934 0.404309
0.999904 0.375916 0.501316
1.000002 0.480126 0.611796
1.000002 0.600159 0.722921
1.000002 0.718548 0.804843
1.000002 0.806583 0.864747
1.000002 0.867297 0.906281
1.000002 0.909788 0.935642
1.000002 0.938726 0.955876
1.000002 0.958129 0.969603
1.000002 0.971584 0.979229
1.000002 0.980716 0.985829
1.000002 0.987151 0.990524
0.000000 0.000000 0.000000
0.000000 0.000000 0.000000
0.000028 0.000000 0.000000
0.061468 0.003505 0.003505
0.105424 0.003505 0.003505
0.161116 0.004592 0.004220
0.222502 0.007932 0.008134
0.291379 0.013900 0.016539
0.369932 0.020418 0.025913
0.460989 0.027201 0.035712
0.568245 0.034397 0.046071
0.700412 0.042986 0.058407
0.809293 0.053198 0.072972
0.882421 0.064708 0.089302
0.930658 0.078446 0.108754
0.960862 0.095178 0.132512
0.978899 0.115947 0.162259
0.989253 0.142462 0.200828
0.994905 0.177123 0.252400
0.997799 0.222856 0.321265
0.999245 0.287166 0.404917
0.999908 0.377304 0.502129
1.000002 0.481540 0.612827
1.000002 0.601679 0.723813
1.000002 0.719749 0.805534
1.000002 0.807428 0.865262
1.000002 0.867890 0.906658
1.000002 0.910198 0.935913
1.000002 0.939011 0.956069
1.000002 0.958328 0.969741
1.000002 0.971723 0.979327
1.000002 0.980812 0.985899
1.000002 0.987217 0.990572
0.000000 0.000048 0.000000
0.000000 0.000023 0.000000
0.000002 0.000009 0.000000
0.051923 0.003505 0.003505
0.101188 0.003990 0.003505
0.158651 0.006634 0.003955
0.220778 0.011653 0.007191
0.290064 0.017603 0.015184
0.368892 0.023748 0.024601
0.460170 0.030182 0.034502
0.567692 0.037044 0.045001
0.700346 0.045319 0.057501
0.809416 0.055241 0.072215
0.882615 0.066517 0.088691
0.930842 0.080060 0.108287
0.961006 0.096641 0.132192
0.978999 0.117305 0.162097
0.989316 0.143768 0.200849
0.994941 0.178444 0.252654
0.997819 0.224283 0.321802
0.999255 0.288834 0.405719
0.999913 0.379166 0.503205
1.000002 0.483432 0.614193
1.000002 0.603709 0.724989
1.000002 0.721340 0.806446
1.000002 0.808546 0.865941
1.000002 0.868672 0.907156
1.000002 0.910741 0.936271
1.000002 0.939388 0.956324
1.000002 0.958591 0.969924
1.000002 0.971906 0.979456
1.000002 0.980940 0.985990
1.000002 0.987305 0.990636
0.003505 0.059123 0.003505
0.003505 0.056993 0.003505
0.003505 0.053868 0.003505
0.031527 0.049140 0.003505
0.094797 0.035088 0.003505
0.155096 0.019206 0.003721
0.218314 0.020401 0.006189
0.288181 0.024277 0.013439
0.367398 0.029168 0.022872
0.459006 0.034723 0.032912
0.566893 0.040923 0.043591
0.700199 0.048653 0.056297
0.809539 0.058111 0.071203
0.882846 0.069029 0.087868
0.931071 0.082286 0.107653
0.961187 0.098645 0.131751
0.979125 0.119155 0.161862
0.989396 0.145539 0.200855
0.994988 0.180229 0.252964
0.997845 0.226201 0.322486
0.999268 0.291065 0.406752
0.999919 0.381628 0.504598
1.000002 0.485924 0.615968
1.000002 0.606377 0.726510
1.000002 0.723411 0.807627
1.000002 0.809999 0.866820
1.000002 0.869688 0.907799
1.000002 0.911445 0.936734
1.000002 0.939875 0.956655
1.000002 0.958931 0.970159
1.000002 0.972142 0.979623
1.000002 0.981104 0.986108
1.000002 0.987418 0.990718
0.003505 0.100523 0.003505
0.003505 0.099470 0.003505
0.003505 0.097997 0.003505
0.003505 0.095934 0.003505
0.079020 0.090783 0.003505
0.147430 0.080050 0.003505
0.213108 0.061284 0.004889
0.284232 0.045895 0.010361
0.364278 0.043760 0.019690
0.456549 0.045761 0.029922
0.565141 0.049795 0.040899
0.699724 0.055952 0.053975
0.809648 0.064217 0.069228
0.883211 0.074274 0.086244
0.931462 0.086870 0.106383
0.961507 0.102732 0.130846
0.979351 0.122897 0.161349
0.989540 0.149094 0.200797
0.995073 0.183783 0.253484
0.997891 0.229990 0.323717
0.999292 0.295441 0.408652
0.999930 0.386357 0.507184
1.000002 0.490685 0.619277
1.000002 0.611448 0.729327
1.000002 0.727279 0.809813
1.000002 0.812705 0.868449
1.000002 0.871575 0.908992
1.000002 0.912751 0.937591
1.000002 0.940780 0.957266
1.000002 0.959562 0.970596
1.000002 0.972580 0.979932
1.000002 0.981409 0.986326
1.000002 0.987627 0.990870
0.003505 0.153251 0.003505
0.003505 0.152594 0.003505
0.003505 0.151683 0.003505
0.003505 0.150430 0.003505
0.006007 0.147902 0.003505
0.127715 0.142172 0.003505
0.200519 0.131592 0.003721
0.274785 0.118816 0.006207
0.356748 0.102859 0.013747
0.450472 0.084428 0.023992
0.560556 0.076901 0.035371
0.697906 0.076219 0.049082
0.809337 0.080150 0.064971
0.883640 0.087409 0.082665
0.932079 0.098022 0.103506
0.962058 0.112464 0.128702
0.979759 0.131654 0.160003
0.989807 0.157282 0.200377
0.995231 0.191841 0.254241
0.997979 0.238449 0.325939
0.999336 0.305056 0.412277
0.999950 0.396310 0.512227
1.000002 0.500591 0.625801
1.000002 0.621890 0.734810
1.000002 0.734980 0.814073
1.000002 0.818053 0.871624
1.000002 0.875290 0.911316
1.000002 0.915313 0.939262
1.000002 0.942550 0.958458
1.000002 0.960795 0.971447
1.000002 0.973435 0.980534
1.000002 0.982004 0.986752
1.000002 0.988035 0.991166
0.003505 0.211374 0.003505
0.003505 0.210874 0.003505
0.003505 0.210185 0.003505
0.003505 0.209242 0.003505
0.003721 0.207359 0.003505
0.048175 0.203159 0.003505
0.177559 0.196447 0.003505
0.258152 0.185468 0.004037
0.343451 0.173583 0.007451
0.439469 0.160265 0.016397
0.551718 0.144869 0.027768
0.693260 0.125245 0.042018
0.807588 0.114401 0.058579
0.883466 0.113557 0.077098
0.932500 0.119076 0.098839
0.962585 0.130140 0.125012
0.980196 0.147084 0.157392
0.990110 0.171331 0.199037
0.995418 0.205316 0.254515
0.998084 0.252231 0.328290
0.999390 0.320314 0.416671
0.999976 0.410982 0.518644
1.000002 0.514896 0.634246
1.000002 0.636594 0.741831
1.000002 0.745292 0.819549
1.000002 0.825130 0.875713
1.000002 0.880166 0.914313
1.000002 0.918658 0.941417
1.000002 0.944851 0.959995
1.000002 0.962393 0.972544
1.000002 0.974541 0.981310
1.000002 0.982772 0.987300
1.000002 0.988561 0.991547
0.003505 0.276529 0.003721
0.003505 0.276104 0.003721
0.003505 0.275519 0.003721
0.003505 0.274724 0.003721
0.003505 0.273152 0.003721
0.005804 0.269659 0.003663
0.114862 0.264120 0.003663
0.231499 0.256309 0.003505
0.322466 0.244204 0.004410
0.421847 0.231721 0.008881
0.536799 0.218328 0.019157
0.683786 0.202425 0.033362
0.803092 0.184815 0.050295
0.881876 0.167098 0.069545
0.932237 0.158502 0.092189
0.962802 0.161254 0.119403
0.980504 0.173025 0.152983
0.990364 0.194071 0.196068
0.995588 0.226379 0.253398
0.998184 0.273051 0.329713
0.999443 0.342099 0.420724
1.000001 0.430232 0.525219
1.000002 0.533139 0.643065
1.000002 0.653987 0.749280
1.000002 0.757139 0.825409
1.000002 0.833120 0.880110
1.000002 0.885602 0.917545
1.000002 0.922354 0.943746
1.000002 0.947379 0.961659
1.000002 0.964142 0.973732
1.000002 0.975748 0.982151
1.000002 0.983608 0.987894
1.000002 0.989133 0.991960
0.003505 0.350721 0.003990
0.003505 0.350335 0.003990
0.003505 0.349808 0.003990
0.003505 0.349099 0.003972
0.003505 0.347699 0.003972
0.004104 0.344595 0.003936
0.020731 0.339680 0.003897
0.169593 0.332761 0.003825
0.291386 0.323642 0.003721
0.395799 0.309820 0.004915
0.513898 0.295819 0.010928
0.666940 0.279980 0.023977
0.794243 0.263084 0.040599
0.877921 0.246062 0.060194
0.930746 0.230322 0.083502
0.962407 0.218973 0.111599
0.980517 0.217972 0.146272
0.990483 0.231403 0.190736
0.995698 0.259418 0.249889
0.998259 0.304363 0.328999
0.999485 0.370230 0.423194
1.000002 0.454359 0.530637
1.000002 0.555219 0.650873
1.000002 0.673037 0.756145
1.000002 0.769708 0.830924
1.000002 0.841387 0.884300
1.000002 0.891127 0.920648
1.000002 0.926062 0.945992
1.000002 0.949893 0.963267
1.000002 0.965869 0.974883
1.000002 0.976935 0.982967
1.000002 0.984428 0.988471
1.000002 0.989693 0.992361
0.003505 0.436546 0.004494
0.003505 0.436189 0.004487
0.003505 0.435702 0.004487
0.003505 0.435048 0.004472
0.003663 0.433757 0.004465
0.003850 0.430895 0.004434
0.006532 0.426357 0.004368
0.059141 0.419950 0.004279
0.225508 0.411471 0.004165
0.359221 0.400698 0.004037
0.481074 0.384532 0.005705
0.638986 0.367129 0.014907
0.778798 0.349085 0.030164
0.870332 0.330734 0.049408
0.927341 0.313031 0.072879
0.961039 0.298256 0.101454
0.980053 0.289984 0.136854
0.990376 0.292810 0.182335
0.995707 0.311435 0.242938
0.998290 0.348343 0.324735
0.999510 0.406052 0.422691
1.000002 0.484406 0.533470
1.000002 0.581682 0.656369
1.000002 0.693319 0.761537
1.000002 0.782567 0.835483
1.000002 0.849560 0.887866
1.000002 0.896444 0.923334
1.000002 0.929560 0.947960
1.000002 0.952229 0.964688
1.000002 0.967459 0.975906
1.000002 0.978020 0.983694
1.000002 0.985174 0.988987
1.000002 0.990201 0.992721
0.003505 0.537202 0.005375
0.003505 0.536864 0.005371
0.003505 0.536403 0.005363
0.003505 0.535785 0.005359
0.003663 0.534564 0.005339
0.003825 0.531858 0.005298
0.004814 0.527566 0.005218
0.016441 0.521483 0.005098
0.127283 0.513382 0.004940
0.286329 0.503006 0.004752
0.437248 0.490118 0.004571
0.591128 0.470257 0.007430
0.753198 0.449456 0.019884
0.857116 0.428625 0.037757
0.920969 0.407951 0.060620
0.958163 0.389128 0.089013
0.978848 0.375051 0.124488
0.989920 0.369760 0.170273
0.995558 0.378206 0.231501
0.998252 0.404350 0.315127
0.999506 0.452018 0.417468
1.000002 0.522302 0.531948
1.000002 0.613823 0.658027
1.000002 0.714825 0.764472
1.000002 0.795565 0.838453
1.000002 0.857439 0.890398
1.000002 0.901366 0.925336
1.000002 0.932691 0.949470
1.000002 0.954270 0.965801
1.000002 0.968824 0.976718
1.000002 0.978940 0.984279
1.000002 0.985802 0.989405
1.000002 0.990626 0.993014
0.003663 0.653383 0.006952
0.003663 0.653081 0.006947
0.003663 0.652671 0.006939
0.003663 0.652118 0.006929
0.003721 0.651026 0.006909
0.003850 0.648596 0.006852
0.004442 0.644701 0.006744
0.007894 0.639078 0.006573
0.037270 0.631381 0.006339
0.194181 0.621235 0.006060
0.356128 0.608475 0.005774
0.526448 0.593167 0.005532
0.701680 0.569261 0.010193
0.834506 0.544038 0.026095
0.910007 0.519446 0.047481
0.952960 0.495984 0.074815
0.976502 0.475824 0.109464
0.988927 0.462414 0.154491
0.995167 0.460551 0.215005
0.998109 0.475038 0.298254
0.999460 0.510699 0.405457
1.000002 0.570226 0.523872
1.000002 0.652248 0.653756
1.000002 0.737490 0.763617
1.000002 0.808556 0.838981
1.000002 0.864823 0.891353
1.000002 0.905688 0.926299
1.000002 0.935280 0.950295
1.000002 0.955875 0.966455
1.000002 0.969859 0.977219
1.000002 0.979620 0.984652
1.000002 0.986258 0.989679
1.000002 0.990931 0.993210
0.003721 0.756819 0.009984
0.003721 0.756626 0.009977
0.003721 0.756364 0.009969
0.003761 0.756012 0.009954
0.003825 0.755319 0.009921
0.003972 0.753783 0.009838
0.004410 0.751331 0.009683
0.006082 0.747799 0.009429
0.016793 0.742947 0.009071
0.072909 0.736450 0.008624
0.261063 0.727897 0.008136
0.433941 0.717022 0.007690
0.630163 0.703327 0.007392
0.789436 0.680401 0.014598
0.892244 0.653282 0.034440
0.944803 0.625233 0.060090
0.972793 0.598480 0.093123
0.987296 0.576720 0.136313
0.994485 0.564262 0.194596
0.997837 0.566226 0.275179
0.999362 0.587971 0.385955
0.999994 0.633794 0.508464
1.000002 0.696322 0.642513
1.000002 0.763132 0.758452
1.000002 0.822824 0.836833
1.000002 0.872494 0.890636
1.000002 0.909855 0.926192
1.000002 0.937568 0.950425
1.000002 0.957175 0.966652
1.000002 0.970635 0.977413
1.000002 0.980098 0.984818
1.000002 0.986563 0.989812
1.000002 0.991129 0.993312
0.003917 0.833255 0.015004
0.003917 0.833134 0.014995
0.003936 0.832970 0.014984
0.003972 0.832751 0.014967
0.004021 0.832322 0.014933
0.004176 0.831376 0.014845
0.004564 0.829881 0.014678
0.005691 0.827740 0.014400
0.010683 0.824805 0.013985
0.032797 0.820860 0.013425
0.133184 0.815627 0.012746
0.333309 0.808902 0.012041
0.525303 0.800322 0.011452
0.728973 0.789748 0.011226
0.854717 0.771653 0.020893
0.931451 0.749629 0.045625
0.966888 0.727329 0.076497
0.984724 0.705260 0.117115
0.993403 0.686924 0.172050
0.997399 0.677766 0.248261
0.999198 0.683259 0.359325
0.999938 0.706798 0.485976
1.000002 0.745310 0.623684
1.000002 0.792737 0.748717
1.000002 0.839541 0.831976
1.000002 0.881376 0.888314
1.000002 0.914493 0.925106
1.000002 0.939951 0.949949
1.000002 0.958415 0.966466
1.000002 0.971305 0.977358
1.000002 0.980470 0.984821
1.000002 0.986780 0.989838
1.000002 0.991259 0.993343
0.004250 0.887838 0.022004
0.004270 0.887763 0.021994
0.004288 0.887662 0.021981
0.004316 0.887527 0.021963
0.004377 0.887264 0.021924
0.004544 0.886689 0.021828
0.004915 0.885791 0.021651
0.005851 0.884521 0.021359
0.008864 0.882792 0.020921
0.020273 0.880470 0.020314
0.059381 0.877375 0.019542
0.216576 0.873364 0.018684
0.416153 0.868189 0.017867
0.629718 0.861727 0.017343
0.805485 0.853808 0.017492
0.901157 0.840082 0.029648
0.957090 0.822910 0.060360
0.980594 0.805853 0.098027
0.991680 0.789433 0.148792
0.996694 0.776749 0.219109
0.998929 0.771515 0.325114
0.999843 0.777908 0.455759
1.000002 0.796806 0.596480
1.000002 0.826008 0.732997
1.000002 0.859235 0.823621
1.000002 0.892084 0.883965
1.000002 0.920054 0.922816
1.000002 0.942700 0.948747
1.000002 0.959741 0.965830
1.000002 0.971943 0.977017
1.000002 0.980771 0.984640
1.000002 0.986924 0.989742
1.000002 0.991327 0.993295
0.004852 0.925649 0.031642
0.004868 0.925603 0.031630
0.004889 0.925540 0.031614
0.004925 0.925457 0.031592
0.004994 0.925295 0.031546
0.005183 0.924946 0.031437
0.005580 0.924409 0.031244
0.006473 0.923661 0.030938
0.008844 0.922656 0.030480
0.016058 0.921314 0.029835
0.036182 0.919524 0.028990
0.101287 0.917190 0.027992
0.301128 0.914149 0.026948
0.510189 0.910308 0.026095
0.729785 0.905537 0.025798
0.862499 0.899759 0.026651
0.933353 0.889642 0.041724
0.973654 0.876533 0.080080
0.988898 0.863903 0.126597
0.995571 0.852278 0.190341
0.998498 0.843561 0.286210
0.999688 0.840937 0.418707
1.000002 0.846667 0.561533
1.000002 0.861167 0.709808
1.000002 0.881674 0.810905
1.000002 0.905024 0.877139
1.000002 0.927023 0.919100
1.000002 0.946188 0.946717
1.000002 0.961393 0.964701
1.000002 0.972692 0.976372
1.000002 0.981084 0.984269
1.000002 0.987040 0.989525
1.000002 0.991358 0.993169
0.005933 0.951274 0.044768
0.005956 0.951245 0.044753
0.005985 0.951206 0.044732
0.006023 0.951154 0.044703
0.006113 0.951054 0.044646
0.006336 0.950841 0.044517
0.006796 0.950517 0.044300
0.007763 0.950076 0.043969
0.010023 0.949492 0.043488
0.015359 0.948723 0.042813
0.027931 0.947702 0.041910
0.061236 0.946366 0.040798
0.170908 0.944612 0.039546
0.391986 0.942372 0.038364
0.619044 0.939557 0.037590
0.806860 0.936100 0.037779
0.903843 0.931962 0.039816
0.955670 0.924584 0.058618
0.984129 0.914783 0.106619
0.993727 0.905786 0.164148
0.997801 0.897499 0.249370
0.999435 0.891769 0.376937
1.000002 0.890585 0.520365
1.000002 0.895280 0.677702
1.000002 0.905563 0.792820
1.000002 0.920011 0.867253
1.000002 0.935663 0.913643
1.000002 0.950743 0.943699
1.000002 0.963625 0.963002
1.000002 0.973720 0.975387
1.000002 0.981506 0.983692
1.000002 0.987185 0.989180
1.000002 0.991383 0.992964
0.008043 0.968470 0.062661
0.008072 0.968452 0.062641
0.008109 0.968428 0.062613
0.008162 0.968396 0.062575
0.008277 0.968333 0.062502
0.008567 0.968202 0.062341
0.009155 0.968006 0.062084
0.010326 0.967744 0.061714
0.012558 0.967405 0.061195
0.016870 0.966966 0.060484
0.025896 0.966389 0.059531
0.046476 0.965635 0.058327
0.100980 0.964641 0.056898
0.272507 0.963359 0.055408
0.493928 0.961729 0.054155
0.725150 0.959702 0.053654
0.863612 0.957242 0.054708
0.933446 0.954305 0.058647
0.970712 0.949020 0.081958
0.990448 0.941917 0.141684
0.996618 0.935428 0.217252
0.999011 0.929727 0.333449
0.999899 0.926044 0.475369
1.000002 0.925535 0.635342
1.000002 0.928963 0.768128
1.000002 0.936217 0.853487
1.000002 0.945876 0.905967
1.000002 0.956569 0.939433
1.000002 0.966680 0.960595
1.000002 0.975213 0.973992
1.000002 0.982161 0.982874
1.000002 0.987433 0.988691
1.000002 0.991442 0.992673
0.012295 0.979834 0.087025
0.012327 0.979823 0.086996
0.012372 0.979808 0.086958
0.012434 0.979788 0.086907
0.012566 0.979749 0.086809
0.012895 0.979667 0.086600
0.013529 0.979548 0.086282
0.014670 0.979391 0.085845
0.016706 0.979192 0.085263
0.020425 0.978940 0.084494
0.027579 0.978615 0.083479
0.042167 0.978193 0.082189
0.075501 0.977637 0.080604
0.164076 0.976915 0.078838
0.377268 0.975986 0.077129
0.609844 0.974816 0.075940
0.805279 0.973378 0.076011
0.904952 0.971636 0.078515
0.954297 0.969577 0.085416
0.980334 0.965929 0.113363
0.994434 0.960688 0.191595
0.998266 0.956149 0.293348
0.999642 0.952327 0.430442
1.000002 0.949887 0.586038
1.000002 0.949673 0.736025
1.000002 0.952119 0.835055
1.000002 0.956955 0.895530
1.000002 0.963520 0.933594
1.000002 0.970658 0.957302
1.000002 0.977323 0.972090
1.000002 0.983173 0.981767
1.000002 0.987866 0.988033
1.000002 0.991585 0.992282
0.018781 0.987156 0.119809
0.018811 0.987149 0.119770
0.018853 0.987139 0.119716
0.018912 0.987126 0.119646
0.019035 0.987101 0.119512
0.019346 0.987050 0.119230
0.019947 0.986976 0.118816
0.021027 0.986880 0.118272
0.022921 0.986761 0.117583
0.026259 0.986614 0.116710
0.032340 0.986429 0.115594
0.043794 0.986191 0.114191
0.067332 0.985879 0.112447
0.120765 0.985473 0.110420
0.271260 0.984946 0.108280
0.493024 0.984275 0.106424
0.725434 0.983438 0.105533
0.865121 0.982411 0.106682
0.934795 0.981180 0.111599
0.968616 0.979763 0.122937
0.987264 0.977149 0.159557
0.996861 0.973368 0.263994
0.999180 0.970261 0.390979
0.999987 0.967631 0.538877
1.000002 0.966052 0.697468
1.000002 0.965970 0.811875
1.000002 0.967635 0.882057
1.000002 0.970945 0.925955
1.000002 0.975343 0.952974
1.000002 0.980047 0.969595
1.000002 0.984608 0.980323
1.000002 0.988554 0.987182
1.000002 0.991864 0.991783
0.028363 0.991974 0.166173
0.028388 0.991969 0.166115
0.028424 0.991963 0.166038
0.028476 0.991955 0.165937
0.028586 0.991939 0.165744
0.028868 0.991907 0.165344
0.029424 0.991861 0.164773
0.030434 0.991802 0.164049
0.032199 0.991731 0.163170
0.035257 0.991645 0.162108
0.040635 0.991539 0.160805
0.050232 0.991405 0.159207
0.068489 0.991232 0.157235
0.105663 0.991008 0.154897
0.193543 0.990714 0.152292
0.392812 0.990337 0.149738
0.620991 0.989860 0.147848
0.810235 0.989266 0.147628
0.907230 0.988545 0.150691
0.954841 0.987703 0.159405
0.978670 0.986713 0.178406
0.991631 0.984911 0.226611
0.998234 0.982250 0.360899
0.999698 0.980080 0.497229
1.000002 0.978324 0.653561
1.000002 0.977249 0.783507
1.000002 0.977193 0.864853
1.000002 0.978307 0.915951
1.000002 0.980491 0.947233
1.000002 0.983348 0.966275
1.000002 0.986527 0.978408
1.000002 0.989574 0.986062
1.000002 0.992339 0.991132
0.031866 0.992756 0.182834
0.042085 0.995051 0.232802
0.042113 0.995047 0.232685
0.042154 0.995042 0.232532
0.042244 0.995032 0.232242
0.042485 0.995012 0.231647
0.042980 0.994983 0.230810
0.043904 0.994947 0.229776
0.045539 0.994903 0.228566
0.048365 0.994852 0.227163
0.053249 0.994791 0.225512
0.061677 0.994715 0.223562
0.076896 0.994618 0.221206
0.105636 0.994494 0.218415
0.165922 0.994332 0.215216
0.314981 0.994121 0.211848
0.522336 0.993852 0.208849
0.741436 0.993513 0.207168
0.870824 0.993094 0.208385
0.936071 0.992599 0.214802
0.969262 0.992008 0.230553
0.985547 0.991329 0.262684
0.994342 0.990132 0.320397
0.999078 0.988214 0.466254
0.999979 0.986742 0.610453
1.000002 0.985526 0.751960
1.000002 0.984806 0.844414
1.000002 0.984754 0.903561
1.000002 0.985481 0.939947
1.000002 0.986887 0.962007
1.000002 0.988804 0.975937
1.000002 0.990914 0.984622
1.000002 0.993039 0.990302
0.060953 0.996984 0.327268
0.060964 0.996982 0.327150
0.060981 0.996979 0.326996
0.061008 0.996976 0.326792
0.061070 0.996970 0.326406
0.061255 0.996957 0.325621
0.061670 0.996938 0.324523
0.062490 0.996915 0.323184
0.063986 0.996888 0.321645
0.066605 0.996857 0.319906
0.071118 0.996821 0.317919
0.078774 0.996776 0.315641
0.092168 0.996721 0.312940
0.116242 0.996652 0.309756
0.162989 0.996561 0.306025
0.267211 0.996443 0.301875
0.452278 0.996290 0.297721
0.666932 0.996096 0.294435
0.827493 0.995853 0.293578
0.912457 0.995561 0.297308
0.956972 0.995208 0.308533
0.979283 0.994797 0.330189
0.990164 0.994340 0.364165
0.996327 0.993506 0.421472
0.999572 0.992158 0.577362
1.000002 0.991118 0.721059
1.000002 0.990296 0.822301
1.000002 0.989796 0.889298
1.000002 0.989759 0.931223
1.000002 0.990230 0.956776
1.000002 0.991181 0.972869
1.000002 0.992459 0.982827
1.000002 0.993937 0.989271
0.087464 0.998225 0.431093
0.087463 0.998224 0.430966
0.087466 0.998222 0.430798
0.087472 0.998220 0.430580
0.087497 0.998216 0.430165
0.087606 0.998207 0.429324
0.087915 0.998195 0.428156
0.088605 0.998181 0.426748
0.089946 0.998164 0.425158
0.092367 0.998145 0.423402
0.096582 0.998123 0.421455
0.103710 0.998097 0.419294
0.115975 0.998066 0.416813
0.137348 0.998026 0.413953
0.176774 0.997976 0.410622
0.257041 0.997910 0.406830
0.411200 0.997825 0.402756
0.599897 0.997715 0.398858
0.780675 0.997575 0.396101
0.884419 0.997405 0.396012
0.941460 0.997197 0.400719
0.971030 0.996952 0.412868
0.985831 0.996674 0.434777
0.993356 0.996359 0.469613
0.997516 0.995810 0.525626
0.999876 0.994838 0.692278
1.000002 0.994121 0.799931
1.000002 0.993545 0.873500
1.000002 0.993200 0.920992
1.000002 0.993165 0.950414
1.000002 0.993476 0.969050
1.000002 0.994104 0.980564
1.000002 0.994995 0.987965
0.123569 0.998998 0.538414
0.123552 0.998997 0.538274
0.123534 0.998996 0.538089
0.123513 0.998995 0.537846
0.123487 0.998992 0.537388
0.123494 0.998987 0.536461
0.123664 0.998979 0.535178
0.124194 0.998970 0.533643
0.125362 0.998959 0.531927
0.127598 0.998947 0.530063
0.131597 0.998934 0.528039
0.138419 0.998918 0.525851
0.150109 0.998899 0.523408
0.170144 0.998877 0.520659
0.205929 0.998848 0.517508
0.274640 0.998811 0.513908
0.401467 0.998763 0.509907
0.562107 0.998700 0.505731
0.739934 0.998619 0.501973
0.855846 0.998520 0.499724
0.924032 0.998397 0.500513
0.961143 0.998250 0.506538
0.980396 0.998082 0.519999
0.990470 0.997887 0.543856
0.995499 0.997674 0.579796
0.998429 0.997291 0.639474
1.000002 0.996605 0.777939
1.000002 0.996090 0.857842
1.000002 0.995690 0.910015
1.000002 0.995455 0.943231
1.000002 0.995428 0.964588
1.000002 0.995637 0.977862
1.000002 0.996083 0.986386
0.121912 0.998955 0.533561
0.175235 0.999496 0.654068
0.175185 0.999495 0.653877
0.175123 0.999494 0.653629
0.175020 0.999493 0.653157
0.174876 0.999489 0.652198
0.174847 0.999484 0.650874
0.175158 0.999478 0.649288
0.176115 0.999471 0.647520
0.178166 0.999464 0.645606
0.182027 0.999455 0.643546
0.188765 0.999446 0.641348
0.200378 0.999435 0.638935
0.220155 0.999422 0.636262
0.254776 0.999405 0.633233
0.318656 0.999384 0.629762
0.421466 0.999357 0.625831
0.554299 0.999322 0.621537
0.713335 0.999276 0.617223
0.830701 0.999219 0.613650
0.906046 0.999147 0.611879
0.949889 0.999060 0.613668
0.973791 0.998959 0.620969
0.986786 0.998841 0.636245
0.993485 0.998710 0.660025
0.996992 0.998562 0.692768
0.998981 0.998309 0.736524
1.000002 0.997813 0.840321
1.000002 0.997448 0.898624
1.000002 0.997173 0.935257
1.000002 0.997005 0.959401
1.000002 0.996983 0.974620
1.000002 0.997131 0.984451
0.249563 0.999807 0.748632
0.249486 0.999807 0.748523
0.249385 0.999807 0.748380
0.249257 0.999806 0.748190
0.249032 0.999805 0.747833
0.248648 0.999803 0.747110
0.248307 0.999799 0.746110
0.248290 0.999796 0.744916
0.248950 0.999791 0.743590
0.250791 0.999787 0.742166
0.254590 0.999781 0.740650
0.261485 0.999775 0.739054
