create_logik_projekt/presets/Syncolor/transforms/r3d/IPP2-Cubes-SDR-Core-V1_13/REC709/RWG_Log3G10 to REC709_BT1886 with HIGH_CONTRAST and R_1_Hard size_33 v1.13.cube
# RED Digital Cinema Output Transform LUT for IPP2
# LUT Name = RWG_Log3G10 to REC709_BT1886 with HIGH_CONTRAST and R_1_Hard size_33 v1.13
# Generated by version 1.13
# Settings used in creation of this LUT are:
# Development Color Space = REC709
# Output Gamma Curve = BT1886
# Output Tonemap = HIGH_CONTRAST
# Highlight Rolloff = Rolloff 1 - hard
# Resolution = 33 x 33 x 33
TITLE "RED IPP2 LUT to map REDWideGamutRGB/Log3G10 to REC709/BT1886/HIGH_CONTRAST/Rolloff 1 - hard"
LUT_3D_SIZE 5
0.000000 0.000000 0.000000
0.293889 0.014927 0.021996
0.992930 0.161446 0.230175
1.000002 0.910716 0.936286
1.000002 0.987263 0.990606
0.003505 0.278052 0.003825
0.232932 0.256491 0.003761
0.993766 0.211861 0.228088
1.000002 0.922735 0.944020
1.000002 0.989161 0.991980
0.010215 0.975514 0.075905
0.012652 0.974979 0.074878
0.946261 0.963736 0.073174
1.000002 0.960486 0.936531
1.000002 0.991511 0.992465
0.365717 1.000002 0.818475
0.362743 1.000001 0.815818
0.680837 0.999940 0.801157
0.998719 0.999544 0.839042
1.000002 0.998762 0.979579
0.880006 1.000002 0.962083
0.878052 1.000002 0.961485
0.896209 1.000002 0.958791
0.994427 1.000002 0.956503
1.000002 1.000002 0.966207
0.012232 0.004393 0.258435
0.288153 0.004240 0.255777
0.992865 0.153722 0.291789
1.000002 0.910577 0.936935
1.000002 0.987283 0.990645
0.003505 0.240664 0.232411
0.224716 0.224722 0.224739
0.993644 0.201213 0.288001
1.000002 0.922139 0.944220
1.000002 0.989100 0.991955
0.009853 0.974863 0.087523
0.012451 0.974902 0.087020
0.946393 0.963526 0.088667
1.000002 0.960373 0.936690
1.000002 0.991479 0.992445
0.359269 1.000001 0.816802
0.365458 1.000002 0.818055
0.682155 0.999943 0.803908
0.998675 0.999518 0.837015
1.000002 0.998771 0.979557
0.877753 1.000002 0.961520
0.879078 1.000002 0.961818
0.896935 1.000002 0.959156
0.994455 1.000002 0.956891
1.000002 1.000002 0.966503
0.050076 0.009528 0.968488
0.128445 0.008682 0.969146
0.981004 0.017158 0.963232
1.000002 0.843630 0.956094
1.000002 0.980155 0.988333
0.030135 0.021992 0.970610
0.086197 0.019647 0.970361
0.981827 0.026940 0.965366
1.000002 0.863304 0.959727
1.000002 0.982785 0.989730
0.003990 0.953804 0.946926
0.004288 0.953728 0.947003
0.939264 0.939271 0.939295
1.000002 0.941543 0.955700
1.000002 0.986277 0.989802
0.315538 0.999916 0.897892
0.321694 0.999920 0.897975
0.673427 0.999903 0.895999
0.998728 0.999472 0.915275
1.000002 0.998769 0.975049
0.866938 1.000002 0.965540
0.868389 1.000002 0.965720
0.898534 1.000002 0.966182
0.994505 1.000002 0.965406
1.000002 1.000002 0.972611
0.009994 0.003825 1.000002
0.014278 0.003761 1.000002
0.994301 0.003505 1.000002
1.000002 0.071485 0.999790
1.000002 0.926357 0.998328
0.006965 0.003825 1.000002
0.009940 0.003825 1.000002
0.994865 0.003505 1.000002
1.000002 0.079429 0.999872
1.000002 0.935727 0.998527
0.003505 0.861509 1.000002
0.003505 0.856759 1.000002
0.869134 0.644755 1.000002
1.000002 0.682996 0.999824
1.000002 0.950438 0.999117
0.127026 0.999153 0.998806
0.129725 0.999161 0.998816
0.480333 0.999095 0.998788
0.998377 0.998378 0.998379
1.000002 0.997663 0.997986
0.821561 1.000002 0.996844
0.823686 1.000002 0.996849
0.870989 1.000002 0.996829
0.993794 1.000002 0.996421
1.000002 1.000002 0.996874
0.003663 0.003505 1.000002
0.003721 0.003505 1.000002
1.000002 0.003505 1.000002
1.000002 0.003505 1.000002
1.000002 0.153687 1.000002
0.003505 0.003505 1.000002
0.003663 0.003505 1.000002
1.000002 0.003505 1.000002
1.000002 0.003505 1.000002
1.000002 0.167719 1.000002
0.003505 0.789144 1.000002
0.003505 0.776850 1.000002
0.527569 0.127083 1.000002
1.000002 0.177169 1.000002
1.000002 0.622943 1.000002
0.035963 0.998209 1.000002
0.036476 0.998211 1.000002
0.157169 0.997971 1.000002
0.997627 0.996483 1.000002
1.000002 0.996060 1.000002
0.693331 1.000002 1.000002
0.697156 1.000002 1.000002
0.795139 1.000002 1.000002
0.993163 1.000002 1.000002
1.000002 1.000002 1.000002
