create_logik_projekt/presets/Syncolor/transforms/r3d/IPP2-Cubes-SDR-Core-V1_13/REC709/RWG_Log3G10 to REC709_BT1886 with HIGH_CONTRAST and R_1_Hard size_33 v1.13.cube
# RED Digital Cinema Output Transform LUT for IPP2
# LUT Name = RWG_Log3G10 to REC709_BT1886 with HIGH_CONTRAST and R_1_Hard size_33 v1.13
# Generated by version 1.13
# Settings used in creation of this LUT are:
# Development Color Space = REC709
# Output Gamma Curve = BT1886
# Output Tonemap = HIGH_CONTRAST
# Highlight Rolloff = Rolloff 1 - hard
# Resolution = 33 x 33 x 33
TITLE "RED IPP2 LUT to map REDWideGamutRGB/Log3G10 to REC709/BT1886/HIGH_CONTRAST/Rolloff 1 - hard"
LUT_3D_SIZE 9
0.000000 0.000000 0.000000
0.077286 0.003505 0.003505
0.293889 0.014927 0.021996
0.834177 0.056896 0.080590
0.992930 0.161446 0.230175
1.000002 0.553265 0.684527
1.000002 0.910716 0.936286
1.000002 0.972916 0.980188
1.000002 0.987263 0.990606
0.003505 0.071047 0.003505
0.054375 0.064113 0.003505
0.289960 0.028941 0.017400
0.834522 0.062669 0.078490
0.993053 0.165146 0.230499
1.000002 0.558652 0.687965
1.000002 0.912175 0.937245
1.000002 0.973389 0.980523
1.000002 0.987498 0.990777
0.003505 0.278052 0.003825
0.003505 0.276386 0.003825
0.232932 0.256491 0.003761
0.829849 0.181936 0.057696
0.993766 0.211861 0.228088
1.000002 0.605549 0.711826
1.000002 0.922735 0.944020
1.000002 0.976756 0.982886
1.000002 0.989161 0.991980
0.003793 0.781777 0.011699
0.003825 0.781134 0.011671
0.006001 0.774063 0.011132
0.662050 0.731423 0.008582
0.991625 0.604921 0.162096
1.000002 0.747459 0.714840
1.000002 0.938423 0.950507
1.000002 0.980998 0.985448
1.000002 0.991177 0.993331
0.010215 0.975514 0.075905
0.010348 0.975463 0.075815
0.012652 0.974979 0.074878
0.105497 0.972496 0.069391
0.946261 0.963736 0.073174
1.000002 0.940664 0.543042
1.000002 0.960486 0.936531
1.000002 0.983261 0.983031
1.000002 0.991511 0.992465
0.075991 0.997800 0.389772
0.076024 0.997795 0.389334
0.077338 0.997750 0.385709
0.110803 0.997596 0.375020
0.735253 0.997074 0.356245
0.992243 0.995661 0.427703
1.000002 0.992218 0.880261
1.000002 0.992674 0.972019
1.000002 0.994566 0.988516
0.365717 1.000002 0.818475
0.365234 1.000002 0.818184
0.362743 1.000001 0.815818
0.390519 0.999983 0.810001
0.680837 0.999940 0.801157
0.971644 0.999799 0.795063
0.998719 0.999544 0.839042
1.000002 0.998968 0.950086
1.000002 0.998762 0.979579
0.759401 1.000002 0.931409
0.758967 1.000002 0.931293
0.755806 1.000002 0.930356
0.757419 1.000002 0.928142
0.825238 1.000002 0.925347
0.959575 1.000002 0.921660
0.996275 1.000002 0.924828
0.999804 1.000002 0.939004
1.000002 0.999989 0.966955
0.880006 1.000002 0.962083
0.879780 1.000002 0.962017
0.878052 1.000002 0.961485
0.876553 1.000002 0.960245
0.896209 1.000002 0.958791
0.961109 1.000002 0.956860
0.994427 1.000002 0.956503
0.999342 1.000002 0.960679
1.000002 1.000002 0.966207
0.003505 0.003505 0.065016
0.074999 0.003505 0.063746
0.293487 0.012856 0.041840
0.834113 0.055759 0.088479
0.992931 0.160915 0.234257
1.000002 0.553174 0.685602
1.000002 0.910761 0.936370
1.000002 0.972935 0.980208
1.000002 0.987273 0.990616
0.003505 0.056935 0.053391
0.050053 0.050054 0.050057
0.289448 0.024916 0.035325
0.834362 0.061345 0.086520
0.993048 0.164525 0.234675
1.000002 0.558368 0.688905
1.000002 0.912160 0.937289
1.000002 0.973389 0.980529
1.000002 0.987499 0.990779
0.003505 0.275207 0.004410
0.003505 0.274134 0.004326
0.233157 0.255668 0.004051
0.829675 0.179290 0.063507
0.993762 0.211121 0.231856
1.000002 0.605295 0.712608
1.000002 0.922726 0.944056
1.000002 0.976757 0.982891
1.000002 0.989161 0.991982
0.003761 0.780885 0.012747
0.003825 0.780714 0.012667
0.005962 0.773589 0.012163
0.661937 0.730777 0.009445
0.991619 0.604358 0.164351
1.000002 0.747340 0.715511
1.000002 0.938420 0.950535
1.000002 0.980999 0.985453
1.000002 0.991178 0.993333
0.010186 0.975455 0.076554
0.010343 0.975467 0.076553
0.012641 0.974982 0.075657
0.105404 0.972495 0.070234
0.946284 0.963732 0.074137
1.000002 0.940668 0.543875
1.000002 0.960489 0.936567
1.000002 0.983263 0.983036
1.000002 0.991513 0.992467
0.075862 0.997794 0.389811
0.076069 0.997797 0.390013
0.077381 0.997751 0.386422
0.110840 0.997598 0.375813
0.735298 0.997076 0.357113
0.992249 0.995664 0.428510
1.000002 0.992222 0.880342
1.000002 0.992677 0.972028
1.000002 0.994568 0.988519
0.365006 1.000002 0.818238
0.365552 1.000002 0.818385
0.363054 1.000002 0.816026
0.390793 0.999984 0.810223
0.680992 0.999940 0.801401
0.971656 0.999799 0.795318
0.998721 0.999544 0.839233
1.000002 0.998969 0.950113
1.000002 0.998763 0.979586
0.758896 1.000002 0.931299
0.759199 1.000002 0.931359
0.756038 1.000002 0.930422
0.757638 1.000002 0.928211
0.825363 1.000002 0.925420
0.959594 1.000002 0.921737
0.996278 1.000002 0.924901
0.999805 1.000002 0.939062
1.000002 0.999990 0.966979
0.879757 1.000002 0.962018
0.879896 1.000002 0.962052
0.878168 1.000002 0.961521
0.876664 1.000002 0.960281
0.896292 1.000002 0.958829
0.961131 1.000002 0.956900
0.994430 1.000002 0.956543
0.999343 1.000002 0.960714
1.000002 1.000002 0.966237
0.012232 0.004393 0.258435
0.034418 0.004307 0.258354
0.288153 0.004240 0.255777
0.832327 0.043788 0.223885
0.992865 0.153722 0.291789
1.000002 0.549614 0.697446
1.000002 0.910577 0.936935
1.000002 0.972934 0.980289
1.000002 0.987283 0.990645
0.007385 0.006442 0.257104
0.023309 0.006035 0.256572
0.283972 0.005302 0.253848
0.832541 0.048324 0.221408
0.992981 0.157205 0.292021
1.000002 0.554819 0.700525
1.000002 0.911978 0.937838
1.000002 0.973388 0.980607
1.000002 0.987508 0.990807
0.003505 0.240664 0.232411
0.003505 0.239427 0.231802
0.224716 0.224722 0.224739
0.826672 0.144804 0.189439
0.993644 0.201213 0.288001
1.000002 0.600201 0.721814
1.000002 0.922139 0.944220
1.000002 0.976615 0.982855
1.000002 0.989100 0.991955
0.003721 0.770175 0.039155
0.003761 0.769987 0.038903
0.005491 0.766662 0.036141
0.659618 0.721400 0.034804
0.991460 0.596341 0.198210
1.000002 0.744783 0.723280
1.000002 0.938028 0.950635
1.000002 0.980899 0.985422
1.000002 0.991135 0.993312
0.009853 0.974863 0.087523
0.010009 0.974875 0.087494
0.012451 0.974902 0.087020
0.104124 0.972363 0.082760
0.946393 0.963526 0.088667
1.000002 0.940575 0.553935
1.000002 0.960373 0.936690
1.000002 0.983199 0.983003
1.000002 0.991479 0.992445
0.074766 0.997745 0.393631
0.074976 0.997748 0.393811
0.077650 0.997764 0.395107
0.111028 0.997609 0.385667
0.735495 0.997088 0.368115
0.992289 0.995678 0.438658
1.000002 0.992253 0.880807
1.000002 0.992687 0.971975
1.000002 0.994566 0.988486
0.359269 1.000001 0.816802
0.359820 1.000002 0.816946
0.365458 1.000002 0.818055
0.392889 0.999986 0.812457
0.682155 0.999943 0.803908
0.971748 0.999803 0.797986
0.998675 0.999518 0.837015
1.000002 0.998978 0.950213
1.000002 0.998771 0.979557
0.754826 1.000002 0.930486
0.755132 1.000002 0.930545
0.757855 1.000002 0.931005
0.759341 1.000002 0.928829
0.826330 1.000002 0.926084
0.959742 1.000002 0.922451
0.996297 1.000002 0.925577
0.999809 1.000002 0.939596
1.000002 0.999992 0.967133
0.877753 1.000002 0.961520
0.877894 1.000002 0.961554
0.879078 1.000002 0.961818
0.877551 1.000002 0.960592
0.896935 1.000002 0.959156
0.961299 1.000002 0.957248
0.994455 1.000002 0.956891
0.999349 1.000002 0.961025
1.000002 1.000002 0.966503
0.039432 0.008180 0.731231
0.047264 0.008070 0.731614
0.238127 0.006983 0.733042
0.801404 0.007760 0.722778
0.991198 0.103179 0.656478
1.000002 0.489601 0.774785
1.000002 0.899564 0.937074
1.000002 0.969947 0.979090
1.000002 0.985905 0.989894
0.036067 0.009490 0.732396
0.043953 0.009300 0.732179
0.232554 0.007885 0.733581
0.801126 0.008613 0.723288
0.991322 0.105667 0.657142
1.000002 0.494706 0.776581
1.000002 0.901106 0.937899
1.000002 0.970437 0.979411
1.000002 0.986147 0.990063
0.012103 0.057942 0.733209
0.015022 0.056935 0.733019
0.152313 0.046620 0.729724
0.790545 0.033466 0.720581
0.991995 0.137062 0.657263
1.000002 0.539577 0.789019
1.000002 0.912320 0.943757
1.000002 0.973935 0.981683
1.000002 0.987866 0.991254
0.003505 0.687243 0.661548
0.003505 0.669303 0.643710
0.003761 0.681049 0.658471
0.634932 0.634954 0.635022
0.988676 0.522743 0.584050
1.000002 0.703602 0.786819
1.000002 0.929304 0.948986
1.000002 0.978281 0.984039
1.000002 0.989905 0.992542
0.007609 0.971028 0.367389
0.007719 0.971041 0.367112
0.009614 0.971065 0.364326
0.091820 0.969672 0.348725
0.945373 0.959720 0.382516
0.999948 0.937681 0.653648
1.000002 0.957135 0.934413
1.000002 0.981348 0.981373
1.000002 0.990437 0.991581
0.070575 0.997548 0.481926
0.070789 0.997551 0.481962
0.073545 0.997568 0.482111
0.109190 0.997557 0.479748
0.732766 0.997009 0.474921
0.992168 0.995445 0.555176
1.000002 0.992268 0.879763
1.000002 0.992462 0.969324
1.000002 0.994235 0.987155
0.344746 0.999981 0.824716
0.345299 0.999981 0.824825
0.351151 0.999984 0.825664
0.395863 0.999988 0.827095
0.683279 0.999944 0.821280
0.971858 0.999803 0.817167
0.998748 0.999549 0.854919
1.000002 0.999008 0.948291
1.000002 0.998787 0.977720
0.745090 1.000002 0.930416
0.745409 1.000002 0.930469
0.748269 1.000002 0.930883
0.762619 1.000002 0.931706
0.828103 1.000002 0.929397
0.959997 1.000002 0.926213
0.996331 1.000002 0.929197
0.999816 1.000002 0.942335
1.000002 1.000002 0.966789
0.873075 1.000002 0.960977
0.873219 1.000002 0.961009
0.874446 1.000002 0.961259
0.879355 1.000002 0.961769
0.898219 1.000002 0.960480
0.961624 1.000002 0.958732
0.994504 1.000002 0.958421
0.999360 1.000002 0.962371
1.000002 1.000002 0.967616
0.050076 0.009528 0.968488
0.053589 0.009463 0.968586
0.128445 0.008682 0.969146
0.774920 0.006820 0.968794
0.981004 0.017158 0.963232
1.000002 0.262212 0.942744
1.000002 0.843630 0.956094
1.000002 0.956868 0.978691
1.000002 0.980155 0.988333
0.048316 0.010107 0.968857
0.052017 0.010019 0.968852
0.124992 0.009151 0.969406
0.773733 0.007109 0.969045
0.981158 0.017808 0.963547
1.000002 0.265693 0.943160
1.000002 0.845999 0.956533
1.000002 0.957545 0.978967
1.000002 0.980479 0.988505
0.030135 0.021992 0.970610
0.032431 0.021810 0.970609
0.086197 0.019647 0.970361
0.746378 0.014760 0.969957
0.981827 0.026940 0.965366
1.000002 0.299711 0.946134
1.000002 0.863304 0.959727
1.000002 0.962381 0.980955
1.000002 0.982785 0.989730
0.005598 0.426631 0.967506
0.005831 0.425467 0.967507
0.013268 0.411672 0.967339
0.518751 0.349295 0.965469
0.976628 0.283470 0.962376
1.000002 0.494091 0.948185
1.000002 0.891024 0.963257
1.000002 0.968431 0.983127
1.000002 0.985498 0.991073
0.003990 0.953804 0.946926
0.004021 0.953812 0.946946
0.004288 0.953728 0.947003
0.051260 0.950961 0.945498
0.939264 0.939271 0.939295
0.999361 0.915578 0.928592
1.000002 0.941543 0.955700
1.000002 0.973726 0.980453
1.000002 0.986277 0.989802
0.054743 0.996680 0.874955
0.054937 0.996683 0.874920
0.057443 0.996706 0.874582
0.090840 0.996688 0.872655
0.709348 0.996248 0.864695
0.991963 0.994501 0.881184
1.000002 0.991526 0.924164
1.000002 0.991421 0.968510
1.000002 0.993008 0.984520
0.315538 0.999916 0.897892
0.316068 0.999916 0.897903
0.321694 0.999920 0.897975
0.369799 0.999925 0.897864
0.673427 0.999903 0.895999
0.971283 0.999744 0.898356
0.998728 0.999472 0.915275
1.000002 0.999004 0.953355
1.000002 0.998769 0.975049
0.730170 1.000002 0.944455
0.730514 1.000002 0.944480
0.733627 1.000002 0.944670
0.749869 1.000002 0.945018
0.827165 1.000002 0.944929
0.959716 1.000002 0.944122
0.996316 1.000002 0.946626
0.999816 1.000002 0.955498
1.000002 1.000002 0.969394
0.866938 1.000002 0.965540
0.867088 1.000002 0.965560
0.868389 1.000002 0.965720
0.873799 1.000002 0.966039
0.898534 1.000002 0.966182
0.961605 1.000002 0.965367
0.994505 1.000002 0.965406
0.999363 1.000002 0.968516
1.000002 1.000002 0.972611
0.033292 0.005904 0.998246
0.034524 0.005881 0.998258
0.055608 0.005659 0.998337
0.773885 0.004786 0.998317
0.984540 0.004940 0.997917
0.999031 0.036914 0.996163
1.000002 0.597269 0.991479
1.000002 0.916166 0.990839
1.000002 0.965038 0.992421
0.032365 0.005975 0.998293
0.033719 0.005952 0.998294
0.054382 0.005726 0.998372
0.772928 0.004819 0.998351
0.984627 0.004985 0.997953
0.999052 0.037475 0.996220
1.000002 0.602928 0.991567
1.000002 0.917471 0.990937
1.000002 0.965594 0.992512
0.023184 0.007458 0.998572
0.024129 0.007425 0.998573
0.041408 0.007056 0.998567
0.748004 0.005543 0.998538
0.984414 0.005952 0.998141
0.999190 0.044044 0.996606
1.000002 0.647604 0.992233
1.000002 0.926759 0.991666
1.000002 0.969533 0.993181
0.004326 0.125281 0.998188
0.004368 0.124689 0.998189
0.005351 0.117920 0.998187
0.310270 0.081556 0.997951
0.971072 0.064630 0.997671
0.999139 0.115072 0.996832
1.000002 0.727280 0.993443
1.000002 0.938142 0.992866
1.000002 0.974005 0.994146
0.004717 0.905598 0.996542
0.004752 0.905471 0.996545
0.005426 0.903897 0.996556
0.043582 0.892654 0.996421
0.912994 0.860798 0.995875
0.997589 0.838315 0.995250
1.000002 0.887479 0.993181
1.000002 0.952246 0.992948
1.000002 0.976095 0.994098
0.020429 0.993901 0.992503
0.020525 0.993905 0.992508
0.021827 0.993930 0.992545
0.041451 0.993855 0.992534
0.648387 0.992995 0.992018
0.990859 0.990861 0.990867
1.000002 0.987589 0.989083
1.000002 0.987748 0.990051
1.000002 0.989854 0.992052
0.239185 0.999662 0.983480
0.239605 0.999663 0.983481
0.244107 0.999668 0.983483
0.284649 0.999675 0.983430
0.622235 0.999640 0.982973
0.968481 0.999473 0.981589
0.998597 0.999109 0.983554
1.000002 0.998684 0.984738
1.000002 0.998475 0.987618
0.689180 1.000002 0.981582
0.689595 1.000002 0.981582
0.693410 1.000002 0.981586
0.713809 1.000002 0.981566
0.809725 1.000002 0.981346
0.957269 1.000002 0.980507
0.996114 1.000002 0.981739
0.999788 1.000002 0.983812
1.000002 0.999947 0.985722
0.853482 1.000002 0.983815
0.853654 1.000002 0.983818
0.855145 1.000002 0.983837
0.861511 1.000002 0.983863
0.890848 1.000002 0.983785
0.960086 1.000002 0.983334
0.994303 1.000002 0.983923
0.999329 1.000002 0.985128
1.000002 1.000002 0.986583
0.009994 0.003825 1.000002
0.010236 0.003825 1.000002
0.014278 0.003761 1.000002
0.330140 0.003663 1.000002
0.994301 0.003505 1.000002
0.999877 0.004220 1.000002
1.000002 0.071485 0.999790
1.000002 0.786441 0.998746
1.000002 0.926357 0.998328
0.009626 0.003825 1.000002
0.009915 0.003825 1.000002
0.013843 0.003761 1.000002
0.322288 0.003663 1.000002
0.994401 0.003505 1.000002
0.999887 0.004230 1.000002
1.000002 0.072196 0.999801
1.000002 0.789913 0.998765
1.000002 0.927522 0.998351
0.006965 0.003825 1.000002
0.007104 0.003825 1.000002
0.009940 0.003825 1.000002
0.251435 0.003663 1.000002
0.994865 0.003505 1.000002
0.999928 0.004442 1.000002
1.000002 0.079429 0.999872
1.000002 0.814468 0.998915
1.000002 0.935727 0.998527
0.003505 0.012328 1.000002
0.003505 0.012223 1.000002
0.003663 0.011257 1.000002
0.044286 0.007186 1.000002
0.985546 0.005663 1.000002
0.999341 0.026098 1.000002
1.000002 0.130184 0.999954
1.000002 0.843520 0.999225
1.000002 0.944353 0.998882
0.003505 0.861509 1.000002
0.003505 0.861165 1.000002
0.003505 0.856759 1.000002
0.003990 0.799244 1.000002
0.869134 0.644755 1.000002
0.996909 0.578826 0.999957
1.000002 0.682996 0.999824
1.000002 0.893226 0.999391
1.000002 0.950438 0.999117
0.010786 0.989074 0.999627
0.010832 0.989073 0.999628
0.011512 0.989047 0.999634
0.022834 0.988657 0.999633
0.423849 0.986596 0.999560
0.987589 0.982359 0.999392
0.999755 0.980191 0.999265
1.000002 0.980159 0.998987
1.000002 0.983297 0.998839
0.127026 0.999153 0.998806
0.127247 0.999154 0.998807
0.129725 0.999161 0.998816
0.147527 0.998970 0.998592
0.480333 0.999095 0.998788
0.965231 0.998798 0.998604
0.998377 0.998378 0.998379
1.000002 0.997892 0.998079
1.000002 0.997663 0.997986
0.582189 1.000002 0.997531
0.582700 1.000002 0.997532
0.587506 1.000002 0.997539
0.615890 1.000002 0.997548
0.759097 1.000002 0.997515
0.953055 1.000002 0.997330
0.995681 0.999971 0.997055
0.999730 0.999866 0.997287
1.000002 0.999774 0.997175
0.821561 1.000002 0.996844
0.821781 1.000002 0.996844
0.823686 1.000002 0.996849
0.832076 1.000002 0.996855
0.870989 1.000002 0.996829
0.956572 1.000002 0.996679
0.993794 1.000002 0.996421
0.999244 1.000002 0.996655
1.000002 1.000002 0.996874
0.004298 0.003505 1.000002
0.004326 0.003505 1.000002
0.004605 0.003505 1.000002
0.037324 0.003505 1.000002
0.999115 0.003505 1.000002
1.000002 0.003505 1.000002
1.000002 0.013501 1.000002
1.000002 0.113808 1.000002
1.000002 0.739135 0.999987
0.004250 0.003505 1.000002
0.004279 0.003505 1.000002
0.004551 0.003505 1.000002
0.036123 0.003505 1.000002
0.999161 0.003505 1.000002
1.000002 0.003505 1.000002
1.000002 0.013647 1.000002
1.000002 0.114830 1.000002
1.000002 0.743863 0.999992
0.003917 0.003505 1.000002
0.003917 0.003505 1.000002
0.004130 0.003505 1.000002
0.026226 0.003505 1.000002
0.999431 0.003505 1.000002
1.000002 0.003505 1.000002
1.000002 0.015595 1.000002
1.000002 0.124465 1.000002
1.000002 0.777302 1.000002
0.003505 0.003663 1.000002
0.003505 0.003663 1.000002
0.003505 0.003663 1.000002
0.004975 0.003505 1.000002
0.998540 0.003505 1.000002
1.000002 0.003505 1.000002
1.000002 0.036957 1.000002
1.000002 0.176329 1.000002
1.000002 0.820330 1.000002
0.003505 0.836889 1.000002
0.003505 0.836380 1.000002
0.003505 0.830315 1.000002
0.003505 0.759510 1.000002
0.774373 0.283318 1.000002
0.996836 0.238919 1.000002
1.000002 0.351141 1.000002
1.000002 0.612853 1.000002
1.000002 0.878500 1.000002
0.003505 0.988164 1.000002
0.003505 0.988155 1.000002
0.003505 0.987973 1.000002
0.004188 0.985090 1.000002
0.186806 0.979784 1.000002
0.984608 0.972353 1.000002
0.999630 0.968886 1.000002
1.000002 0.970204 1.000002
1.000002 0.974167 1.000002
0.068758 0.998589 1.000002
0.068838 0.998589 1.000002
0.069893 0.998594 1.000002
0.082718 0.998586 1.000002
0.264794 0.998448 1.000002
0.955167 0.997967 1.000000
0.997935 0.997333 0.999932
1.000002 0.997063 0.999899
1.000002 0.996778 0.999841
0.423012 0.999974 0.999842
0.423514 0.999975 0.999843
0.428361 0.999977 0.999846
0.459698 0.999981 0.999853
0.658974 0.999971 0.999848
0.945696 0.999904 0.999804
0.995474 0.999778 0.999728
0.999673 0.999674 0.999674
1.000002 0.999569 0.999606
0.767647 1.000002 0.999577
0.767938 1.000002 0.999578
0.770507 1.000002 0.999581
0.782392 1.000002 0.999587
0.838168 1.000002 0.999583
0.950700 1.000002 0.999542
0.993492 1.000002 0.999457
0.999153 1.000002 0.999394
1.000002 1.000002 0.999435
0.003663 0.003505 1.000002
0.003663 0.003505 1.000002
0.003721 0.003505 1.000002
0.007296 0.003505 1.000002
1.000002 0.003505 1.000002
1.000002 0.003505 1.000002
1.000002 0.003505 1.000002
1.000002 0.055243 1.000002
1.000002 0.153687 1.000002
0.003663 0.003505 1.000002
0.003663 0.003505 1.000002
0.003721 0.003505 1.000002
0.007061 0.003505 1.000002
1.000002 0.003505 1.000002
1.000002 0.003505 1.000002
1.000002 0.003505 1.000002
1.000002 0.055685 1.000002
1.000002 0.155071 1.000002
0.003505 0.003505 1.000002
0.003505 0.003505 1.000002
0.003663 0.003505 1.000002
0.005518 0.003505 1.000002
1.000002 0.003505 1.000002
1.000002 0.003505 1.000002
1.000002 0.003505 1.000002
1.000002 0.060122 1.000002
1.000002 0.167719 1.000002
0.003505 0.003505 1.000002
0.003505 0.003505 1.000002
0.003505 0.003505 1.000002
0.003663 0.003505 1.000002
1.000002 0.003505 1.000002
1.000002 0.003505 1.000002
1.000002 0.003917 1.000002
1.000002 0.089031 1.000002
1.000002 0.226762 1.000002
0.003505 0.789144 1.000002
0.003505 0.788096 1.000002
0.003505 0.776850 1.000002
0.003505 0.669852 1.000002
0.527569 0.127083 1.000002
0.997320 0.110870 1.000002
1.000002 0.177169 1.000002
1.000002 0.370289 1.000002
1.000002 0.622943 1.000002
0.003505 0.992868 1.000002
0.003505 0.992865 1.000002
0.003505 0.992776 1.000002
0.003505 0.990869 1.000002
0.083125 0.974271 1.000002
0.982008 0.962597 1.000002
0.999562 0.957707 1.000002
1.000002 0.959813 1.000002
1.000002 0.964134 1.000002
0.035963 0.998209 1.000002
0.035989 0.998209 1.000002
0.036476 0.998211 1.000002
0.044425 0.998186 1.000002
0.157169 0.997971 1.000002
0.945111 0.997305 1.000002
0.997627 0.996483 1.000002
1.000002 0.996143 1.000002
1.000002 0.996060 1.000002
0.267979 0.999868 1.000002
0.268254 0.999868 1.000002
0.271175 0.999871 1.000002
0.295872 0.999874 1.000002
0.515360 0.999856 1.000002
0.933870 0.999764 1.000002
0.994825 0.999600 1.000002
0.999582 0.999467 1.000002
1.000002 0.999414 1.000002
0.693331 1.000002 1.000002
0.693716 1.000002 1.000002
0.697156 1.000002 1.000002
0.714139 1.000002 1.000002
0.795139 1.000002 1.000002
0.944007 1.000002 1.000002
0.993163 1.000002 1.000002
0.999128 1.000002 1.000002
1.000002 1.000002 1.000002
