create_logik_projekt/presets/Syncolor/transforms/r3d/IPP2-Cubes-SDR-Core-V1_13/REC709/RWG_Log3G10 to REC709_BT1886 with HIGH_CONTRAST and R_1_Hard size_33 v1.13.cube
# RED Digital Cinema Output Transform LUT for IPP2
# LUT Name = RWG_Log3G10 to REC709_BT1886 with HIGH_CONTRAST and R_1_Hard size_33 v1.13
# Generated by version 1.13
# Settings used in creation of this LUT are:
# Development Color Space = REC709
# Output Gamma Curve = BT1886
# Output Tonemap = HIGH_CONTRAST
# Highlight Rolloff = Rolloff 1 - hard
# Resolution = 33 x 33 x 33
TITLE "RED IPP2 LUT to map REDWideGamutRGB/Log3G10 to REC709/BT1886/HIGH_CONTRAST/Rolloff 1 - hard"
LUT_3D_SIZE 33
0.000000 0.000000 0.000000
0.000003 0.000000 0.000000
0.001077 0.000000 0.000000
0.054028 0.003505 0.003505
0.077286 0.003505 0.003505
0.111152 0.003663 0.003721
0.155022 0.004668 0.005558
0.214894 0.008028 0.011893
0.293889 0.014927 0.021996
0.395501 0.023124 0.033517
0.525066 0.032220 0.046232
0.694701 0.043099 0.061392
0.834177 0.056896 0.080590
0.915464 0.073506 0.103743
0.959975 0.094810 0.133660
0.982424 0.122995 0.173873
0.992930 0.161446 0.230175
0.997523 0.216280 0.312791
0.999370 0.298083 0.418319
1.000002 0.414739 0.542135
1.000002 0.553265 0.684527
1.000002 0.701355 0.793121
1.000002 0.804167 0.863095
1.000002 0.870012 0.908145
1.000002 0.910716 0.936286
1.000002 0.937066 0.954708
1.000002 0.953909 0.966604
1.000002 0.965258 0.974691
1.000002 0.972916 0.980188
1.000002 0.978124 0.983949
1.000002 0.981892 0.986684
1.000002 0.984777 0.988787
1.000002 0.987263 0.990606
0.000000 0.000002 0.000000
0.000001 0.000001 0.000000
0.000090 0.000001 0.000000
0.049387 0.003505 0.003505
0.074552 0.003505 0.003505
0.109487 0.003825 0.003663
0.153923 0.005371 0.005196
0.214130 0.009470 0.011122
0.293331 0.016475 0.021274
0.395084 0.024483 0.032894
0.524776 0.033391 0.045711
0.694661 0.044093 0.060978
0.834241 0.057730 0.080272
0.915545 0.074219 0.103512
0.960037 0.095433 0.133515
0.982461 0.123562 0.173819
0.992949 0.162000 0.230232
0.997532 0.216876 0.312998
0.999374 0.298809 0.418669
1.000002 0.415523 0.542630
1.000002 0.554093 0.685065
1.000002 0.702068 0.793524
1.000002 0.804648 0.863385
1.000002 0.870338 0.908352
1.000002 0.910944 0.936437
1.000002 0.937230 0.954819
1.000002 0.954031 0.966688
1.000002 0.965352 0.974756
1.000002 0.972990 0.980240
1.000002 0.978185 0.983993
1.000002 0.981943 0.986721
1.000002 0.984820 0.988818
1.000002 0.987300 0.990633
0.000000 0.000132 0.000000
0.000000 0.000077 0.000000
0.000013 0.000040 0.000000
0.041668 0.003505 0.003505
0.070488 0.003663 0.003505
0.107104 0.004803 0.003505
0.152371 0.007296 0.004791
0.213056 0.012266 0.010109
0.292544 0.018873 0.020300
0.394494 0.026490 0.032046
0.524369 0.035063 0.045004
0.694595 0.045490 0.060416
0.834322 0.058892 0.079837
0.915652 0.075206 0.103196
0.960118 0.096293 0.133314
0.982511 0.124343 0.173742
0.992976 0.162759 0.230305
0.997544 0.217692 0.313275
0.999379 0.299800 0.419140
1.000002 0.416589 0.543297
1.000002 0.555218 0.685790
1.000002 0.703032 0.794066
1.000002 0.805294 0.863776
1.000002 0.870776 0.908631
1.000002 0.911251 0.936639
1.000002 0.937451 0.954968
1.000002 0.954196 0.966801
1.000002 0.965478 0.974844
1.000002 0.973090 0.980311
1.000002 0.978266 0.984051
1.000002 0.982012 0.986770
1.000002 0.984879 0.988861
1.000002 0.987349 0.990669
0.003505 0.047383 0.003505
0.003505 0.045679 0.003505
0.003505 0.043173 0.003505
0.025284 0.039373 0.003505
0.064235 0.032395 0.003505
0.103667 0.016358 0.003505
0.150177 0.014554 0.004368
0.211547 0.017478 0.008879
0.291440 0.022724 0.019008
0.393671 0.029484 0.030913
0.523798 0.037464 0.044057
0.694485 0.047454 0.059659
0.834418 0.060506 0.079250
0.915788 0.076568 0.102766
0.960224 0.097472 0.133038
0.982576 0.125411 0.173632
0.993010 0.163794 0.230396
0.997561 0.218799 0.313639
0.999386 0.301140 0.419763
1.000002 0.418022 0.544184
1.000002 0.556725 0.686751
1.000002 0.704314 0.794785
1.000002 0.806155 0.864294
1.000002 0.871359 0.909001
1.000002 0.911659 0.936907
1.000002 0.937744 0.955165
1.000002 0.954414 0.966951
1.000002 0.965645 0.974961
1.000002 0.973222 0.980404
1.000002 0.978375 0.984128
1.000002 0.982102 0.986836
1.000002 0.984956 0.988917
1.000002 0.987415 0.990717
0.003505 0.071047 0.003505
0.003505 0.070075 0.003505
0.003505 0.068705 0.003505
0.003663 0.066765 0.003505
0.054375 0.064113 0.003505
0.098856 0.056300 0.003505
0.147190 0.038194 0.003990
0.209512 0.027718 0.007597
0.289960 0.028941 0.017400
0.392572 0.033879 0.029481
0.523026 0.040827 0.042848
0.694310 0.050129 0.058686
0.834522 0.062669 0.078490
0.915953 0.078375 0.102205
0.960355 0.099027 0.132675
0.982657 0.126811 0.173479
0.993053 0.165146 0.230499
0.997581 0.220239 0.314091
0.999395 0.302875 0.420549
1.000002 0.419858 0.545305
1.000002 0.558652 0.687965
1.000002 0.705939 0.795694
1.000002 0.807244 0.864949
1.000002 0.872097 0.909467
1.000002 0.912175 0.937245
1.000002 0.938113 0.955415
1.000002 0.954690 0.967141
1.000002 0.965856 0.975109
1.000002 0.973389 0.980523
1.000002 0.978512 0.984226
1.000002 0.982217 0.986918
1.000002 0.985054 0.988987
1.000002 0.987498 0.990777
0.003505 0.104089 0.003505
0.003505 0.103493 0.003505
0.003505 0.102665 0.003505
0.003505 0.101517 0.003505
0.005089 0.099991 0.003505
0.086071 0.096344 0.003505
0.139821 0.087796 0.003663
0.204598 0.072066 0.005659
0.286401 0.050639 0.014019
0.389913 0.046739 0.026332
0.521113 0.049830 0.040132
0.693767 0.056923 0.056472
0.834676 0.067991 0.076741
0.916284 0.082741 0.100897
0.960630 0.102740 0.131806
0.982830 0.130123 0.173083
0.993146 0.168317 0.230680
0.997625 0.223587 0.315056
0.999413 0.306879 0.422268
1.000002 0.424019 0.547782
1.000002 0.562992 0.690633
1.000002 0.709546 0.797692
1.000002 0.809655 0.866389
1.000002 0.873724 0.910493
1.000002 0.913311 0.937990
1.000002 0.938929 0.955964
1.000002 0.955296 0.967558
1.000002 0.966321 0.975433
1.000002 0.973757 0.980782
1.000002 0.978813 0.984441
1.000002 0.982470 0.987099
1.000002 0.985269 0.989143
1.000002 0.987680 0.990909
0.003505 0.146181 0.003505
0.003505 0.145774 0.003505
0.003505 0.145211 0.003505
0.003505 0.144436 0.003505
0.003505 0.143416 0.003505
0.017625 0.141024 0.003505
0.123467 0.136272 0.003505
0.194318 0.125833 0.004037
0.279041 0.110547 0.008835
0.384353 0.087597 0.020886
0.516969 0.073441 0.035207
0.692219 0.072866 0.052347
0.834661 0.079697 0.073401
0.916744 0.091985 0.098335
0.961065 0.110410 0.130034
0.983117 0.136841 0.172168
0.993303 0.174643 0.230812
0.997700 0.230159 0.316621
0.999445 0.314606 0.425235
1.000002 0.431757 0.552138
1.000002 0.570974 0.695300
1.000002 0.715987 0.801193
1.000002 0.813928 0.868914
1.000002 0.876599 0.912293
1.000002 0.915314 0.939296
1.000002 0.940362 0.956926
1.000002 0.956362 0.968289
1.000002 0.967137 0.976001
1.000002 0.974402 0.981237
1.000002 0.979341 0.984816
1.000002 0.982913 0.987417
1.000002 0.985646 0.989414
1.000002 0.988000 0.991141
0.003505 0.203178 0.003663
0.003505 0.202875 0.003663
0.003505 0.202457 0.003505
0.003505 0.201882 0.003505
0.003505 0.201132 0.003505
0.003917 0.199384 0.003505
0.044168 0.195962 0.003505
0.172039 0.189400 0.003505
0.263683 0.176786 0.004763
0.372654 0.161264 0.012787
0.507865 0.141910 0.027079
0.687780 0.117094 0.045141
0.833688 0.108140 0.067302
0.917067 0.112802 0.093447
0.961595 0.126870 0.126430
0.983511 0.150766 0.169990
0.993530 0.187370 0.230388
0.997811 0.242993 0.318638
0.999493 0.329263 0.429726
1.000002 0.445458 0.559023
1.000002 0.584804 0.702637
1.000002 0.726559 0.806722
1.000002 0.820859 0.872909
1.000002 0.881224 0.915144
1.000002 0.918522 0.941364
1.000002 0.942651 0.958451
1.000002 0.958061 0.969447
1.000002 0.968435 0.976902
1.000002 0.975428 0.981958
1.000002 0.980180 0.985412
1.000002 0.983615 0.987919
1.000002 0.986244 0.989845
1.000002 0.988506 0.991508
0.003505 0.278052 0.003825
0.003505 0.277803 0.003825
0.003505 0.277459 0.003825
0.003505 0.276993 0.003825
0.003505 0.276386 0.003825
0.003663 0.274976 0.003793
0.004965 0.272228 0.003761
0.093675 0.267008 0.003721
0.232932 0.256491 0.003761
0.350166 0.242781 0.005684
0.489715 0.225834 0.016486
0.676646 0.205506 0.034612
0.829849 0.181936 0.057696
0.916384 0.162063 0.085234
0.961842 0.162323 0.119842
0.983859 0.178934 0.165300
0.993766 0.211861 0.228088
0.997935 0.266556 0.319827
0.999548 0.353675 0.434724
1.000002 0.466789 0.567571
1.000002 0.605549 0.711826
1.000002 0.741084 0.813741
1.000002 0.830175 0.878011
1.000002 0.887354 0.918798
1.000002 0.922735 0.944020
1.000002 0.945640 0.960411
1.000002 0.960270 0.970937
1.000002 0.970119 0.978060
1.000002 0.976756 0.982886
1.000002 0.981265 0.986178
1.000002 0.984524 0.988566
1.000002 0.987016 0.990398
1.000002 0.989161 0.991980
0.003505 0.374056 0.004260
0.003505 0.373838 0.004260
0.003505 0.373539 0.004260
0.003505 0.373133 0.004260
0.003505 0.372606 0.004250
0.003663 0.371382 0.004240
0.003897 0.368999 0.004220
0.009848 0.364476 0.004165
0.150424 0.356797 0.004064
0.309596 0.342867 0.004118
0.457580 0.326031 0.007001
0.652532 0.305096 0.022071
0.819884 0.282114 0.044804
0.913156 0.259523 0.073217
0.961116 0.241970 0.109234
0.983862 0.238453 0.156542
0.993890 0.259560 0.221817
0.998026 0.309303 0.317591
0.999594 0.389782 0.437743
1.000002 0.497069 0.575227
1.000002 0.633375 0.720698
1.000002 0.758261 0.820795
1.000002 0.840802 0.883241
1.000002 0.894179 0.922581
1.000002 0.927353 0.946787
1.000002 0.948881 0.962461
1.000002 0.962650 0.972498
1.000002 0.971924 0.979277
1.000002 0.978176 0.983861
1.000002 0.982422 0.986984
1.000002 0.985491 0.989247
1.000002 0.987836 0.990981
1.000002 0.989855 0.992477
0.003505 0.496086 0.005188
0.003505 0.495886 0.005188
0.003505 0.495614 0.005183
0.003505 0.495243 0.005183
0.003505 0.494762 0.005175
0.003663 0.493645 0.005161
0.003761 0.491471 0.005130
0.004835 0.487337 0.005057
0.027151 0.480286 0.004925
0.217194 0.469437 0.004717
0.406313 0.454078 0.004487
0.605465 0.429153 0.010234
0.798488 0.403029 0.030015
0.904964 0.376734 0.057774
0.958376 0.353188 0.094136
0.983094 0.339000 0.142357
0.993736 0.343574 0.209173
0.998023 0.376062 0.308109
0.999610 0.441519 0.435043
1.000002 0.538707 0.578110
1.000002 0.666636 0.726400
1.000002 0.776862 0.826073
1.000002 0.851678 0.887415
1.000002 0.900867 0.925708
1.000002 0.931746 0.949120
1.000002 0.951903 0.964211
1.000002 0.964840 0.973843
1.000002 0.973571 0.980331
1.000002 0.979463 0.984710
1.000002 0.983467 0.987688
1.000002 0.986361 0.989843
1.000002 0.988574 0.991493
1.000002 0.990478 0.992914
0.003721 0.610097 0.008487
0.003663 0.647131 0.007146
0.003663 0.646886 0.007141
0.003663 0.646555 0.007136
0.003663 0.646124 0.007129
0.003721 0.645124 0.007109
0.003825 0.643169 0.007064
0.004326 0.639418 0.006965
0.008448 0.632885 0.006765
0.067000 0.622511 0.006442
0.299624 0.607540 0.006044
0.522191 0.587816 0.005684
0.753390 0.555305 0.015646
0.887741 0.522579 0.040575
0.951957 0.491385 0.075375
0.980897 0.466189 0.122591
0.993056 0.455123 0.188632
0.997839 0.468209 0.287217
0.999569 0.514147 0.421784
1.000002 0.595459 0.571026
1.000002 0.703704 0.725272
1.000002 0.796037 0.827376
1.000002 0.861967 0.889171
1.000002 0.906712 0.927301
1.000002 0.935353 0.950427
1.000002 0.954270 0.965249
1.000002 0.966501 0.974669
1.000002 0.974792 0.980996
1.000002 0.980403 0.985254
1.000002 0.984223 0.988145
1.000002 0.986987 0.990234
1.000002 0.989101 0.991831
1.000002 0.990922 0.993205
0.003793 0.781777 0.011699
0.003793 0.781680 0.011696
0.003825 0.781547 0.011690
0.003825 0.781368 0.011682
0.003825 0.781134 0.011671
0.003897 0.780594 0.011642
0.003990 0.779544 0.011579
0.004360 0.777540 0.011433
0.006001 0.774063 0.011132
0.020782 0.768481 0.010604
0.150672 0.760003 0.009850
0.397002 0.747943 0.009068
0.662050 0.731423 0.008582
0.852043 0.701242 0.023580
0.939836 0.667011 0.055426
0.976642 0.632164 0.099669
0.991625 0.604921 0.162096
0.997396 0.597039 0.255990
0.999446 0.619138 0.395213
1.000002 0.674219 0.550903
1.000002 0.747459 0.714840
1.000002 0.817860 0.823480
1.000002 0.872801 0.887881
1.000002 0.912257 0.927021
1.000002 0.938423 0.950507
1.000002 0.956093 0.965447
1.000002 0.967678 0.974892
1.000002 0.975603 0.981209
1.000002 0.980998 0.985448
1.000002 0.984685 0.988320
1.000002 0.987359 0.990391
1.000002 0.989409 0.991972
1.000002 0.991177 0.993331
0.004130 0.869804 0.019534
0.004130 0.869753 0.019529
0.004141 0.869683 0.019522
0.004165 0.869589 0.019513
0.004176 0.869466 0.019500
0.004240 0.869184 0.019468
0.004360 0.868640 0.019399
0.004699 0.867616 0.019244
0.005808 0.865860 0.018925
0.011890 0.863060 0.018352
0.047381 0.858779 0.017476
0.253812 0.852599 0.016407
0.517685 0.843948 0.015464
0.779846 0.832525 0.015300
0.914048 0.810912 0.035697
0.968714 0.786278 0.076551
0.988992 0.762184 0.133516
0.996561 0.744135 0.219243
0.999202 0.741358 0.355757
1.000002 0.760219 0.517711
1.000002 0.798598 0.693504
1.000002 0.844696 0.813812
1.000002 0.886152 0.883412
1.000002 0.918797 0.924896
1.000002 0.941769 0.949436
1.000002 0.957881 0.964888
1.000002 0.968708 0.974584
1.000002 0.976234 0.981035
1.000002 0.981413 0.985348
1.000002 0.984979 0.988260
1.000002 0.987579 0.990356
1.000002 0.989579 0.991953
1.000002 0.991309 0.993323
0.004846 0.924293 0.031531
0.004852 0.924265 0.031524
0.004868 0.924229 0.031515
0.004889 0.924179 0.031503
0.004915 0.924115 0.031487
0.004980 0.923967 0.031447
0.005121 0.923687 0.031365
0.005487 0.923168 0.031193
0.006493 0.922298 0.030853
0.010312 0.920933 0.030245
0.026204 0.918858 0.029279
0.098712 0.915832 0.027991
0.366932 0.911523 0.026622
0.660486 0.905708 0.025794
0.860542 0.898162 0.026615
0.950758 0.883548 0.053573
0.984025 0.866835 0.106262
0.995016 0.851111 0.182028
0.998743 0.840240 0.304634
0.999909 0.839790 0.471481
1.000002 0.852862 0.657332
1.000002 0.876588 0.796332
1.000002 0.903232 0.874789
1.000002 0.927437 0.920466
1.000002 0.946151 0.946986
1.000002 0.960116 0.963454
1.000002 0.969895 0.973684
1.000002 0.976883 0.980440
1.000002 0.981783 0.984931
1.000002 0.985201 0.987952
1.000002 0.987716 0.990119
1.000002 0.989665 0.991766
1.000002 0.991358 0.993177
0.006414 0.956705 0.049483
0.006428 0.956690 0.049474
0.006445 0.956671 0.049461
0.006473 0.956644 0.049444
0.006507 0.956610 0.049422
0.006593 0.956532 0.049369
0.006778 0.956385 0.049265
0.007227 0.956119 0.049058
0.008363 0.955684 0.048680
0.011719 0.955020 0.048032
0.021420 0.954028 0.046998
0.053600 0.952583 0.045542
0.202676 0.950498 0.043791
0.497955 0.947628 0.042269
0.781226 0.943819 0.041986
0.913082 0.938987 0.044782
0.971865 0.929464 0.079660
0.992040 0.918418 0.149326
0.997879 0.908536 0.254222
0.999665 0.902210 0.416350
1.000002 0.902364 0.604022
1.000002 0.910362 0.768737
1.000002 0.923730 0.860762
1.000002 0.938844 0.913105
1.000002 0.952321 0.942843
1.000002 0.963388 0.960990
1.000002 0.971662 0.972111
1.000002 0.977844 0.979381
1.000002 0.982317 0.984177
1.000002 0.985506 0.987384
1.000002 0.987889 0.989676
1.000002 0.989756 0.991412
1.000002 0.991395 0.992894
0.010215 0.975514 0.075905
0.010234 0.975506 0.075892
0.010262 0.975496 0.075873
0.010299 0.975481 0.075848
0.010348 0.975463 0.075815
0.010472 0.975421 0.075740
0.010736 0.975342 0.075597
0.011330 0.975202 0.075330
0.012652 0.974979 0.074878
0.015632 0.974651 0.074155
0.022818 0.974174 0.073044
0.042068 0.973489 0.071455
0.105497 0.972496 0.069391
0.345140 0.971104 0.067228
0.654112 0.969219 0.065836
0.862792 0.966772 0.066854
0.946261 0.963736 0.073174
0.984038 0.957618 0.118490
0.996150 0.950459 0.213818
0.999188 0.944456 0.359939
1.000002 0.940664 0.543042
1.000002 0.940812 0.729036
1.000002 0.945149 0.839867
1.000002 0.952429 0.901957
1.000002 0.960486 0.936531
1.000002 0.968113 0.957230
1.000002 0.974402 0.969713
1.000002 0.979436 0.977769
1.000002 0.983261 0.983031
1.000002 0.986082 0.986523
1.000002 0.988244 0.989003
1.000002 0.989971 0.990874
1.000002 0.991511 0.992465
0.017804 0.986326 0.114968
0.017822 0.986322 0.114946
0.017847 0.986316 0.114918
0.017882 0.986308 0.114879
0.017928 0.986298 0.114830
0.018043 0.986275 0.114718
0.018290 0.986232 0.114509
0.018850 0.986156 0.114136
0.020082 0.986040 0.113544
0.022756 0.985874 0.112670
0.028700 0.985641 0.111411
0.042584 0.985315 0.109653
0.079766 0.984846 0.107300
0.205240 0.984182 0.104556
0.498493 0.983264 0.102097
0.784161 0.982046 0.101383
0.914916 0.980500 0.104963
0.966973 0.978606 0.117449
0.990888 0.974755 0.177147
0.998169 0.970235 0.312106
0.999808 0.966515 0.484066
1.000002 0.964252 0.677039
1.000002 0.964188 0.810802
1.000002 0.966345 0.885977
1.000002 0.969964 0.927367
1.000002 0.974231 0.951756
1.000002 0.978296 0.966230
1.000002 0.981897 0.975440
1.000002 0.984839 0.981385
1.000002 0.987127 0.985293
1.000002 0.988948 0.988048
1.000002 0.990447 0.990113
1.000002 0.991817 0.991860
0.029948 0.992457 0.173786
0.029964 0.992455 0.173753
0.029984 0.992451 0.173706
0.030014 0.992447 0.173645
0.030054 0.992441 0.173566
0.030153 0.992428 0.173389
0.030372 0.992404 0.173063
0.030879 0.992362 0.172497
0.032010 0.992300 0.171642
0.034447 0.992213 0.170464
0.039660 0.992097 0.168887
0.050897 0.991939 0.166803
0.077257 0.991717 0.164045
0.148108 0.991402 0.160664
0.372659 0.990960 0.157114
0.672828 0.990360 0.154662
0.867907 0.989582 0.155679
0.947796 0.988606 0.164256
0.979736 0.987435 0.187976
0.994550 0.985105 0.267318
0.999217 0.982169 0.437109
1.000002 0.979915 0.618119
1.000002 0.978545 0.774102
1.000002 0.978328 0.864631
1.000002 0.979232 0.914764
1.000002 0.980960 0.944122
1.000002 0.983040 0.961352
1.000002 0.985178 0.972182
1.000002 0.987120 0.979091
1.000002 0.988749 0.983588
1.000002 0.990121 0.986731
1.000002 0.991300 0.989070
1.000002 0.992419 0.991035
0.048312 0.995860 0.264321
0.048322 0.995859 0.264264
0.048337 0.995857 0.264186
0.048359 0.995854 0.264082
0.048388 0.995851 0.263949
0.048464 0.995843 0.263651
0.048639 0.995830 0.263108
0.049068 0.995807 0.262183
0.050073 0.995771 0.260826
0.052288 0.995724 0.259050
0.056992 0.995664 0.256821
0.066744 0.995584 0.254063
0.087914 0.995475 0.250560
0.137758 0.995323 0.246244
0.285566 0.995108 0.241358
0.553859 0.994812 0.236954
0.805829 0.994418 0.235318
0.920807 0.993913 0.240466
0.968347 0.993294 0.259377
0.987447 0.992578 0.300448
0.996853 0.991115 0.389422
0.999747 0.989240 0.570171
1.000002 0.987891 0.734320
1.000002 0.987019 0.839174
1.000002 0.986761 0.898920
1.000002 0.987079 0.934228
1.000002 0.987816 0.954926
1.000002 0.988801 0.967858
1.000002 0.989848 0.976040
1.000002 0.990827 0.981322
1.000002 0.991719 0.984986
1.000002 0.992533 0.987693
1.000002 0.993347 0.989953
0.075991 0.997800 0.389772
0.075995 0.997799 0.389704
0.076001 0.997798 0.389613
0.076010 0.997797 0.389489
0.076024 0.997795 0.389334
0.076065 0.997791 0.388982
0.076177 0.997783 0.388345
0.076497 0.997769 0.387269
0.077338 0.997750 0.385709
0.079312 0.997724 0.383718
0.083603 0.997691 0.381318
0.092418 0.997650 0.378482
0.110803 0.997596 0.375020
0.150822 0.997522 0.370783
0.252089 0.997417 0.365725
0.475127 0.997271 0.360362
0.735253 0.997074 0.356245
0.885945 0.996815 0.356341
0.952538 0.996491 0.365110
0.980416 0.996108 0.387206
0.992243 0.995661 0.427703
0.998073 0.994786 0.512836
0.999994 0.993603 0.697631
1.000002 0.992772 0.811656
1.000002 0.992218 0.880261
1.000002 0.991965 0.921955
1.000002 0.992005 0.946705
1.000002 0.992270 0.962218
1.000002 0.992674 0.972019
1.000002 0.993130 0.978320
1.000002 0.993597 0.982668
1.000002 0.994064 0.985864
1.000002 0.994566 0.988516
0.116056 0.998881 0.518271
0.116050 0.998880 0.518194
0.116043 0.998879 0.518090
0.116035 0.998878 0.517951
0.116027 0.998877 0.517776
0.116018 0.998875 0.517382
0.116041 0.998870 0.516670
0.116214 0.998862 0.515469
0.116845 0.998851 0.513751
0.118560 0.998836 0.511598
0.122518 0.998818 0.509080
0.130790 0.998796 0.506231
0.147835 0.998767 0.502911
0.183431 0.998730 0.498987
0.265677 0.998678 0.494302
0.443349 0.998605 0.488986
0.676116 0.998505 0.483812
0.848790 0.998371 0.480569
0.933411 0.998200 0.482383
0.971235 0.997993 0.493179
0.988031 0.997748 0.517697
0.994997 0.997368 0.550823
0.998707 0.996972 0.636996
1.000002 0.996201 0.786708
1.000002 0.995694 0.861143
1.000002 0.995327 0.908354
1.000002 0.995121 0.937142
1.000002 0.995059 0.955447
1.000002 0.995116 0.967090
1.000002 0.995249 0.974591
1.000002 0.995427 0.979765
1.000002 0.995635 0.983560
1.000002 0.995886 0.986701
0.172107 0.999475 0.648361
0.172087 0.999475 0.648280
0.172061 0.999474 0.648171
0.172027 0.999474 0.648024
0.171986 0.999473 0.647836
0.171905 0.999472 0.647416
0.171800 0.999469 0.646656
0.171765 0.999464 0.645376
0.172126 0.999457 0.643544
0.173551 0.999448 0.641255
0.177261 0.999438 0.638609
0.185354 0.999425 0.635675
0.202161 0.999409 0.632342
0.236634 0.999389 0.628500
0.312248 0.999362 0.623970
0.453532 0.999324 0.618725
0.647380 0.999272 0.613112
0.818686 0.999200 0.608186
0.914188 0.999106 0.606133
0.960854 0.998992 0.610101
0.982888 0.998852 0.624073
0.992693 0.998694 0.650840
0.996809 0.998454 0.678999
0.999147 0.998229 0.740507
1.000002 0.997736 0.842426
1.000002 0.997403 0.895130
1.000002 0.997164 0.927211
1.000002 0.997006 0.948104
1.000002 0.996926 0.961585
1.000002 0.996907 0.970343
1.000002 0.996932 0.976410
1.000002 0.996989 0.980870
1.000002 0.997081 0.984563
0.252701 0.999816 0.751372
0.252659 0.999816 0.751311
0.252600 0.999815 0.751230
0.252525 0.999815 0.751120
0.252431 0.999815 0.750982
0.252234 0.999813 0.750673
0.251924 0.999812 0.750111
0.251566 0.999809 0.749167
0.251517 0.999804 0.747820
0.252555 0.999799 0.746149
0.256048 0.999792 0.744239
0.264296 0.999785 0.742157
0.281858 0.999776 0.739859
0.317752 0.999764 0.737287
0.387768 0.999749 0.734311
0.495541 0.999729 0.730827
0.652277 0.999700 0.726874
0.802042 0.999661 0.722839
0.898138 0.999609 0.719780
0.950456 0.999544 0.719509
0.977153 0.999463 0.724302
0.989730 0.999370 0.736115
0.995411 0.999269 0.754935
0.998034 0.999162 0.779546
0.999383 0.998994 0.809156
1.000002 0.998676 0.878442
1.000002 0.998450 0.917577
1.000002 0.998289 0.940583
1.000002 0.998175 0.955740
1.000002 0.998103 0.965718
1.000002 0.998063 0.972690
1.000002 0.998048 0.977844
1.000002 0.998056 0.982127
0.365717 1.000002 0.818475
0.365642 1.000002 0.818430
0.365539 1.000002 0.818370
0.365405 1.000002 0.818288
0.365234 1.000002 0.818184
0.364871 1.000002 0.817952
0.364261 1.000002 0.817531
0.363419 1.000002 0.816824
0.362743 1.000001 0.815818
0.363134 0.999998 0.814575
0.366123 0.999994 0.813165
0.374005 0.999989 0.811647
0.390519 0.999983 0.810001
0.420926 0.999977 0.808206
0.473015 0.999968 0.806178
0.556993 0.999956 0.803839
0.680837 0.999940 0.801157
0.800577 0.999917 0.798246
0.888350 0.999887 0.795570
0.941864 0.999848 0.794079
0.971644 0.999799 0.795063
0.986613 0.999742 0.799938
0.993711 0.999679 0.809259
0.997119 0.999612 0.822867
0.998719 0.999544 0.839042
0.999587 0.999441 0.856991
1.000002 0.999244 0.901665
1.000002 0.999077 0.933463
1.000002 0.998968 0.950086
1.000002 0.998889 0.961118
1.000002 0.998831 0.968913
1.000002 0.998790 0.974722
1.000002 0.998762 0.979579
0.487965 1.000002 0.864115
0.487879 1.000002 0.864081
0.487763 1.000002 0.864035
0.487609 1.000002 0.863973
0.487415 1.000002 0.863893
0.486994 1.000002 0.863715
0.486271 1.000002 0.863396
0.485193 1.000002 0.862857
0.484054 1.000002 0.862092
0.483568 1.000002 0.861150
0.484937 1.000002 0.860085
0.489948 1.000002 0.858950
0.501532 1.000002 0.857735
0.524005 1.000002 0.856435
0.564091 1.000002 0.854999
0.631108 1.000002 0.853371
0.720463 1.000002 0.851511
0.810515 1.000002 0.849434
0.885018 1.000002 0.847340
0.935818 1.000002 0.845727
0.966808 0.999996 0.845310
0.983536 0.999960 0.847030
0.991904 0.999920 0.851472
0.996093 0.999876 0.858829
0.998130 0.999832 0.868351
0.999170 0.999787 0.879440
0.999714 0.999726 0.889796
1.000002 0.999605 0.917946
1.000002 0.999483 0.943409
1.000002 0.999406 0.956601
1.000002 0.999349 0.965127
1.000002 0.999303 0.971540
1.000002 0.999263 0.976943
0.598361 1.000002 0.894700
0.598267 1.000002 0.894673
0.598139 1.000002 0.894637
0.597965 1.000002 0.894588
0.597748 1.000002 0.894526
0.597271 1.000002 0.894387
0.596438 1.000002 0.894135
0.595156 1.000002 0.893713
0.593650 1.000002 0.893114
0.592550 1.000002 0.892376
0.592866 1.000002 0.891545
0.596092 1.000002 0.890664
