create_logik_projekt/presets/Syncolor/transforms/r3d/IPP2-Cubes-SDR-Core-V1_13/REC709/RWG_Log3G10 to REC709_BT1886 with LOW_CONTRAST and R_1_Hard size_33 v1.13.cube
# RED Digital Cinema Output Transform LUT for IPP2
# LUT Name = RWG_Log3G10 to REC709_BT1886 with LOW_CONTRAST and R_1_Hard size_33 v1.13
# Generated by version 1.13
# Settings used in creation of this LUT are:
# Development Color Space = REC709
# Output Gamma Curve = BT1886
# Output Tonemap = LOW_CONTRAST
# Highlight Rolloff = Rolloff 1 - hard
# Resolution = 33 x 33 x 33
TITLE "RED IPP2 LUT to map REDWideGamutRGB/Log3G10 to REC709/BT1886/LOW_CONTRAST/Rolloff 1 - hard"
LUT_3D_SIZE 9
0.000000 0.000000 0.000000
0.108301 0.003505 0.003505
0.370655 0.018292 0.026890
0.809184 0.051743 0.073531
0.978823 0.114959 0.162371
0.999238 0.285934 0.404309
1.000002 0.718548 0.804843
1.000002 0.938726 0.955876
1.000002 0.987151 0.990524
0.003505 0.100523 0.003505
0.079020 0.090783 0.003505
0.364278 0.043760 0.019690
0.809648 0.064217 0.069228
0.979351 0.122897 0.161349
0.999292 0.295441 0.408652
1.000002 0.727279 0.809813
1.000002 0.940780 0.957266
1.000002 0.987627 0.990870
0.003505 0.350721 0.003990
0.003505 0.347699 0.003972
0.291386 0.323642 0.003721
0.794243 0.263084 0.040599
0.980517 0.217972 0.146272
0.999485 0.370230 0.423194
1.000002 0.769708 0.830924
1.000002 0.949893 0.963267
1.000002 0.989693 0.992361
0.003721 0.756819 0.009984
0.003825 0.755319 0.009921
0.016793 0.742947 0.009071
0.630163 0.703327 0.007392
0.972793 0.598480 0.093123
0.999362 0.587971 0.385955
1.000002 0.822824 0.836833
1.000002 0.957175 0.966652
1.000002 0.991129 0.993312
0.005933 0.951274 0.044768
0.006113 0.951054 0.044646
0.010023 0.949492 0.043488
0.170908 0.944612 0.039546
0.903843 0.931962 0.039816
0.997801 0.897499 0.249370
1.000002 0.905563 0.792820
1.000002 0.963625 0.963002
1.000002 0.991383 0.992964
0.028363 0.991974 0.166173
0.028586 0.991939 0.165744
0.032199 0.991731 0.163170
0.068489 0.991232 0.157235
0.620991 0.989860 0.147848
0.978670 0.986713 0.178406
1.000002 0.978324 0.653561
1.000002 0.980491 0.947233
1.000002 0.992339 0.991132
0.123569 0.998998 0.538414
0.123487 0.998992 0.537388
0.125362 0.998959 0.531927
0.150109 0.998899 0.523408
0.401467 0.998763 0.509907
0.924032 0.998397 0.500513
0.995499 0.997674 0.579796
1.000002 0.995690 0.910015
1.000002 0.996083 0.986386
0.500174 1.000002 0.867961
0.499052 1.000002 0.867521
0.495379 1.000002 0.865202
0.509360 1.000002 0.861919
0.622507 1.000002 0.857777
0.878346 1.000002 0.851788
0.984964 0.999971 0.851472
0.999207 0.999806 0.882752
1.000002 0.999305 0.976664
0.880057 1.000002 0.962097
0.879599 1.000002 0.961963
0.877405 1.000002 0.961262
0.876356 1.000002 0.960303
0.885398 1.000002 0.959247
0.924286 1.000002 0.957915
0.976583 1.000002 0.956348
0.996883 1.000002 0.957252
1.000002 1.000002 0.966193
0.003505 0.003505 0.092360
0.105387 0.003505 0.090894
0.370057 0.015006 0.062556
0.809026 0.049426 0.090694
0.978822 0.113617 0.172161
0.999239 0.285145 0.409336
1.000002 0.718594 0.805785
1.000002 0.938798 0.955980
1.000002 0.987172 0.990543
0.003505 0.082655 0.078319
0.074290 0.074292 0.074297
0.363441 0.036021 0.050391
0.809269 0.061232 0.086161
0.979316 0.121335 0.171292
0.999290 0.294363 0.413570
1.000002 0.726997 0.810531
1.000002 0.940767 0.957310
1.000002 0.987628 0.990874
0.003505 0.345728 0.005414
0.003505 0.343897 0.005201
0.290329 0.319453 0.004681
0.793799 0.259048 0.050639
0.980484 0.215431 0.154329
0.999484 0.369200 0.427593
1.000002 0.769512 0.831480
1.000002 0.949887 0.963302
1.000002 0.989695 0.992365
0.003721 0.754702 0.012191
0.003825 0.754250 0.012011
0.016425 0.741696 0.011170
0.629860 0.701738 0.009020
0.972747 0.596964 0.097809
0.999361 0.587229 0.389980
1.000002 0.822712 0.837317
1.000002 0.957175 0.966683
1.000002 0.991132 0.993316
0.005907 0.951009 0.046362
0.006097 0.951031 0.046297
0.009973 0.949458 0.045256
0.170398 0.944560 0.041376
0.903896 0.931886 0.041787
0.997799 0.897440 0.252451
1.000002 0.905548 0.793427
1.000002 0.963628 0.963036
1.000002 0.991386 0.992969
0.028247 0.991936 0.167112
0.028602 0.991948 0.167254
0.032208 0.991740 0.164778
0.068470 0.991240 0.158951
0.620990 0.989867 0.149618
0.978695 0.986721 0.180648
1.000002 0.978339 0.654639
1.000002 0.980500 0.947282
1.000002 0.992342 0.991137
0.123146 0.998992 0.538019
0.123655 0.998995 0.538511
0.125523 0.998961 0.533101
0.150263 0.998902 0.524655
0.401648 0.998765 0.511233
0.924081 0.998400 0.501878
0.995506 0.997678 0.581117
1.000002 0.995696 0.910120
1.000002 0.996087 0.986394
0.498695 1.000002 0.867578
0.499719 1.000002 0.867801
0.496029 1.000002 0.865489
0.509968 1.000002 0.862221
0.623012 1.000002 0.858096
0.878454 1.000002 0.852128
0.984979 0.999972 0.851812
0.999208 0.999807 0.883011
1.000002 0.999306 0.976684
0.879551 1.000002 0.961965
0.879834 1.000002 0.962034
0.877639 1.000002 0.961334
0.876587 1.000002 0.960377
0.885595 1.000002 0.959323
0.924389 1.000002 0.957994
0.976608 1.000002 0.956429
0.996887 1.000002 0.957331
1.000002 1.000002 0.966255
0.014864 0.004624 0.322964
0.057410 0.004472 0.322994
0.363534 0.004418 0.319735
0.805399 0.032662 0.292258
0.978370 0.100794 0.291136
0.999217 0.274446 0.457197
1.000002 0.714624 0.812597
1.000002 0.938411 0.956280
1.000002 0.987127 0.990547
0.007394 0.009496 0.321319
0.034719 0.008316 0.320365
0.356625 0.006663 0.316860
0.805484 0.040928 0.288322
0.978863 0.107797 0.289598
0.999270 0.283374 0.460956
1.000002 0.723162 0.817029
1.000002 0.940388 0.957586
1.000002 0.987583 0.990876
0.003505 0.294534 0.284297
0.003505 0.298694 0.288862
0.279661 0.279669 0.279691
0.787507 0.219847 0.248276
0.979814 0.191072 0.266605
0.999453 0.355980 0.472671
1.000002 0.764852 0.835804
1.000002 0.949177 0.963230
1.000002 0.989566 0.992297
0.003663 0.735010 0.088203
0.003721 0.734486 0.086994
0.013013 0.727291 0.077772
0.622766 0.679960 0.103339
0.971827 0.580225 0.164122
0.999325 0.577583 0.431559
1.000002 0.819762 0.840902
1.000002 0.956625 0.966596
1.000002 0.991029 0.993259
0.005649 0.948902 0.071250
0.005825 0.948923 0.071050
0.009413 0.948633 0.069246
0.165103 0.943496 0.067092
0.903783 0.930489 0.070364
0.997720 0.896294 0.288718
1.000002 0.904752 0.797935
1.000002 0.963263 0.962937
1.000002 0.991296 0.992911
0.027461 0.991693 0.182967
0.027824 0.991705 0.183036
0.032059 0.991742 0.182970
0.067999 0.991232 0.178749
0.620110 0.989846 0.170390
0.978790 0.986688 0.207239
1.000002 0.978375 0.663395
1.000002 0.980452 0.947145
1.000002 0.992286 0.991066
0.120849 0.998956 0.540985
0.121361 0.998959 0.541425
0.126204 0.998971 0.543487
0.150873 0.998911 0.535994
0.402218 0.998774 0.523555
0.924278 0.998410 0.514791
0.995539 0.997690 0.593390
1.000002 0.995724 0.910278
1.000002 0.996088 0.986286
0.491011 1.000002 0.866130
0.492033 1.000002 0.866346
0.499256 1.000002 0.867418
0.512958 1.000002 0.864293
0.625476 1.000002 0.860345
0.878967 1.000002 0.854583
0.985050 0.999975 0.854298
0.999218 0.999811 0.884858
1.000002 0.999315 0.976607
0.876909 1.000002 0.961331
0.877197 1.000002 0.961400
0.878826 1.000002 0.961742
0.877747 1.000002 0.960801
0.886584 1.000002 0.959767
0.924909 1.000002 0.958460
0.976731 1.000002 0.956919
0.996907 1.000002 0.957806
1.000002 1.000002 0.966622
0.036324 0.007562 0.701835
0.053915 0.007363 0.702633
0.327562 0.006069 0.703498
0.777220 0.007141 0.693530
0.974748 0.062689 0.638180
0.998978 0.224182 0.649229
1.000002 0.677887 0.835221
1.000002 0.932425 0.955284
1.000002 0.985964 0.989906
0.029835 0.010472 0.704136
0.046099 0.009996 0.703623
0.318631 0.007733 0.704397
0.776291 0.008920 0.694387
0.975233 0.067454 0.638835
0.999036 0.231498 0.652197
1.000002 0.687450 0.838581
1.000002 0.934554 0.956544
1.000002 0.986451 0.990246
0.005930 0.161897 0.698999
0.008344 0.157900 0.698535
0.228231 0.122569 0.692658
0.751961 0.079675 0.683796
0.975853 0.123883 0.628244
0.999238 0.292869 0.660412
1.000002 0.734588 0.852910
1.000002 0.944033 0.962006
1.000002 0.988565 0.991715
0.003505 0.656434 0.629463
0.003505 0.655488 0.629046
0.005733 0.644338 0.623327
0.602815 0.602836 0.602901
0.965183 0.511909 0.553433
0.999021 0.524934 0.624602
1.000002 0.796814 0.855508
1.000002 0.951631 0.964880
1.000002 0.989998 0.992611
0.004734 0.940883 0.390555
0.004852 0.940903 0.389912
0.007181 0.940520 0.384820
0.142644 0.937038 0.369133
0.901275 0.922039 0.392893
0.997069 0.888607 0.479035
1.000002 0.898117 0.816466
1.000002 0.959813 0.960967
1.000002 0.990358 0.992233
0.024912 0.990984 0.332144
0.025273 0.990998 0.331876
0.029515 0.991037 0.329868
0.064708 0.990869 0.322981
0.612658 0.989374 0.327186
0.978683 0.986077 0.372424
1.000002 0.978084 0.701033
1.000002 0.979662 0.944331
1.000002 0.991645 0.990210
0.116612 0.998883 0.587349
0.117130 0.998886 0.587610
0.122080 0.998898 0.588740
0.150223 0.998899 0.588759
0.400159 0.998758 0.582184
0.924123 0.998386 0.577298
0.995561 0.997659 0.651644
1.000002 0.995759 0.908045
1.000002 0.995967 0.984990
0.480038 1.000002 0.868930
0.481071 1.000002 0.869115
0.488473 1.000002 0.870025
0.515895 1.000002 0.871012
0.627648 1.000002 0.867953
0.879345 1.000002 0.863193
0.985113 0.999976 0.863210
0.999228 0.999813 0.891276
1.000002 0.999331 0.975157
0.873295 1.000002 0.960939
0.873587 1.000002 0.961005
0.875269 1.000002 0.961332
0.879134 1.000002 0.961726
0.887750 1.000002 0.960778
0.925509 1.000002 0.959571
0.976870 1.000002 0.958126
0.996931 1.000002 0.958995
1.000002 1.000002 0.967506
0.048474 0.009486 0.936033
0.057863 0.009332 0.936368
0.267289 0.008092 0.937316
0.752469 0.006634 0.936294
0.959406 0.013209 0.929757
0.998207 0.126928 0.904260
1.000002 0.543986 0.907228
1.000002 0.912342 0.957945
1.000002 0.982366 0.988524
0.044323 0.011124 0.937252
0.053734 0.010885 0.937209
0.256400 0.009294 0.938136
0.749648 0.007430 0.937085
0.959848 0.014699 0.930707
0.998285 0.131107 0.905415
1.000002 0.554725 0.908694
1.000002 0.915044 0.958962
1.000002 0.982955 0.988881
0.019007 0.045582 0.939597
0.023171 0.044712 0.939573
0.140145 0.037673 0.938652
0.704622 0.028511 0.937821
0.959610 0.034949 0.932905
0.998537 0.166680 0.909567
1.000002 0.615466 0.915133
1.000002 0.927125 0.963445
1.000002 0.985517 0.990433
0.004868 0.470372 0.932682
0.005273 0.468291 0.932668
0.022356 0.451060 0.932007
0.520870 0.405136 0.928716
0.947024 0.354249 0.924701
0.998081 0.376867 0.905417
1.000002 0.714910 0.917333
1.000002 0.937082 0.965927
1.000002 0.987239 0.991374
0.003663 0.915464 0.904552
0.003663 0.915444 0.904589
0.004141 0.914551 0.904269
0.164797 0.904713 0.897237
0.892634 0.892645 0.892679
0.994874 0.855970 0.873818
1.000002 0.871416 0.901479
1.000002 0.948768 0.962271
1.000002 0.987535 0.990770
0.017386 0.988642 0.796740
0.017684 0.988658 0.796572
0.021230 0.988702 0.795295
0.052770 0.988473 0.790755
0.583413 0.987260 0.778201
0.977780 0.983298 0.798850
0.999885 0.975775 0.845315
1.000002 0.977031 0.946756
1.000002 0.989776 0.988359
0.106354 0.998673 0.780670
0.106863 0.998676 0.780614
0.111760 0.998691 0.780186
0.139940 0.998693 0.778630
0.385779 0.998615 0.773220
0.922180 0.998198 0.779366
0.995492 0.997418 0.811498
1.000002 0.995672 0.917106
1.000002 0.995613 0.982243
0.463693 1.000002 0.893130
0.464743 1.000002 0.893217
0.472425 1.000002 0.893635
0.501494 1.000002 0.894018
0.624914 1.000002 0.893745
0.878364 1.000002 0.892394
0.985039 0.999960 0.893571
0.999227 0.999793 0.913401
1.000002 0.999347 0.972702
0.869047 1.000002 0.962948
0.869347 1.000002 0.963000
0.871100 1.000002 0.963261
0.875249 1.000002 0.963571
0.888414 1.000002 0.963788
0.925775 1.000002 0.962986
0.976915 1.000002 0.961930
0.996941 1.000002 0.962793
1.000002 1.000002 0.970266
0.044836 0.007966 0.990643
0.049529 0.007885 0.990722
0.137446 0.007181 0.990991
0.737488 0.006079 0.990912
0.959771 0.006091 0.990020
0.994699 0.024558 0.987049
1.000002 0.283477 0.977953
1.000002 0.856107 0.977394
1.000002 0.974624 0.989118
0.042241 0.008516 0.990946
0.047122 0.008417 0.990948
0.131426 0.007613 0.991210
0.734293 0.006365 0.991126
0.959904 0.006411 0.990235
0.994834 0.025733 0.987344
1.000002 0.290829 0.978351
1.000002 0.860540 0.977840
1.000002 0.975445 0.989411
0.023098 0.020333 0.991760
0.025754 0.020054 0.991766
0.082380 0.017608 0.991651
0.667631 0.013933 0.991533
0.955683 0.014173 0.990644
0.995240 0.037850 0.988435
1.000002 0.338463 0.980177
1.000002 0.880401 0.979903
1.000002 0.979017 0.990711
0.005845 0.202839 0.990861
0.006233 0.200444 0.990867
0.019863 0.178890 0.990765
0.406050 0.136596 0.990221
0.934378 0.108053 0.989664
0.994509 0.127082 0.988194
1.000002 0.463145 0.981641
1.000002 0.897214 0.981596
1.000002 0.981377 0.991592
0.004835 0.849455 0.987327
0.004960 0.849029 0.987341
0.007266 0.844891 0.987333
0.077436 0.829480 0.986922
0.858209 0.794561 0.985738
0.990168 0.762484 0.984503
1.000002 0.788269 0.979785
1.000002 0.920898 0.981142
1.000002 0.981931 0.991279
0.006159 0.982356 0.979128
0.006243 0.982373 0.979151
0.007366 0.982388 0.979225
0.024710 0.981921 0.978998
0.536152 0.979855 0.977782
0.975445 0.975449 0.975461
0.999343 0.967131 0.970946
1.000002 0.969462 0.975834
1.000002 0.985919 0.989379
0.080658 0.998024 0.955963
0.081093 0.998028 0.955956
0.085321 0.998047 0.955886
0.110067 0.998046 0.955561
0.344348 0.997935 0.954275
0.915387 0.997543 0.951194
0.995195 0.996559 0.955982
1.000002 0.994937 0.962992
1.000002 0.994846 0.984218
0.426132 1.000002 0.951684
0.427235 1.000002 0.951685
0.435376 1.000002 0.951673
0.466602 1.000002 0.951573
0.598649 1.000002 0.951110
0.872707 1.000002 0.949636
0.984514 0.999888 0.951709
0.999193 0.999700 0.958499
1.000002 0.999303 0.977524
0.862105 1.000002 0.972797
0.862426 1.000002 0.972818
0.864317 1.000002 0.972923
0.868894 1.000002 0.973038
0.883598 1.000002 0.973082
0.924813 1.000002 0.972889
0.976611 1.000002 0.972835
0.996902 1.000002 0.973679
1.000002 1.000002 0.978366
0.025321 0.004955 0.999546
0.027008 0.004930 0.999558
0.053223 0.004729 0.999604
0.716916 0.004250 0.999585
0.971279 0.004104 0.999501
0.996338 0.005116 0.999131
0.999769 0.045272 0.998090
1.000002 0.668797 0.995121
1.000002 0.956599 0.994590
0.023835 0.005009 0.999592
0.025678 0.004985 0.999593
0.050807 0.004786 0.999638
0.713373 0.004279 0.999618
0.971600 0.004130 0.999536
0.996414 0.005218 0.999171
0.999791 0.046457 0.998158
1.000002 0.679188 0.995233
1.000002 0.957982 0.994718
0.014048 0.006219 0.999744
0.015112 0.006177 0.999746
0.033381 0.005825 0.999740
0.644007 0.004862 0.999718
0.969754 0.004624 0.999636
0.996301 0.007252 0.999270
0.999876 0.056545 0.998441
1.000002 0.725951 0.995774
1.000002 0.963967 0.995315
0.003936 0.071835 0.999524
0.003990 0.071093 0.999526
0.004965 0.065130 0.999523
0.183804 0.045456 0.999412
0.927968 0.036907 0.999320
0.994039 0.042058 0.999081
0.999874 0.105014 0.998568
1.000002 0.766971 0.996393
1.000002 0.967716 0.995890
0.003505 0.734072 0.999052
0.003505 0.732477 0.999055
0.003721 0.716154 0.999046
0.038977 0.635676 0.998919
0.800051 0.537371 0.998737
0.987575 0.475793 0.998546
0.999564 0.514475 0.998191
1.000002 0.837757 0.996671
1.000002 0.968752 0.996154
0.006471 0.969380 0.997815
0.006551 0.969356 0.997820
0.007699 0.969063 0.997837
0.022262 0.967554 0.997805
0.363654 0.962871 0.997625
0.967438 0.954167 0.997253
0.998295 0.948186 0.996926
1.000002 0.951176 0.995875
1.000002 0.977644 0.995832
0.038169 0.996583 0.995685
0.038417 0.996588 0.995691
0.040962 0.996609 0.995722
0.056904 0.996592 0.995729
0.220465 0.996383 0.995607
0.906301 0.995717 0.995203
0.994615 0.994616 0.994620
1.000002 0.992796 0.993578
1.000002 0.992888 0.994269
0.334812 0.999857 0.990768
0.335980 0.999858 0.990770
0.344931 0.999864 0.990780
0.380319 0.999867 0.990771
0.526018 0.999860 0.990668
0.860049 0.999811 0.990277
0.983129 0.999689 0.989550
0.999101 0.999442 0.990567
1.000002 0.999065 0.991459
0.846347 1.000002 0.989271
0.846719 1.000002 0.989273
0.848917 1.000002 0.989282
0.854330 1.000002 0.989285
0.871860 1.000002 0.989252
0.919829 1.000002 0.989090
0.975432 1.000002 0.988688
0.996748 1.000002 0.989260
1.000002 1.000002 0.990720
0.006983 0.003663 1.000002
0.007193 0.003663 1.000002
0.011278 0.003663 1.000002
0.117641 0.003505 1.000002
0.988844 0.003505 1.000002
0.999422 0.003505 1.000002
1.000002 0.004516 1.000002
1.000002 0.082634 1.000000
1.000002 0.909164 0.999038
0.006604 0.003663 1.000002
0.006852 0.003663 1.000002
0.010520 0.003663 1.000002
0.111910 0.003505 1.000002
0.989221 0.003505 1.000002
0.999474 0.003505 1.000002
1.000002 0.004530 1.000002
1.000002 0.084233 1.000002
1.000002 0.912065 0.999070
0.004889 0.003663 1.000002
0.004980 0.003663 1.000002
0.006776 0.003663 1.000002
0.077038 0.003505 1.000002
0.989934 0.003505 1.000002
0.999611 0.003505 1.000002
1.000002 0.005112 1.000002
1.000002 0.095656 1.000002
1.000002 0.924486 0.999226
0.003505 0.004930 1.000002
0.003505 0.004899 1.000002
0.003721 0.004705 1.000002
0.017440 0.004230 1.000002
0.977642 0.003761 1.000002
0.998660 0.003990 1.000002
1.000002 0.022371 1.000002
1.000002 0.135524 1.000002
1.000002 0.931545 0.999419
0.003505 0.518782 1.000002
0.003505 0.515681 1.000002
0.003505 0.488942 1.000002
0.003505 0.364915 1.000002
0.610595 0.174052 1.000002
0.986249 0.145578 1.000002
0.999498 0.171541 1.000002
1.000002 0.366820 1.000002
1.000002 0.934021 0.999579
0.003505 0.962214 1.000002
0.003505 0.962098 1.000002
0.003505 0.960692 1.000002
0.003721 0.951109 1.000002
0.137656 0.931726 1.000002
0.956010 0.911007 1.000002
0.997751 0.898183 1.000002
1.000002 0.906531 0.999925
1.000002 0.958399 0.999591
0.019308 0.994124 0.999815
0.019407 0.994125 0.999816
0.020661 0.994117 0.999822
0.029460 0.994007 0.999823
0.108708 0.993503 0.999802
0.861949 0.992191 0.999733
0.992867 0.990225 0.999624
0.999881 0.989102 0.999540
1.000002 0.989086 0.999296
0.185484 0.999527 0.999273
0.186085 0.999528 0.999275
0.190933 0.999535 0.999284
0.213334 0.999539 0.999291
0.358376 0.999522 0.999284
0.821000 0.999434 0.999228
0.981776 0.999231 0.999103
0.998956 0.998956 0.998958
1.000002 0.998526 0.998703
0.808652 1.000002 0.998123
0.809132 1.000002 0.998124
0.812006 1.000002 0.998130
0.819318 1.000002 0.998136
0.843313 1.000002 0.998130
0.906568 1.000002 0.998088
0.973567 1.000002 0.997966
0.996434 1.000002 0.997788
1.000002 1.000002 0.998024
0.003663 0.003505 1.000002
0.003663 0.003505 1.000002
0.003721 0.003505 1.000002
0.006150 0.003505 1.000002
0.985066 0.003505 1.000002
1.000002 0.003505 1.000002
1.000002 0.003505 1.000002
1.000002 0.004434 1.000002
1.000002 0.153056 1.000002
0.003663 0.003505 1.000002
0.003663 0.003505 1.000002
0.003721 0.003505 1.000002
0.005838 0.003505 1.000002
0.984398 0.003505 1.000002
1.000002 0.003505 1.000002
1.000002 0.003505 1.000002
1.000002 0.004434 1.000002
1.000002 0.155868 1.000002
0.003505 0.003505 1.000002
0.003505 0.003505 1.000002
0.003505 0.003505 1.000002
0.004564 0.003505 1.000002
0.977769 0.003505 1.000002
1.000002 0.003505 1.000002
1.000002 0.003505 1.000002
1.000002 0.004643 1.000002
1.000002 0.173706 1.000002
0.003505 0.003505 1.000002
0.003505 0.003505 1.000002
0.003505 0.003505 1.000002
0.003663 0.003505 1.000002
0.915028 0.003505 1.000002
1.000002 0.003505 1.000002
1.000002 0.003505 1.000002
1.000002 0.013573 1.000002
1.000002 0.220596 1.000002
0.003505 0.017762 1.000002
0.003505 0.017190 1.000002
0.003505 0.014263 1.000002
0.003505 0.009533 1.000002
0.022372 0.004544 1.000002
0.998374 0.004079 1.000002
1.000002 0.020218 1.000002
1.000002 0.093508 1.000002
1.000002 0.413850 1.000002
0.003505 0.975615 1.000002
0.003505 0.975547 1.000002
0.003505 0.974697 1.000002
0.003505 0.968922 1.000002
0.003505 0.909393 1.000002
0.929793 0.777824 1.000002
0.997401 0.736390 1.000002
1.000002 0.774122 1.000002
1.000002 0.872855 1.000002
0.003505 0.994466 1.000002
0.003505 0.994464 1.000002
0.003505 0.994343 1.000002
0.003505 0.993175 1.000002
0.020578 0.989856 1.000002
0.711976 0.986629 1.000002
0.990574 0.982826 1.000002
0.999751 0.980840 1.000002
1.000002 0.981895 1.000002
0.073357 0.999017 1.000002
0.073469 0.999018 1.000002
0.074818 0.999021 1.000002
0.083332 0.999015 1.000002
0.137188 0.998967 1.000002
0.654602 0.998787 1.000002
0.975037 0.998417 1.000002
0.998544 0.997956 1.000002
1.000002 0.997712 1.000002
0.693154 1.000002 1.000002
0.693934 1.000002 1.000002
0.698787 1.000002 1.000002
0.712325 1.000002 1.000002
0.758386 1.000002 1.000002
0.870426 1.000002 1.000002
0.968734 1.000002 1.000002
0.996183 1.000002 1.000002
1.000002 1.000002 1.000002
