create_logik_projekt/presets/Syncolor/transforms/r3d/IPP2-Cubes-SDR-Core-V1_13/REC709/RWG_Log3G10 to REC709_BT1886 with LOW_CONTRAST and R_1_Hard size_33 v1.13.cube
# RED Digital Cinema Output Transform LUT for IPP2
# LUT Name = RWG_Log3G10 to REC709_BT1886 with LOW_CONTRAST and R_1_Hard size_33 v1.13
# Generated by version 1.13
# Settings used in creation of this LUT are:
# Development Color Space = REC709
# Output Gamma Curve = BT1886
# Output Tonemap = LOW_CONTRAST
# Highlight Rolloff = Rolloff 1 - hard
# Resolution = 33 x 33 x 33
TITLE "RED IPP2 LUT to map REDWideGamutRGB/Log3G10 to REC709/BT1886/LOW_CONTRAST/Rolloff 1 - hard"
LUT_3D_SIZE 5
0.000000 0.000000 0.000000
0.370655 0.018292 0.026890
0.978823 0.114959 0.162371
1.000002 0.718548 0.804843
1.000002 0.987151 0.990524
0.003505 0.350721 0.003990
0.291386 0.323642 0.003721
0.980517 0.217972 0.146272
1.000002 0.769708 0.830924
1.000002 0.989693 0.992361
0.005933 0.951274 0.044768
0.010023 0.949492 0.043488
0.903843 0.931962 0.039816
1.000002 0.905563 0.792820
1.000002 0.991383 0.992964
0.123569 0.998998 0.538414
0.125362 0.998959 0.531927
0.401467 0.998763 0.509907
0.995499 0.997674 0.579796
1.000002 0.996083 0.986386
0.880057 1.000002 0.962097
0.877405 1.000002 0.961262
0.885398 1.000002 0.959247
0.976583 1.000002 0.956348
1.000002 1.000002 0.966193
0.014864 0.004624 0.322964
0.363534 0.004418 0.319735
0.978370 0.100794 0.291136
1.000002 0.714624 0.812597
1.000002 0.987127 0.990547
0.003505 0.294534 0.284297
0.279661 0.279669 0.279691
0.979814 0.191072 0.266605
1.000002 0.764852 0.835804
1.000002 0.989566 0.992297
0.005649 0.948902 0.071250
0.009413 0.948633 0.069246
0.903783 0.930489 0.070364
1.000002 0.904752 0.797935
1.000002 0.991296 0.992911
0.120849 0.998956 0.540985
0.126204 0.998971 0.543487
0.402218 0.998774 0.523555
0.995539 0.997690 0.593390
1.000002 0.996088 0.986286
0.876909 1.000002 0.961331
0.878826 1.000002 0.961742
0.886584 1.000002 0.959767
0.976731 1.000002 0.956919
1.000002 1.000002 0.966622
0.048474 0.009486 0.936033
0.267289 0.008092 0.937316
0.959406 0.013209 0.929757
1.000002 0.543986 0.907228
1.000002 0.982366 0.988524
0.019007 0.045582 0.939597
0.140145 0.037673 0.938652
0.959610 0.034949 0.932905
1.000002 0.615466 0.915133
1.000002 0.985517 0.990433
0.003663 0.915464 0.904552
0.004141 0.914551 0.904269
0.892634 0.892645 0.892679
1.000002 0.871416 0.901479
1.000002 0.987535 0.990770
0.106354 0.998673 0.780670
0.111760 0.998691 0.780186
0.385779 0.998615 0.773220
0.995492 0.997418 0.811498
1.000002 0.995613 0.982243
0.869047 1.000002 0.962948
0.871100 1.000002 0.963261
0.888414 1.000002 0.963788
0.976915 1.000002 0.961930
1.000002 1.000002 0.970266
0.025321 0.004955 0.999546
0.053223 0.004729 0.999604
0.971279 0.004104 0.999501
0.999769 0.045272 0.998090
1.000002 0.956599 0.994590
0.014048 0.006219 0.999744
0.033381 0.005825 0.999740
0.969754 0.004624 0.999636
0.999876 0.056545 0.998441
1.000002 0.963967 0.995315
0.003505 0.734072 0.999052
0.003721 0.716154 0.999046
0.800051 0.537371 0.998737
0.999564 0.514475 0.998191
1.000002 0.968752 0.996154
0.038169 0.996583 0.995685
0.040962 0.996609 0.995722
0.220465 0.996383 0.995607
0.994615 0.994616 0.994620
1.000002 0.992888 0.994269
0.846347 1.000002 0.989271
0.848917 1.000002 0.989282
0.871860 1.000002 0.989252
0.975432 1.000002 0.988688
1.000002 1.000002 0.990720
0.003663 0.003505 1.000002
0.003721 0.003505 1.000002
0.985066 0.003505 1.000002
1.000002 0.003505 1.000002
1.000002 0.153056 1.000002
0.003505 0.003505 1.000002
0.003505 0.003505 1.000002
0.977769 0.003505 1.000002
1.000002 0.003505 1.000002
1.000002 0.173706 1.000002
0.003505 0.017762 1.000002
0.003505 0.014263 1.000002
0.022372 0.004544 1.000002
1.000002 0.020218 1.000002
1.000002 0.413850 1.000002
0.003505 0.994466 1.000002
0.003505 0.994343 1.000002
0.020578 0.989856 1.000002
0.990574 0.982826 1.000002
1.000002 0.981895 1.000002
0.693154 1.000002 1.000002
0.698787 1.000002 1.000002
0.758386 1.000002 1.000002
0.968734 1.000002 1.000002
1.000002 1.000002 1.000002
