create_logik_projekt/setups/Syncolor/transforms/r3d/IPP2-Cubes-SDR-Core-V1_13/REC709/RWG_Log3G10 to REC709_BT1886 with NO_CONTRAST and R_1_Hard size_33 v1.13.cube
# RED Digital Cinema Output Transform LUT for IPP2
# LUT Name = RWG_Log3G10 to REC709_BT1886 with NO_CONTRAST and R_1_Hard size_33 v1.13
# Generated by version 1.13
# Settings used in creation of this LUT are:
# Development Color Space = REC709
# Output Gamma Curve = BT1886
# Output Tonemap = NO_CONTRAST
# Highlight Rolloff = Rolloff 1 - hard
# Resolution = 33 x 33 x 33
TITLE "RED IPP2 LUT to map REDWideGamutRGB/Log3G10 to REC709/BT1886/NO_CONTRAST/Rolloff 1 - hard"
LUT_3D_SIZE 9
0.000000 0.000000 0.000000
0.188065 0.003505 0.003505
0.437902 0.007747 0.011917
0.794136 0.033147 0.048466
0.961836 0.082541 0.117010
0.996537 0.187741 0.269991
1.000002 0.504703 0.638548
1.000002 0.896059 0.926133
1.000002 0.985353 0.989209
0.003505 0.180021 0.003505
0.135075 0.161329 0.003505
0.421699 0.117431 0.005121
0.800611 0.089804 0.037421
0.966253 0.120450 0.113688
0.997303 0.224747 0.285635
1.000002 0.559904 0.679433
1.000002 0.912894 0.937333
1.000002 0.988020 0.991148
0.003505 0.422858 0.003663
0.004092 0.410572 0.003505
0.339697 0.384307 0.003505
0.773732 0.331491 0.018448
0.966034 0.277624 0.095573
0.997658 0.322007 0.284346
1.000002 0.630673 0.707545
1.000002 0.926355 0.945634
1.000002 0.990021 0.992588
0.003663 0.753957 0.006823
0.004021 0.746749 0.006587
0.051721 0.731284 0.005969
0.619422 0.696478 0.005285
0.952479 0.609397 0.058302
0.997076 0.555061 0.238171
1.000002 0.726344 0.702660
1.000002 0.935476 0.948728
1.000002 0.991079 0.993276
0.004752 0.932300 0.030439
0.005399 0.930716 0.029852
0.013213 0.927886 0.028389
0.257923 0.921379 0.025429
0.871140 0.906979 0.025012
0.993619 0.867605 0.156405
1.000002 0.860665 0.627401
1.000002 0.945634 0.944300
1.000002 0.991331 0.993107
0.015859 0.985305 0.105478
0.017036 0.984982 0.104034
0.022883 0.984531 0.101885
0.065244 0.983636 0.097638
0.573915 0.981497 0.091696
0.964478 0.976892 0.105243
0.999789 0.963776 0.470817
1.000002 0.968146 0.925840
1.000002 0.991729 0.991922
0.072659 0.997694 0.377186
0.072988 0.997634 0.372483
0.077155 0.997564 0.367231
0.100941 0.997457 0.360168
0.285781 0.997223 0.348568
0.874637 0.996648 0.340156
0.991863 0.995426 0.411814
1.000002 0.991822 0.876794
1.000002 0.994431 0.988613
0.356033 0.999999 0.814428
0.350993 0.999991 0.811227
0.350803 0.999981 0.807833
0.372594 0.999969 0.804046
0.476161 0.999949 0.799149
0.784078 0.999901 0.791716
0.970094 0.999778 0.788047
0.998662 0.999513 0.833621
1.000002 0.998703 0.979716
0.880780 1.000002 0.962300
0.878379 1.000002 0.961596
0.876207 1.000002 0.960860
0.875545 1.000002 0.960083
0.881181 1.000002 0.959225
0.906868 1.000002 0.958151
0.959540 1.000002 0.956625
0.994152 1.000002 0.956185
1.000002 1.000002 0.965994
0.003505 0.003505 0.152696
0.183178 0.003505 0.152647
0.436669 0.005214 0.138499
0.794010 0.026555 0.127365
0.961940 0.076967 0.164895
0.996569 0.184241 0.303332
1.000002 0.504510 0.650996
1.000002 0.896834 0.927255
1.000002 0.985513 0.989343
0.003505 0.141940 0.132763
0.124363 0.124365 0.124374
0.418961 0.068944 0.093420
0.799196 0.073007 0.101701
0.966073 0.112318 0.157956
0.997296 0.219899 0.317359
1.000002 0.557994 0.688277
1.000002 0.912954 0.937834
1.000002 0.988056 0.991188
0.003505 0.402835 0.013580
0.003825 0.396231 0.010416
0.336060 0.368537 0.009089
0.771945 0.316402 0.051921
0.965851 0.265663 0.128741
0.997653 0.316181 0.312816
1.000002 0.629098 0.714706
1.000002 0.926441 0.946039
1.000002 0.990055 0.992624
0.003505 0.743729 0.015672
0.003917 0.741867 0.014583
0.048105 0.725553 0.013527
0.618388 0.689564 0.011597
0.952231 0.602309 0.077748
0.997069 0.550998 0.259933
1.000002 0.725444 0.709463
1.000002 0.935568 0.949097
1.000002 0.991113 0.993309
0.004662 0.930343 0.038060
0.005326 0.930473 0.037584
0.012815 0.927566 0.036451
0.255591 0.920951 0.033424
0.871486 0.906415 0.033307
0.993607 0.867041 0.169537
1.000002 0.860498 0.635783
1.000002 0.945718 0.944696
1.000002 0.991363 0.993141
0.015456 0.984943 0.110718
0.017031 0.985047 0.110970
0.022827 0.984592 0.109136
0.064950 0.983692 0.105107
0.573710 0.981550 0.099212
0.964679 0.976948 0.114006
0.999789 0.963872 0.478765
1.000002 0.968227 0.926363
1.000002 0.991760 0.991961
0.071337 0.997630 0.377629
0.073449 0.997657 0.379735
0.077585 0.997586 0.374765
0.101339 0.997479 0.368042
0.286248 0.997247 0.356829
0.874980 0.996674 0.348607
0.991925 0.995457 0.419507
1.000002 0.991868 0.877745
1.000002 0.994455 0.988665
0.348384 0.999990 0.811865
0.354396 0.999995 0.813487
0.354089 0.999985 0.810155
0.375592 0.999973 0.806440
0.478564 0.999953 0.801642
0.785056 0.999906 0.794342
0.970231 0.999784 0.790707
0.998677 0.999520 0.835611
1.000002 0.998714 0.979814
0.878106 1.000002 0.961607
0.879624 1.000002 0.961975
0.877456 1.000002 0.961245
0.876769 1.000002 0.960473
0.882284 1.000002 0.959623
0.907609 1.000002 0.958559
0.959781 1.000002 0.957047
0.994188 1.000002 0.956604
1.000002 1.000002 0.966316
0.005558 0.003663 0.371150
0.161500 0.003663 0.373578
0.430099 0.003721 0.370342
0.789179 0.015052 0.351431
0.960799 0.062871 0.332416
0.996453 0.171128 0.392475
1.000002 0.493985 0.678431
1.000002 0.895340 0.928114
1.000002 0.985373 0.989300
0.003505 0.032809 0.373476
0.074049 0.021392 0.370288
0.411233 0.014647 0.366116
0.793411 0.044226 0.339826
0.964905 0.093024 0.325347
0.997191 0.204760 0.403452
1.000002 0.547520 0.710630
1.000002 0.911654 0.938383
1.000002 0.987931 0.991140
0.003505 0.353188 0.338177
0.003505 0.345476 0.334543
0.324290 0.324299 0.324326
0.762412 0.274203 0.295848
0.964177 0.228202 0.291304
0.997514 0.294067 0.398320
1.000002 0.616493 0.732497
1.000002 0.924744 0.946007
1.000002 0.989855 0.992510
0.003505 0.717669 0.185505
0.003721 0.715399 0.178825
0.038436 0.704771 0.164747
0.611655 0.664262 0.178925
0.949992 0.578485 0.188431
0.996896 0.535304 0.341423
1.000002 0.717712 0.726092
1.000002 0.934201 0.949006
1.000002 0.990941 0.993208
0.004442 0.926189 0.083888
0.005028 0.926322 0.082060
0.011543 0.925274 0.078269
0.248078 0.918171 0.078013
0.870765 0.902963 0.082645
0.993314 0.863822 0.222748
1.000002 0.858282 0.656486
1.000002 0.944784 0.944581
1.000002 0.991208 0.993040
0.014712 0.984372 0.136856
0.016290 0.984479 0.136557
0.022352 0.984473 0.135379
0.063698 0.983539 0.133297
0.571493 0.981349 0.128692
0.964754 0.976690 0.149404
0.999762 0.963762 0.500487
1.000002 0.967987 0.926220
1.000002 0.991636 0.991844
0.069746 0.997551 0.391211
0.071866 0.997578 0.392841
0.077744 0.997596 0.394007
0.101370 0.997487 0.389034
0.285757 0.997253 0.379693
0.875093 0.996679 0.372773
0.991975 0.995462 0.441495
1.000002 0.991905 0.878089
1.000002 0.994418 0.988499
0.340577 0.999980 0.810996
0.346464 0.999984 0.812531
0.357126 0.999988 0.813964
0.378321 0.999976 0.810548
0.480691 0.999956 0.806108
0.785879 0.999909 0.799247
0.970351 0.999788 0.795847
0.998690 0.999526 0.839341
1.000002 0.998725 0.979601
0.875339 1.000002 0.960978
0.876876 1.000002 0.961343
0.878675 1.000002 0.961694
0.877963 1.000002 0.960939
0.883357 1.000002 0.960107
0.908327 1.000002 0.959067
0.960014 1.000002 0.957585
0.994223 1.000002 0.957148
1.000002 1.000002 0.965601
0.020707 0.005038 0.678066
0.114891 0.004769 0.683531
0.406882 0.004298 0.683386
0.765114 0.005033 0.674803
0.955940 0.037252 0.631968
0.995835 0.136637 0.605710
1.000002 0.450754 0.743258
1.000002 0.886099 0.928528
1.000002 0.984240 0.988692
0.008586 0.017647 0.695302
0.060776 0.014516 0.693662
0.377984 0.010438 0.693137
0.765562 0.011989 0.684130
0.959877 0.057231 0.637583
0.996634 0.164125 0.617579
1.000002 0.503495 0.764989
1.000002 0.903605 0.938135
1.000002 0.986946 0.990583
0.003761 0.251981 0.682652
0.007914 0.240028 0.681131
0.281894 0.212520 0.673384
0.728551 0.171733 0.665130
0.958220 0.147061 0.617065
0.996956 0.237223 0.613372
1.000002 0.572475 0.779672
1.000002 0.917715 0.945322
1.000002 0.988982 0.991994
0.003505 0.647352 0.618942
0.003505 0.643321 0.617394
0.021977 0.628123 0.609797
0.592349 0.592369 0.592432
0.940471 0.516627 0.548586
0.996084 0.485234 0.566563
1.000002 0.683981 0.773794
1.000002 0.927427 0.947702
1.000002 0.990025 0.992632
0.003990 0.915009 0.419923
0.004334 0.915117 0.416782
0.008478 0.913797 0.410072
0.304940 0.899525 0.444838
0.867122 0.890947 0.414565
0.991937 0.851944 0.444381
1.000002 0.848469 0.716621
1.000002 0.940081 0.943058
1.000002 0.990356 0.992451
0.012784 0.983014 0.306730
0.014277 0.983132 0.304429
0.020158 0.983122 0.300516
0.059362 0.982683 0.291749
0.562667 0.980293 0.299568
0.964414 0.975366 0.334722
0.999626 0.962883 0.573891
1.000002 0.966589 0.924193
1.000002 0.990940 0.991157
0.067011 0.997410 0.457623
0.069131 0.997438 0.458157
0.075136 0.997458 0.458196
0.100042 0.997443 0.456519
0.281772 0.997198 0.453527
0.874369 0.996607 0.451205
0.991983 0.995371 0.514266
1.000002 0.991907 0.877037
1.000002 0.994157 0.987520
0.331776 0.999966 0.817685
0.337513 0.999971 0.818946
0.348303 0.999975 0.820110
0.315213 0.999805 0.785586
0.481739 0.999957 0.817763
0.786121 0.999909 0.812329
0.970408 0.999787 0.809797
0.998700 0.999525 0.849300
1.000002 0.998734 0.978221
0.872406 1.000002 0.960712
0.873966 1.000002 0.961062
0.875818 1.000002 0.961399
0.879070 1.000002 0.961714
0.884341 1.000002 0.960943
0.908975 1.000002 0.959975
0.960218 1.000002 0.958578
0.994253 1.000002 0.958178
1.000002 1.000002 0.967470
0.036052 0.006998 0.903323
0.086250 0.006625 0.905957
0.371453 0.005868 0.906855
0.747481 0.005196 0.905297
0.938539 0.008556 0.898467
0.994262 0.080107 0.871476
1.000002 0.338126 0.863866
1.000002 0.859683 0.935564
1.000002 0.981285 0.987485
0.023572 0.014675 0.912745
0.061051 0.013196 0.912638
0.336153 0.010875 0.913397
0.739547 0.008720 0.911675
0.942011 0.015207 0.905402
0.995207 0.097279 0.878966
1.000002 0.389813 0.873469
1.000002 0.880952 0.943122
1.000002 0.984410 0.989464
0.007756 0.089430 0.913580
0.020805 0.081560 0.913569
0.217234 0.066445 0.911838
0.683116 0.051505 0.910543
0.938802 0.052253 0.905671
0.995507 0.143654 0.881328
1.000002 0.460540 0.880194
1.000002 0.898250 0.948928
1.000002 0.986767 0.990953
0.003972 0.501787 0.903362
0.005135 0.493343 0.903391
0.038883 0.473872 0.901957
0.526603 0.436332 0.897753
0.920139 0.394850 0.893359
0.994079 0.370756 0.871414
1.000002 0.585703 0.878803
1.000002 0.910603 0.950953
1.000002 0.987963 0.991616
0.003505 0.885671 0.871847
0.003663 0.885498 0.872077
0.004631 0.883177 0.870959
0.188758 0.875245 0.866546
0.857349 0.857363 0.857404
0.988193 0.814621 0.834255
1.000002 0.815366 0.856781
1.000002 0.927237 0.946759
1.000002 0.988201 0.991271
0.008436 0.979287 0.748873
0.009466 0.979422 0.747688
0.014159 0.979393 0.745268
0.048927 0.978823 0.738941
0.536902 0.976884 0.724816
0.963019 0.971022 0.746139
0.999239 0.958963 0.786129
1.000002 0.962682 0.929626
1.000002 0.989199 0.989770
0.060412 0.997045 0.688576
0.062465 0.997077 0.687713
0.068373 0.997099 0.686342
0.093175 0.997083 0.683196
0.266882 0.996942 0.675021
0.870938 0.996282 0.684142
0.991858 0.994957 0.725702
1.000002 0.991694 0.890033
1.000002 0.993531 0.985541
0.318667 0.999939 0.849318
0.324238 0.999944 0.849927
0.334955 0.999948 0.850459
0.368230 0.999950 0.850759
0.478911 0.999945 0.850316
0.784289 0.999895 0.848706
0.970247 0.999768 0.848562
0.998699 0.999500 0.877433
1.000002 0.998735 0.975671
0.869005 1.000002 0.961943
0.870601 1.000002 0.962243
0.872521 1.000002 0.962531
0.875967 1.000002 0.962798
0.885032 1.000002 0.963014
0.909382 1.000002 0.962285
0.960324 1.000002 0.961164
0.994270 1.000002 0.960906
1.000002 1.000002 0.969411
0.041983 0.007622 0.979239
0.069723 0.007298 0.980051
0.297784 0.006535 0.980418
0.731572 0.005835 0.980267
0.937443 0.005688 0.979039
0.988214 0.017236 0.975119
0.999931 0.183840 0.962284
1.000002 0.788436 0.962361
1.000002 0.975224 0.987207
0.031975 0.011356 0.982234
0.055303 0.010607 0.982282
0.252336 0.009046 0.982595
0.720372 0.007710 0.982416
0.938975 0.007616 0.981181
0.989538 0.022729 0.977753
1.000002 0.209463 0.965500
1.000002 0.820496 0.966008
1.000002 0.979248 0.989029
0.013689 0.041050 0.982938
0.024089 0.038474 0.983011
0.130133 0.032510 0.982649
0.627629 0.027013 0.982495
0.930151 0.023608 0.981533
0.989826 0.041642 0.979031
1.000002 0.253450 0.967976
1.000002 0.846850 0.969013
1.000002 0.982285 0.990435
0.005363 0.293982 0.981585
0.007641 0.280588 0.981662
0.041235 0.246054 0.981353
0.439885 0.194980 0.980558
0.902721 0.155157 0.979792
0.988003 0.153876 0.977908
1.000002 0.377320 0.968850
1.000002 0.866564 0.970640
1.000002 0.983807 0.991097
0.004385 0.813456 0.976539
0.004945 0.810952 0.976673
0.010280 0.804019 0.976543
0.116391 0.786710 0.975826
0.819314 0.752328 0.974146
0.981065 0.717113 0.972454
0.999724 0.720053 0.965237
1.000002 0.896195 0.969645
1.000002 0.984165 0.990831
0.004449 0.969997 0.965062
0.004662 0.970120 0.965250
0.005774 0.969978 0.965259
0.024865 0.968975 0.964714
0.500816 0.965897 0.962931
0.959679 0.959684 0.959702
0.998328 0.946361 0.952485
1.000002 0.952162 0.962709
1.000002 0.985727 0.989342
0.044940 0.996024 0.927839
0.046670 0.996065 0.927725
0.051773 0.996090 0.927479
0.073708 0.996064 0.926778
0.234942 0.995873 0.924699
0.860482 0.995284 0.920174
0.991420 0.993660 0.927642
1.000002 0.990579 0.943231
1.000002 0.992355 0.985100
0.291060 0.999861 0.921855
0.296287 0.999867 0.921853
0.306519 0.999873 0.921807
0.339574 0.999876 0.921622
0.458425 0.999870 0.920973
0.775653 0.999836 0.919068
0.969399 0.999689 0.921571
0.998663 0.999396 0.933451
1.000002 0.998686 0.976287
0.863923 1.000002 0.968212
0.865592 1.000002 0.968386
0.867626 1.000002 0.968551
0.871348 1.000002 0.968699
0.881252 1.000002 0.968799
0.908942 1.000002 0.968751
0.960077 1.000002 0.968384
0.994237 1.000002 0.968524
1.000002 1.000002 0.974903
0.032274 0.005794 0.997647
0.044430 0.005620 0.997808
0.119950 0.005264 0.997900
0.720451 0.004740 0.997862
0.946453 0.004564 0.997713
0.990274 0.005306 0.997143
0.998754 0.033205 0.995477
1.000002 0.551043 0.990408
1.000002 0.961245 0.991539
0.025104 0.006442 0.998239
0.035862 0.006243 0.998256
0.099287 0.005764 0.998334
0.710360 0.005052 0.998291
0.948726 0.004835 0.998151
0.991123 0.006010 0.997612
0.999020 0.038472 0.996153
1.000002 0.611023 0.991415
1.000002 0.967433 0.992571
0.012551 0.013189 0.998474
0.018040 0.012412 0.998495
0.059054 0.010748 0.998458
0.605021 0.008232 0.998406
0.938552 0.007657 0.998253
0.989993 0.012753 0.997694
0.999163 0.051883 0.996602
1.000002 0.669445 0.992308
1.000002 0.972076 0.993425
0.004352 0.103353 0.998075
0.004873 0.098668 0.998098
0.012260 0.087906 0.998061
0.256937 0.067209 0.997873
0.884485 0.056062 0.997751
0.986217 0.054120 0.997428
0.999086 0.101730 0.996671
1.000002 0.716942 0.993056
1.000002 0.974303 0.993968
0.003761 0.663244 0.997370
0.003917 0.653352 0.997394
0.005754 0.623774 0.997347
0.070618 0.561735 0.997174
0.752849 0.490986 0.996905
0.976169 0.435687 0.996626
0.998505 0.447088 0.996058
1.000002 0.798148 0.993342
1.000002 0.974864 0.994125
0.005430 0.948879 0.995569
0.005798 0.948600 0.995615
0.007724 0.947689 0.995628
0.026857 0.944897 0.995547
0.352996 0.938130 0.995276
0.947118 0.925895 0.994737
0.996509 0.915893 0.994214
1.000002 0.924269 0.992252
1.000002 0.978283 0.993713
0.018866 0.993586 0.992130
0.019777 0.993634 0.992190
0.022701 0.993656 0.992232
0.036337 0.993589 0.992213
0.150126 0.993241 0.992009
0.845167 0.992264 0.991423
0.990472 0.990474 0.990480
1.000002 0.987050 0.988621
1.000002 0.989620 0.991885
0.230300 0.999637 0.982705
0.234546 0.999646 0.982712
0.243051 0.999653 0.982708
0.270897 0.999656 0.982665
0.394801 0.999647 0.982491
0.753339 0.999597 0.981930
0.966884 0.999452 0.980752
0.998549 0.999077 0.982821
1.000002 0.998418 0.987312
0.852710 1.000002 0.983329
0.854564 1.000002 0.983360
0.856851 1.000002 0.983386
0.861100 1.000002 0.983402
0.872494 1.000002 0.983388
0.903991 1.000002 0.983270
0.958710 1.000002 0.982885
0.994054 1.000002 0.983465
1.000002 1.000002 0.986236
0.011213 0.003873 1.000002
0.013725 0.003825 1.000002
0.027784 0.003761 1.000002
0.235230 0.003663 1.000002
0.971420 0.003505 1.000002
0.996480 0.003663 1.000002
0.999738 0.004208 1.000002
1.000002 0.066284 0.999686
1.000002 0.918406 0.998080
0.008012 0.003825 1.000002
0.010114 0.003825 1.000002
0.020956 0.003761 1.000002
0.188184 0.003663 1.000002
0.974878 0.003505 1.000002
0.997230 0.003505 1.000002
0.999869 0.004250 1.000002
1.000002 0.073263 0.999804
1.000002 0.931394 0.998342
0.005231 0.003990 1.000002
0.005884 0.003972 1.000002
0.011728 0.003897 1.000002
0.122016 0.003721 1.000002
0.973184 0.003663 1.000002
0.997272 0.003663 1.000002
0.999859 0.004965 1.000002
1.000002 0.086183 0.999892
1.000002 0.940967 0.998580
0.003663 0.008854 1.000002
0.003721 0.008229 1.000002
0.004092 0.007375 1.000002
0.035080 0.005897 1.000002
0.939070 0.004692 1.000002
0.993795 0.005126 1.000002
0.999346 0.021107 1.000002
1.000002 0.121173 0.999937
1.000002 0.945084 0.998803
0.003505 0.356408 1.000002
0.003505 0.341348 1.000002
0.003505 0.310439 1.000002
0.003825 0.233417 1.000002
0.519592 0.139980 1.000002
0.972260 0.117776 1.000002
0.998290 0.127504 1.000002
1.000002 0.274853 0.999905
1.000002 0.946098 0.998994
0.003505 0.927432 1.000002
0.003505 0.926107 1.000002
0.003505 0.921784 1.000002
0.004079 0.903414 1.000002
0.127885 0.870666 0.999985
0.924929 0.835245 0.999921
0.995397 0.809170 0.999852
1.000002 0.830105 0.999721
1.000002 0.956516 0.999067
0.010090 0.988534 0.999602
0.010497 0.988523 0.999612
0.012137 0.988448 0.999619
0.020092 0.988146 0.999616
0.077164 0.987208 0.999586
0.751705 0.985050 0.999508
0.987038 0.981517 0.999370
0.999743 0.979233 0.999239
1.000002 0.982814 0.998795
0.121842 0.999109 0.998751
0.124062 0.999120 0.998765
0.128908 0.999129 0.998777
0.145557 0.999131 0.998784
0.225765 0.999109 0.998775
0.662359 0.999012 0.998714
0.963400 0.998757 0.998556
0.998321 0.998322 0.998324
1.000002 0.997581 0.997919
0.820894 1.000002 0.996714
0.823235 1.000002 0.996721
0.826177 1.000002 0.996727
0.831782 1.000002 0.996730
0.846979 1.000002 0.996724
0.888152 1.000002 0.996685
0.955042 1.000002 0.996554
0.993528 1.000002 0.996289
1.000002 1.000002 0.996765
0.003721 0.003505 1.000002
0.003721 0.003505 1.000002
0.003917 0.003505 1.000002
0.006952 0.003505 1.000002
0.740883 0.003505 1.000002
1.000002 0.003505 1.000002
1.000002 0.003505 1.000002
1.000002 0.003505 1.000002
1.000002 0.144558 1.000002
0.003663 0.003505 1.000002
0.003663 0.003505 1.000002
0.003721 0.003505 1.000002
0.005339 0.003505 1.000002
0.564588 0.003505 1.000002
1.000002 0.003505 1.000002
1.000002 0.003505 1.000002
1.000002 0.003505 1.000002
1.000002 0.158700 1.000002
0.003505 0.003505 1.000002
0.003505 0.003505 1.000002
0.003505 0.003505 1.000002
0.004250 0.003505 1.000002
0.322931 0.003505 1.000002
1.000002 0.003505 1.000002
1.000002 0.003505 1.000002
1.000002 0.003505 1.000002
1.000002 0.178941 1.000002
0.003505 0.003505 1.000002
0.003505 0.003505 1.000002
0.003505 0.003505 1.000002
0.003663 0.003505 1.000002
0.122553 0.003505 1.000002
1.000002 0.003505 1.000002
1.000002 0.003505 1.000002
1.000002 0.003721 1.000002
1.000002 0.218665 1.000002
0.003505 0.004176 1.000002
0.003505 0.004051 1.000002
0.003505 0.003936 1.000002
0.003505 0.003793 1.000002
0.005733 0.003505 1.000002
0.999253 0.003505 1.000002
1.000002 0.003505 1.000002
1.000002 0.038033 1.000002
1.000002 0.342842 1.000002
0.003505 0.936831 1.000002
0.003505 0.935340 1.000002
0.003505 0.931297 1.000002
0.003505 0.915637 1.000002
0.003505 0.811707 1.000002
0.830643 0.351838 1.000002
0.994878 0.295589 1.000002
1.000002 0.378304 1.000002
1.000002 0.765730 1.000002
0.003505 0.992624 1.000002
0.003505 0.992605 1.000002
0.003505 0.992332 1.000002
0.003505 0.990937 1.000002
0.003505 0.982406 1.000002
0.289413 0.969656 1.000002
0.981042 0.960111 1.000002
0.999545 0.954839 1.000002
1.000002 0.962158 1.000002
0.033605 0.998124 1.000002
0.033831 0.998128 1.000002
0.035037 0.998127 1.000002
0.040527 0.998107 1.000002
0.067254 0.998023 1.000002
0.278376 0.997763 1.000002
0.941392 0.997192 1.000002
0.997536 0.996330 1.000002
1.000002 0.995891 1.000002
0.690589 1.000002 1.000002
0.694712 1.000002 1.000002
0.700230 1.000002 1.000002
0.711755 1.000002 1.000002
0.744249 1.000002 1.000002
0.827696 1.000002 1.000002
0.941593 1.000002 1.000002
0.992850 1.000002 1.000002
1.000002 1.000002 1.000002
