create_logik_projekt/setups/Syncolor/transforms/r3d/IPP2-Cubes-SDR-Core-V1_13/REC709/RWG_Log3G10 to REC709_BT1886 with NO_CONTRAST and R_1_Hard size_33 v1.13.cube
# RED Digital Cinema Output Transform LUT for IPP2
# LUT Name = RWG_Log3G10 to REC709_BT1886 with NO_CONTRAST and R_1_Hard size_33 v1.13
# Generated by version 1.13
# Settings used in creation of this LUT are:
# Development Color Space = REC709
# Output Gamma Curve = BT1886
# Output Tonemap = NO_CONTRAST
# Highlight Rolloff = Rolloff 1 - hard
# Resolution = 33 x 33 x 33
TITLE "RED IPP2 LUT to map REDWideGamutRGB/Log3G10 to REC709/BT1886/NO_CONTRAST/Rolloff 1 - hard"
LUT_3D_SIZE 33
0.000000 0.000000 0.000000
0.000000 0.000000 0.000000
0.000001 0.000000 0.000000
0.123464 0.003505 0.003505
0.188065 0.003505 0.003505
0.246462 0.003505 0.003663
0.305459 0.004006 0.004472
0.368656 0.005243 0.006831
0.437902 0.007747 0.011917
0.515236 0.012167 0.018789
0.604521 0.017721 0.026758
0.706544 0.024651 0.036568
0.794136 0.033147 0.048466
0.858027 0.042684 0.061723
0.905170 0.053997 0.077383
0.938762 0.067143 0.095587
0.961836 0.082541 0.117010
0.977212 0.100994 0.142937
0.987045 0.123563 0.175132
0.992993 0.151360 0.215609
0.996537 0.187741 0.269991
0.998500 0.236368 0.342061
0.999509 0.302863 0.425065
1.000002 0.396399 0.523803
1.000002 0.504703 0.638548
1.000002 0.633829 0.747246
1.000002 0.751700 0.827495
1.000002 0.837479 0.885879
1.000002 0.896059 0.926133
1.000002 0.934325 0.952788
1.000002 0.959535 0.970607
1.000002 0.975319 0.981922
1.000002 0.985353 0.989209
0.000000 0.000000 0.000000
0.000000 0.000000 0.000000
0.000000 0.000000 0.000000
0.115895 0.003505 0.003505
0.184245 0.003505 0.003505
0.244079 0.003825 0.003505
0.304100 0.004965 0.004141
0.368212 0.007475 0.005997
0.438371 0.011947 0.010271
0.516672 0.017381 0.016910
0.607737 0.023476 0.024835
0.710702 0.030824 0.034720
0.797661 0.039600 0.046703
0.860991 0.049345 0.060199
0.907615 0.060473 0.076308
0.940651 0.073383 0.095032
0.963211 0.088585 0.117061
0.978157 0.106945 0.143710
0.987660 0.129589 0.176807
0.993374 0.157706 0.218461
0.996759 0.194786 0.274531
0.998620 0.244697 0.348294
0.999571 0.313401 0.432800
1.000002 0.408323 0.533305
1.000002 0.517625 0.649524
1.000002 0.647839 0.755797
1.000002 0.761698 0.833807
1.000002 0.844287 0.890319
1.000002 0.900560 0.929157
1.000002 0.937258 0.954808
1.000002 0.961400 0.971919
1.000002 0.976494 0.982764
1.000002 0.986078 0.989736
0.000000 0.000000 0.000000
0.000000 0.000000 0.000000
0.000000 0.000000 0.000000
0.100000 0.003505 0.003505
0.176090 0.003990 0.003505
0.238366 0.006245 0.003505
0.299863 0.010627 0.003825
0.365136 0.016125 0.005135
0.436343 0.021715 0.008335
0.515682 0.027446 0.014447
0.608570 0.033640 0.022220
0.713045 0.040985 0.032111
0.799975 0.049534 0.044193
0.863296 0.058725 0.058123
0.909646 0.069241 0.074686
0.942282 0.081592 0.093950
0.964426 0.096340 0.116613
0.979005 0.114401 0.144024
0.988217 0.136962 0.178069
0.993722 0.165288 0.220951
0.996961 0.203004 0.278778
0.998730 0.254195 0.354269
0.999627 0.325187 0.440363
1.000002 0.420911 0.542706
1.000002 0.531088 0.660068
1.000002 0.661620 0.763994
1.000002 0.771416 0.839845
1.000002 0.850849 0.894562
1.000002 0.904875 0.932042
1.000002 0.940059 0.956733
1.000002 0.963175 0.973167
1.000002 0.977611 0.983564
1.000002 0.986765 0.990236
0.003505 0.115746 0.003505
0.003505 0.111387 0.003505
0.003505 0.105297 0.003505
0.061084 0.096280 0.003505
0.160758 0.080729 0.003505
0.227582 0.061897 0.003505
0.291395 0.048875 0.003663
0.358268 0.046316 0.004360
0.430788 0.047135 0.006504
0.511352 0.049582 0.011423
0.606240 0.053253 0.018912
0.713288 0.058369 0.028816
0.801039 0.064849 0.041090
0.864808 0.072359 0.055439
0.911174 0.081481 0.072426
0.943599 0.092691 0.092226
0.965451 0.106546 0.115538
0.979740 0.123971 0.143735
0.988709 0.146194 0.178763
0.994032 0.174548 0.222914
0.997143 0.212781 0.282548
0.998830 0.265210 0.359827
0.999678 0.338527 0.447606
1.000002 0.434261 0.551856
1.000002 0.545131 0.670062
1.000002 0.675133 0.771762
1.000002 0.780812 0.845564
1.000002 0.857137 0.898575
1.000002 0.908985 0.934768
1.000002 0.942715 0.958549
1.000002 0.964853 0.974345
1.000002 0.978664 0.984318
1.000002 0.987412 0.990706
0.003505 0.180021 0.003505
0.003505 0.177138 0.003505
0.003505 0.173343 0.003505
0.003793 0.168140 0.003505
0.135075 0.161329 0.003505
0.210741 0.151115 0.003505
0.278243 0.140949 0.003505
0.347422 0.129930 0.003825
0.421699 0.117431 0.005121
0.503802 0.102797 0.008427
0.600865 0.093022 0.015315
0.711350 0.089315 0.025085
0.800611 0.089804 0.037421
0.865357 0.093207 0.052081
0.912096 0.099326 0.069431
0.944544 0.108281 0.089736
0.966253 0.120450 0.113688
0.980346 0.136658 0.142680
0.989127 0.158117 0.178710
0.994302 0.186197 0.224157
0.997303 0.224747 0.285635
0.998918 0.278316 0.364803
0.999723 0.353397 0.454380
1.000002 0.448598 0.560624
1.000002 0.559904 0.679433
1.000002 0.688429 0.779063
1.000002 0.789913 0.850944
1.000002 0.863160 0.902352
1.000002 0.912894 0.937333
1.000002 0.945229 0.960258
1.000002 0.966437 0.975451
1.000002 0.979656 0.985025
1.000002 0.988020 0.991148
0.003505 0.236874 0.003505
0.003505 0.234419 0.003505
0.003505 0.231284 0.003505
0.003505 0.227092 0.003505
0.057065 0.221745 0.003505
0.186838 0.215225 0.003505
0.260151 0.205574 0.003505
0.332456 0.196064 0.003505
0.408881 0.186224 0.004230
0.492717 0.175709 0.006260
0.591922 0.163721 0.011645
0.706664 0.149186 0.021019
0.798311 0.134227 0.033217
0.864707 0.127368 0.048010
0.912273 0.126826 0.065619
0.945038 0.131215 0.086357
0.966789 0.140164 0.110905
0.980799 0.154094 0.140668
0.989461 0.174041 0.177691
0.994525 0.201332 0.224434
0.997439 0.239847 0.287760
0.998994 0.294363 0.368962
0.999762 0.369984 0.460477
1.000002 0.464207 0.568815
1.000002 0.575596 0.688070
1.000002 0.701554 0.785836
1.000002 0.798732 0.855951
1.000002 0.868922 0.905873
1.000002 0.916599 0.939727
1.000002 0.947598 0.961853
1.000002 0.967924 0.976484
1.000002 0.980584 0.985686
1.000002 0.988588 0.991559
0.003505 0.294218 0.003505
0.003505 0.291933 0.003505
0.003505 0.289088 0.003505
0.003505 0.285353 0.003505
0.008068 0.280680 0.003505
0.133646 0.275010 0.003505
0.234348 0.266262 0.003505
0.312462 0.258104 0.003505
0.391629 0.248223 0.003721
0.477472 0.238136 0.004862
0.578719 0.227097 0.008292
0.698457 0.214276 0.016790
0.793624 0.200359 0.028585
0.862538 0.185981 0.043249
0.911511 0.172440 0.060952
0.944968 0.166909 0.082000
0.966995 0.169408 0.107047
0.981066 0.178985 0.137506
0.989692 0.196036 0.175461
0.994693 0.221609 0.223446
0.997547 0.259461 0.288561
0.999056 0.314549 0.371976
0.999795 0.388724 0.465587
1.000002 0.481381 0.576124
1.000002 0.592374 0.695781
1.000002 0.714505 0.791963
1.000002 0.807245 0.860514
1.000002 0.874396 0.909095
1.000002 0.920082 0.941922
1.000002 0.949809 0.963318
1.000002 0.969303 0.977433
1.000002 0.981443 0.986293
1.000002 0.989112 0.991938
0.003505 0.355634 0.003505
0.003505 0.353401 0.003505
0.003505 0.350690 0.003505
0.003505 0.347204 0.003505
0.004656 0.342917 0.003505
0.042002 0.337721 0.003505
0.185318 0.331485 0.003505
0.285984 0.324014 0.003505
0.368903 0.313029 0.003505
0.457196 0.302247 0.004037
0.560339 0.290841 0.006026
0.685501 0.277925 0.012586
0.785773 0.264279 0.023596
0.858377 0.250256 0.037825
0.909534 0.236450 0.055398
0.944177 0.224291 0.076568
0.966785 0.216074 0.101957
0.981100 0.216702 0.132974
0.989799 0.228013 0.171732
0.994797 0.250063 0.220833
0.997623 0.286063 0.287597
0.999103 0.339980 0.373439
0.999821 0.410376 0.469345
1.000002 0.500692 0.582215
1.000002 0.610637 0.702390
1.000002 0.727415 0.797350
1.000002 0.815510 0.864583
1.000002 0.879603 0.911994
1.000002 0.923347 0.943908
1.000002 0.951862 0.964647
1.000002 0.970577 0.978297
1.000002 0.982232 0.986846
1.000002 0.989592 0.992283
0.003505 0.422858 0.003663
0.003505 0.420606 0.003663
0.003505 0.417939 0.003663
0.003505 0.414615 0.003663
0.004092 0.410572 0.003505
0.012418 0.405669 0.003505
0.110711 0.399772 0.003505
0.234516 0.392688 0.003505
0.339697 0.384307 0.003505
0.431146 0.372045 0.003663
0.535994 0.359531 0.004668
0.666004 0.345741 0.008745
0.773732 0.331491 0.018448
0.851582 0.316794 0.031898
0.905957 0.302071 0.049045
0.942443 0.288417 0.070079
0.966034 0.277624 0.095573
0.980835 0.272258 0.126918
0.989745 0.275718 0.166247
0.994818 0.291183 0.216220
0.997658 0.322007 0.284346
0.999132 0.370046 0.372784
0.999838 0.435648 0.471196
1.000002 0.522643 0.586529
1.000002 0.630673 0.707545
1.000002 0.740270 0.801779
1.000002 0.823480 0.868023
1.000002 0.884495 0.914487
1.000002 0.926355 0.945634
1.000002 0.953728 0.965811
1.000002 0.971723 0.979056
1.000002 0.982938 0.987334
1.000002 0.990021 0.992588
0.003505 0.497700 0.003850
0.003505 0.495376 0.003825
0.003505 0.492726 0.003825
0.003663 0.489527 0.003825
0.003936 0.485649 0.003761
0.006414 0.480940 0.003761
0.033783 0.475260 0.003721
0.168225 0.468409 0.003721
0.284816 0.460265 0.003663
0.398364 0.450698 0.003663
0.502879 0.436613 0.003917
0.637540 0.421290 0.006146
0.755925 0.405819 0.013395
0.841170 0.389852 0.025660
0.900196 0.373644 0.042014
0.939430 0.358036 0.062580
0.964557 0.344482 0.087863
0.980171 0.335129 0.119212
0.989482 0.333085 0.158761
0.994731 0.341782 0.209213
0.997642 0.365086 0.278224
0.999136 0.405969 0.369297
0.999846 0.465644 0.470448
1.000002 0.548079 0.588383
1.000002 0.652147 0.710820
1.000002 0.753180 0.805002
1.000002 0.831180 0.870690
1.000002 0.889058 0.916490
1.000002 0.929083 0.947053
1.000002 0.955387 0.966780
1.000002 0.972730 0.979695
1.000002 0.983553 0.987747
1.000002 0.990392 0.992848
0.003505 0.582267 0.004316
0.003505 0.579891 0.004298
0.003505 0.577291 0.004279
0.003663 0.574181 0.004250
0.003917 0.570423 0.004220
0.005103 0.565861 0.004165
0.014404 0.560349 0.004104
0.069793 0.553680 0.004051
0.218547 0.545724 0.003990
0.338228 0.536327 0.003917
0.463760 0.525314 0.003850
0.587767 0.508822 0.004494
0.729791 0.490739 0.008807
0.825536 0.472988 0.019354
0.891290 0.454832 0.034474
0.934589 0.436876 0.054160
0.962049 0.420294 0.078831
0.978946 0.406869 0.109758
0.988925 0.399403 0.149040
0.994496 0.401374 0.199398
0.997555 0.416813 0.268567
0.999110 0.449610 0.361996
0.999840 0.501988 0.466149
1.000002 0.578287 0.586823
1.000002 0.674932 0.711583
1.000002 0.766343 0.806649
1.000002 0.838674 0.872371
1.000002 0.893289 0.917881
1.000002 0.931508 0.948092
1.000002 0.956814 0.967515
1.000002 0.973576 0.980190
1.000002 0.984064 0.988073
1.000002 0.990698 0.993055
0.003505 0.674202 0.005196
0.003505 0.672141 0.005166
0.003663 0.669910 0.005139
0.003721 0.667244 0.005098
0.003917 0.664006 0.005038
0.004692 0.660034 0.004965
0.008331 0.655153 0.004873
0.029410 0.649112 0.004774
0.124850 0.641702 0.004662
0.269681 0.632650 0.004544
0.397708 0.621693 0.004434
0.536575 0.609060 0.004352
0.675198 0.589968 0.005480
0.800572 0.568620 0.013173
0.877563 0.547863 0.026715
0.927149 0.527104 0.045144
0.958076 0.507213 0.068732
0.976922 0.489543 0.098717
0.987949 0.476561 0.137117
0.994050 0.471673 0.186617
0.997369 0.478819 0.254924
0.999039 0.502569 0.349758
0.999816 0.546164 0.457135
1.000002 0.614476 0.580616
1.000002 0.699115 0.708878
1.000002 0.779805 0.806139
1.000002 0.845930 0.872715
1.000002 0.897119 0.918452
1.000002 0.933557 0.948629
1.000002 0.957951 0.967940
1.000002 0.974220 0.980497
1.000002 0.984441 0.988284
1.000002 0.990920 0.993194
0.003663 0.753957 0.006823
0.003663 0.752464 0.006783
0.003721 0.750875 0.006738
0.003793 0.749002 0.006674
0.004021 0.746749 0.006587
0.004585 0.743998 0.006473
0.006515 0.740622 0.006331
0.016034 0.736437 0.006162
0.051721 0.731284 0.005969
0.183518 0.724953 0.005771
0.323929 0.717180 0.005573
0.462246 0.707816 0.005406
0.619422 0.696478 0.005285
0.751725 0.678445 0.007341
0.857159 0.656044 0.019216
0.916368 0.633077 0.036050
0.952479 0.609397 0.058302
0.974077 0.587183 0.086972
0.986551 0.568527 0.123947
0.993385 0.556618 0.171815
0.997076 0.555061 0.238171
0.998921 0.568845 0.332623
0.999772 0.602132 0.443445
1.000002 0.658853 0.569807
1.000002 0.726344 0.702660
1.000002 0.794812 0.803538
1.000002 0.853746 0.871814
1.000002 0.901003 0.918289
1.000002 0.935476 0.948728
1.000002 0.958929 0.968101
1.000002 0.974731 0.980646
1.000002 0.984722 0.988400
1.000002 0.991079 0.993276
0.003721 0.817499 0.009898
0.003761 0.816436 0.009832
0.003825 0.815321 0.009760
0.003936 0.814029 0.009659
0.004154 0.812494 0.009522
0.004643 0.810636 0.009340
0.005943 0.808366 0.009109
0.010863 0.805555 0.008829
0.027887 0.802084 0.008508
0.083534 0.797804 0.008158
0.238939 0.792518 0.007802
0.382610 0.786104 0.007475
0.536259 0.778272 0.007218
0.702599 0.768925 0.007091
0.813914 0.753816 0.011004
0.899858 0.734424 0.027125
0.944117 0.714836 0.047743
0.969884 0.694184 0.074777
0.984502 0.673885 0.109914
0.992413 0.656967 0.155597
0.996644 0.647194 0.219140
0.998742 0.650166 0.310587
0.999703 0.669749 0.425064
1.000002 0.707189 0.554310
1.000002 0.756847 0.692572
1.000002 0.811962 0.798719
1.000002 0.862653 0.869660
1.000002 0.905298 0.917422
1.000002 0.937474 0.948431
1.000002 0.959865 0.968034
1.000002 0.975175 0.980663
1.000002 0.984945 0.988438
1.000002 0.991196 0.993314
0.003897 0.866944 0.014896
0.003972 0.866198 0.014816
0.004037 0.865424 0.014730
0.004165 0.864543 0.014614
0.004393 0.863513 0.014458
0.004846 0.862281 0.014247
0.005871 0.860787 0.013973
0.008848 0.858945 0.013625
0.018463 0.856671 0.013202
0.044830 0.853858 0.012709
0.128854 0.850367 0.012163
0.295126 0.846106 0.011615
0.449111 0.840865 0.011121
0.619144 0.834555 0.010787
0.771747 0.827019 0.010765
0.862654 0.814723 0.016630
0.931054 0.798440 0.037301
0.963574 0.782150 0.062543
0.981469 0.765211 0.095544
0.990977 0.749298 0.138520
0.996001 0.736554 0.198364
0.998471 0.731160 0.284721
0.999597 0.737195 0.401350
1.000002 0.757479 0.533437
1.000002 0.790318 0.677469
1.000002 0.831571 0.791036
1.000002 0.873041 0.865901
1.000002 0.910264 0.915670
1.000002 0.939685 0.947642
1.000002 0.960816 0.967688
1.000002 0.975569 0.980521
1.000002 0.985112 0.988386
1.000002 0.991269 0.993299
0.004220 0.904446 0.021590
0.004288 0.903927 0.021492
0.004385 0.903393 0.021390
0.004530 0.902797 0.021259
0.004774 0.902111 0.021087
0.005226 0.901302 0.020860
0.006134 0.900333 0.020565
0.008342 0.899146 0.020188
0.014537 0.897686 0.019719
0.029411 0.895879 0.019160
0.068773 0.893628 0.018519
0.191252 0.890865 0.017840
0.357413 0.887445 0.017177
0.523366 0.883295 0.016647
0.702930 0.878295 0.016405
0.827410 0.872356 0.016700
0.899951 0.862582 0.024316
0.953573 0.849135 0.050562
0.976870 0.835940 0.081437
0.988841 0.822661 0.121480
0.995050 0.810240 0.177061
0.998069 0.801327 0.257213
0.999437 0.799206 0.372472
1.000002 0.806958 0.507047
1.000002 0.825561 0.656152
1.000002 0.853539 0.779806
1.000002 0.885230 0.860201
1.000002 0.916238 0.912883
1.000002 0.942328 0.946298
1.000002 0.961899 0.967037
1.000002 0.975969 0.980212
1.000002 0.985248 0.988238
1.000002 0.991309 0.993230
0.004752 0.932300 0.030439
0.004846 0.931942 0.030318
0.004960 0.931574 0.030194
0.005126 0.931172 0.030043
0.005399 0.930716 0.029852
0.005875 0.930189 0.029607
0.006759 0.929565 0.029293
0.008667 0.928809 0.028892
0.013213 0.927886 0.028389
0.022840 0.926745 0.027777
0.044990 0.925321 0.027055
0.101689 0.923566 0.026257
0.257923 0.921379 0.025429
0.426080 0.918707 0.024682
0.607788 0.915462 0.024176
0.772431 0.911572 0.024157
0.871140 0.906979 0.025012
0.928403 0.899275 0.034915
0.969453 0.888383 0.067888
0.985559 0.878086 0.105210
0.993619 0.867605 0.156405
0.997467 0.858369 0.229765
0.999196 0.852557 0.339160
0.999942 0.852619 0.475617
1.000002 0.860665 0.627401
1.000002 0.877178 0.764225
1.000002 0.899260 0.852114
1.000002 0.923484 0.908841
1.000002 0.945634 0.944300
1.000002 0.963256 0.966040
1.000002 0.976448 0.979719
1.000002 0.985388 0.987991
1.000002 0.991331 0.993107
0.005670 0.952768 0.042160
0.005794 0.952522 0.042008
0.005930 0.952270 0.041852
0.006134 0.952000 0.041674
0.006454 0.951699 0.041457
0.006990 0.951355 0.041188
0.007939 0.950957 0.040852
0.009805 0.950481 0.040427
0.013487 0.949904 0.039897
0.020423 0.949195 0.039243
0.034651 0.948312 0.038456
0.066326 0.947221 0.037556
0.148956 0.945853 0.036572
0.325841 0.944171 0.035608
0.502889 0.942111 0.034812
0.694798 0.939620 0.034428
0.827840 0.936651 0.034824
0.905066 0.933133 0.036601
0.949497 0.927161 0.049325
0.980085 0.918623 0.089908
0.991361 0.910492 0.137192
0.996538 0.902531 0.203770
0.998825 0.895953 0.302907
0.999807 0.892298 0.439942
1.000002 0.893649 0.591983
1.000002 0.901389 0.743185
1.000002 0.914877 0.840985
1.000002 0.932176 0.903207
1.000002 0.949847 0.941489
1.000002 0.965060 0.964625
1.000002 0.977101 0.979010
1.000002 0.985576 0.987629
1.000002 0.991354 0.992924
0.007341 0.967547 0.057675
0.007508 0.967379 0.057478
0.007687 0.967208 0.057280
0.007941 0.967027 0.057061
0.008342 0.966828 0.056806
0.008997 0.966605 0.056503
0.010110 0.966351 0.056136
0.011983 0.966053 0.055683
0.015095 0.965696 0.055123
0.020530 0.965262 0.054434
0.030693 0.964723 0.053593
0.050970 0.964057 0.052608
0.096390 0.963219 0.051488
0.217463 0.962181 0.050317
0.399554 0.960900 0.049228
0.589149 0.959339 0.048451
0.766610 0.957460 0.048336
0.871664 0.955212 0.049431
0.930917 0.952558 0.052649
0.964334 0.948091 0.068266
0.987481 0.941305 0.119883
0.995032 0.935091 0.180531
0.998236 0.929252 0.269049
0.999593 0.924550 0.401774
1.000002 0.922508 0.552433
1.000002 0.924524 0.715626
1.000002 0.931246 0.826068
1.000002 0.942158 0.895560
1.000002 0.955098 0.937653
1.000002 0.967475 0.962692
1.000002 0.978035 0.978043
1.000002 0.985870 0.987136
1.000002 0.991404 0.992673
0.010544 0.977912 0.077921
0.010767 0.977797 0.077664
0.010995 0.977681 0.077405
0.011304 0.977559 0.077130
0.011776 0.977427 0.076821
0.012497 0.977282 0.076467
0.013602 0.977119 0.076054
0.015328 0.976931 0.075559
0.018078 0.976710 0.074959
0.022622 0.976444 0.074229
0.030542 0.976117 0.073338
0.045038 0.975714 0.072279
0.074173 0.975205 0.071041
0.139229 0.974573 0.069686
0.299067 0.973787 0.068319
0.482746 0.972821 0.067148
0.682797 0.971647 0.066499
0.825420 0.970229 0.066883
0.906063 0.968538 0.069118
0.950053 0.966581 0.074447
0.975783 0.963122 0.095252
0.992412 0.957856 0.161073
0.997269 0.953232 0.240530
0.999248 0.948881 0.364313
0.999992 0.945714 0.511508
1.000002 0.944728 0.681400
1.000002 0.946950 0.806919
1.000002 0.952742 0.885567
1.000002 0.961232 0.932604
1.000002 0.970557 0.960149
1.000002 0.979340 0.976777
1.000002 0.986331 0.986495
1.000002 0.991514 0.992348
0.015859 0.985305 0.105478
0.016075 0.985228 0.105133
0.016294 0.985150 0.104787
0.016585 0.985069 0.104426
0.017036 0.984982 0.104034
0.017727 0.984888 0.103602
0.018775 0.984785 0.103114
0.020386 0.984667 0.102549
0.022883 0.984531 0.101885
0.026845 0.984371 0.101092
0.033392 0.984175 0.100133
0.044585 0.983936 0.098993
0.065244 0.983636 0.097638
0.106258 0.983261 0.096106
0.201050 0.982792 0.094468
0.382082 0.982210 0.092899
0.573915 0.981497 0.091696
0.760511 0.980627 0.091328
0.870730 0.979579 0.092550
0.931054 0.978352 0.096476
0.964478 0.976892 0.105243
0.983653 0.974310 0.132419
0.995454 0.970348 0.217576
0.998637 0.966859 0.329843
0.999789 0.963776 0.470817
1.000002 0.961636 0.639581
1.000002 0.961315 0.782324
1.000002 0.963469 0.872361
1.000002 0.968146 0.925840
1.000002 0.974405 0.956730
1.000002 0.981144 0.975083
1.000002 0.987047 0.985644
1.000002 0.991729 0.991922
0.023562 0.990406 0.143242
0.023760 0.990354 0.142765
0.023961 0.990302 0.142285
0.024221 0.990249 0.141793
0.024638 0.990192 0.141274
0.025288 0.990132 0.140715
0.026277 0.990066 0.140106
0.027788 0.989992 0.139423
0.030092 0.989909 0.138646
0.033653 0.989812 0.137744
0.039319 0.989696 0.136676
0.048529 0.989556 0.135417
0.064454 0.989381 0.133917
0.093475 0.989162 0.132189
0.152153 0.988888 0.130268
0.290592 0.988545 0.128290
0.472363 0.988121 0.126513
0.674368 0.987598 0.125363
0.822340 0.986961 0.125546
0.904598 0.986209 0.128111
0.950471 0.985302 0.134920
0.975026 0.984240 0.149108
0.988922 0.982378 0.184558
0.997450 0.979345 0.303163
0.999416 0.976826 0.434679
1.000002 0.974608 0.594515
1.000002 0.973248 0.752501
1.000002 0.973305 0.855612
1.000002 0.975224 0.917046
1.000002 0.978808 0.952241
1.000002 0.983454 0.972859
1.000002 0.988079 0.984537
1.000002 0.992099 0.991374
0.034460 0.993830 0.195756
0.034625 0.993796 0.195071
0.034792 0.993761 0.194381
0.035007 0.993726 0.193683
0.035377 0.993689 0.192957
0.035972 0.993649 0.192195
0.036893 0.993608 0.191384
0.038305 0.993561 0.190502
0.040448 0.993510 0.189530
0.043712 0.993451 0.188436
0.048781 0.993382 0.187174
0.056739 0.993299 0.185716
0.069863 0.993198 0.183993
0.092329 0.993071 0.182000
0.133878 0.992912 0.179736
0.221033 0.992713 0.177295
0.387974 0.992464 0.174889
0.575529 0.992154 0.172899
0.760373 0.991773 0.171992
0.869530 0.991317 0.173194
0.931482 0.990761 0.178218
0.965007 0.990103 0.189894
0.982551 0.989347 0.212905
0.992896 0.987947 0.265176
0.998665 0.985706 0.407342
0.999875 0.983845 0.555022
1.000002 0.982320 0.719134
1.000002 0.981469 0.835539
1.000002 0.981750 0.906073
1.000002 0.983357 0.946519
1.000002 0.986140 0.970004
1.000002 0.989431 0.983119
1.000002 0.992656 0.990681
0.050314 0.996169 0.274777
0.050425 0.996147 0.273730
0.050538 0.996124 0.272679
0.050689 0.996101 0.271619
0.050989 0.996077 0.270534
0.051509 0.996052 0.269411
0.052344 0.996025 0.268243
0.053648 0.995997 0.267002
0.055636 0.995965 0.265673
0.058653 0.995930 0.264222
0.063276 0.995889 0.262599
0.070373 0.995841 0.260772
0.081698 0.995783 0.258656
0.100217 0.995711 0.256226
0.132344 0.995621 0.253449
0.193245 0.995509 0.250374
0.322760 0.995367 0.247165
0.492349 0.995189 0.244144
0.685372 0.994968 0.241950
0.824224 0.994700 0.241621
0.905900 0.994370 0.244808
0.951109 0.993974 0.254263
0.975157 0.993513 0.274252
0.987649 0.992715 0.301676
0.995370 0.991979 0.365519
0.999409 0.990299 0.523751
1.000002 0.988988 0.684036
1.000002 0.987926 0.812083
1.000002 0.987428 0.892429
1.000002 0.987774 0.939142
1.000002 0.989084 0.966254
1.000002 0.991106 0.981250
1.000002 0.993446 0.989771
0.072659 0.997694 0.377186
0.072690 0.997679 0.376029
0.072722 0.997665 0.374861
0.072783 0.997650 0.373685
0.072988 0.997634 0.372483
0.073409 0.997618 0.371248
0.074137 0.997601 0.369974
0.075319 0.997583 0.368639
0.077155 0.997564 0.367231
0.079960 0.997542 0.365723
0.084248 0.997518 0.364070
0.090758 0.997490 0.362246
0.100941 0.997457 0.360168
0.117101 0.997416 0.357794
0.143939 0.997366 0.355068
0.191517 0.997303 0.351971
0.285781 0.997223 0.348568
0.435539 0.997123 0.345039
0.610134 0.996996 0.341836
0.772824 0.996841 0.339797
0.874637 0.996648 0.340156
0.933257 0.996413 0.344868
0.965314 0.996137 0.356224
0.982855 0.995805 0.377639
0.991863 0.995426 0.411814
0.997210 0.994695 0.474628
0.999837 0.993480 0.652669
1.000002 0.992535 0.787606
1.000002 0.991822 0.876794
1.000002 0.991557 0.930207
1.000002 0.991922 0.961558
1.000002 0.992936 0.978871
1.000002 0.994431 0.988613
0.105456 0.998704 0.488481
0.105364 0.998694 0.487211
0.105271 0.998685 0.485928
0.105201 0.998676 0.484638
0.105271 0.998666 0.483330
0.105555 0.998656 0.481995
0.106145 0.998645 0.480631
0.107181 0.998634 0.479220
0.108860 0.998622 0.477756
0.111478 0.998609 0.476218
0.115515 0.998595 0.474569
0.121637 0.998579 0.472794
0.131127 0.998560 0.470821
0.145921 0.998537 0.468615
0.169784 0.998510 0.466113
0.210187 0.998475 0.463272
0.284313 0.998432 0.460087
0.408271 0.998377 0.456608
0.557406 0.998307 0.453058
0.721860 0.998220 0.449965
0.839323 0.998111 0.448070
0.911302 0.997977 0.448770
0.952484 0.997816 0.453892
0.975801 0.997621 0.466191
0.988118 0.997395 0.488466
0.994597 0.997127 0.525280
0.998307 0.996622 0.593056
1.000002 0.995731 0.763956
1.000002 0.995071 0.859565
1.000002 0.994607 0.919521
1.000002 0.994475 0.955648
1.000002 0.994798 0.975789
1.000002 0.995574 0.987092
0.153260 0.999341 0.609896
0.152976 0.999335 0.608469
0.152691 0.999329 0.607030
0.152421 0.999323 0.605584
0.152291 0.999317 0.604122
0.152381 0.999311 0.602638
0.152786 0.999304 0.601131
0.153648 0.999297 0.599585
0.155165 0.999290 0.597999
0.157634 0.999282 0.596354
0.161524 0.999274 0.594625
0.167483 0.999264 0.592797
