create_logik_projekt/setups/Syncolor/transforms/r3d/IPP2-Cubes-SDR-Core-V1_13/REC709/RWG_Log3G10 to REC709_BT1886 with NO_CONTRAST and R_1_Hard size_33 v1.13.cube
# RED Digital Cinema Output Transform LUT for IPP2
# LUT Name = RWG_Log3G10 to REC709_BT1886 with NO_CONTRAST and R_1_Hard size_33 v1.13
# Generated by version 1.13
# Settings used in creation of this LUT are:
# Development Color Space = REC709
# Output Gamma Curve = BT1886
# Output Tonemap = NO_CONTRAST
# Highlight Rolloff = Rolloff 1 - hard
# Resolution = 33 x 33 x 33
TITLE "RED IPP2 LUT to map REDWideGamutRGB/Log3G10 to REC709/BT1886/NO_CONTRAST/Rolloff 1 - hard"
LUT_3D_SIZE 5
0.000000 0.000000 0.000000
0.437902 0.007747 0.011917
0.961836 0.082541 0.117010
1.000002 0.504703 0.638548
1.000002 0.985353 0.989209
0.003505 0.422858 0.003663
0.339697 0.384307 0.003505
0.966034 0.277624 0.095573
1.000002 0.630673 0.707545
1.000002 0.990021 0.992588
0.004752 0.932300 0.030439
0.013213 0.927886 0.028389
0.871140 0.906979 0.025012
1.000002 0.860665 0.627401
1.000002 0.991331 0.993107
0.072659 0.997694 0.377186
0.077155 0.997564 0.367231
0.285781 0.997223 0.348568
0.991863 0.995426 0.411814
1.000002 0.994431 0.988613
0.880780 1.000002 0.962300
0.876207 1.000002 0.960860
0.881181 1.000002 0.959225
0.959540 1.000002 0.956625
1.000002 1.000002 0.965994
0.005558 0.003663 0.371150
0.430099 0.003721 0.370342
0.960799 0.062871 0.332416
1.000002 0.493985 0.678431
1.000002 0.985373 0.989300
0.003505 0.353188 0.338177
0.324290 0.324299 0.324326
0.964177 0.228202 0.291304
1.000002 0.616493 0.732497
1.000002 0.989855 0.992510
0.004442 0.926189 0.083888
0.011543 0.925274 0.078269
0.870765 0.902963 0.082645
1.000002 0.858282 0.656486
1.000002 0.991208 0.993040
0.069746 0.997551 0.391211
0.077744 0.997596 0.394007
0.285757 0.997253 0.379693
0.991975 0.995462 0.441495
1.000002 0.994418 0.988499
0.875339 1.000002 0.960978
0.878675 1.000002 0.961694
0.883357 1.000002 0.960107
0.960014 1.000002 0.957585
1.000002 1.000002 0.965601
0.036052 0.006998 0.903323
0.371453 0.005868 0.906855
0.938539 0.008556 0.898467
1.000002 0.338126 0.863866
1.000002 0.981285 0.987485
0.007756 0.089430 0.913580
0.217234 0.066445 0.911838
0.938802 0.052253 0.905671
1.000002 0.460540 0.880194
1.000002 0.986767 0.990953
0.003505 0.885671 0.871847
0.004631 0.883177 0.870959
0.857349 0.857363 0.857404
1.000002 0.815366 0.856781
1.000002 0.988201 0.991271
0.060412 0.997045 0.688576
0.068373 0.997099 0.686342
0.266882 0.996942 0.675021
0.991858 0.994957 0.725702
1.000002 0.993531 0.985541
0.869005 1.000002 0.961943
0.872521 1.000002 0.962531
0.885032 1.000002 0.963014
0.960324 1.000002 0.961164
1.000002 1.000002 0.969411
0.032274 0.005794 0.997647
0.119950 0.005264 0.997900
0.946453 0.004564 0.997713
0.998754 0.033205 0.995477
1.000002 0.961245 0.991539
0.012551 0.013189 0.998474
0.059054 0.010748 0.998458
0.938552 0.007657 0.998253
0.999163 0.051883 0.996602
1.000002 0.972076 0.993425
0.003761 0.663244 0.997370
0.005754 0.623774 0.997347
0.752849 0.490986 0.996905
0.998505 0.447088 0.996058
1.000002 0.974864 0.994125
0.018866 0.993586 0.992130
0.022701 0.993656 0.992232
0.150126 0.993241 0.992009
0.990472 0.990474 0.990480
1.000002 0.989620 0.991885
0.852710 1.000002 0.983329
0.856851 1.000002 0.983386
0.872494 1.000002 0.983388
0.958710 1.000002 0.982885
1.000002 1.000002 0.986236
0.003721 0.003505 1.000002
0.003917 0.003505 1.000002
0.740883 0.003505 1.000002
1.000002 0.003505 1.000002
1.000002 0.144558 1.000002
0.003505 0.003505 1.000002
0.003505 0.003505 1.000002
0.322931 0.003505 1.000002
1.000002 0.003505 1.000002
1.000002 0.178941 1.000002
0.003505 0.004176 1.000002
0.003505 0.003936 1.000002
0.005733 0.003505 1.000002
1.000002 0.003505 1.000002
1.000002 0.342842 1.000002
0.003505 0.992624 1.000002
0.003505 0.992332 1.000002
0.003505 0.982406 1.000002
0.981042 0.960111 1.000002
1.000002 0.962158 1.000002
0.690589 1.000002 1.000002
0.700230 1.000002 1.000002
0.744249 1.000002 1.000002
0.941593 1.000002 1.000002
1.000002 1.000002 1.000002
