create_logik_projekt/setups/Syncolor/transforms/r3d/IPP2-Cubes-SDR-Core-V1_13/REC709/RWG_Log3G10 to REC709_BT1886 with MEDIUM_CONTRAST and R_1_Hard size_33 v1.13.cube
# RED Digital Cinema Output Transform LUT for IPP2
# LUT Name = RWG_Log3G10 to REC709_BT1886 with MEDIUM_CONTRAST and R_1_Hard size_33 v1.13
# Generated by version 1.13
# Settings used in creation of this LUT are:
# Development Color Space = REC709
# Output Gamma Curve = BT1886
# Output Tonemap = MEDIUM_CONTRAST
# Highlight Rolloff = Rolloff 1 - hard
# Resolution = 33 x 33 x 33
TITLE "RED IPP2 LUT to map REDWideGamutRGB/Log3G10 to REC709/BT1886/MEDIUM_CONTRAST/Rolloff 1 - hard"
LUT_3D_SIZE 33
0.000000 0.000000 0.000000
0.000001 0.000000 0.000000
0.000926 0.000000 0.000000
0.058523 0.003505 0.003505
0.087482 0.003505 0.003505
0.130036 0.003721 0.003972
0.183099 0.005422 0.006950
0.248745 0.009890 0.014896
0.327138 0.016750 0.024617
0.420241 0.024072 0.034897
0.530984 0.031814 0.045713
0.668729 0.040588 0.057938
0.793523 0.051254 0.072776
0.874980 0.063096 0.089251
0.927428 0.077117 0.108815
0.959580 0.094105 0.132682
0.978440 0.115112 0.162556
0.989110 0.141854 0.201282
0.994869 0.176729 0.253045
0.997793 0.222658 0.322027
0.999245 0.287140 0.405650
0.999908 0.377407 0.502806
1.000002 0.481697 0.613427
1.000002 0.601879 0.724194
1.000002 0.719924 0.805770
1.000002 0.807561 0.865410
1.000002 0.867987 0.906754
1.000002 0.910269 0.935976
1.000002 0.939061 0.956111
1.000002 0.958363 0.969770
1.000002 0.971748 0.979347
1.000002 0.980830 0.985912
1.000002 0.987229 0.990582
0.000000 0.000001 0.000000
0.000000 0.000000 0.000000
0.000062 0.000000 0.000000
0.053512 0.003505 0.003505
0.084700 0.003505 0.003505
0.128394 0.004079 0.003825
0.182006 0.006423 0.006420
0.247954 0.011711 0.014039
0.326534 0.018473 0.023817
0.419774 0.025631 0.034187
0.530643 0.033206 0.045095
0.668637 0.041815 0.057422
0.793575 0.052324 0.072354
0.875080 0.064039 0.088915
0.927526 0.077956 0.108560
0.959656 0.094863 0.132507
0.978493 0.115815 0.162466
0.989143 0.142529 0.201288
0.994888 0.177413 0.253174
0.997803 0.223396 0.322304
0.999250 0.288005 0.406066
0.999911 0.378373 0.503363
1.000002 0.482679 0.614136
1.000002 0.602933 0.724805
1.000002 0.720752 0.806244
1.000002 0.808142 0.865762
1.000002 0.868394 0.907012
1.000002 0.910551 0.936162
1.000002 0.939257 0.956244
1.000002 0.958500 0.969865
1.000002 0.971843 0.979414
1.000002 0.980896 0.985960
1.000002 0.987275 0.990615
0.000000 0.000095 0.000000
0.000000 0.000052 0.000000
0.000007 0.000025 0.000000
0.045164 0.003505 0.003505
0.080585 0.003761 0.003505
0.126047 0.005418 0.003663
0.180459 0.008993 0.005808
0.246836 0.014772 0.012906
0.325678 0.021140 0.022739
0.419107 0.027944 0.033222
0.530160 0.035207 0.044260
0.668493 0.043551 0.056722
0.793634 0.053822 0.071781
0.875208 0.065351 0.088455
0.927654 0.079118 0.108209
0.959757 0.095910 0.132266
0.978562 0.116782 0.162338
0.989187 0.143456 0.201291
0.994914 0.178349 0.253341
0.997817 0.224405 0.322671
0.999258 0.289182 0.406620
0.999914 0.379682 0.504111
1.000002 0.484006 0.615086
1.000002 0.604356 0.725622
1.000002 0.721862 0.806878
1.000002 0.808922 0.866235
1.000002 0.868939 0.907358
1.000002 0.910929 0.936411
1.000002 0.939519 0.956421
1.000002 0.958683 0.969992
1.000002 0.971970 0.979504
1.000002 0.980985 0.986023
1.000002 0.987336 0.990659
0.003505 0.051380 0.003505
0.003505 0.049531 0.003505
0.003505 0.046814 0.003505
0.027412 0.042697 0.003505
0.074314 0.033569 0.003505
0.122672 0.016773 0.003505
0.178269 0.016616 0.005152
0.245259 0.020266 0.011447
0.324468 0.025414 0.021309
0.418174 0.031416 0.031939
0.529480 0.038104 0.043147
0.668267 0.046012 0.055786
0.793691 0.055915 0.071009
0.875366 0.067169 0.087833
0.927817 0.080719 0.107732
0.959887 0.097345 0.131933
0.978653 0.118103 0.162158
0.989244 0.144718 0.201284
0.994947 0.179620 0.253553
0.997835 0.225770 0.323149
0.999267 0.290769 0.407348
0.999918 0.381431 0.505095
1.000002 0.485776 0.616343
1.000002 0.606250 0.726698
1.000002 0.723329 0.807713
1.000002 0.809951 0.866857
1.000002 0.869659 0.907814
1.000002 0.911428 0.936738
1.000002 0.939865 0.956655
1.000002 0.958924 0.970158
1.000002 0.972138 0.979622
1.000002 0.981101 0.986107
1.000002 0.987416 0.990717
0.003505 0.080725 0.003505
0.003505 0.079729 0.003505
0.003505 0.078328 0.003505
0.003505 0.076355 0.003505
0.062664 0.073171 0.003505
0.117089 0.063461 0.003505
0.174732 0.042868 0.004457
0.242733 0.032975 0.009419
0.322543 0.033714 0.019223
0.416688 0.037587 0.030037
0.528380 0.043013 0.041477
0.667853 0.050054 0.054371
0.793729 0.059284 0.069835
0.875575 0.070057 0.086881
0.928046 0.083240 0.106995
0.960073 0.099591 0.131412
0.978784 0.120160 0.161864
0.989327 0.146674 0.201251
0.994995 0.181579 0.253848
0.997862 0.227864 0.323843
0.999280 0.293195 0.408419
0.999925 0.384071 0.506551
1.000002 0.488438 0.618204
1.000002 0.609087 0.728284
1.000002 0.725508 0.808945
1.000002 0.811476 0.867776
1.000002 0.870723 0.908486
1.000002 0.912164 0.937222
1.000002 0.940374 0.957000
1.000002 0.959280 0.970405
1.000002 0.972385 0.979796
1.000002 0.981273 0.986230
1.000002 0.987534 0.990803
0.003505 0.122073 0.003505
0.003505 0.121474 0.003505
0.003505 0.120642 0.003505
0.003505 0.119493 0.003505
0.004999 0.117691 0.003505
0.101522 0.113204 0.003505
0.165554 0.103299 0.003721
0.236290 0.088319 0.006316
0.317633 0.066792 0.014743
0.412848 0.057997 0.025755
0.525452 0.057670 0.037624
0.666542 0.061355 0.051054
0.793600 0.068309 0.067041
0.875931 0.077590 0.084585
0.928500 0.089698 0.105188
0.960463 0.105271 0.130098
0.979064 0.125305 0.161074
0.989507 0.151520 0.201061
0.995101 0.186386 0.254412
0.997920 0.232953 0.325335
0.999309 0.299032 0.410792
0.999938 0.390264 0.509819
1.000002 0.494641 0.622409
1.000002 0.615663 0.731840
1.000002 0.730449 0.811707
1.000002 0.814920 0.869834
1.000002 0.873121 0.909994
1.000002 0.913821 0.938306
1.000002 0.941520 0.957773
1.000002 0.960079 0.970957
1.000002 0.972939 0.980187
1.000002 0.981659 0.986506
1.000002 0.987799 0.990995
0.003505 0.172851 0.003505
0.003505 0.172431 0.003505
0.003505 0.171850 0.003505
0.003505 0.171052 0.003505
0.003663 0.169813 0.003505
0.022457 0.166783 0.003505
0.145910 0.161039 0.003505
0.223174 0.150109 0.004130
0.307686 0.136802 0.008508
0.404939 0.120351 0.018945
0.519171 0.100036 0.031141
0.663086 0.089762 0.045275
0.792636 0.089062 0.062031
0.876105 0.093983 0.080358
0.929032 0.103236 0.101756
0.960993 0.116859 0.127488
0.979470 0.135586 0.159345
0.989777 0.161022 0.200346
0.995263 0.195642 0.254974
0.998010 0.242575 0.327494
0.999355 0.309865 0.414494
0.999960 0.401192 0.515064
1.000002 0.505435 0.629255
1.000002 0.626966 0.737551
1.000002 0.738609 0.816152
1.000002 0.820564 0.873150
1.000002 0.877029 0.912423
1.000002 0.916511 0.940052
1.000002 0.943376 0.959019
1.000002 0.961370 0.971846
1.000002 0.973834 0.980816
1.000002 0.982281 0.986951
1.000002 0.988225 0.991304
0.003505 0.235254 0.003663
0.003505 0.234922 0.003663
0.003505 0.234464 0.003663
0.003505 0.233837 0.003663
0.003505 0.232872 0.003663
0.004220 0.230525 0.003663
0.073889 0.226131 0.003663
0.198358 0.218822 0.003505
0.289357 0.206572 0.004605
0.390193 0.193237 0.010609
0.506994 0.178416 0.022238
0.655002 0.160714 0.036798
0.789380 0.139798 0.054309
0.875292 0.130051 0.073575
0.929210 0.131030 0.096001
0.961440 0.139533 0.122839
0.979889 0.154981 0.155912
0.990081 0.178406 0.198335
0.995453 0.212088 0.254758
0.998118 0.259185 0.329627
0.999411 0.328022 0.418968
0.999986 0.418020 0.521825
1.000002 0.521674 0.638196
1.000002 0.643262 0.745018
1.000002 0.749885 0.821993
1.000002 0.828256 0.877519
1.000002 0.882305 0.915628
1.000002 0.920119 0.942359
1.000002 0.945854 0.960665
1.000002 0.963088 0.973022
1.000002 0.975022 0.981647
1.000002 0.983105 0.987538
1.000002 0.988790 0.991713
0.003505 0.309505 0.003897
0.003505 0.309216 0.003897
0.003505 0.308821 0.003897
0.003505 0.308285 0.003897
0.003505 0.307463 0.003873
0.003721 0.305468 0.003850
0.007657 0.301745 0.003825
0.130357 0.295589 0.003761
0.258980 0.286629 0.003721
0.365913 0.272512 0.005183
0.486410 0.258033 0.012728
0.638937 0.241927 0.026577
0.781734 0.223915 0.044263
0.872246 0.206008 0.064249
0.928316 0.189786 0.087641
0.961400 0.183557 0.115615
0.980099 0.190449 0.150006
0.990301 0.208733 0.194018
0.995613 0.239616 0.252484
0.998217 0.285906 0.330267
0.999464 0.354404 0.422713
1.000002 0.440944 0.528498
1.000002 0.543077 0.647340
1.000002 0.662836 0.752854
1.000002 0.763045 0.828205
1.000002 0.837041 0.882203
1.000002 0.888240 0.919080
1.000002 0.924134 0.944851
1.000002 0.948590 0.962447
1.000002 0.964976 0.974295
1.000002 0.976322 0.982549
1.000002 0.984005 0.988175
1.000002 0.989405 0.992155
0.003505 0.397437 0.004352
0.003505 0.397177 0.004352
0.003505 0.396821 0.004352
0.003505 0.396339 0.004343
0.003505 0.395600 0.004334
0.003663 0.393808 0.004316
0.004442 0.390465 0.004279
0.024840 0.384930 0.004208
0.188027 0.376855 0.004092
0.327704 0.363602 0.004165
0.454970 0.349392 0.005997
0.610847 0.332101 0.016181
0.766895 0.313544 0.032792
0.865370 0.295045 0.052799
0.925468 0.277523 0.076715
0.960397 0.263596 0.105511
0.979851 0.257283 0.140970
0.990312 0.263464 0.186364
0.995682 0.286510 0.246696
0.998276 0.327912 0.327592
0.999501 0.389491 0.423879
1.000002 0.470664 0.533137
1.000002 0.569732 0.654731
1.000002 0.684490 0.759643
1.000002 0.777048 0.833778
1.000002 0.846098 0.886489
1.000002 0.894215 0.922278
1.000002 0.928106 0.947177
1.000002 0.951264 0.964119
1.000002 0.966806 0.975495
1.000002 0.977575 0.983401
1.000002 0.984869 0.988779
1.000002 0.989993 0.992575
0.003505 0.501736 0.005170
0.003505 0.501493 0.005170
0.003505 0.501162 0.005166
0.003505 0.500713 0.005161
0.003663 0.500024 0.005152
0.003663 0.498357 0.005130
0.004037 0.495244 0.005085
0.007437 0.490078 0.004985
0.065105 0.482501 0.004841
0.251534 0.472203 0.004662
0.410446 0.458977 0.004465
0.566764 0.438817 0.007662
0.740767 0.417772 0.021220
0.852391 0.396907 0.040054
0.919468 0.376476 0.063649
0.957819 0.358349 0.092576
0.978838 0.345665 0.128454
0.989966 0.342699 0.174550
0.995591 0.354387 0.235994
0.998266 0.384224 0.319437
0.999510 0.435521 0.420302
1.000002 0.508819 0.533493
1.000002 0.602536 0.658342
1.000002 0.707628 0.764015
1.000002 0.791296 0.837783
1.000002 0.854903 0.889753
1.000002 0.899813 0.924797
1.000002 0.931720 0.949051
1.000002 0.953645 0.965486
1.000002 0.968411 0.976485
1.000002 0.978663 0.984110
1.000002 0.985614 0.989283
1.000002 0.990499 0.992928
0.003663 0.623468 0.006663
0.003663 0.623235 0.006661
0.003663 0.622918 0.006652
0.003663 0.622488 0.006647
0.003663 0.621830 0.006639
0.003721 0.620237 0.006609
0.003990 0.617267 0.006543
0.005243 0.612332 0.006417
0.019018 0.605057 0.006213
0.142841 0.595083 0.005940
0.325106 0.582116 0.005638
0.503528 0.566316 0.005375
0.690479 0.541637 0.010736
0.829952 0.516487 0.027367
0.908596 0.492102 0.049479
0.952803 0.469079 0.077540
0.976640 0.449858 0.112833
0.989065 0.438068 0.158481
0.995250 0.438579 0.219627
0.998148 0.456000 0.303517
0.999475 0.494862 0.409599
1.000002 0.557356 0.527004
1.000002 0.642418 0.655794
1.000002 0.731812 0.764414
1.000002 0.805369 0.839206
1.000002 0.863066 0.891336
1.000002 0.904695 0.926200
1.000002 0.934706 0.950180
1.000002 0.955531 0.966353
1.000002 0.969644 0.977135
1.000002 0.979481 0.984586
1.000002 0.986166 0.989629
1.000002 0.990870 0.993174
0.003721 0.740563 0.009559
0.003721 0.740415 0.009553
0.003721 0.740214 0.009547
0.003721 0.739942 0.009537
0.003761 0.739524 0.009522
0.003825 0.738514 0.009480
0.004051 0.736622 0.009387
0.004814 0.733448 0.009202
0.009387 0.728671 0.008895
0.043558 0.721895 0.008465
0.221800 0.712654 0.007966
0.407335 0.700691 0.007489
0.611134 0.685559 0.007156
0.783635 0.660325 0.014978
0.890214 0.631245 0.035353
0.944453 0.602371 0.061695
0.972890 0.576151 0.095400
0.987437 0.555406 0.139284
0.994576 0.544546 0.198320
0.997884 0.548640 0.279800
0.999381 0.572925 0.390254
1.000001 0.621386 0.512012
1.000002 0.688241 0.645240
1.000002 0.758379 0.759774
1.000002 0.820175 0.837442
1.000002 0.871083 0.890893
1.000002 0.909103 0.926287
1.000002 0.937167 0.950448
1.000002 0.956955 0.966646
1.000002 0.970509 0.977398
1.000002 0.980022 0.984801
1.000002 0.986517 0.989797
1.000002 0.991100 0.993300
0.003897 0.824987 0.014562
0.003917 0.824897 0.014556
0.003917 0.824775 0.014548
0.003936 0.824609 0.014538
0.003972 0.824356 0.014521
0.004037 0.823745 0.014474
0.004250 0.822611 0.014370
0.004835 0.820722 0.014164
0.007156 0.817891 0.013806
0.020910 0.813869 0.013271
0.090306 0.808341 0.012574
0.302018 0.801102 0.011819
0.503202 0.791808 0.011167
0.718153 0.780366 0.010887
0.852423 0.760807 0.021232
0.930840 0.737530 0.046380
0.966935 0.714010 0.077868
0.984868 0.691047 0.119148
0.993506 0.672504 0.174848
0.997453 0.664149 0.251976
0.999221 0.671572 0.363426
0.999946 0.697816 0.489540
1.000002 0.739102 0.626760
1.000002 0.788896 0.750353
1.000002 0.837342 0.832817
1.000002 0.880206 0.888736
1.000002 0.913889 0.925318
1.000002 0.939649 0.950055
1.000002 0.958266 0.966518
1.000002 0.971229 0.977383
1.000002 0.980430 0.984833
1.000002 0.986759 0.989842
1.000002 0.991248 0.993344
0.004230 0.883880 0.021582
0.004250 0.883826 0.021575
0.004250 0.883751 0.021567
0.004279 0.883651 0.021554
0.004307 0.883498 0.021534
0.004393 0.883132 0.021482
0.004605 0.882459 0.021371
0.005143 0.881352 0.021153
0.006789 0.879710 0.020780
0.014065 0.877386 0.020207
0.042550 0.874182 0.019429
0.173080 0.869947 0.018522
0.391106 0.864447 0.017639
0.611569 0.857577 0.017048
0.799913 0.849168 0.017148
0.900455 0.834594 0.029961
0.957005 0.816708 0.061001
0.980715 0.798972 0.099223
0.991784 0.782097 0.150636
0.996752 0.769377 0.221755
0.998955 0.764682 0.328667
0.999853 0.772185 0.458955
1.000002 0.792497 0.599371
1.000002 0.823119 0.734736
1.000002 0.857474 0.824550
1.000002 0.891108 0.884453
1.000002 0.919543 0.923076
1.000002 0.942449 0.948887
1.000002 0.959623 0.965907
1.000002 0.971889 0.977060
1.000002 0.980748 0.984665
1.000002 0.986915 0.989756
1.000002 0.991324 0.993303
0.004825 0.923864 0.031267
0.004835 0.923831 0.031259
0.004852 0.923786 0.031248
0.004878 0.923725 0.031233
0.004915 0.923632 0.031209
0.005019 0.923412 0.031148
0.005248 0.923011 0.031024
0.005798 0.922363 0.030791
0.007240 0.921417 0.030400
0.012135 0.920091 0.029799
0.027509 0.918266 0.028957
0.079498 0.915842 0.027920
0.271687 0.912661 0.026809
0.490049 0.908638 0.025881
0.719675 0.903645 0.025520
0.859826 0.897609 0.026335
0.933268 0.887035 0.042023
0.973717 0.873553 0.080645
0.988992 0.860586 0.127659
0.995629 0.848763 0.192014
0.998525 0.840072 0.288709
0.999698 0.837760 0.421280
1.000002 0.844043 0.563941
1.000002 0.859232 0.711478
1.000002 0.880387 0.811815
1.000002 0.904256 0.877627
1.000002 0.926600 0.919365
1.000002 0.945973 0.946863
1.000002 0.961291 0.964783
1.000002 0.972647 0.976419
1.000002 0.981066 0.984296
1.000002 0.987034 0.989541
1.000002 0.991358 0.993179
0.005907 0.950520 0.044467
0.005920 0.950499 0.044456
0.005943 0.950471 0.044442
0.005972 0.950434 0.044423
0.006020 0.950377 0.044392
0.006140 0.950243 0.044318
0.006417 0.950002 0.044172
0.007039 0.949619 0.043915
0.008516 0.949071 0.043499
0.012513 0.948316 0.042870
0.022570 0.947286 0.041979
0.050202 0.945916 0.040839
0.142728 0.944104 0.039525
0.369988 0.941787 0.038265
0.603104 0.938873 0.037414
0.801785 0.935301 0.037546
0.902656 0.931035 0.039565
0.955766 0.923426 0.058919
0.984201 0.913448 0.107137
0.993782 0.904304 0.165093
0.997828 0.895942 0.250881
0.999446 0.890245 0.378805
1.000002 0.889214 0.522156
1.000002 0.894163 0.679162
1.000002 0.904744 0.793632
1.000002 0.919474 0.867693
1.000002 0.935342 0.913885
1.000002 0.950569 0.943832
1.000002 0.963538 0.963077
1.000002 0.973679 0.975430
1.000002 0.981490 0.983717
1.000002 0.987180 0.989196
1.000002 0.991383 0.992974
0.008017 0.968178 0.062455
0.008037 0.968165 0.062441
0.008063 0.968148 0.062422
0.008101 0.968125 0.062396
0.008162 0.968090 0.062356
0.008324 0.968007 0.062261
0.008680 0.967861 0.062083
0.009460 0.967633 0.061783
0.011146 0.967313 0.061326
0.014603 0.966882 0.060659
0.022114 0.966303 0.059721
0.039773 0.965537 0.058497
0.087561 0.964520 0.057014
0.247067 0.963206 0.055449
0.477237 0.961534 0.054114
0.716502 0.959456 0.053541
0.861246 0.956940 0.054552
0.932970 0.953942 0.058495
0.970819 0.948550 0.082270
0.990495 0.941374 0.142166
0.996643 0.934829 0.218091
0.999021 0.929105 0.334683
0.999902 0.925443 0.476561
1.000002 0.924999 0.636496
1.000002 0.928528 0.768784
1.000002 0.935901 0.853847
1.000002 0.945667 0.906165
1.000002 0.956445 0.939542
1.000002 0.966613 0.960657
1.000002 0.975180 0.974027
1.000002 0.982147 0.982895
1.000002 0.987427 0.988704
1.000002 0.991441 0.992680
0.012278 0.979733 0.086925
0.012301 0.979725 0.086905
0.012334 0.979714 0.086879
0.012378 0.979699 0.086843
0.012449 0.979677 0.086790
0.012637 0.979627 0.086663
0.013036 0.979537 0.086434
0.013854 0.979399 0.086068
0.015438 0.979210 0.085540
0.018504 0.978962 0.084806
0.024644 0.978636 0.083804
0.037527 0.978209 0.082497
0.067536 0.977644 0.080868
0.147747 0.976908 0.079033
0.360016 0.975962 0.077241
0.597418 0.974770 0.075970
0.801223 0.973307 0.075981
0.903951 0.971539 0.078460
0.954133 0.969453 0.085388
0.980402 0.965763 0.113682
0.994457 0.960496 0.192054
0.998275 0.955939 0.294073
0.999645 0.952112 0.431169
1.000002 0.949681 0.586755
1.000002 0.949490 0.736500
1.000002 0.951971 0.835319
1.000002 0.956847 0.895675
1.000002 0.963449 0.933674
1.000002 0.970616 0.957347
1.000002 0.977300 0.972115
1.000002 0.983162 0.981782
1.000002 0.987861 0.988042
1.000002 0.991584 0.992288
0.018784 0.987124 0.119810
0.018806 0.987119 0.119783
0.018836 0.987112 0.119746
0.018877 0.987103 0.119697
0.018944 0.987089 0.119623
0.019121 0.987057 0.119448
0.019499 0.987001 0.119143
0.020275 0.986916 0.118673
0.021766 0.986803 0.118028
0.024567 0.986657 0.117178
0.029898 0.986470 0.116065
0.040243 0.986229 0.114642
0.061879 0.985913 0.112855
0.111429 0.985501 0.110765
0.252741 0.984967 0.108545
0.480893 0.984285 0.106604
0.719221 0.983437 0.105639
0.863427 0.982398 0.106744
0.934426 0.981156 0.111660
0.968570 0.979729 0.123043
0.987298 0.977099 0.159906
0.996869 0.973313 0.264436
0.999183 0.970201 0.391429
0.999988 0.967570 0.539295
1.000002 0.965995 0.697785
1.000002 0.965919 0.812048
1.000002 0.967594 0.882151
1.000002 0.970916 0.926006
1.000002 0.975324 0.953003
1.000002 0.980035 0.969612
1.000002 0.984602 0.980333
1.000002 0.988551 0.987188
1.000002 0.991863 0.991786
0.028382 0.991965 0.166256
0.028401 0.991962 0.166217
0.028427 0.991958 0.166163
0.028464 0.991952 0.166091
0.028523 0.991943 0.165984
0.028681 0.991923 0.165735
0.029028 0.991888 0.165305
0.029750 0.991835 0.164662
0.031143 0.991767 0.163817
0.033734 0.991680 0.162757
0.038518 0.991573 0.161437
0.047329 0.991437 0.159808
0.064388 0.991262 0.157788
0.099441 0.991034 0.155388
0.182477 0.990738 0.152703
0.381219 0.990355 0.150060
0.612689 0.989873 0.148088
0.807690 0.989274 0.147808
0.906612 0.988547 0.150849
0.954727 0.987701 0.159584
0.978664 0.986707 0.178649
0.991643 0.984903 0.226987
0.998235 0.982241 0.361228
0.999699 0.980070 0.497499
1.000002 0.978314 0.653781
1.000002 0.977240 0.783620
1.000002 0.977185 0.864912
1.000002 0.978300 0.915981
1.000002 0.980486 0.947250
1.000002 0.983345 0.966285
1.000002 0.986526 0.978413
1.000002 0.989574 0.986066
1.000002 0.992339 0.991134
0.042093 0.995052 0.233016
0.042107 0.995050 0.232956
0.042128 0.995047 0.232874
0.042158 0.995043 0.232766
0.042205 0.995038 0.232604
0.042337 0.995025 0.232230
0.042639 0.995003 0.231592
0.043289 0.994970 0.230658
0.044574 0.994928 0.229467
0.046975 0.994876 0.228036
0.051355 0.994813 0.226334
0.059176 0.994736 0.224326
0.073565 0.994637 0.221904
0.100993 0.994512 0.219041
0.158778 0.994348 0.215760
0.304010 0.994135 0.212298
0.514808 0.993863 0.209206
0.738012 0.993520 0.207452
0.869936 0.993099 0.208630
0.935887 0.992602 0.215049
0.969240 0.992009 0.230844
0.985549 0.991330 0.263050
0.994344 0.990132 0.320722
0.999078 0.988215 0.466487
0.999979 0.986743 0.610639
1.000002 0.985527 0.752054
1.000002 0.984807 0.844458
1.000002 0.984755 0.903583
1.000002 0.985482 0.939958
1.000002 0.986888 0.962013
1.000002 0.988805 0.975940
1.000002 0.990915 0.984624
1.000002 0.993040 0.990303
0.060977 0.996982 0.327368
0.060986 0.996981 0.327287
0.060999 0.996979 0.327179
0.061018 0.996977 0.327036
0.061051 0.996973 0.326821
0.061148 0.996965 0.326325
0.061388 0.996951 0.325483
0.061948 0.996930 0.324260
0.063106 0.996904 0.322728
0.065323 0.996872 0.320933
0.069380 0.996834 0.318864
0.076528 0.996789 0.316500
0.089287 0.996733 0.313720
0.112452 0.996662 0.310459
0.157679 0.996570 0.306648
0.258660 0.996451 0.302407
0.445588 0.996297 0.298162
0.662804 0.996101 0.294796
0.826349 0.995856 0.293880
0.912208 0.995563 0.297590
0.956939 0.995209 0.308817
0.979284 0.994798 0.330479
0.990167 0.994340 0.364444
0.996328 0.993507 0.421723
0.999572 0.992160 0.577552
1.000002 0.991119 0.721166
1.000002 0.990297 0.822352
1.000002 0.989797 0.889322
1.000002 0.989760 0.931235
1.000002 0.990231 0.956782
1.000002 0.991182 0.972873
1.000002 0.992460 0.982829
1.000002 0.993937 0.989272
0.087482 0.998224 0.431135
0.087482 0.998223 0.431050
0.087485 0.998222 0.430933
0.087490 0.998220 0.430778
0.087502 0.998218 0.430546
0.087550 0.998213 0.430013
0.087709 0.998204 0.429112
0.088151 0.998190 0.427816
0.089157 0.998174 0.426214
0.091183 0.998154 0.424377
0.094965 0.998131 0.422324
0.101634 0.998104 0.420058
0.113368 0.998072 0.417485
0.134046 0.998032 0.414548
0.172428 0.997981 0.411145
0.250804 0.997915 0.407278
0.405408 0.997828 0.403129
0.595844 0.997718 0.399166
0.779317 0.997577 0.396359
0.884106 0.997407 0.396246
0.941417 0.997198 0.400950
0.971032 0.996953 0.413103
0.985834 0.996675 0.435010
0.993357 0.996359 0.469840
0.997517 0.995811 0.525838
0.999876 0.994838 0.692410
1.000002 0.994122 0.799994
1.000002 0.993546 0.873529
1.000002 0.993201 0.921007
1.000002 0.993166 0.950421
1.000002 0.993477 0.969054
1.000002 0.994105 0.980567
1.000002 0.994995 0.987966
0.123577 0.998998 0.538418
0.123568 0.998997 0.538322
0.123555 0.998996 0.538193
0.123541 0.998995 0.538022
0.123524 0.998994 0.537763
0.123507 0.998990 0.537175
0.123557 0.998984 0.536181
0.123847 0.998976 0.534762
0.124675 0.998965 0.533020
0.126505 0.998953 0.531054
0.130066 0.998939 0.528899
0.136441 0.998922 0.526586
0.147645 0.998903 0.524037
0.167088 0.998880 0.521206
0.202070 0.998851 0.517980
0.269496 0.998813 0.514312
0.396615 0.998765 0.510246
0.558639 0.998702 0.506011
0.738477 0.998621 0.502207
0.855482 0.998521 0.499932
0.923979 0.998398 0.500715
0.961145 0.998251 0.506741
0.980399 0.998082 0.520203
0.990472 0.997888 0.544056
0.995500 0.997675 0.579994
0.998430 0.997291 0.639657
1.000002 0.996605 0.778019
1.000002 0.996091 0.857879
1.000002 0.995691 0.910033
1.000002 0.995456 0.943240
1.000002 0.995429 0.964593
1.000002 0.995638 0.977864
1.000002 0.996084 0.986387
0.175272 0.999496 0.654189
0.175244 0.999496 0.654089
0.175209 0.999495 0.653954
0.175167 0.999495 0.653779
0.175106 0.999493 0.653515
0.174990 0.999491 0.652908
0.174882 0.999488 0.651881
0.174957 0.999482 0.650413
0.175550 0.999475 0.648618
0.177161 0.999467 0.646593
0.180550 0.999459 0.644392
0.186819 0.999449 0.642059
0.197946 0.999437 0.639533
0.217170 0.999424 0.636772
0.251105 0.999407 0.633672
0.314007 0.999386 0.630141
0.417562 0.999359 0.626151
0.551401 0.999323 0.621802
0.711938 0.999277 0.617446
0.830316 0.999220 0.613844
0.905986 0.999148 0.612062
0.949890 0.999061 0.613852
0.973794 0.998959 0.621153
0.986788 0.998841 0.636422
0.993486 0.998710 0.660188
0.996993 0.998563 0.692912
0.998981 0.998309 0.736638
1.000002 0.997814 0.840372
1.000002 0.997448 0.898647
1.000002 0.997173 0.935269
1.000002 0.997005 0.959407
1.000002 0.996983 0.974623
1.000002 0.997132 0.984453
0.249539 0.999807 0.748601
0.249487 0.999807 0.748526
0.249415 0.999807 0.748423
0.249326 0.999806 0.748291
0.249196 0.999806 0.748090
0.248926 0.999804 0.747631
0.248566 0.999802 0.746857
0.248310 0.999798 0.745748
0.248558 0.999794 0.744397
0.249883 0.999789 0.742885
0.253134 0.999783 0.741258
0.259499 0.999777 0.739555
