create_logik_projekt/setups/Syncolor/transforms/r3d/IPP2-Cubes-SDR-Core-V1_13/REC709/RWG_Log3G10 to REC709_BT1886 with MEDIUM_CONTRAST and R_1_Hard size_33 v1.13.cube
# RED Digital Cinema Output Transform LUT for IPP2
# LUT Name = RWG_Log3G10 to REC709_BT1886 with MEDIUM_CONTRAST and R_1_Hard size_33 v1.13
# Generated by version 1.13
# Settings used in creation of this LUT are:
# Development Color Space = REC709
# Output Gamma Curve = BT1886
# Output Tonemap = MEDIUM_CONTRAST
# Highlight Rolloff = Rolloff 1 - hard
# Resolution = 33 x 33 x 33
TITLE "RED IPP2 LUT to map REDWideGamutRGB/Log3G10 to REC709/BT1886/MEDIUM_CONTRAST/Rolloff 1 - hard"
LUT_3D_SIZE 5
0.000000 0.000000 0.000000
0.327138 0.016750 0.024617
0.978440 0.115112 0.162556
1.000002 0.719924 0.805770
1.000002 0.987229 0.990582
0.003505 0.309505 0.003897
0.258980 0.286629 0.003721
0.980099 0.190449 0.150006
1.000002 0.763045 0.828205
1.000002 0.989405 0.992155
0.005907 0.950520 0.044467
0.008516 0.949071 0.043499
0.902656 0.931035 0.039565
1.000002 0.904744 0.793632
1.000002 0.991383 0.992974
0.123577 0.998998 0.538418
0.124675 0.998965 0.533020
0.396615 0.998765 0.510246
0.995500 0.997675 0.579994
1.000002 0.996084 0.986387
0.880021 1.000002 0.962087
0.877766 1.000002 0.961389
0.885257 1.000002 0.959269
0.976587 1.000002 0.956360
1.000002 1.000002 0.966203
0.013767 0.004544 0.286590
0.320793 0.004352 0.283670
0.978125 0.103930 0.262518
1.000002 0.717342 0.811905
1.000002 0.987234 0.990615
0.003505 0.266890 0.257527
0.248767 0.248774 0.248793
0.979585 0.171788 0.242687
1.000002 0.759426 0.832219
1.000002 0.989318 0.992115
0.005688 0.948622 0.063306
0.008166 0.948457 0.061981
0.902662 0.929937 0.061402
1.000002 0.904172 0.797666
1.000002 0.991327 0.992942
0.121322 0.998963 0.539699
0.125413 0.998976 0.541888
0.397313 0.998775 0.520748
0.995534 0.997689 0.590456
1.000002 0.996090 0.986328
0.877389 1.000002 0.961437
0.878960 1.000002 0.961783
0.886257 1.000002 0.959695
0.976712 1.000002 0.956828
1.000002 1.000002 0.966554
0.049170 0.009671 0.935301
0.208449 0.008468 0.936461
0.958839 0.013354 0.928959
1.000002 0.547379 0.906688
1.000002 0.982506 0.988592
0.023192 0.034570 0.938678
0.114955 0.029504 0.937932
0.959341 0.029042 0.931964
1.000002 0.606506 0.913539
1.000002 0.985197 0.990227
0.003663 0.914369 0.903361
0.003972 0.913712 0.903195
0.891326 0.891337 0.891372
1.000002 0.870432 0.900828
1.000002 0.987563 0.990791
0.106569 0.998677 0.778605
0.110702 0.998692 0.778227
0.381080 0.998620 0.771208
0.995493 0.997422 0.809877
1.000002 0.995617 0.982261
0.869137 1.000002 0.962916
0.870819 1.000002 0.963180
0.888249 1.000002 0.963750
0.976915 1.000002 0.961875
1.000002 1.000002 0.970226
0.025366 0.004960 0.999554
0.044802 0.004780 0.999605
0.970827 0.004104 0.999508
0.999773 0.045452 0.998101
1.000002 0.956825 0.994611
0.016068 0.005798 0.999731
0.030970 0.005540 0.999729
0.970133 0.004449 0.999632
0.999866 0.054224 0.998403
1.000002 0.963138 0.995226
0.003505 0.728302 0.999059
0.003721 0.714356 0.999057
0.796847 0.529562 0.998745
0.999569 0.507708 0.998197
1.000002 0.968729 0.996154
0.038206 0.996584 0.995686
0.040322 0.996607 0.995718
0.215921 0.996386 0.995609
0.994615 0.994616 0.994620
1.000002 0.992888 0.994269
0.846406 1.000002 0.989271
0.848508 1.000002 0.989281
0.871604 1.000002 0.989252
0.975432 1.000002 0.988688
1.000002 1.000002 0.990720
0.003663 0.003505 1.000002
0.003721 0.003505 1.000002
0.982753 0.003505 1.000002
1.000002 0.003505 1.000002
1.000002 0.153497 1.000002
0.003505 0.003505 1.000002
0.003663 0.003505 1.000002
0.976175 0.003505 1.000002
1.000002 0.003505 1.000002
1.000002 0.170273 1.000002
0.003505 0.015746 1.000002
0.003505 0.013139 1.000002
0.020691 0.004410 1.000002
1.000002 0.018736 1.000002
1.000002 0.410198 1.000002
0.003505 0.994466 1.000002
0.003505 0.994382 1.000002
0.019907 0.989881 1.000002
0.990574 0.982826 1.000002
1.000002 0.981895 1.000002
0.693278 1.000002 1.000002
0.697850 1.000002 1.000002
0.757728 1.000002 1.000002
0.968734 1.000002 1.000002
1.000002 1.000002 1.000002
