create_logik_projekt/setups/Syncolor/transforms/r3d/IPP2-Cubes-SDR-Core-V1_13/REC709/RWG_Log3G10 to REC709_BT1886 with MEDIUM_CONTRAST and R_1_Hard size_33 v1.13.cube
# RED Digital Cinema Output Transform LUT for IPP2
# LUT Name = RWG_Log3G10 to REC709_BT1886 with MEDIUM_CONTRAST and R_1_Hard size_33 v1.13
# Generated by version 1.13
# Settings used in creation of this LUT are:
# Development Color Space = REC709
# Output Gamma Curve = BT1886
# Output Tonemap = MEDIUM_CONTRAST
# Highlight Rolloff = Rolloff 1 - hard
# Resolution = 33 x 33 x 33
TITLE "RED IPP2 LUT to map REDWideGamutRGB/Log3G10 to REC709/BT1886/MEDIUM_CONTRAST/Rolloff 1 - hard"
LUT_3D_SIZE 9
0.000000 0.000000 0.000000
0.087482 0.003505 0.003505
0.327138 0.016750 0.024617
0.793523 0.051254 0.072776
0.978440 0.115112 0.162556
0.999245 0.287140 0.405650
1.000002 0.719924 0.805770
1.000002 0.939061 0.956111
1.000002 0.987229 0.990582
0.003505 0.080725 0.003505
0.062664 0.073171 0.003505
0.322543 0.033714 0.019223
0.793729 0.059284 0.069835
0.978784 0.120160 0.161864
0.999280 0.293195 0.408419
1.000002 0.725508 0.808945
1.000002 0.940374 0.957000
1.000002 0.987534 0.990803
0.003505 0.309505 0.003897
0.003505 0.307463 0.003873
0.258980 0.286629 0.003721
0.781734 0.223915 0.044263
0.980099 0.190449 0.150006
0.999464 0.354404 0.422713
1.000002 0.763045 0.828205
1.000002 0.948590 0.962447
1.000002 0.989405 0.992155
0.003721 0.740563 0.009559
0.003761 0.739524 0.009522
0.009387 0.728671 0.008895
0.611134 0.685559 0.007156
0.972890 0.576151 0.095400
0.999381 0.572925 0.390254
1.000002 0.820175 0.837442
1.000002 0.956955 0.966646
1.000002 0.991100 0.993300
0.005907 0.950520 0.044467
0.006020 0.950377 0.044392
0.008516 0.949071 0.043499
0.142728 0.944104 0.039525
0.902656 0.931035 0.039565
0.997828 0.895942 0.250881
1.000002 0.904744 0.793632
1.000002 0.963538 0.963077
1.000002 0.991383 0.992974
0.028382 0.991965 0.166256
0.028523 0.991943 0.165984
0.031143 0.991767 0.163817
0.064388 0.991262 0.157788
0.612689 0.989873 0.148088
0.978664 0.986707 0.178649
1.000002 0.978314 0.653781
1.000002 0.980486 0.947250
1.000002 0.992339 0.991134
0.123577 0.998998 0.538418
0.123524 0.998994 0.537763
0.124675 0.998965 0.533020
0.147645 0.998903 0.524037
0.396615 0.998765 0.510246
0.923979 0.998398 0.500715
0.995500 0.997675 0.579994
1.000002 0.995691 0.910033
1.000002 0.996084 0.986387
0.500097 1.000002 0.867935
0.499379 1.000002 0.867654
0.495705 1.000002 0.865631
0.507799 1.000002 0.862120
0.620655 1.000002 0.857869
0.878301 1.000002 0.851843
0.984966 0.999971 0.851525
0.999207 0.999806 0.882792
1.000002 0.999305 0.976668
0.880021 1.000002 0.962087
0.879729 1.000002 0.962002
0.877766 1.000002 0.961389
0.876333 1.000002 0.960358
0.885257 1.000002 0.959269
0.924285 1.000002 0.957928
0.976587 1.000002 0.956360
0.996883 1.000002 0.957265
1.000002 1.000002 0.966203
0.003505 0.003505 0.074036
0.084988 0.003505 0.072695
0.326685 0.014305 0.048554
0.793413 0.049701 0.083827
0.978440 0.114248 0.168777
0.999246 0.286639 0.408842
1.000002 0.719956 0.806367
1.000002 0.939107 0.956178
1.000002 0.987243 0.990594
0.003505 0.065413 0.061621
0.058071 0.058073 0.058076
0.321946 0.028796 0.040648
0.793471 0.057399 0.080949
0.978761 0.119172 0.168232
0.999279 0.292513 0.411560
1.000002 0.725327 0.809407
1.000002 0.940367 0.957029
1.000002 0.987535 0.990806
0.003505 0.306073 0.004705
0.003505 0.304792 0.004598
0.258214 0.283685 0.004240
0.781439 0.220960 0.051375
0.980078 0.189011 0.155356
0.999463 0.353727 0.425557
1.000002 0.762915 0.828573
1.000002 0.948586 0.962470
1.000002 0.989406 0.992158
0.003721 0.739092 0.010950
0.003761 0.738766 0.010838
0.009236 0.727803 0.010195
0.610924 0.684440 0.008118
0.972861 0.575162 0.098466
0.999381 0.572446 0.392818
1.000002 0.820103 0.837749
1.000002 0.956955 0.966666
1.000002 0.991101 0.993302
0.005891 0.950348 0.045479
0.006010 0.950362 0.045438
0.008493 0.949050 0.044612
0.142446 0.944070 0.040687
0.902690 0.930986 0.040815
0.997826 0.895904 0.252848
1.000002 0.904733 0.794018
1.000002 0.963540 0.963098
1.000002 0.991385 0.992976
0.028309 0.991941 0.166849
0.028534 0.991949 0.166941
0.031150 0.991772 0.164828
0.064378 0.991267 0.158875
0.612688 0.989878 0.149211
0.978160 0.986347 0.178636
1.000002 0.978324 0.654468
1.000002 0.980492 0.947281
1.000002 0.992341 0.991137
0.123307 0.998993 0.538163
0.123632 0.998995 0.538479
0.124778 0.998967 0.533762
0.147744 0.998905 0.524830
0.396733 0.998767 0.511089
0.924010 0.998400 0.501582
0.995505 0.997677 0.580835
1.000002 0.995695 0.910100
1.000002 0.996086 0.986392
0.499153 1.000002 0.867689
0.499804 1.000002 0.867832
0.496122 1.000002 0.865813
0.508191 1.000002 0.862312
0.620980 1.000002 0.858072
0.878370 1.000002 0.852060
0.984976 0.999972 0.851741
0.999208 0.999807 0.882957
1.000002 0.999306 0.976680
0.879698 1.000002 0.962003
0.879878 1.000002 0.962047
0.877915 1.000002 0.961434
0.876481 1.000002 0.960405
0.885383 1.000002 0.959318
0.924351 1.000002 0.957978
0.976603 1.000002 0.956413
0.996886 1.000002 0.957315
1.000002 1.000002 0.966242
0.013767 0.004544 0.286590
0.040917 0.004426 0.286542
0.320793 0.004352 0.283670
0.790565 0.035087 0.255613
0.978125 0.103930 0.262518
0.999233 0.278512 0.446483
1.000002 0.717342 0.811905
1.000002 0.938921 0.956483
1.000002 0.987234 0.990615
0.007876 0.007254 0.285192
0.027156 0.006690 0.284545
0.315872 0.005712 0.281491
0.790539 0.040779 0.252698
0.978446 0.108491 0.261430
0.999266 0.284249 0.448950
1.000002 0.722772 0.814785
1.000002 0.940183 0.957322
1.000002 0.987526 0.990826
0.003505 0.266890 0.257527
0.003505 0.265414 0.256800
0.248767 0.248774 0.248793
0.776549 0.184797 0.216723
0.979585 0.171788 0.242687
0.999441 0.343404 0.461181
1.000002 0.759426 0.832219
1.000002 0.948085 0.962462
1.000002 0.989318 0.992115
0.003663 0.722071 0.058256
0.003663 0.721704 0.057698
0.007660 0.715759 0.052144
0.607118 0.668954 0.053821
0.972190 0.561923 0.147841
0.999356 0.565049 0.425157
1.000002 0.817949 0.840664
1.000002 0.956582 0.966640
1.000002 0.991035 0.993268
0.005688 0.948622 0.063306
0.005798 0.948635 0.063202
0.008166 0.948457 0.061981
0.138848 0.943285 0.059356
0.902662 0.929937 0.061402
0.997772 0.895048 0.280277
1.000002 0.904172 0.797666
1.000002 0.963297 0.963068
1.000002 0.991327 0.992942
0.027661 0.991738 0.178297
0.027890 0.991746 0.178354
0.031072 0.991783 0.178469
0.064065 0.991270 0.173803
0.612080 0.989872 0.164858
0.978770 0.986700 0.200051
1.000002 0.978364 0.661478
1.000002 0.980470 0.947240
1.000002 0.992307 0.991095
0.121322 0.998963 0.539699
0.121648 0.998965 0.539988
0.125413 0.998976 0.541888
0.148317 0.998913 0.533721
0.397313 0.998775 0.520748
0.924194 0.998410 0.511683
0.995534 0.997689 0.590456
1.000002 0.995720 0.910317
1.000002 0.996090 0.986328
0.492433 1.000002 0.866304
0.493085 1.000002 0.866444
0.498991 1.000002 0.867399
0.510851 1.000002 0.864016
0.623173 1.000002 0.859917
0.878828 1.000002 0.854066
0.985039 0.999974 0.853767
0.999216 0.999811 0.884469
1.000002 0.999314 0.976649
0.877389 1.000002 0.961437
0.877572 1.000002 0.961481
0.878960 1.000002 0.961783
0.877504 1.000002 0.960767
0.886257 1.000002 0.959695
0.924810 1.000002 0.958374
0.976712 1.000002 0.956828
0.996904 1.000002 0.957717
1.000002 1.000002 0.966554
0.036871 0.007715 0.684419
0.047961 0.007576 0.684938
0.281628 0.006362 0.686081
0.761938 0.007193 0.675867
0.974564 0.064755 0.617483
0.999005 0.228630 0.636253
1.000002 0.682463 0.834024
1.000002 0.933259 0.955553
1.000002 0.986138 0.990012
0.032374 0.009514 0.685890
0.043188 0.009240 0.685536
0.275318 0.007485 0.686628
0.761209 0.008303 0.676352
0.974879 0.067858 0.617811
0.999042 0.233360 0.638233
1.000002 0.688520 0.836218
1.000002 0.934612 0.956361
1.000002 0.986448 0.990229
0.007477 0.104262 0.683029
0.009934 0.101775 0.682708
0.193405 0.079175 0.677697
0.741305 0.053182 0.668472
0.975785 0.110829 0.610209
0.999235 0.282764 0.647169
1.000002 0.729689 0.849580
1.000002 0.943099 0.961332
1.000002 0.988353 0.991558
0.003505 0.637308 0.610328
0.003505 0.636643 0.610046
0.004316 0.627236 0.605536
0.584750 0.584770 0.584832
0.965769 0.493173 0.535774
0.999072 0.513052 0.613832
1.000002 0.795387 0.854702
1.000002 0.951759 0.964979
1.000002 0.990044 0.992646
0.004774 0.940563 0.368368
0.004846 0.940576 0.367947
0.006403 0.940333 0.363739
0.119442 0.936948 0.347724
0.900226 0.921581 0.371928
0.997154 0.887514 0.466162
1.000002 0.897723 0.815369
1.000002 0.959979 0.961165
1.000002 0.990430 0.992294
0.025137 0.991033 0.319082
0.025366 0.991041 0.318919
0.028565 0.991082 0.317344
0.061062 0.990934 0.310589
0.604936 0.989429 0.314071
0.978689 0.986124 0.360192
1.000002 0.978104 0.697801
1.000002 0.979719 0.944517
1.000002 0.991695 0.990277
0.116944 0.998888 0.583068
0.117273 0.998890 0.583243
0.121122 0.998901 0.584330
0.147866 0.998905 0.584665
0.395516 0.998762 0.577535
0.924089 0.998389 0.572226
0.995561 0.997663 0.647143
1.000002 0.995758 0.908157
1.000002 0.995977 0.985091
0.480735 1.000002 0.868582
0.481391 1.000002 0.868701
0.487429 1.000002 0.869517
0.514198 1.000002 0.870629
0.625689 1.000002 0.867419
0.879281 1.000002 0.862547
0.985112 0.999976 0.862536
0.999227 0.999813 0.890792
1.000002 0.999330 0.975269
0.873506 1.000002 0.960942
0.873693 1.000002 0.960984
0.875124 1.000002 0.961274
0.879027 1.000002 0.961705
0.887539 1.000002 0.960720
0.925471 1.000002 0.959497
0.976865 1.000002 0.958043
0.996930 1.000002 0.958913
1.000002 1.000002 0.967445
0.049170 0.009671 0.935301
0.055072 0.009569 0.935517
0.208449 0.008468 0.936461
0.733863 0.006776 0.935614
0.958839 0.013354 0.928959
0.998227 0.128384 0.903097
1.000002 0.547379 0.906688
1.000002 0.913048 0.958026
1.000002 0.982506 0.988592
0.046432 0.010711 0.936091
0.052519 0.010563 0.936063
0.200019 0.009268 0.936995
0.731825 0.007286 0.936128
0.959124 0.014301 0.929572
0.998277 0.131061 0.903843
1.000002 0.554243 0.907635
1.000002 0.914771 0.958679
1.000002 0.982882 0.988820
0.023192 0.034570 0.938678
0.026286 0.034136 0.938662
0.114955 0.029504 0.937932
0.693023 0.022009 0.937211
0.959341 0.029042 0.931964
0.998523 0.159408 0.907840
1.000002 0.606506 0.913539
1.000002 0.925615 0.962752
1.000002 0.985197 0.990227
0.005052 0.445937 0.932284
0.005339 0.444554 0.932273
0.017072 0.430106 0.931772
0.501603 0.382348 0.928455
0.947154 0.329682 0.924323
0.998145 0.360460 0.904586
1.000002 0.710845 0.916790
1.000002 0.936944 0.965871
1.000002 0.987240 0.991375
0.003663 0.914369 0.903361
0.003663 0.914356 0.903385
0.003972 0.913712 0.903195
0.079508 0.907943 0.900001
0.891326 0.891337 0.891372
0.994947 0.853991 0.872250
1.000002 0.870432 0.900828
1.000002 0.948736 0.962259
1.000002 0.987563 0.990791
0.017509 0.988670 0.793304
0.017699 0.988681 0.793193
0.020367 0.988727 0.792130
0.049356 0.988523 0.787556
0.575406 0.987306 0.774600
0.977782 0.983329 0.795737
0.999888 0.975799 0.843795
1.000002 0.977058 0.946636
1.000002 0.989797 0.988373
0.106569 0.998677 0.778605
0.106893 0.998679 0.778570
0.110702 0.998692 0.778227
0.137498 0.998696 0.776695
0.381080 0.998620 0.771208
0.922149 0.998201 0.777347
0.995493 0.997422 0.809877
1.000002 0.995675 0.916867
1.000002 0.995617 0.982261
0.464050 1.000002 0.892772
0.464721 1.000002 0.892828
0.470973 1.000002 0.893206
0.499369 1.000002 0.893650
0.623076 1.000002 0.893399
0.878322 1.000002 0.892003
0.985041 0.999960 0.893165
0.999227 0.999793 0.913101
1.000002 0.999347 0.972709
0.869137 1.000002 0.962916
0.869329 1.000002 0.962950
0.870819 1.000002 0.963180
0.875005 1.000002 0.963520
0.888249 1.000002 0.963750
0.925760 1.000002 0.962937
0.976915 1.000002 0.961875
0.996941 1.000002 0.962738
1.000002 1.000002 0.970226
0.045165 0.008030 0.990688
0.048117 0.007977 0.990739
0.106320 0.007401 0.991000
0.715320 0.006150 0.990955
0.959141 0.006125 0.990064
0.994718 0.024727 0.987091
1.000002 0.284706 0.978005
1.000002 0.856858 0.977459
1.000002 0.974762 0.989165
0.043479 0.008376 0.990882
0.046614 0.008314 0.990884
0.103282 0.007687 0.991141
0.712984 0.006336 0.991093
0.959228 0.006328 0.990202
0.994804 0.025475 0.987280
1.000002 0.289399 0.978260
1.000002 0.859691 0.977744
1.000002 0.975287 0.989352
0.027299 0.016288 0.991738
0.029236 0.016146 0.991741
0.071433 0.014562 0.991665
0.660716 0.011180 0.991587
0.956227 0.011609 0.990661
0.995210 0.034782 0.988309
1.000002 0.329275 0.979897
1.000002 0.877559 0.979593
1.000002 0.978521 0.990526
0.006107 0.179380 0.990929
0.006377 0.178046 0.990934
0.015317 0.163091 0.990872
0.384326 0.122844 0.990318
0.934671 0.096781 0.989754
0.994586 0.117326 0.988254
1.000002 0.454798 0.981607
1.000002 0.896629 0.981550
1.000002 0.981336 0.991577
0.004852 0.846678 0.987369
0.004930 0.846397 0.987378
0.006499 0.843029 0.987385
0.068013 0.827249 0.986991
0.856165 0.790841 0.985789
0.990226 0.757945 0.984546
1.000002 0.785552 0.979814
1.000002 0.920576 0.981154
1.000002 0.981925 0.991286
0.006171 0.982350 0.979122
0.005771 0.979612 0.976011
0.007036 0.982388 0.979211
0.022483 0.981956 0.979012
0.527490 0.979872 0.977787
0.975434 0.975438 0.975450
0.999344 0.967114 0.970932
1.000002 0.969452 0.975828
1.000002 0.985918 0.989378
0.080734 0.998025 0.955934
0.081010 0.998028 0.955929
0.084291 0.998045 0.955875
0.107788 0.998048 0.955559
0.339037 0.997938 0.954265
0.915321 0.997544 0.951165
0.995195 0.996560 0.955957
1.000002 0.994937 0.962977
1.000002 0.994846 0.984216
0.426318 1.000002 0.951666
0.427025 1.000002 0.951666
0.433643 1.000002 0.951659
0.464145 1.000002 0.951564
0.596592 1.000002 0.951099
0.872643 1.000002 0.949618
0.984514 0.999888 0.951691
0.999193 0.999700 0.958485
1.000002 0.999303 0.977520
0.862159 1.000002 0.972796
0.862364 1.000002 0.972809
0.863972 1.000002 0.972902
0.868581 1.000002 0.973030
0.883385 1.000002 0.973077
0.924798 1.000002 0.972885
0.976612 1.000002 0.972831
0.996902 1.000002 0.973674
1.000002 1.000002 0.978362
0.025366 0.004960 0.999554
0.026427 0.004945 0.999562
0.044802 0.004780 0.999605
0.676481 0.004270 0.999593
0.970827 0.004104 0.999508
0.996349 0.005135 0.999138
0.999773 0.045452 0.998101
1.000002 0.670493 0.995139
1.000002 0.956825 0.994611
0.024405 0.004994 0.999584
0.025590 0.004980 0.999584
0.043466 0.004814 0.999626
0.673373 0.004288 0.999614
0.971036 0.004130 0.999530
0.996398 0.005196 0.999164
0.999787 0.046207 0.998144
1.000002 0.677135 0.995211
1.000002 0.957710 0.994692
0.016068 0.005798 0.999731
0.016828 0.005774 0.999732
0.030970 0.005540 0.999729
0.612286 0.004687 0.999714
0.970133 0.004449 0.999632
0.996404 0.006529 0.999271
0.999866 0.054224 0.998403
1.000002 0.719177 0.995690
1.000002 0.963138 0.995226
0.004021 0.063197 0.999542
0.004051 0.062761 0.999543
0.004786 0.058406 0.999543
0.166601 0.040481 0.999437
0.929593 0.032751 0.999341
0.994181 0.038592 0.999094
0.999879 0.100701 0.998571
1.000002 0.765323 0.996369
1.000002 0.967656 0.995871
0.003505 0.728302 0.999059
0.003505 0.727260 0.999060
0.003721 0.714356 0.999057
0.033502 0.631576 0.998932
0.796847 0.529562 0.998745
0.987657 0.467650 0.998553
0.999569 0.507708 0.998197
1.000002 0.836796 0.996672
1.000002 0.968729 0.996154
0.006482 0.969357 0.997816
0.006532 0.969341 0.997820
0.007363 0.969117 0.997836
0.020578 0.967647 0.997809
0.353619 0.962902 0.997628
0.967420 0.954136 0.997254
0.998296 0.948150 0.996927
1.000002 0.951151 0.995875
1.000002 0.977639 0.995832
0.038206 0.996584 0.995686
0.038364 0.996587 0.995690
0.040322 0.996607 0.995718
0.055393 0.996595 0.995731
0.215921 0.996386 0.995609
0.906221 0.995717 0.995204
0.994615 0.994616 0.994620
1.000002 0.992796 0.993578
1.000002 0.992888 0.994269
0.334990 0.999858 0.990768
0.335738 0.999858 0.990770
0.342960 0.999863 0.990779
0.377520 0.999867 0.990772
0.523776 0.999860 0.990669
0.859972 0.999811 0.990277
0.983129 0.999689 0.989550
0.999101 0.999442 0.990567
1.000002 0.999065 0.991459
0.846406 1.000002 0.989271
0.846645 1.000002 0.989272
0.848508 1.000002 0.989281
0.853956 1.000002 0.989285
0.871604 1.000002 0.989252
0.919809 1.000002 0.989090
0.975432 1.000002 0.988688
0.996748 1.000002 0.989260
1.000002 1.000002 0.990720
0.006957 0.003663 1.000002
0.007091 0.003663 1.000002
0.009813 0.003663 1.000002
0.097836 0.003505 1.000002
0.988634 0.003505 1.000002
0.999430 0.003505 1.000002
1.000002 0.004516 1.000002
1.000002 0.082882 1.000002
1.000002 0.909639 0.999043
0.006712 0.003663 1.000002
0.006875 0.003663 1.000002
0.009397 0.003663 1.000002
0.094721 0.003505 1.000002
0.988879 0.003505 1.000002
0.999464 0.003505 1.000002
1.000002 0.004523 1.000002
1.000002 0.083901 1.000002
1.000002 0.911495 0.999064
0.005152 0.003663 1.000002
0.005226 0.003663 1.000002
0.006690 0.003663 1.000002
0.069483 0.003505 1.000002
0.989751 0.003505 1.000002
0.999607 0.003505 1.000002
1.000002 0.004915 1.000002
1.000002 0.093271 1.000002
1.000002 0.922787 0.999201
0.003663 0.004662 1.000002
0.003663 0.004643 1.000002
0.003721 0.004516 1.000002
0.015752 0.004118 1.000002
0.978837 0.003721 1.000002
0.998802 0.003897 1.000002
1.000002 0.020588 1.000002
1.000002 0.132374 1.000002
1.000002 0.931464 0.999411
0.003505 0.506974 1.000002
0.003505 0.504979 1.000002
0.003505 0.483622 1.000002
0.003505 0.363291 1.000002
0.601947 0.169855 1.000002
0.986382 0.142022 1.000002
0.999506 0.168095 1.000002
1.000002 0.361671 1.000002
1.000002 0.933947 0.999578
0.003505 0.962176 1.000002
0.003505 0.962102 1.000002
0.003505 0.961040 1.000002
0.003663 0.951997 1.000002
0.133379 0.931828 1.000002
0.955984 0.910940 1.000002
0.997752 0.898103 1.000002
1.000002 0.906468 0.999925
1.000002 0.958388 0.999591
0.019322 0.994125 0.999815
0.019385 0.994125 0.999816
0.020326 0.994121 0.999821
0.028621 0.994017 0.999824
0.106823 0.993511 0.999802
0.861817 0.992191 0.999733
0.992867 0.990225 0.999624
0.999881 0.989102 0.999540
1.000002 0.989086 0.999296
0.185576 0.999527 0.999273
0.185959 0.999528 0.999274
0.189834 0.999534 0.999282
0.211401 0.999539 0.999291
0.355609 0.999522 0.999284
0.820889 0.999434 0.999228
0.981776 0.999231 0.999103
0.998956 0.998956 0.998958
1.000002 0.998526 0.998703
0.808729 1.000002 0.998124
0.809035 1.000002 0.998124
0.811467 1.000002 0.998129
0.818806 1.000002 0.998135
0.842965 1.000002 0.998131
0.906544 1.000002 0.998088
0.973567 1.000002 0.997966
0.996434 1.000002 0.997788
1.000002 1.000002 0.998024
0.003663 0.003505 1.000002
0.003663 0.003505 1.000002
0.003721 0.003505 1.000002
0.005624 0.003505 1.000002
0.982753 0.003505 1.000002
1.000002 0.003505 1.000002
1.000002 0.003505 1.000002
1.000002 0.004434 1.000002
1.000002 0.153497 1.000002
0.003663 0.003505 1.000002
0.003663 0.003505 1.000002
0.003721 0.003505 1.000002
0.005465 0.003505 1.000002
0.982246 0.003505 1.000002
1.000002 0.003505 1.000002
1.000002 0.003505 1.000002
1.000002 0.004434 1.000002
1.000002 0.155292 1.000002
0.003505 0.003505 1.000002
0.003505 0.003505 1.000002
0.003663 0.003505 1.000002
0.004523 0.003505 1.000002
0.976175 0.003505 1.000002
1.000002 0.003505 1.000002
1.000002 0.003505 1.000002
1.000002 0.004571 1.000002
1.000002 0.170273 1.000002
0.003505 0.003505 1.000002
0.003505 0.003505 1.000002
0.003505 0.003505 1.000002
0.003663 0.003505 1.000002
0.908861 0.003505 1.000002
1.000002 0.003505 1.000002
1.000002 0.003505 1.000002
1.000002 0.012288 1.000002
1.000002 0.217285 1.000002
0.003505 0.015746 1.000002
0.003505 0.015422 1.000002
0.003505 0.013139 1.000002
0.003505 0.008759 1.000002
0.020691 0.004410 1.000002
0.998537 0.003990 1.000002
1.000002 0.018736 1.000002
1.000002 0.091955 1.000002
1.000002 0.410198 1.000002
0.003505 0.975586 1.000002
0.003505 0.975543 1.000002
0.003505 0.974903 1.000002
0.003505 0.969443 1.000002
0.003505 0.910988 1.000002
0.929742 0.777593 1.000002
0.997402 0.736104 1.000002
1.000002 0.773921 1.000002
1.000002 0.872781 1.000002
0.003505 0.994466 1.000002
0.003505 0.994464 1.000002
0.003505 0.994382 1.000002
0.003505 0.993288 1.000002
0.019907 0.989881 1.000002
0.711600 0.986631 1.000002
0.990574 0.982826 1.000002
0.999751 0.980840 1.000002
1.000002 0.981895 1.000002
0.073373 0.999017 1.000002
0.073444 0.999018 1.000002
0.074465 0.999021 1.000002
0.082571 0.999016 1.000002
0.136130 0.998967 1.000002
0.654324 0.998787 1.000002
0.975037 0.998417 1.000002
0.998544 0.997956 1.000002
1.000002 0.997712 1.000002
0.693278 1.000002 1.000002
0.693775 1.000002 1.000002
0.697850 1.000002 1.000002
0.711348 1.000002 1.000002
0.757728 1.000002 1.000002
0.870387 1.000002 1.000002
0.968734 1.000002 1.000002
0.996183 1.000002 1.000002
1.000002 1.000002 1.000002
