resources/flame/Syncolor/Shared/transforms/camera_manufacturer_luts/arri/ARRI_Alexa_LUTs/ARRI_LogC3_v1-2_LUT_Package/LUTs/ARRI_LogC3-to-HLG_1K_P3-D65_DW100_v2_33.cube
LUT_3D_SIZE 9
0.00000000 0.00000000 0.00000000
0.08026141 0.00000000 0.00402169
0.18380690 0.00000000 0.00921009
0.33945735 0.00000000 0.01700933
0.58418158 0.00000000 0.02996017
0.79496289 0.00000000 0.05015167
0.97701774 0.00000000 0.08151954
1.00000000 0.00000000 0.13944776
1.00000000 0.00000000 0.24662071
0.00000000 0.03647382 0.00000000
0.03094718 0.03290250 0.00000000
0.14970927 0.02068489 0.00000000
0.32519735 0.00000000 0.01483337
0.58187740 0.00000000 0.02917623
0.79913364 0.00000000 0.05037415
0.98469745 0.00000000 0.08305901
1.00000000 0.00000000 0.14161116
1.00000000 0.00000000 0.24109219
0.00000000 0.13499088 0.00000000
0.00000000 0.13568117 0.00000000
0.12486134 0.13275038 0.00000000
0.31972547 0.12006031 0.00000000
0.59196777 0.09544594 0.00000000
0.81089461 0.00000000 0.04082175
0.99029164 0.00000000 0.07868026
1.00000000 0.00000000 0.13537848
1.00000000 0.00000000 0.22122803
0.00000000 0.30142306 0.00000000
0.00000000 0.30611092 0.00000000
0.01961553 0.31041800 0.00000000
0.28772125 0.30590018 0.00000000
0.58602814 0.28846166 0.00000000
0.81118830 0.25648537 0.00000000
0.98428465 0.19912057 0.01924880
1.00000000 0.00000000 0.10264395
1.00000000 0.00000000 0.18281632
0.00000000 0.56581172 0.00000000
0.00000000 0.57221164 0.00000000
0.00000000 0.57627325 0.00000000
0.18320437 0.57660858 0.00000000
0.53836890 0.56678469 0.00000000
0.79041205 0.54457180 0.00000000
0.96506961 0.50721220 0.00000000
1.00000000 0.46610973 0.00000000
1.00000000 0.40538619 0.05954666
0.00000000 0.79405173 0.00000000
0.00000000 0.79352483 0.00000000
0.00000000 0.79056821 0.00000000
0.00000000 0.78614847 0.00000000
0.40499812 0.77954472 0.00000000
0.74393926 0.76793531 0.00000000
0.93104778 0.75111367 0.00000000
1.00000000 0.73576741 0.00000000
1.00000000 0.72941122 0.00000000
0.00000000 0.96979278 0.00000000
0.00000000 0.96071534 0.00000000
0.00000000 0.95060563 0.00000000
0.00000000 0.94058772 0.00000000
0.00000000 0.93113689 0.00000000
0.65943577 0.91979101 0.00000000
0.88436391 0.90720085 0.00000000
1.00000000 0.89425655 0.00000000
1.00000000 0.89026692 0.00000000
0.00000000 1.00000000 0.00000000
0.00000000 1.00000000 0.00000000
0.00000000 1.00000000 0.00000000
0.00000000 1.00000000 0.00000000
0.00000000 1.00000000 0.00000000
0.45617517 1.00000000 0.00000000
0.82488374 1.00000000 0.00000000
0.98082496 1.00000000 0.00000000
1.00000000 0.99462788 0.00000000
0.00000000 1.00000000 0.00000000
0.00000000 1.00000000 0.00000000
0.00000000 1.00000000 0.00000000
0.00000000 1.00000000 0.00000000
0.00000000 1.00000000 0.00000000
0.00000000 1.00000000 0.00000000
0.75929157 1.00000000 0.00000000
0.94184719 1.00000000 0.00000000
1.00000000 1.00000000 0.00000000
0.00000000 0.00000000 0.08579953
0.06903214 0.00000000 0.05607327
0.17391232 0.00000000 0.03398326
0.33377666 0.00000000 0.02769262
0.58340946 0.00000000 0.03547117
0.79516684 0.00000000 0.05296288
0.97773810 0.00000000 0.08310518
1.00000000 0.00000000 0.14045932
1.00000000 0.00000000 0.24338247
0.00000000 0.03225008 0.03126651
0.02905757 0.02905757 0.02905757
0.15110548 0.01612472 0.02371417
0.32727588 0.00000000 0.02535828
0.58464080 0.00000000 0.03480773
0.80153907 0.00000000 0.05368662
0.98444267 0.00000000 0.08478351
1.00000000 0.00000000 0.14040458
1.00000000 0.00000000 0.23186018
0.00000000 0.13504460 0.00000000
0.00000000 0.13624328 0.00000000
0.12539997 0.13312905 0.00000000
0.32358486 0.11984773 0.00000000
0.59575561 0.09513169 0.01240874
0.81100433 0.00000000 0.04610116
0.98564512 0.00000000 0.08078272
1.00000000 0.00000000 0.13282126
1.00000000 0.00000000 0.21090307
0.00000000 0.30321165 0.00000000
0.00000000 0.30824649 0.00000000
0.00860630 0.31258120 0.00000000
0.28924250 0.30740283 0.00000000
0.58716238 0.28987343 0.00000000
0.80819511 0.25960398 0.00000000
0.97669247 0.20782564 0.03399752
1.00000000 0.06874086 0.10406608
1.00000000 0.00000000 0.17672294
0.00000000 0.56849719 0.00000000
0.00000000 0.57406932 0.00000000
0.00000000 0.57717840 0.00000000
0.18651251 0.57683031 0.00000000
0.53880542 0.56708874 0.00000000
0.78679524 0.54649871 0.00000000
0.95703230 0.51343931 0.00000000
1.00000000 0.47837855 0.00000000
1.00000000 0.43681846 0.07987243
0.00000000 0.79338266 0.00000000
0.00000000 0.79157879 0.00000000
0.00000000 0.78776207 0.00000000
0.00000000 0.78348762 0.00000000
0.41421912 0.77717504 0.00000000
0.74259488 0.76648668 0.00000000
0.92395507 0.75179420 0.00000000
1.00000000 0.73827715 0.00000000
1.00000000 0.73556410 0.00000000
0.00000000 0.96434945 0.00000000
0.00000000 0.95457067 0.00000000
0.00000000 0.94454728 0.00000000
0.00000000 0.93486314 0.00000000
0.00000000 0.92599377 0.00000000
0.66826094 0.91571012 0.00000000
0.88202931 0.90470802 0.00000000
1.00000000 0.89310578 0.00000000
1.00000000 0.89089219 0.00000000
0.00000000 1.00000000 0.00000000
0.00000000 1.00000000 0.00000000
0.00000000 1.00000000 0.00000000
0.00000000 1.00000000 0.00000000
0.00000000 1.00000000 0.00000000
0.51258353 1.00000000 0.00000000
0.82944352 1.00000000 0.00000000
0.97711215 0.99921761 0.00000000
1.00000000 0.99194116 0.00000000
0.00000000 1.00000000 0.00000000
0.00000000 1.00000000 0.00000000
0.00000000 1.00000000 0.00000000
0.00000000 1.00000000 0.00000000
0.00000000 1.00000000 0.00000000
0.00000000 1.00000000 0.00000000
0.78077759 1.00000000 0.00000000
0.94424459 1.00000000 0.00000000
1.00000000 1.00000000 0.00000000
0.00000000 0.00000000 0.15838888
0.04072473 0.00000000 0.13731984
0.15957907 0.00000000 0.10378098
0.32737989 0.00000000 0.09012408
0.57968788 0.00000000 0.08780058
0.79381174 0.00000000 0.09292818
0.97749757 0.00000000 0.11070166
1.00000000 0.00000000 0.15773797
1.00000000 0.00000000 0.24874572
0.00000000 0.00000000 0.13579590
0.00000000 0.00000000 0.14214564
0.14366160 0.00000000 0.12449910
0.32506639 0.00000000 0.11110357
0.58525650 0.00000000 0.10497625
0.80180891 0.00000000 0.10645730
0.98126018 0.00000000 0.12025093
1.00000000 0.00000000 0.16120424
1.00000000 0.00000000 0.23673015
0.00000000 0.12331081 0.11821790
0.00000000 0.12398146 0.12184622
0.12063476 0.12063475 0.12063475
0.32698152 0.10652199 0.11237019
0.59761362 0.08100931 0.10752883
0.80871960 0.00000000 0.11026914
0.97809471 0.00000000 0.12476472
1.00000000 0.00000000 0.16158670
1.00000000 0.00000000 0.22531685
0.00000000 0.30079175 0.06405617
0.00000000 0.30614527 0.06431431
0.00000000 0.31068218 0.06409122
0.28912916 0.30484659 0.06723488
0.58790175 0.28680567 0.07862167
0.80431975 0.25830358 0.09456887
0.96828713 0.21125265 0.11747762
1.00000000 0.10564980 0.15523450
1.00000000 0.00000000 0.21177984
0.00000000 0.56891621 0.00000000
0.00000000 0.57353201 0.00000000
0.00000000 0.57605064 0.00000000
0.18716525 0.57548004 0.00000000
0.53887772 0.56592311 0.00000000
0.78327663 0.54659425 0.00000000
0.94869837 0.51748597 0.02164254
1.00000000 0.48769265 0.11250933
1.00000000 0.45973559 0.17993089
0.00000000 0.79121249 0.00000000
0.00000000 0.78827051 0.00000000
0.00000000 0.78430699 0.00000000
0.00000000 0.78040739 0.00000000
0.42270422 0.77447923 0.00000000
0.74148270 0.76474814 0.00000000
0.91761549 0.75208560 0.00000000
1.00000000 0.74010166 0.00000000
1.00000000 0.74042419 0.07770956
0.00000000 0.95788028 0.00000000
0.00000000 0.94798019 0.00000000
0.00000000 0.93818282 0.00000000
0.00000000 0.92896789 0.00000000
0.10942395 0.92096688 0.00000000
0.67644033 0.91193066 0.00000000
0.88016807 0.90231046 0.00000000
1.00000000 0.89205862 0.00000000
1.00000000 0.89122325 0.00000000
0.00000000 1.00000000 0.00000000
0.00000000 1.00000000 0.00000000
0.00000000 1.00000000 0.00000000
0.00000000 1.00000000 0.00000000
0.00000000 1.00000000 0.00000000
0.55617690 1.00000000 0.00000000
0.83416179 1.00000000 0.00000000
0.97391601 0.99539471 0.00000000
1.00000000 0.98919893 0.00000000
0.00000000 1.00000000 0.00000000
0.00000000 1.00000000 0.00000000
0.00000000 1.00000000 0.00000000
0.00000000 1.00000000 0.00000000
0.00000000 1.00000000 0.00000000
0.31235962 1.00000000 0.00000000
0.80002694 1.00000000 0.00000000
0.94787932 1.00000000 0.00000000
1.00000000 1.00000000 0.58609183
0.00000000 0.00000000 0.21551170
0.00000000 0.00000000 0.20248122
0.14121135 0.00000000 0.17501949
0.31707419 0.00000000 0.16259736
0.57232820 0.00000000 0.15837806
0.79015893 0.00000000 0.15960664
0.97377156 0.00000000 0.16920031
1.00000000 0.00000000 0.20459609
1.00000000 0.00000000 0.27812367
0.00000000 0.00000000 0.22794511
0.00000000 0.00000000 0.24351642
0.11990214 0.00000000 0.24364230
0.31388653 0.00000000 0.22727210
0.58008608 0.00000000 0.21642055
0.79749675 0.00000000 0.21074370
0.97383997 0.00000000 0.21228946
1.00000000 0.00000000 0.23693228
1.00000000 0.00000000 0.29123279
0.00000000 0.05849992 0.27879371
0.00000000 0.03170091 0.30275986
0.08849858 0.00000000 0.31496346
0.31920581 0.00000000 0.28660661
0.59314068 0.00000000 0.26463894
0.80247657 0.00000000 0.25080347
0.96775739 0.00000000 0.24578648
1.00000000 0.00000000 0.26211762
1.00000000 0.00000000 0.30445402
0.00000000 0.27986111 0.26352470
0.00000000 0.28290796 0.27397456
0.00000000 0.28588982 0.28205293
0.27988222 0.27988221 0.27988221
0.58656286 0.26220584 0.26957575
0.79933136 0.23638726 0.26240617
0.95866985 0.19289966 0.26229864
1.00000000 0.09488890 0.27990538
1.00000000 0.00000000 0.32063760
0.00000000 0.56121133 0.20036674
0.00000000 0.56488204 0.20503511
0.00000000 0.56708454 0.21115543
0.17339595 0.56753374 0.21816013
0.53616823 0.55781819 0.22682590
0.77961830 0.53870776 0.24252341
0.93981313 0.51295061 0.26138966
1.00000000 0.48659552 0.28894119
1.00000000 0.46886099 0.33557507
0.00000000 0.78623573 0.00000000
0.00000000 0.78254322 0.00000000
0.00000000 0.77883360 0.00000000
0.00000000 0.77548043 0.00000000
0.42658905 0.77011700 0.09662674
0.74005260 0.76122342 0.16438304
0.91188998 0.75013913 0.22131858
1.00000000 0.73934199 0.27486621
1.00000000 0.74223819 0.33976264
0.00000000 0.95037996 0.00000000
0.00000000 0.94045220 0.00000000
0.00000000 0.93094995 0.00000000
0.00000000 0.92236699 0.00000000
0.17695937 0.91562828 0.00000000
0.68298564 0.90772675 0.00000000
0.87844678 0.89922947 0.07832641
1.00000000 0.89044414 0.23085853
1.00000000 0.89036439 0.34067595
0.00000000 1.00000000 0.00000000
0.00000000 1.00000000 0.00000000
0.00000000 1.00000000 0.00000000
0.00000000 1.00000000 0.00000000
0.00000000 1.00000000 0.00000000
0.58859846 1.00000000 0.00000000
0.83934963 1.00000000 0.00000000
0.97096799 0.99115774 0.20120644
1.00000000 0.98546610 0.41309706
0.00000000 1.00000000 0.00000000
0.00000000 1.00000000 0.00000000
0.00000000 1.00000000 0.00000000
0.00000000 1.00000000 0.00000000
0.00000000 1.00000000 0.00000000
0.45315997 1.00000000 0.00000000
0.81724768 1.00000000 0.00000000
0.95678573 1.00000000 0.56101834
1.00000000 1.00000000 0.84798756
0.00000000 0.00000000 0.26241218
0.00000000 0.00000000 0.25134161
0.12060261 0.00000000 0.23776683
0.30413395 0.00000000 0.22793888
0.56220871 0.00000000 0.22439520
0.78412914 0.00000000 0.22645626
0.96585334 0.00000000 0.23496880
1.00000000 0.00000000 0.26588820
1.00000000 0.00000000 0.32774277
0.00000000 0.00000000 0.30490332
0.00000000 0.00000000 0.33057628
0.07650675 0.00000000 0.35277317
0.29523310 0.00000000 0.34323801
0.56787225 0.00000000 0.33448020
0.78811132 0.00000000 0.32895042
0.96144814 0.00000000 0.32772153
1.00000000 0.00000000 0.34633845
1.00000000 0.00000000 0.39148116
0.00000000 0.00000000 0.42033208
0.00000000 0.00000000 0.45301035
0.00000000 0.00000000 0.48569598
0.28501422 0.00000000 0.47579129
0.57519942 0.00000000 0.45243446
0.79010366 0.00000000 0.43252347
0.95409949 0.00000000 0.41897340
1.00000000 0.00000000 0.42523284
1.00000000 0.00000000 0.45829126
0.00000000 0.22091508 0.48654013
0.00000000 0.20966312 0.52035359
0.00000000 0.19766520 0.54867474
0.24423482 0.18005815 0.55938011
0.57435182 0.15827487 0.53599572
0.79111311 0.13268855 0.50773275
0.94710000 0.07441246 0.48607994
1.00000000 0.00000000 0.48282138
1.00000000 0.00000000 0.51053573
0.00000000 0.53107677 0.49133325
0.00000000 0.53092834 0.50736465
0.00000000 0.53121765 0.51899392
0.10302207 0.53268025 0.52761148
0.52268803 0.52268803 0.52268804
0.77450710 0.50429428 0.51255890
0.93029345 0.48309446 0.50761027
1.00000000 0.46103482 0.51286258
1.00000000 0.45230237 0.54610559
0.00000000 0.77403549 0.40897680
0.00000000 0.77017620 0.41803557
0.00000000 0.76671039 0.42966502
0.00000000 0.76403253 0.44445806
0.41621082 0.76002790 0.46014749
0.73666184 0.75214040 0.47801161
0.90636489 0.74219371 0.50406924
1.00000000 0.73271142 0.53103632
1.00000000 0.73829129 0.57504278
0.00000000 0.94054243 0.14859452
0.00000000 0.93058296 0.21336910
0.00000000 0.92133269 0.27162795
0.00000000 0.91386945 0.32639389
0.19918911 0.90841442 0.37863780
0.68576579 0.90153953 0.43001320
0.87610317 0.89391877 0.48611674
0.99838415 0.88646234 0.54425015
1.00000000 0.88720033 0.60453772
0.00000000 1.00000000 0.00000000
0.00000000 1.00000000 0.00000000
0.00000000 1.00000000 0.00000000
0.00000000 1.00000000 0.00000000
0.00000000 1.00000000 0.24107135
0.61269365 1.00000000 0.36713440
0.84358584 0.99483004 0.47672114
0.96786878 0.98570725 0.57561490
1.00000000 0.97859514 0.72179398
0.00000000 1.00000000 0.00000000
0.00000000 1.00000000 0.00000000
0.00000000 1.00000000 0.00000000
0.00000000 1.00000000 0.00000000
0.00000000 1.00000000 0.00000000
0.55030320 1.00000000 0.36411431
0.84709919 1.00000000 0.61195347
0.96745101 1.00000000 0.82685369
0.99921758 1.00000000 0.94629544
0.00000000 0.00000000 0.30730592
0.00000000 0.00000000 0.29964484
0.09435956 0.00000000 0.30343424
0.28916577 0.00000000 0.29454024
0.55046577 0.00000000 0.29024990
0.77503365 0.00000000 0.29107558
0.95413210 0.00000000 0.29764441
1.00000000 0.00000000 0.32487387
1.00000000 0.00000000 0.38174803
0.00000000 0.00000000 0.37657668
0.00000000 0.00000000 0.40866674
0.00000000 0.00000000 0.44403144
0.27156747 0.00000000 0.44453114
0.55012102 0.00000000 0.43877075
0.77434479 0.00000000 0.43664711
0.94465779 0.00000000 0.43949473
1.00000000 0.00000000 0.45897494
1.00000000 0.00000000 0.50694741
0.00000000 0.00000000 0.52839408
0.00000000 0.00000000 0.56775620
0.00000000 0.00000000 0.60357629
0.23470085 0.00000000 0.61877944
0.54643068 0.00000000 0.60969752
0.77282849 0.00000000 0.59863786
0.93696894 0.00000000 0.58920438
1.00000000 0.00000000 0.59021762
1.00000000 0.00000000 0.61451603
0.00000000 0.00000000 0.66841054
0.00000000 0.00000000 0.69612813
0.00000000 0.00000000 0.71958337
0.13970142 0.00000000 0.73501512
0.53789395 0.00000000 0.71826521
0.77361884 0.00000000 0.69813690
0.93030125 0.00000000 0.67976928
1.00000000 0.00000000 0.66849034
1.00000000 0.00000000 0.68254729
0.00000000 0.46140464 0.70726382
0.00000000 0.44723615 0.72680473
0.00000000 0.43636107 0.74214899
0.00000000 0.42972191 0.75437071
0.48316265 0.41588773 0.75355961
0.76158176 0.40254459 0.73824343
0.91889922 0.39262396 0.72149584
1.00000000 0.38071205 0.70939763
1.00000000 0.38390226 0.72141488
0.00000000 0.74865029 0.70998448
0.00000000 0.74257485 0.71809325
0.00000000 0.73807509 0.72382392
0.00000000 0.73559038 0.72815932
0.37501077 0.73364945 0.73050482
0.72756575 0.72756576 0.72756576
0.89998782 0.72026307 0.72436422
1.00000000 0.71518151 0.72538796
1.00000000 0.72398436 0.74178583
0.00000000 0.92447844 0.65151586
0.00000000 0.91451074 0.65828513
0.00000000 0.90598477 0.66734752
0.00000000 0.90000908 0.67875340
0.16483729 0.89614083 0.69192980
0.68138697 0.89077768 0.70310582
0.87239590 0.88427563 0.71650203
0.99105297 0.87826641 0.73542001
1.00000000 0.88042460 0.76206646
0.00000000 1.00000000 0.48815460
0.00000000 1.00000000 0.53988745
0.00000000 1.00000000 0.58154636
0.00000000 1.00000000 0.61815977
0.00000000 1.00000000 0.65402526
0.62794639 0.99539208 0.68747049
0.84625433 0.98635971 0.72063552
0.96317876 0.97645069 0.77414613
1.00000000 0.96994334 0.87020148
0.00000000 1.00000000 0.00000000
0.00000000 1.00000000 0.27166329
0.00000000 1.00000000 0.44644364
0.00000000 1.00000000 0.56574697
0.00000000 1.00000000 0.64521566
0.62703661 1.00000000 0.71473712
0.88987502 1.00000000 0.83408575
0.97733445 1.00000000 0.93699334
0.99691632 0.99887648 0.97939132
0.00000000 0.00000000 0.34968305
0.00000000 0.00000000 0.34817467
0.05059824 0.00000000 0.36956352
0.27183875 0.00000000 0.36363955
0.53586069 0.00000000 0.35938333
0.76309041 0.00000000 0.35953659
0.93904765 0.00000000 0.36485205
1.00000000 0.00000000 0.38709001
1.00000000 0.00000000 0.44068748
0.00000000 0.00000000 0.44885613
0.00000000 0.00000000 0.48780969
0.00000000 0.00000000 0.52909566
0.24045336 0.00000000 0.54332117
0.52675481 0.00000000 0.53969913
0.75694427 0.00000000 0.53739414
0.92560917 0.00000000 0.53939864
1.00000000 0.00000000 0.55360198
1.00000000 0.00000000 0.59654488
0.00000000 0.00000000 0.61129548
0.00000000 0.00000000 0.64682152
0.00000000 0.00000000 0.67932070
0.16579134 0.00000000 0.70282567
0.50915030 0.00000000 0.70068908
0.75220263 0.00000000 0.69740825
0.91706734 0.00000000 0.69553252
1.00000000 0.00000000 0.69557710
1.00000000 0.00000000 0.71774176
0.00000000 0.00000000 0.74654623
0.00000000 0.00000000 0.77495381
0.00000000 0.00000000 0.80059536
0.00000000 0.00000000 0.82344950
0.47325414 0.00000000 0.82257481
0.74820126 0.00000000 0.81134950
0.90938011 0.00000000 0.79832948
1.00000000 0.00000000 0.78680886
1.00000000 0.00000000 0.79643104
0.00000000 0.34135243 0.83161334
0.00000000 0.28394246 0.85754531
0.00000000 0.22403257 0.87872703
0.00000000 0.16814103 0.89478639
0.41147762 0.13092391 0.89472607
0.74242983 0.13251023 0.87637635
0.90466521 0.15776067 0.85742543
1.00000000 0.18367154 0.84164082
1.00000000 0.21532276 0.84407598
0.00000000 0.70475975 0.86597886
0.00000000 0.69178998 0.87681245
0.00000000 0.68258581 0.88371577
0.00000000 0.67838025 0.88765693
0.27463074 0.67783485 0.88970264
0.70840916 0.67312421 0.88432899
0.88829837 0.67142794 0.87338162
1.00000000 0.67492253 0.86290040
1.00000000 0.69204896 0.86454779
0.00000000 0.89956872 0.86052042
0.00000000 0.88817203 0.86284700
0.00000000 0.88006172 0.86445658
0.00000000 0.87520122 0.86611114
0.00000000 0.87314167 0.86825759
0.66735811 0.86972533 0.86759393
0.86561299 0.86561301 0.86561303
0.98285691 0.86306941 0.86533993
1.00000000 0.87180712 0.87584500
0.00000000 1.00000000 0.81958867
0.00000000 1.00000000 0.82088676
0.00000000 1.00000000 0.82403511
0.00000000 0.99748516 0.83038399
0.00000000 0.98980696 0.83878891
0.63437905 0.98201085 0.84748307
0.84889245 0.97402239 0.85911109
0.95798616 0.96411863 0.89534932
0.98595205 0.96612623 0.94311203
0.00000000 1.00000000 0.75363352
0.00000000 1.00000000 0.77255329
0.00000000 1.00000000 0.79109815
0.00000000 1.00000000 0.81069964
0.00000000 1.00000000 0.83188319
0.74023982 1.00000000 0.87601598
0.93174757 1.00000000 0.93716693
0.98471642 0.99654071 0.97624013
0.99709908 0.99764450 0.99241170
0.00000000 0.00000000 0.38945559
0.00000000 0.00000000 0.39801824
0.00000000 0.00000000 0.43061323
0.25151168 0.00000000 0.43346914
0.51723987 0.00000000 0.42990926
0.74817586 0.00000000 0.43003372
0.92053015 0.00000000 0.43496359
1.00000000 0.00000000 0.45215429
1.00000000 0.00000000 0.50527280
0.00000000 0.00000000 0.52000636
0.00000000 0.00000000 0.56002242
0.00000000 0.00000000 0.59768869
0.19914723 0.00000000 0.62002615
0.49624648 0.00000000 0.61941703
0.73671631 0.00000000 0.61815768
0.90501424 0.00000000 0.61997868
1.00000000 0.00000000 0.62611555
1.00000000 0.00000000 0.66171374
0.00000000 0.00000000 0.67641558
0.00000000 0.00000000 0.70949730
0.00000000 0.00000000 0.73981825
0.00000000 0.00000000 0.76728425
0.46175823 0.00000000 0.76925173
0.72872439 0.00000000 0.76759017
0.89511470 0.00000000 0.76679439
1.00000000 0.00000000 0.76826434
1.00000000 0.00000000 0.78940899
0.00000000 0.00000000 0.80767564
0.00000000 0.00000000 0.83411508
0.00000000 0.00000000 0.85819378
0.00000000 0.00000000 0.88040557
0.39516890 0.00000000 0.88963193
0.71782544 0.00000000 0.88573750
0.88653222 0.00000000 0.87892151
1.00000000 0.00000000 0.87153081
1.00000000 0.00000000 0.87749582
0.00000000 0.10065489 0.91477506
0.00000000 0.00000000 0.93695758
0.00000000 0.00000000 0.95515864
0.00000000 0.00000000 0.96948176
0.26159619 0.00000000 0.97640895
0.70572484 0.00000000 0.96381323
0.88314302 0.00000000 0.94881599
1.00000000 0.00000000 0.93421812
1.00000000 0.00000000 0.93110214
0.00000000 0.63179967 0.96664430
0.00000000 0.59633517 0.98161539
0.00000000 0.56889396 0.99102380
0.00000000 0.55549786 0.99663703
0.00000000 0.55773206 0.99960372
0.67862818 0.56191380 0.99029412
0.87275221 0.57644008 0.97617326
0.98921302 0.60128275 0.96107138
1.00000000 0.63957350 0.95354759
0.00000000 0.86319191 0.98536710
0.00000000 0.84927161 0.98801162
0.00000000 0.84046342 0.98881316
0.00000000 0.83632696 0.98821876
0.00000000 0.83628560 0.98668273
0.64364936 0.83598633 0.98117288
0.85536908 0.83613563 0.97303443
0.96976587 0.84183546 0.96124893
1.00000000 0.87216682 0.94393670
0.00000000 1.00000000 0.97106318
0.00000000 0.99364529 0.96950125
0.00000000 0.98278446 0.96731283
0.00000000 0.97449112 0.96495229
0.00000000 0.96849672 0.96287569
0.63408650 0.96294841 0.95988846
0.86526837 0.95543256 0.95434899
0.95620524 0.95620527 0.95620530
0.97814160 0.96811906 0.96825713
0.00000000 1.00000000 0.94905399
0.00000000 1.00000000 0.94533972
0.00000000 1.00000000 0.94307365
0.00000000 1.00000000 0.94295482
0.00000000 1.00000000 0.94724808
0.84302000 1.00000000 0.95923019
0.96245426 0.99348048 0.97816616
0.99000726 0.99458405 0.99027620
0.99799052 0.99810656 0.99700502
0.00000000 0.00000000 0.42752398
0.00000000 0.00000000 0.44951141
0.00000000 0.00000000 0.48775524
0.22693923 0.00000000 0.50217331
0.49384950 0.00000000 0.50035626
0.73005828 0.00000000 0.50117201
0.89956196 0.00000000 0.50663268
1.00000000 0.00000000 0.51772528
1.00000000 0.00000000 0.56482900
0.00000000 0.00000000 0.57928708
0.00000000 0.00000000 0.61686448
0.00000000 0.00000000 0.65205503
0.14093240 0.00000000 0.67975157
0.45944734 0.00000000 0.68192658
0.71428430 0.00000000 0.68237887
0.88288535 0.00000000 0.68469532
1.00000000 0.00000000 0.68974491
1.00000000 0.00000000 0.71587845
0.00000000 0.00000000 0.72936541
0.00000000 0.00000000 0.76072291
0.00000000 0.00000000 0.78936441
0.00000000 0.00000000 0.81572565
0.40578537 0.00000000 0.82508257
0.70162662 0.00000000 0.82511017
0.87117316 0.00000000 0.82462212
0.99716653 0.00000000 0.82584106
1.00000000 0.00000000 0.84149768
0.00000000 0.00000000 0.85815373
0.00000000 0.00000000 0.88314913
0.00000000 0.00000000 0.90625572
0.00000000 0.00000000 0.92722023
0.29621444 0.00000000 0.94079234
0.68343145 0.00000000 0.93864490
0.86270454 0.00000000 0.93601469
0.98655919 0.00000000 0.93319434
1.00000000 0.00000000 0.93697570
0.00000000 0.00000000 0.96645347
0.00000000 0.00000000 0.98548550
0.00000000 0.00000000 1.00000000
0.00000000 0.00000000 1.00000000
0.00000000 0.00000000 1.00000000
0.65772093 0.00000000 1.00000000
0.85790266 0.00000000 1.00000000
0.98000653 0.00000000 1.00000000
1.00000000 0.00000000 0.99423144
0.00000000 0.50316465 1.00000000
0.00000000 0.38202288 1.00000000
0.00000000 0.26285554 1.00000000
0.00000000 0.17139654 1.00000000
0.00000000 0.16471414 1.00000000
0.63484601 0.24246744 1.00000000
0.85569669 0.34406223 1.00000000
0.97329802 0.45161969 1.00000000
1.00000000 0.57563087 1.00000000
0.00000000 0.81311597 1.00000000
0.00000000 0.79266122 1.00000000
0.00000000 0.78060741 1.00000000
0.00000000 0.77723463 1.00000000
0.00000000 0.78185137 1.00000000
0.60710037 0.78954433 1.00000000
0.84438617 0.79966984 1.00000000
0.94904023 0.83556447 1.00000000
0.96890989 0.89102734 0.96397304
0.00000000 0.97652398 1.00000000
0.00000000 0.96225220 1.00000000
0.00000000 0.95197556 1.00000000
0.00000000 0.94538324 1.00000000
0.00000000 0.94215186 1.00000000
0.67800799 0.93961848 1.00000000
0.89571643 0.94335506 0.99289477
0.95941676 0.95774296 0.97313047
0.97707263 0.97247555 0.97680445
0.00000000 1.00000000 1.00000000
0.00000000 1.00000000 1.00000000
0.00000000 1.00000000 1.00000000
0.00000000 1.00000000 1.00000000
0.63322776 1.00000000 1.00000000
0.92011926 0.99040427 0.98953974
0.97746327 0.99038345 0.99021332
0.99358819 0.99524473 0.99522263
0.99884164 0.99884168 0.99884171
