resources/flame/Syncolor/Shared/transforms/camera_manufacturer_luts/arri/ARRI_Alexa_LUTs/ARRI_LogC3_v1-2_LUT_Package/LUTs/ARRI_LogC3-to-HLG_1K_Rec2100-D65_DW200_v1_33.cube
LUT_3D_SIZE 5
0.005478 0.005478 0.005478
0.161654 0.035065 0.006088
0.525124 0.114183 0.019806
0.935317 0.315221 0.054688
1.000000 0.769467 0.162585
0.038254 0.137041 0.002976
0.137255 0.146502 0.002869
0.583719 0.187076 0.002396
0.993515 0.390646 0.052903
1.000000 0.794965 0.166979
0.184054 0.626886 0.002182
0.244083 0.651530 0.002152
0.636988 0.664317 0.002090
1.000000 0.691676 0.001892
1.000000 0.826307 0.001831
0.548760 1.000000 0.001785
0.542855 1.000000 0.001785
0.690898 0.999542 0.001785
0.950332 0.974304 0.001770
1.000000 0.970993 0.001755
0.855085 1.000000 0.001770
0.784100 1.000000 0.001770
0.789639 1.000000 0.001770
0.915785 1.000000 0.001755
1.000000 1.000000 0.001740
0.003693 0.003693 0.160586
0.136660 0.003250 0.096162
0.512428 0.106477 0.072786
0.933242 0.312093 0.083925
1.000000 0.752346 0.170764
0.013001 0.127337 0.129656
0.137285 0.137285 0.137285
0.596094 0.183078 0.130571
0.986191 0.382147 0.140490
1.000000 0.754818 0.213413
0.184253 0.635065 0.002167
0.246006 0.655314 0.002152
0.640681 0.666239 0.002075
0.990402 0.693065 0.107836
1.000000 0.804669 0.221485
0.530480 1.000000 0.001785
0.527810 1.000000 0.001785
0.696025 0.986404 0.001801
0.942000 0.965164 0.001785
1.000000 0.962631 0.001770
0.811948 1.000000 0.001770
0.750576 1.000000 0.001770
0.782864 1.000000 0.001770
0.915557 1.000000 0.001755
1.000000 1.000000 0.624994
0.003326 0.003326 0.274662
0.087205 0.003281 0.226429
0.470024 0.053117 0.190509
0.906676 0.280568 0.182132
1.000000 0.690776 0.232853
0.002960 0.002960 0.482902
0.002899 0.002899 0.538338
0.577707 0.002411 0.506813
0.962676 0.306050 0.469551
1.000000 0.686366 0.509636
0.065858 0.601923 0.607050
0.179187 0.619364 0.627527
0.633753 0.633753 0.633753
0.973922 0.669703 0.626505
1.000000 0.773922 0.654673
0.482277 1.000000 0.343633
0.495308 0.992508 0.434485
0.696300 0.970687 0.522454
0.934203 0.952712 0.595285
1.000000 0.951019 0.672541
0.764004 1.000000 0.001770
0.717098 1.000000 0.001770
0.779751 1.000000 0.315602
0.922774 1.000000 0.658808
1.000000 1.000000 0.950042
0.003113 0.003113 0.376226
0.003143 0.003143 0.358556
0.414603 0.002594 0.326070
0.862715 0.219471 0.304952
1.000000 0.594186 0.337514
0.002701 0.002701 0.689220
0.002640 0.002640 0.734890
0.490883 0.002411 0.747127
0.919356 0.002045 0.732158
1.000000 0.535561 0.751400
0.002304 0.210636 0.966201
0.002289 0.201831 0.981659
0.565209 0.303334 0.973342
0.946975 0.494606 0.936233
1.000000 0.687526 0.921172
0.177081 0.969802 0.972580
0.301518 0.948775 0.955123
0.667445 0.932937 0.939086
0.922469 0.922469 0.922469
1.000000 0.929564 0.919844
0.685130 1.000000 0.839567
0.661662 1.000000 0.849470
0.774304 1.000000 0.863691
0.958465 1.000000 0.947295
0.997589 0.998154 0.993088
0.002976 0.002976 0.473167
0.002960 0.002960 0.485435
0.346349 0.002640 0.479179
0.807553 0.084810 0.454673
1.000000 0.454047 0.475410
0.002533 0.002533 0.815579
0.002487 0.002487 0.853788
0.350912 0.002380 0.879377
0.862028 0.002090 0.870832
1.000000 0.150210 0.881285
0.002197 0.002197 1.000000
0.002197 0.002197 1.000000
0.270573 0.002182 1.000000
0.904433 0.001999 1.000000
1.000000 0.375341 1.000000
0.001923 0.826566 1.000000
0.001923 0.826978 1.000000
0.554482 0.840620 1.000000
0.904692 0.861845 1.000000
0.992248 0.933989 0.999283
0.304463 1.000000 1.000000
0.501961 1.000000 1.000000
0.833143 1.000000 1.000000
0.985306 0.994385 0.994812
0.998840 0.998840 0.998840
