resources/flame/Syncolor/Shared/transforms/camera_manufacturer_luts/arri/ARRI_Alexa_LUTs/ARRI_LogC3_v1-2_LUT_Package/LUTs/ARRI_LogC3-to-St2084_2K_Rec2100-D65_DW100_v2_33.cube
LUT_3D_SIZE 5
0.00000073 0.00000073 0.00000073
0.20523733 0.06829599 0.01294967
0.42992407 0.19139171 0.05125900
0.67553395 0.37035451 0.13262520
0.82742464 0.59323243 0.27109568
0.07321923 0.18485847 0.00000073
0.18125935 0.18892914 0.00000073
0.43590762 0.23790724 0.00000073
0.68499968 0.38614955 0.12345976
0.82742464 0.57466531 0.25366141
0.24426957 0.45932181 0.00000073
0.27501182 0.46477647 0.00000073
0.45674992 0.46940372 0.00000073
0.67393136 0.49781363 0.00000073
0.82742464 0.57677842 0.00000073
0.44869579 0.71313144 0.00000073
0.44594139 0.70204850 0.00000073
0.52031170 0.69373201 0.00000073
0.68066779 0.69475068 0.00000073
0.82742464 0.71276849 0.00000073
0.63278011 0.82742464 0.00000073
0.61161011 0.82742464 0.00000073
0.63650699 0.82742464 0.00000073
0.73265883 0.82742464 0.00000073
0.82742464 0.82742464 0.00000073
0.00000073 0.00000073 0.18163801
0.18572802 0.00000073 0.15257247
0.42774514 0.18287728 0.15827695
0.67588262 0.36955202 0.19019362
0.82742464 0.58355173 0.28185106
0.03114508 0.17362241 0.17257587
0.17772259 0.17772259 0.17772259
0.43860532 0.23305225 0.18455093
0.67642790 0.37870605 0.21165353
0.82742464 0.54917210 0.27791653
0.24341711 0.46092683 0.00000073
0.27443966 0.46445045 0.00000073
0.45677091 0.46879929 0.00000073
0.66373829 0.49711115 0.12450297
0.82721361 0.56553839 0.26861645
0.44133008 0.70521986 0.00000073
0.44166765 0.69468202 0.00000073
0.52589613 0.68885499 0.00000073
0.68056141 0.69417518 0.00000073
0.81604277 0.71417454 0.00000073
0.61438553 0.82742464 0.00000073
0.60026615 0.82742464 0.00000073
0.64038630 0.82742464 0.00000073
0.73999245 0.82742464 0.00000073
0.82742464 0.82742464 0.57001022
0.00000073 0.00000073 0.26102819
0.15476943 0.00000073 0.25487032
0.41966667 0.08415061 0.28283116
0.66778382 0.35351589 0.31726548
0.82742464 0.55693557 0.36367379
0.00000073 0.00000073 0.35101217
0.00000073 0.00000073 0.38128392
0.42897510 0.00000073 0.40420377
0.65997996 0.33104097 0.42189680
0.82742464 0.51091810 0.44146408
0.14689886 0.44410572 0.43512600
0.21979731 0.44402254 0.44505868
0.45076100 0.45076100 0.45076100
0.65235392 0.48420457 0.46296139
0.80322475 0.55026295 0.48819963
0.42355621 0.69395016 0.34556126
0.42954493 0.68464263 0.39852850
0.52947251 0.68294778 0.44771994
0.68116640 0.69203278 0.49943123
0.80470871 0.71397265 0.55961197
0.59423538 0.82742464 0.00000073
0.58959175 0.82742464 0.00000073
0.64637917 0.82742464 0.42607417
0.75086026 0.82742464 0.60029011
0.82327221 0.82742464 0.76287792
0.00000073 0.00000073 0.31403530
0.08607163 0.00000073 0.32616644
0.40828933 0.00000073 0.35935956
0.64925475 0.31389573 0.39437871
0.82742464 0.51549442 0.43289233
0.00000073 0.00000073 0.44089919
0.00000073 0.00000073 0.47835206
0.40458238 0.00000073 0.51163931
0.63555489 0.00000073 0.54186684
0.80257971 0.43132511 0.56447865
0.00000073 0.36227414 0.58861431
0.00000073 0.29965947 0.61019519
0.41572461 0.28345457 0.62331680
0.63512284 0.39089928 0.63098837
0.77859895 0.50136854 0.64056028
0.29639194 0.66850516 0.65352135
0.34198279 0.66012734 0.65809707
0.51768560 0.66361898 0.66614090
0.67906977 0.67906978 0.67906979
0.78886111 0.70778894 0.70189015
0.55960809 0.82742464 0.64277006
0.56903954 0.82742464 0.67005259
0.65157434 0.82742464 0.70154087
0.77439510 0.81825785 0.76475271
0.82478790 0.82595910 0.81519658
0.00000073 0.00000073 0.35431513
0.00000073 0.00000073 0.38204850
0.39160552 0.00000073 0.41795510
0.62243881 0.19409720 0.45343375
0.80768399 0.46027265 0.48941279
0.00000073 0.00000073 0.50793927
0.00000073 0.00000073 0.54529499
0.36823013 0.00000073 0.57843777
0.60648306 0.00000073 0.60755250
0.76292643 0.00000073 0.63306118
0.00000073 0.00000073 0.66453533
0.00000073 0.00000073 0.68881145
0.32493608 0.00000073 0.70852721
0.61241141 0.00000073 0.72261210
0.75180457 0.27196381 0.73077919
0.00000073 0.61738738 0.77146572
0.00000073 0.60334491 0.77833876
0.47326490 0.61403605 0.78230511
0.67283003 0.64712794 0.78451950
0.76046287 0.71205310 0.76566841
0.42690811 0.82524592 0.81382442
0.51031946 0.81418613 0.81301168
0.68250309 0.80457377 0.80714136
0.79632200 0.81136176 0.81201856
0.82742464 0.82742464 0.82742464
