resources/flame/Syncolor/Shared/transforms/camera_manufacturer_luts/arri/ARRI_Alexa_LUTs/ARRI_LogC3_v1-2_LUT_Package/LUTs/ARRI_LogC3-to-HLG_1K_Rec2100-D65_DW100_v2_33.cube
LUT_3D_SIZE 9
0.00000000 0.00000000 0.00000000
0.07058855 0.01531471 0.00265696
0.16165506 0.03507227 0.00608472
0.29854700 0.06477200 0.01123736
0.52473586 0.11408916 0.01979344
0.74498068 0.19097896 0.03313312
0.92963308 0.31042871 0.05385657
1.00000000 0.51560976 0.08953062
1.00000000 0.74972075 0.15456850
0.00986834 0.03535103 0.00000000
0.03058599 0.03264737 0.00000000
0.13171911 0.03819966 0.00000000
0.28583669 0.06566039 0.00885909
0.52217915 0.11515210 0.01889851
0.74922836 0.19392050 0.03308870
0.93736843 0.31747339 0.05476614
1.00000000 0.52357199 0.09081065
1.00000000 0.74157750 0.15125450
0.03652308 0.13083537 0.00000000
0.04229474 0.13148506 0.00000000
0.12340406 0.13172103 0.00000000
0.28482530 0.13610306 0.00000000
0.53356150 0.16142738 0.00000000
0.76074445 0.22451221 0.01784672
0.94284080 0.33653190 0.04830980
1.00000000 0.52287788 0.08476902
1.00000000 0.71662923 0.13790781
0.08155291 0.29214417 0.00000000
0.08552750 0.29667865 0.00000000
0.13765713 0.30069995 0.00000000
0.28436320 0.30352822 0.00000000
0.53744208 0.30982556 0.00000000
0.76330525 0.33753204 0.00000000
0.93693968 0.40854981 0.00000000
1.00000000 0.54442714 0.04384357
1.00000000 0.69747059 0.10376706
0.15531963 0.55142131 0.00000000
0.15928417 0.55793018 0.00000000
0.19095048 0.56197626 0.00000000
0.30372211 0.56338315 0.00000000
0.53280048 0.56323023 0.00000000
0.75244494 0.56694074 0.00000000
0.92089620 0.58679385 0.00000000
1.00000000 0.63680877 0.00000000
1.00000000 0.72045924 0.00000000
0.27015857 0.78197920 0.00000000
0.27111740 0.78144790 0.00000000
0.28812708 0.77845017 0.00000000
0.36462763 0.77388677 0.00000000
0.54633943 0.76911140 0.00000000
0.73930819 0.76490170 0.00000000
0.89801488 0.76416004 0.00000000
1.00000000 0.77228581 0.00000000
1.00000000 0.80585972 0.00000000
0.43160892 0.95827718 0.00000000
0.42235365 0.94918141 0.00000000
0.42490346 0.93903952 0.00000000
0.47144553 0.92894729 0.00000000
0.59293294 0.91932146 0.00000000
0.74093590 0.91068177 0.00000000
0.87997415 0.90430571 0.00000000
0.99955786 0.90129301 0.00000000
1.00000000 0.91046375 0.00000000
0.62918387 1.00000000 0.00000000
0.60703048 1.00000000 0.00000000
0.59207823 1.00000000 0.00000000
0.60387442 1.00000000 0.00000000
0.66433693 1.00000000 0.00000000
0.76396604 1.00000000 0.00000000
0.87415716 1.00000000 0.00000000
0.97649118 1.00000000 0.00000000
1.00000000 0.99767840 0.00000000
0.77550907 1.00000000 0.00000000
0.74448609 1.00000000 0.00000000
0.71910150 1.00000000 0.00000000
0.71355012 1.00000000 0.00000000
0.74272039 1.00000000 0.00000000
0.80770526 1.00000000 0.00000000
0.89042937 1.00000000 0.00000000
0.97173317 1.00000000 0.00000000
1.00000000 1.00000000 0.00000000
0.00000000 0.00000000 0.08506810
0.06113275 0.00000000 0.05658489
0.15322868 0.02958666 0.03353336
0.29361561 0.06288495 0.02476559
0.52392779 0.11355862 0.02751442
0.74519498 0.19092333 0.03726215
0.93036096 0.31095897 0.05611350
1.00000000 0.51621895 0.09086209
1.00000000 0.74401834 0.15311690
0.00350181 0.03139668 0.03144759
0.02905757 0.02905757 0.02905757
0.13292272 0.03639618 0.02327381
0.28772550 0.06529790 0.02240331
0.52518545 0.11553059 0.02671798
0.75169316 0.19497333 0.03773372
0.93711339 0.31718022 0.05741811
1.00000000 0.51525902 0.09113158
1.00000000 0.72534243 0.14668386
0.03614528 0.13090361 0.00000000
0.04177788 0.13204622 0.00000000
0.12397406 0.13211981 0.00000000
0.28817684 0.13637478 0.00000000
0.53761783 0.16219447 0.00000000
0.76085422 0.22486985 0.02796497
0.93815012 0.33313572 0.05273287
1.00000000 0.50594554 0.08555497
1.00000000 0.69464276 0.13403415
0.08186762 0.29388470 0.00000000
0.08586735 0.29875595 0.00000000
0.13784220 0.30277375 0.00000000
0.28588899 0.30503284 0.00000000
0.53872526 0.31122312 0.00000000
0.76035670 0.33864185 0.00000000
0.92936215 0.40632449 0.00000000
1.00000000 0.53133196 0.05490816
1.00000000 0.67654814 0.10718879
0.15612976 0.55415873 0.00000000
0.15985626 0.55982400 0.00000000
0.19172839 0.56290001 0.00000000
0.30542105 0.56365860 0.00000000
0.53326588 0.56354964 0.00000000
0.74914691 0.56796090 0.00000000
0.91309191 0.58759499 0.00000000
1.00000000 0.63201527 0.00000000
1.00000000 0.70872356 0.00000000
0.26960997 0.78130811 0.00000000
0.26985887 0.77949347 0.00000000
0.28777617 0.77562933 0.00000000
0.36708523 0.77120715 0.00000000
0.54914727 0.76685039 0.00000000
0.73798597 0.76346541 0.00000000
0.89157564 0.76390840 0.00000000
1.00000000 0.77232421 0.00000000
1.00000000 0.80298298 0.00000000
0.42520172 0.95282430 0.00000000
0.41567224 0.94302527 0.00000000
0.42046037 0.93296787 0.00000000
0.47221510 0.92320488 0.00000000
0.59759984 0.91415492 0.00000000
0.74324934 0.90678096 0.00000000
0.87767286 0.90183173 0.00000000
0.99228112 0.90007603 0.00000000
1.00000000 0.90884038 0.00000000
0.61534255 1.00000000 0.00000000
0.59306209 1.00000000 0.00000000
0.58033537 1.00000000 0.00000000
0.59885532 1.00000000 0.00000000
0.66603322 1.00000000 0.00000000
0.76692500 1.00000000 0.00000000
0.87472049 1.00000000 0.00000000
0.97287471 0.99641003 0.00000000
1.00000000 0.99449271 0.00000000
0.75669909 1.00000000 0.00000000
0.72580253 1.00000000 0.00000000
0.70425782 1.00000000 0.00000000
0.70516549 1.00000000 0.00000000
0.74180836 1.00000000 0.00000000
0.81077736 1.00000000 0.00000000
0.89287662 1.00000000 0.00000000
0.97058951 1.00000000 0.00000000
1.00000000 1.00000000 0.00000000
0.00000000 0.00000000 0.15703865
0.03594427 0.00000000 0.13684301
0.14143707 0.00000000 0.10477639
0.28899520 0.04745846 0.08994940
0.52036117 0.10644494 0.08532692
0.74392541 0.18701632 0.08531824
0.93015615 0.30895202 0.09244320
1.00000000 0.51056404 0.11563369
1.00000000 0.73259588 0.16646108
0.00000000 0.00000000 0.13470600
0.00000000 0.00000000 0.14098414
0.12764234 0.00000000 0.12557829
0.28737509 0.04201852 0.11139224
0.52650831 0.10651052 0.10306125
0.75212911 0.19057371 0.09972845
0.93395608 0.31203346 0.10342497
1.00000000 0.49960298 0.12208867
1.00000000 0.70292992 0.16371860
0.01407618 0.12003696 0.11892524
0.02396143 0.12070168 0.12240253
0.12063476 0.12063475 0.12063475
0.29109365 0.12639905 0.11261689
0.53961302 0.15558306 0.10613263
0.75867941 0.21991315 0.10427028
0.93058580 0.32492641 0.10976024
1.00000000 0.48448265 0.12748161
1.00000000 0.66935583 0.16370658
0.07665550 0.29168035 0.07540625
0.08086171 0.29686137 0.07598903
0.13461366 0.30107052 0.07567145
0.28622094 0.30275937 0.07744777
0.53961180 0.30881164 0.08472016
0.75653870 0.33640448 0.09414497
0.92097979 0.40137085 0.10747896
1.00000000 0.51543492 0.12841275
1.00000000 0.65339609 0.16371002
0.15417421 0.55465653 0.00000000
0.15764808 0.55934983 0.00000000
0.19052196 0.56182554 0.00000000
0.30608680 0.56237879 0.00000000
0.53360709 0.56252799 0.00000000
0.74599940 0.56758033 0.00000000
0.90503663 0.58724741 0.04977730
1.00000000 0.62659889 0.10319931
1.00000000 0.69785996 0.15202718
0.26690705 0.77914685 0.00000000
0.26658742 0.77619012 0.00000000
0.28624085 0.77217863 0.00000000
0.36905798 0.76813105 0.00000000
0.55201558 0.76429195 0.00000000
0.73700620 0.76180120 0.00000000
0.88592972 0.76348230 0.00000000
1.00000000 0.77250662 0.00000000
1.00000000 0.80033994 0.10025677
0.41699275 0.94635076 0.00000000
0.40792337 0.93643096 0.00000000
0.41551902 0.92659966 0.00000000
0.47345919 0.91730350 0.00000000
0.60277814 0.90919460 0.00000000
0.74589747 0.90320153 0.00000000
0.87592410 0.89949819 0.00000000
0.98563541 0.89884900 0.00000000
1.00000000 0.90724575 0.00000000
0.60021225 1.00000000 0.00000000
0.57802763 1.00000000 0.00000000
0.56855974 1.00000000 0.00000000
0.59513089 1.00000000 0.00000000
0.66863739 1.00000000 0.00000000
0.77054840 1.00000000 0.00000000
0.87619603 0.99920126 0.00000000
0.96980943 0.99266218 0.00000000
1.00000000 0.99134524 0.00000000
0.73682791 1.00000000 0.00000000
0.70768842 1.00000000 0.00000000
0.69049119 1.00000000 0.00000000
0.69842793 1.00000000 0.00000000
0.74247633 1.00000000 0.00000000
0.81490760 1.00000000 0.00000000
0.89601791 1.00000000 0.00000000
0.97026293 1.00000000 0.00000000
1.00000000 1.00000000 0.61778479
0.00000000 0.00000000 0.21367450
0.00000000 0.00000000 0.20074857
0.12476636 0.00000000 0.17617197
0.28120619 0.00000000 0.16411808
0.51369086 0.08519247 0.15801943
0.74053439 0.17539160 0.15597687
0.92651896 0.30010984 0.15856741
1.00000000 0.49451190 0.17352225
1.00000000 0.71293933 0.21161233
0.00000000 0.00000000 0.22604163
0.00000000 0.00000000 0.24147040
0.10635779 0.00000000 0.24392686
0.27828489 0.00000000 0.22941560
0.52344170 0.05947423 0.21745984
0.74836918 0.16913120 0.20851878
0.92669788 0.29510582 0.20433646
1.00000000 0.47164626 0.21125448
1.00000000 0.67458018 0.23834263
0.00000000 0.06045422 0.27633001
0.00000000 0.03884610 0.29927596
0.10071037 0.00000000 0.31060447
0.28632138 0.04756533 0.28743748
0.53656092 0.11064412 0.26501889
0.75320769 0.19273368 0.24919060
0.92047142 0.30282897 0.23972960
1.00000000 0.45393997 0.24075441
1.00000000 0.63787208 0.26259912
0.03423272 0.27239269 0.26518546
0.03790203 0.27541249 0.27550507
0.11442927 0.27823815 0.28207104
0.27988222 0.27988221 0.27988221
0.53843427 0.28834423 0.27035949
0.75161334 0.31971746 0.26214516
0.91139025 0.38550694 0.25852412
1.00000000 0.49050539 0.26304764
1.00000000 0.62526924 0.28923499
0.13951783 0.54713940 0.21345111
0.14286702 0.55087756 0.21799369
0.17984009 0.55303775 0.22348667
0.30097873 0.55448833 0.22903397
0.53199748 0.55502079 0.23663672
0.74275531 0.56080394 0.25003682
0.89649279 0.58162049 0.26519190
1.00000000 0.62002378 0.28364457
1.00000000 0.68535912 0.31762823
0.25745097 0.77424540 0.00000000
0.25685450 0.77054061 0.00000000
0.27938115 0.76677517 0.06470205
0.36756710 0.76325038 0.11327455
0.55330906 0.76008515 0.15631010
0.73597802 0.75849128 0.20149186
0.88092655 0.76126135 0.24583650
0.99719151 0.77096657 0.28926265
1.00000000 0.79652089 0.34132822
0.40492071 0.93887343 0.00000000
0.39644768 0.92893022 0.00000000
0.40756692 0.91939822 0.00000000
0.47315349 0.91073628 0.00000000
0.60700685 0.90401981 0.00000000
0.74833845 0.89924211 0.00000000
0.87445159 0.89654634 0.18669252
0.97941676 0.89682063 0.28003896
1.00000000 0.90486347 0.36842420
0.58234213 1.00000000 0.00000000
0.56032725 1.00000000 0.00000000
0.55593962 1.00000000 0.00000000
0.59130661 1.00000000 0.00000000
0.67125262 1.00000000 0.00000000
0.77521602 1.00000000 0.00000000
0.87795339 0.99405067 0.08731882
0.96709489 0.98854694 0.29546303
1.00000000 0.98722395 0.45968016
0.71600697 1.00000000 0.00000000
0.68940320 1.00000000 0.00000000
0.67692661 1.00000000 0.00000000
0.69263298 1.00000000 0.00000000
0.74416893 1.00000000 0.00000000
0.81974197 1.00000000 0.00000000
0.89962347 1.00000000 0.15936419
0.97228380 1.00000000 0.59933103
1.00000000 1.00000000 0.85270906
0.00000000 0.00000000 0.26017517
0.00000000 0.00000000 0.24919574
0.10627630 0.00000000 0.23822826
0.26942165 0.00000000 0.23007383
0.50479015 0.03633733 0.22595482
0.73492467 0.15565682 0.22490865
0.91874279 0.28365470 0.22840932
1.00000000 0.46786393 0.24201304
1.00000000 0.68381426 0.27630169
0.00000000 0.00000000 0.30233939
0.00000000 0.00000000 0.32778536
0.06952350 0.00000000 0.35059437
0.26123473 0.00000000 0.34564399
0.51116970 0.00000000 0.33768799
0.74012939 0.11610332 0.32988368
0.91470022 0.26062797 0.32432111
1.00000000 0.42959641 0.32724332
1.00000000 0.63695515 0.35274476
0.00000000 0.00000000 0.41714076
0.00000000 0.00000000 0.44950332
0.00000000 0.00000000 0.48185859
0.25786550 0.00000000 0.47663212
0.52091452 0.00000000 0.45655702
0.74302401 0.09992863 0.43531230
0.90759697 0.24993175 0.41776526
1.00000000 0.40335637 0.40872091
1.00000000 0.59262545 0.42759158
0.00000000 0.21733028 0.48469640
0.00000000 0.20707655 0.51803719
0.00000000 0.19796304 0.54554742
0.25640578 0.19171632 0.55277719
0.52668748 0.20780329 0.53385648
0.74348180 0.25657357 0.50700270
0.89985928 0.33676437 0.48433361
1.00000000 0.44475067 0.47001599
1.00000000 0.58537318 0.48527143
0.06974639 0.51796934 0.49462137
0.06906948 0.51793258 0.51030447
0.13116274 0.51823481 0.52087178
0.27845685 0.52010788 0.52629776
0.52268803 0.52268803 0.52268804
0.73824955 0.53323971 0.51383071
0.88739070 0.56032462 0.50877765
1.00000000 0.60265093 0.50904610
1.00000000 0.66619319 0.53049952
0.22557717 0.76230207 0.42642396
0.22561229 0.75843894 0.43464769
0.25451656 0.75494056 0.44510370
0.35461210 0.75213732 0.45765819
0.54872655 0.75037335 0.47138085
0.73374392 0.75010614 0.48836079
0.87622998 0.75405641 0.51275792
0.98796738 0.76510168 0.53725895
1.00000000 0.78939364 0.57105802
0.38155529 0.92909714 0.24658231
0.37386826 0.91913178 0.28630067
0.39003826 0.90986148 0.32868251
0.46596840 0.90232907 0.37220021
0.60784153 0.89697697 0.41534192
0.74930774 0.89335659 0.46037185
0.87271537 0.89159645 0.51065991
0.97338410 0.89280351 0.56074031
1.00000000 0.90074592 0.61172952
0.55761484 1.00000000 0.00000000
0.53631321 1.00000000 0.00000000
0.53867639 1.00000000 0.00000000
0.58471363 1.00000000 0.22987658
0.67373018 1.00000000 0.33807394
0.77918420 0.99481076 0.43116256
0.87951102 0.98790651 0.52189310
0.96447608 0.98338274 0.60073504
1.00000000 0.97979208 0.73042955
0.69314617 1.00000000 0.00000000
0.66890496 1.00000000 0.00000000
0.66181040 1.00000000 0.00000000
0.68654103 1.00000000 0.00000000
0.74608605 1.00000000 0.28174556
0.82474177 1.00000000 0.45914839
0.90867076 1.00000000 0.64204736
0.97624480 1.00000000 0.83257890
0.99814955 1.00000000 0.94747008
0.00000000 0.00000000 0.30468620
0.00000000 0.00000000 0.29708876
0.08323670 0.00000000 0.30250448
0.25578842 0.00000000 0.29690206
0.49242096 0.00000000 0.29297906
0.72640906 0.12468260 0.29130578
0.90721342 0.26036010 0.29365763
1.00000000 0.43250404 0.30529171
1.00000000 0.64640655 0.34105345
0.00000000 0.00000000 0.37340223
0.00000000 0.00000000 0.40521159
0.00000000 0.00000000 0.44024872
0.23997935 0.00000000 0.44621900
0.49158350 0.00000000 0.44280713
0.72732428 0.00000000 0.44056769
0.89855896 0.20566822 0.43939899
1.00000000 0.37517913 0.44286307
1.00000000 0.58665055 0.47599156
0.00000000 0.00000000 0.52458209
0.00000000 0.00000000 0.56408559
0.00000000 0.00000000 0.60000130
0.21598602 0.00000000 0.61718258
0.48987147 0.00000000 0.61256497
0.72619742 0.00000000 0.60283379
0.89204062 0.13007658 0.59210010
1.00000000 0.32463650 0.58195015
1.00000000 0.52068456 0.59659299
0.00000000 0.05615088 0.66326342
0.00000000 0.00000000 0.69326781
0.00000000 0.00000000 0.71668944
0.19719310 0.00000000 0.72858750
0.49676382 0.00000000 0.71882600
0.73058948 0.00000000 0.70155363
0.88536217 0.21705968 0.68152658
1.00000000 0.35848659 0.66574851
1.00000000 0.51507284 0.66921759
0.00000000 0.45171317 0.70655646
0.00000000 0.43850998 0.72580832
0.00000000 0.42932366 0.74082085
0.21804947 0.42499260 0.75001558
0.49692171 0.42692785 0.74948891
0.72687181 0.44893959 0.73646826
0.87656712 0.49531770 0.72091905
0.99161014 0.55714840 0.70896755
1.00000000 0.62978909 0.71075133
0.12165181 0.73787936 0.71278665
0.11756848 0.73186910 0.72057003
0.17214844 0.72738620 0.72575667
0.31143228 0.72482967 0.72863307
0.53110831 0.72501871 0.72964064
0.72756575 0.72756576 0.72756576
0.87090583 0.73518444 0.72517681
0.97841186 0.75016507 0.72653688
1.00000000 0.77555047 0.73664873
0.32525998 0.91338845 0.66443664
0.31992955 0.90342885 0.66993585
0.34694714 0.89489493 0.67758316
0.44142983 0.88886265 0.68717117
0.60141845 0.88505429 0.69779307
0.74718001 0.88315281 0.70846384
0.87018498 0.88269714 0.72137480
0.96735477 0.88516507 0.73964526
1.00000000 0.89372745 0.76255916
0.51415265 1.00000000 0.54931916
0.49475133 1.00000000 0.58271987
0.50738904 1.00000000 0.61274699
0.57214937 1.00000000 0.64285530
0.67322605 0.99320363 0.67214599
0.78171279 0.98566723 0.70085530
0.88055132 0.97997653 0.73076524
0.96069615 0.97469544 0.78061618
0.99622724 0.97124053 0.87263519
0.66374513 1.00000000 0.28397202
0.64174100 1.00000000 0.43660783
0.64167092 1.00000000 0.54361309
0.67795689 1.00000000 0.61674186
0.74721165 1.00000000 0.67387721
0.83200539 1.00000000 0.73065409
0.92655869 1.00000000 0.83922870
0.98139958 1.00000000 0.93821329
0.99656422 0.99860767 0.97978223
0.00000000 0.00000000 0.34670207
0.00000000 0.00000000 0.34520566
0.04620332 0.00000000 0.36674825
0.24006592 0.00000000 0.36579286
0.47701377 0.00000000 0.36282247
0.71535996 0.06346679 0.36194418
0.89243777 0.22723187 0.36310180
1.00000000 0.38883243 0.37055240
1.00000000 0.60163452 0.40767912
0.00000000 0.00000000 0.44506757
0.00000000 0.00000000 0.48368233
0.00000000 0.00000000 0.52499576
0.21255059 0.00000000 0.54340451
0.46737087 0.00000000 0.54341027
0.70928242 0.00000000 0.54190319
0.88045220 0.11483426 0.54226308
1.00000000 0.31188069 0.54562375
1.00000000 0.51831639 0.57724692
0.00000000 0.00000000 0.60777957
0.00000000 0.00000000 0.64338281
0.00000000 0.00000000 0.67593588
0.16243582 0.00000000 0.69958195
0.45370647 0.00000000 0.70220400
0.70489505 0.00000000 0.70090564
0.87259529 0.00000000 0.69941083
1.00000000 0.19348370 0.69613427
1.00000000 0.40918343 0.70680845
0.00000000 0.00000000 0.74365669
0.00000000 0.00000000 0.77203107
0.00000000 0.00000000 0.79764643
0.05185293 0.00000000 0.82014247
0.44206545 0.00000000 0.82136877
0.70524677 0.00000000 0.81353621
0.86646308 0.00000000 0.80185185
0.98802854 0.18135431 0.78967552
1.00000000 0.38920370 0.78799988
0.00000000 0.34098530 0.82911587
0.00000000 0.28922905 0.85446283
0.00000000 0.23902702 0.87492907
0.00000000 0.20482096 0.88976668
0.45382100 0.20935140 0.88645639
0.71049000 0.26556190 0.87267037
0.86320462 0.35194088 0.85590145
0.97661601 0.45230497 0.84092747
1.00000000 0.56050196 0.83482829
0.00000000 0.69543871 0.86582315
0.00000000 0.68275813 0.87641255
0.00000000 0.67416490 0.88310192
0.20738471 0.67081807 0.88598029
0.49249152 0.67221667 0.88540625
0.71519914 0.67887228 0.88140535
0.86126202 0.69462836 0.87184992
0.96726649 0.71884879 0.86229782
1.00000000 0.75023333 0.85895014
0.18458191 0.88934885 0.86319834
0.18011538 0.87801825 0.86520427
0.23955741 0.86993395 0.86636875
0.37998932 0.86503890 0.86709631
0.58104270 0.86290108 0.86731911
0.74084770 0.86326513 0.86697513
0.86561300 0.86561301 0.86561303
0.96078399 0.87151039 0.86587580
1.00000000 0.88410599 0.87423751
0.42385348 1.00000000 0.82654030
0.41335135 1.00000000 0.82741971
0.44679465 0.99614688 0.83105707
0.54412402 0.98669233 0.83611310
0.66713006 0.97894210 0.84261331
0.78240381 0.97290738 0.85038735
0.88182523 0.96850725 0.86166793
0.95686809 0.96328875 0.89689249
0.98051101 0.96700057 0.94367216
0.61658226 1.00000000 0.77653710
0.59805786 1.00000000 0.79021843
0.61030260 1.00000000 0.80455812
0.66463342 1.00000000 0.82043663
0.74723527 1.00000000 0.83797473
0.85570231 1.00000000 0.87876551
0.94925016 1.00000000 0.93805605
0.98673838 0.99577581 0.97660724
0.99700160 0.99756937 0.99251356
0.00000000 0.00000000 0.38613555
0.00000000 0.00000000 0.39462469
0.00000000 0.00000000 0.42692262
0.22177455 0.00000000 0.43494245
0.45848737 0.00000000 0.43379748
0.70039955 0.00000000 0.43397731
0.87440223 0.17934925 0.43549371
1.00000000 0.34179400 0.44184759
1.00000000 0.54617027 0.47804144
0.00000000 0.00000000 0.51588085
0.00000000 0.00000000 0.55610789
0.00000000 0.00000000 0.59392623
0.17695683 0.00000000 0.61854052
0.43874026 0.00000000 0.62201416
0.68822259 0.00000000 0.62216601
0.86015504 0.00000000 0.62390951
0.99706001 0.22511934 0.62698066
1.00000000 0.42634918 0.64868839
0.00000000 0.00000000 0.67305380
0.00000000 0.00000000 0.70618267
0.00000000 0.00000000 0.73653750
0.06537037 0.00000000 0.76330033
0.41270555 0.00000000 0.76951854
0.68068400 0.00000000 0.77037094
0.85029838 0.00000000 0.77045537
0.97874467 0.00000000 0.77191796
1.00000000 0.25671915 0.78233752
0.00000000 0.00000000 0.80475335
0.00000000 0.00000000 0.83116723
0.00000000 0.00000000 0.85522701
0.00000000 0.00000000 0.87741900
0.38218316 0.00000000 0.88708476
0.67554675 0.00000000 0.88680416
0.84364275 0.00000000 0.88177719
0.96665129 0.00000000 0.87508174
1.00000000 0.15210789 0.87253920
0.00000000 0.14374081 0.91036756
0.00000000 0.00000000 0.93436368
0.00000000 0.00000000 0.95250785
0.00000000 0.00000000 0.96679162
0.37330303 0.00000000 0.97038165
0.68352599 0.00000000 0.96269283
0.84722465 0.00000000 0.95050770
0.96080040 0.23992362 0.93573924
1.00000000 0.42179655 0.92408731
0.00000000 0.62570610 0.96503461
0.00000000 0.59205372 0.97966123
0.00000000 0.56720485 0.98875851
0.00000000 0.55839598 0.99396579
0.42497942 0.56481275 0.99273037
0.69774777 0.58662819 0.98524976
0.84892495 0.62282791 0.97318383
0.95423839 0.66719392 0.95941853
1.00000000 0.71299399 0.94773349
0.00000000 0.85415455 0.98557290
0.00000000 0.84043651 0.98801937
0.00000000 0.83201495 0.98866688
0.25778218 0.82821728 0.98734710
0.54158764 0.82820094 0.98368302
0.73162836 0.83185402 0.97813150
0.85910082 0.83907954 0.97094538
0.95055069 0.85256733 0.96005972
0.98558230 0.88291043 0.94344151
0.24879243 0.99738611 0.97363121
0.25419647 0.98369451 0.97175764
0.33035966 0.97285698 0.96914229
0.48391193 0.96453612 0.96599296
0.65336430 0.95847426 0.96246093
0.78171315 0.95484529 0.95907681
0.89151088 0.95171360 0.95401713
0.95620524 0.95620527 0.95620530
0.97578893 0.96864842 0.96829910
0.52103382 1.00000000 0.95354540
0.51212720 1.00000000 0.94907592
0.55537216 1.00000000 0.94595180
0.64419229 1.00000000 0.94467544
0.76202775 1.00000000 0.94683257
0.89558557 1.00000000 0.95917196
0.96969391 0.99187182 0.97834900
0.99092699 0.99431273 0.99034194
0.99796982 0.99809055 0.99702628
0.00000000 0.00000000 0.42387942
0.00000000 0.00000000 0.44567909
0.00000000 0.00000000 0.48358191
0.19991516 0.00000000 0.50251086
0.43685915 0.00000000 0.50435104
0.68156083 0.00000000 0.50591877
0.85416971 0.09999027 0.50973710
0.99486863 0.28624001 0.51633338
1.00000000 0.47397769 0.54604256
0.00000000 0.00000000 0.57546960
0.00000000 0.00000000 0.61318826
0.00000000 0.00000000 0.64848183
0.12838958 0.00000000 0.67696901
0.40590638 0.00000000 0.68348333
0.66476538 0.00000000 0.68585127
0.83759782 0.00000000 0.68859548
0.97208936 0.00000000 0.69320583
1.00000000 0.31393716 0.70686103
0.00000000 0.00000000 0.72609442
0.00000000 0.00000000 0.75748272
0.00000000 0.00000000 0.78614694
0.00000000 0.00000000 0.81251731
0.36554245 0.00000000 0.82417244
0.65281197 0.00000000 0.82709629
0.82597149 0.00000000 0.82789807
0.95329181 0.00000000 0.82948884
1.00000000 0.00000000 0.83658113
0.00000000 0.00000000 0.85521319
0.00000000 0.00000000 0.88018760
0.00000000 0.00000000 0.90327944
0.00000000 0.00000000 0.92422960
0.31219066 0.00000000 0.93716163
0.64280583 0.00000000 0.93869423
0.82008307 0.00000000 0.93815828
0.94386852 0.00000000 0.93634533
1.00000000 0.00000000 0.93287741
0.00000000 0.00000000 0.96381335
0.00000000 0.00000000 0.98278902
0.00000000 0.00000000 0.99952301
0.00000000 0.00000000 1.00000000
0.26516779 0.00000000 1.00000000
0.64514877 0.00000000 1.00000000
0.82395040 0.00000000 1.00000000
0.94160721 0.00000000 1.00000000
1.00000000 0.14953910 0.99164132
0.00000000 0.50807570 1.00000000
0.00000000 0.40059333 1.00000000
0.00000000 0.30424110 1.00000000
0.00000000 0.25079702 1.00000000
0.32146943 0.27313481 1.00000000
0.67519187 0.35743785 1.00000000
0.83602271 0.47170316 1.00000000
0.94052169 0.58345284 1.00000000
1.00000000 0.67277384 1.00000000
0.00000000 0.80597473 1.00000000
0.00000000 0.78618569 1.00000000
0.00000000 0.77497460 1.00000000
0.00000000 0.77303722 1.00000000
0.47755074 0.77803004 1.00000000
0.72020365 0.78960095 1.00000000
0.85291146 0.80717095 1.00000000
0.93518668 0.84609415 1.00000000
0.95587123 0.89674389 0.96312039
0.00000000 0.96754753 1.00000000
0.00000000 0.95343723 1.00000000
0.00000000 0.94347651 1.00000000
0.39098260 0.93682354 1.00000000
0.63641314 0.93345092 1.00000000
0.79624530 0.93335700 1.00000000
0.91149642 0.94170986 0.99178573
0.95971989 0.95797648 0.97284315
0.97616769 0.97275453 0.97674031
0.32009197 1.00000000 1.00000000
0.34912996 1.00000000 1.00000000
0.46121009 1.00000000 1.00000000
0.62688622 1.00000000 1.00000000
0.81396570 1.00000000 1.00000000
0.93974068 0.98736341 0.98927328
0.98065214 0.98973955 0.99016053
0.99398712 0.99515980 0.99521577
0.99884165 0.99884167 0.99884171
