resources/flame/Syncolor/Shared/transforms/camera_manufacturer_luts/arri/ARRI_Alexa_LUTs/ARRI_LogC3_v1-2_LUT_Package/LUTs/ARRI_LogC3-to-HLG_1K_Rec2100-D65_DW100_v2_33.cube
LUT_3D_SIZE 5
0.00000000 0.00000000 0.00000000
0.16165506 0.03507227 0.00608472
0.52473586 0.11408916 0.01979344
0.92963308 0.31042871 0.05385657
1.00000000 0.74972075 0.15456850
0.03652308 0.13083537 0.00000000
0.12340406 0.13172103 0.00000000
0.53356150 0.16142738 0.00000000
0.94284080 0.33653190 0.04830980
1.00000000 0.71662923 0.13790781
0.15531963 0.55142131 0.00000000
0.19095048 0.56197626 0.00000000
0.53280048 0.56323023 0.00000000
0.92089620 0.58679385 0.00000000
1.00000000 0.72045924 0.00000000
0.43160892 0.95827718 0.00000000
0.42490346 0.93903952 0.00000000
0.59293294 0.91932146 0.00000000
0.87997415 0.90430571 0.00000000
1.00000000 0.91046375 0.00000000
0.77550907 1.00000000 0.00000000
0.71910150 1.00000000 0.00000000
0.74272039 1.00000000 0.00000000
0.89042937 1.00000000 0.00000000
1.00000000 1.00000000 0.00000000
0.00000000 0.00000000 0.15703865
0.14143707 0.00000000 0.10477639
0.52036117 0.10644494 0.08532692
0.93015615 0.30895202 0.09244320
1.00000000 0.73259588 0.16646108
0.01407618 0.12003696 0.11892524
0.12063476 0.12063475 0.12063475
0.53961302 0.15558306 0.10613263
0.93058580 0.32492641 0.10976024
1.00000000 0.66935583 0.16370658
0.15417421 0.55465653 0.00000000
0.19052196 0.56182554 0.00000000
0.53360709 0.56252799 0.00000000
0.90503663 0.58724741 0.04977730
1.00000000 0.69785996 0.15202718
0.41699275 0.94635076 0.00000000
0.41551902 0.92659966 0.00000000
0.60277814 0.90919460 0.00000000
0.87592410 0.89949819 0.00000000
1.00000000 0.90724575 0.00000000
0.73682791 1.00000000 0.00000000
0.69049119 1.00000000 0.00000000
0.74247633 1.00000000 0.00000000
0.89601791 1.00000000 0.00000000
1.00000000 1.00000000 0.61778479
0.00000000 0.00000000 0.26017517
0.10627630 0.00000000 0.23822826
0.50479015 0.03633733 0.22595482
0.91874279 0.28365470 0.22840932
1.00000000 0.68381426 0.27630169
0.00000000 0.00000000 0.41714076
0.00000000 0.00000000 0.48185859
0.52091452 0.00000000 0.45655702
0.90759697 0.24993175 0.41776526
1.00000000 0.59262545 0.42759158
0.06974639 0.51796934 0.49462137
0.13116274 0.51823481 0.52087178
0.52268803 0.52268803 0.52268804
0.88739070 0.56032462 0.50877765
1.00000000 0.66619319 0.53049952
0.38155529 0.92909714 0.24658231
0.39003826 0.90986148 0.32868251
0.60784153 0.89697697 0.41534192
0.87271537 0.89159645 0.51065991
1.00000000 0.90074592 0.61172952
0.69314617 1.00000000 0.00000000
0.66181040 1.00000000 0.00000000
0.74608605 1.00000000 0.28174556
0.90867076 1.00000000 0.64204736
0.99814955 1.00000000 0.94747008
0.00000000 0.00000000 0.34670207
0.04620332 0.00000000 0.36674825
0.47701377 0.00000000 0.36282247
0.89243777 0.22723187 0.36310180
1.00000000 0.60163452 0.40767912
0.00000000 0.00000000 0.60777957
0.00000000 0.00000000 0.67593588
0.45370647 0.00000000 0.70220400
0.87259529 0.00000000 0.69941083
1.00000000 0.40918343 0.70680845
0.00000000 0.34098530 0.82911587
0.00000000 0.23902702 0.87492907
0.45382100 0.20935140 0.88645639
0.86320462 0.35194088 0.85590145
1.00000000 0.56050196 0.83482829
0.18458191 0.88934885 0.86319834
0.23955741 0.86993395 0.86636875
0.58104270 0.86290108 0.86731911
0.86561300 0.86561301 0.86561303
1.00000000 0.88410599 0.87423751
0.61658226 1.00000000 0.77653710
0.61030260 1.00000000 0.80455812
0.74723527 1.00000000 0.83797473
0.94925016 1.00000000 0.93805605
0.99700160 0.99756937 0.99251356
0.00000000 0.00000000 0.42387942
0.00000000 0.00000000 0.48358191
0.43685915 0.00000000 0.50435104
0.85416971 0.09999027 0.50973710
1.00000000 0.47397769 0.54604256
0.00000000 0.00000000 0.72609442
0.00000000 0.00000000 0.78614694
0.36554245 0.00000000 0.82417244
0.82597149 0.00000000 0.82789807
1.00000000 0.00000000 0.83658113
0.00000000 0.00000000 0.96381335
0.00000000 0.00000000 0.99952301
0.26516779 0.00000000 1.00000000
0.82395040 0.00000000 1.00000000
1.00000000 0.14953910 0.99164132
0.00000000 0.80597473 1.00000000
0.00000000 0.77497460 1.00000000
0.47755074 0.77803004 1.00000000
0.85291146 0.80717095 1.00000000
0.95587123 0.89674389 0.96312039
0.32009197 1.00000000 1.00000000
0.46121009 1.00000000 1.00000000
0.81396570 1.00000000 1.00000000
0.98065214 0.98973955 0.99016053
0.99884165 0.99884167 0.99884171
