resources/flame/Syncolor/Shared/transforms/camera_manufacturer_luts/arri/ARRI_Alexa_LUTs/ARRI_LogC3_v1-2_LUT_Package/LUTs/ARRI_LogC3-to-St2084_2K_Rec2100-D65_DW200_v1_33.cube
LUT_3D_SIZE 9
0.006302 0.006302 0.006302
0.104173 0.027924 0.006302
0.205234 0.068299 0.012955
0.310948 0.120958 0.027359
0.430106 0.191501 0.051301
0.553735 0.276188 0.086305
0.679500 0.373602 0.134356
0.807263 0.483665 0.198093
0.827420 0.604608 0.279210
0.017090 0.057206 0.006302
0.051438 0.054444 0.006302
0.179034 0.073411 0.006302
0.307927 0.125261 0.021164
0.437613 0.198718 0.050568
0.568124 0.287831 0.089815
0.699077 0.390219 0.142382
0.826780 0.501671 0.208911
0.827420 0.616983 0.287861
0.076600 0.191470 0.006302
0.091325 0.196429 0.006302
0.196475 0.204547 0.006302
0.327611 0.222721 0.006302
0.461250 0.262165 0.006302
0.593454 0.329381 0.038407
0.720882 0.418494 0.134310
0.827420 0.518395 0.208484
0.827420 0.619577 0.284031
0.164782 0.343145 0.006302
0.177050 0.351675 0.006302
0.244358 0.360632 0.006302
0.359976 0.371374 0.006302
0.488136 0.388312 0.006302
0.614328 0.419501 0.006302
0.732311 0.471229 0.006302
0.827420 0.541100 0.125582
0.827420 0.619684 0.246860
0.273823 0.499367 0.006302
0.283711 0.507286 0.006302
0.320027 0.513588 0.006302
0.402228 0.518822 0.006302
0.511971 0.525154 0.006302
0.625788 0.536416 0.006302
0.733379 0.557671 0.006302
0.827420 0.592386 0.006302
0.827420 0.638437 0.006302
0.391211 0.646509 0.006302
0.395148 0.648661 0.006302
0.410712 0.648875 0.006302
0.457862 0.648142 0.006302
0.539620 0.648112 0.006302
0.636347 0.650294 0.006302
0.730877 0.656306 0.006302
0.815473 0.668391 0.006302
0.827420 0.687678 0.006302
0.503075 0.773571 0.006302
0.499870 0.768673 0.006302
0.502724 0.762753 0.006302
0.524407 0.756100 0.006302
0.575921 0.749599 0.006302
0.649500 0.744472 0.006302
0.728267 0.742443 0.006302
0.802213 0.744610 0.006302
0.827420 0.751598 0.006302
0.600214 0.827420 0.006302
0.589090 0.827420 0.006302
0.581964 0.827420 0.006302
0.587945 0.827420 0.006302
0.618143 0.827420 0.006302
0.671763 0.820478 0.006302
0.736568 0.816114 0.006302
0.801190 0.815320 0.006302
0.827420 0.816297 0.006302
0.677012 0.827420 0.006302
0.659831 0.827420 0.006302
0.647364 0.827420 0.006302
0.647227 0.827420 0.006302
0.666087 0.827420 0.006302
0.703685 0.827420 0.006302
0.752346 0.827420 0.006302
0.801984 0.827420 0.006302
0.827420 0.827420 0.006302
0.006302 0.006302 0.110155
0.090425 0.006302 0.083726
0.195895 0.059098 0.060227
0.306645 0.117800 0.050858
0.429129 0.190616 0.064225
0.553857 0.276158 0.093294
0.680522 0.374380 0.138506
0.808499 0.484764 0.200763
0.827420 0.602594 0.278843
0.006302 0.050629 0.051514
0.049042 0.049042 0.049042
0.180972 0.071183 0.049760
0.310323 0.125505 0.057237
0.440421 0.200153 0.074311
0.571298 0.290013 0.104997
0.700649 0.391470 0.151400
0.824765 0.499794 0.212634
0.827420 0.609491 0.285451
0.076417 0.192752 0.006302
0.091524 0.198428 0.006302
0.198703 0.206531 0.006302
0.331502 0.224720 0.006302
0.464973 0.264530 0.036194
0.595331 0.331151 0.098344
0.719326 0.417716 0.155138
0.827420 0.512734 0.217182
0.827420 0.608621 0.284215
0.166247 0.346059 0.006302
0.178759 0.354803 0.006302
0.246281 0.363668 0.006302
0.362631 0.373922 0.006302
0.490272 0.390539 0.006302
0.613809 0.421042 0.006302
0.728145 0.470497 0.006302
0.827420 0.536202 0.180468
0.827420 0.608942 0.261799
0.275792 0.502312 0.006302
0.285344 0.509621 0.006302
0.321691 0.515175 0.006302
0.404105 0.519875 0.006302
0.512932 0.526009 0.006302
0.624567 0.537301 0.006302
0.728817 0.557961 0.006302
0.821500 0.590417 0.006302
0.827420 0.632227 0.006302
0.391455 0.646937 0.006302
0.394781 0.648096 0.006302
0.410880 0.647654 0.006302
0.459403 0.646952 0.006302
0.541100 0.647166 0.006302
0.635767 0.649592 0.006302
0.726787 0.655756 0.006302
0.807904 0.667582 0.006302
0.827420 0.685573 0.006302
0.499962 0.770245 0.006302
0.496574 0.764828 0.006302
0.500298 0.758648 0.006302
0.524132 0.751995 0.006302
0.577325 0.745800 0.006302
0.650095 0.741558 0.006302
0.726482 0.740505 0.006302
0.797482 0.743465 0.006302
0.827420 0.750851 0.006302
0.593179 0.827420 0.006302
0.582162 0.827420 0.006302
0.576318 0.827420 0.006302
0.585519 0.827420 0.006302
0.619120 0.822858 0.006302
0.673854 0.816495 0.006302
0.737621 0.813458 0.006302
0.799405 0.813336 0.006302
0.827420 0.814511 0.006302
0.666285 0.827420 0.006302
0.649775 0.827420 0.006302
0.640040 0.827420 0.006302
0.643870 0.827420 0.006302
0.666163 0.827420 0.006302
0.705669 0.827420 0.006302
0.753918 0.827420 0.006302
0.801480 0.827420 0.006302
0.827420 0.827420 0.006302
0.006302 0.006302 0.184863
0.053193 0.006302 0.162448
0.180789 0.006302 0.143130
0.299504 0.098268 0.137133
0.424125 0.182559 0.141756
0.550271 0.271717 0.153979
0.678050 0.371633 0.179049
0.804501 0.480842 0.222766
0.827420 0.594736 0.286259
0.006302 0.006302 0.166583
0.006302 0.006302 0.169528
0.175235 0.006302 0.172198
0.309499 0.093874 0.176883
0.441291 0.191150 0.185168
0.572274 0.287160 0.198383
0.699474 0.389059 0.220188
0.819593 0.494484 0.255528
0.827420 0.598322 0.305913
0.029206 0.181781 0.183871
0.062898 0.187640 0.190127
0.196063 0.196063 0.196063
0.334524 0.216236 0.203082
0.467521 0.259663 0.213321
0.595651 0.328420 0.227680
0.715679 0.413687 0.249104
0.825345 0.505165 0.280247
0.827420 0.596063 0.321645
0.159350 0.346136 0.171206
0.172808 0.355047 0.178256
0.244434 0.363928 0.184405
0.364172 0.373739 0.193973
0.491936 0.390143 0.212116
0.612604 0.420356 0.234211
0.723354 0.468162 0.260807
0.822431 0.530114 0.293385
0.827420 0.597238 0.331472
0.274540 0.503944 0.006302
0.283833 0.510521 0.006302
0.321370 0.515526 0.006302
0.405112 0.519936 0.006302
0.513680 0.526040 0.006302
0.623316 0.537377 0.094087
0.724071 0.557595 0.215961
0.812253 0.588067 0.279500
0.827420 0.626444 0.330480
0.389899 0.646296 0.006302
0.392767 0.646571 0.006302
0.410132 0.645930 0.006302
0.460563 0.645426 0.006302
0.542519 0.645975 0.006302
0.635218 0.648615 0.006302
0.723140 0.655024 0.006302
0.800916 0.666667 0.006302
0.827420 0.683619 0.292592
0.495766 0.766155 0.006302
0.492531 0.760555 0.006302
0.497444 0.754223 0.006302
0.523934 0.747707 0.006302
0.578943 0.742123 0.006302
0.650919 0.738872 0.006302
0.725078 0.738735 0.006302
0.793256 0.742428 0.006302
0.827420 0.750240 0.006302
0.585595 0.827420 0.006302
0.574853 0.827420 0.006302
0.570779 0.827420 0.006302
0.583764 0.825910 0.006302
0.620661 0.817975 0.006302
0.676387 0.812909 0.006302
0.739101 0.811139 0.006302
0.797803 0.811307 0.006302
0.827420 0.812665 0.006302
0.655192 0.827420 0.006302
0.640299 0.827420 0.006302
0.633570 0.827420 0.006302
0.641291 0.827420 0.006302
0.666972 0.827420 0.006302
0.708171 0.827420 0.006302
0.755901 0.827420 0.006302
0.801495 0.827420 0.006302
0.827420 0.827420 0.575677
0.006302 0.006302 0.234562
0.006302 0.006302 0.215167
0.160189 0.006302 0.201221
0.288396 0.006302 0.201602
0.415381 0.161227 0.207416
0.543114 0.261128 0.217563
0.670970 0.363745 0.234546
0.794858 0.471290 0.262928
0.827420 0.580560 0.307286
0.006302 0.006302 0.248341
0.006302 0.006302 0.253742
0.154314 0.006302 0.260334
0.301854 0.006302 0.268101
0.436973 0.141573 0.277684
0.567773 0.270512 0.289403
0.692699 0.378332 0.304601
0.808530 0.482231 0.325765
0.827420 0.582162 0.355886
0.006302 0.086702 0.299153
0.006302 0.078813 0.309316
0.171038 0.083284 0.320165
0.329259 0.141192 0.328771
0.465766 0.221180 0.337453
0.592630 0.309331 0.347936
0.709361 0.401175 0.360952
0.815381 0.492958 0.377813
0.827420 0.580331 0.399695
0.076402 0.333577 0.336110
0.107942 0.341985 0.345251
0.225635 0.350607 0.353689
0.360754 0.360754 0.360754
0.492027 0.378866 0.368460
0.610391 0.411444 0.378729
0.717586 0.460212 0.391424
0.812131 0.520455 0.407462
0.827420 0.583368 0.427451
0.259739 0.501564 0.336278
0.269566 0.507378 0.343755
0.313085 0.512001 0.351232
0.402518 0.516716 0.358846
0.513313 0.522972 0.369238
0.621836 0.534478 0.385916
0.718929 0.554711 0.405402
0.803342 0.584039 0.427176
0.827420 0.619760 0.450294
0.383200 0.643748 0.006302
0.385992 0.643412 0.198260
0.405814 0.642863 0.253895
0.459800 0.642695 0.294987
0.543069 0.643656 0.332158
0.634470 0.646540 0.368826
0.719783 0.653254 0.402960
0.794308 0.664836 0.434852
0.827420 0.681041 0.465721
0.489448 0.761334 0.006302
0.486336 0.755505 0.006302
0.492988 0.749111 0.006302
0.522972 0.742901 0.006302
0.580102 0.738277 0.006302
0.651621 0.735958 0.251270
0.723888 0.736645 0.370886
0.789425 0.741070 0.435447
0.827420 0.749355 0.486656
0.576806 0.827420 0.006302
0.566506 0.827420 0.006302
0.564996 0.827420 0.006302
0.582055 0.819944 0.006302
0.622324 0.813260 0.006302
0.679103 0.809430 0.006302
0.740627 0.808576 0.314488
0.796292 0.808957 0.458564
0.827420 0.810285 0.537987
0.643885 0.827420 0.006302
0.631067 0.827420 0.006302
0.627497 0.827420 0.006302
0.639033 0.827420 0.006302
0.668223 0.827420 0.006302
0.711055 0.827420 0.006302
0.758221 0.827420 0.372763
0.802823 0.827420 0.581765
0.827420 0.827420 0.703410
0.006302 0.006302 0.270649
0.006302 0.006302 0.253071
0.132952 0.006302 0.244434
0.274311 0.006302 0.248447
0.404028 0.111421 0.255558
0.532998 0.243595 0.265934
0.659464 0.350561 0.280644
0.780194 0.456550 0.302434
0.827420 0.560632 0.334585
0.006302 0.006302 0.305379
0.006302 0.006302 0.313085
0.099886 0.006302 0.322393
0.288106 0.006302 0.333043
0.427512 0.006302 0.344717
0.558206 0.228473 0.357549
0.680659 0.356817 0.372137
0.792660 0.462959 0.389593
0.827420 0.560998 0.411475
0.006302 0.006302 0.381765
0.006302 0.006302 0.394034
0.006302 0.006302 0.406470
0.312078 0.006302 0.417731
0.456748 0.006302 0.428046
0.583810 0.241306 0.438422
0.698695 0.370962 0.449790
0.801419 0.471122 0.462669
0.827420 0.558114 0.477394
0.006302 0.282048 0.449714
0.006302 0.286351 0.461051
0.058595 0.291997 0.471397
0.342794 0.303212 0.480507
0.484764 0.331121 0.486610
0.604562 0.377371 0.492622
0.709422 0.436622 0.500175
0.799908 0.501366 0.509529
0.827420 0.564767 0.521065
0.144884 0.486793 0.489128
0.172091 0.491737 0.495064
0.269871 0.496162 0.499962
0.388998 0.501549 0.504692
0.508980 0.508980 0.508980
0.619135 0.522515 0.514794
0.713176 0.544793 0.523781
0.794430 0.574899 0.534981
0.827420 0.609720 0.547723
0.359304 0.636896 0.483864
0.363195 0.636378 0.489006
0.389700 0.635981 0.494942
0.453147 0.636332 0.501961
0.540810 0.638041 0.510063
0.632837 0.641520 0.520165
0.716442 0.648661 0.534371
0.787869 0.660609 0.549920
0.827420 0.676677 0.567010
0.477028 0.754925 0.412406
0.474113 0.748791 0.436042
0.483665 0.742382 0.458427
0.519081 0.736919 0.479332
0.579660 0.733318 0.498817
0.651575 0.731960 0.518746
0.722621 0.733486 0.541085
0.785809 0.738674 0.566094
0.827420 0.747631 0.593286
0.565118 0.827420 0.006302
0.555688 0.827420 0.006302
0.557443 0.821668 0.253330
0.579232 0.813672 0.409140
0.623438 0.808194 0.472755
0.681651 0.805585 0.519524
0.741894 0.805310 0.560342
0.794751 0.805890 0.597757
0.827420 0.806256 0.655375
0.631830 0.827420 0.006302
0.621057 0.827420 0.006302
0.620920 0.827420 0.006302
0.636515 0.827420 0.006302
0.669551 0.827420 0.449805
0.714137 0.827420 0.538170
0.763043 0.827420 0.612406
0.805356 0.827420 0.701686
0.826322 0.827420 0.765927
0.006302 0.006302 0.302281
0.006302 0.006302 0.287053
0.083207 0.006302 0.284459
0.258183 0.006302 0.290013
0.391730 0.006302 0.298177
0.520851 0.213687 0.308751
0.645319 0.332113 0.322347
0.762158 0.437598 0.340459
0.827420 0.537301 0.365087
0.006302 0.006302 0.349996
0.006302 0.006302 0.358846
0.006302 0.006302 0.369390
0.268330 0.006302 0.381109
0.414313 0.006302 0.393545
0.544793 0.006302 0.406943
0.664515 0.321248 0.421775
0.773770 0.437064 0.438849
0.827420 0.535012 0.458732
0.006302 0.006302 0.439689
0.006302 0.006302 0.453529
0.006302 0.006302 0.467155
0.280797 0.006302 0.480049
0.441901 0.006302 0.492103
0.570825 0.006302 0.503853
0.684428 0.299886 0.515785
0.784070 0.434607 0.527962
0.827420 0.527382 0.540475
0.006302 0.006302 0.530724
0.006302 0.006302 0.542840
0.006302 0.006302 0.553368
0.296361 0.006302 0.562158
0.468742 0.006302 0.569253
0.593133 0.244602 0.575143
0.697154 0.377005 0.581003
0.784985 0.464836 0.587594
0.827420 0.536828 0.595590
0.006302 0.444343 0.595880
0.006302 0.447471 0.601404
0.006302 0.451637 0.605768
0.345357 0.458061 0.609689
0.495583 0.468925 0.613245
0.610849 0.489525 0.615061
0.705241 0.519219 0.618112
0.784390 0.554665 0.623255
0.827420 0.592233 0.629633
0.221973 0.619196 0.621088
0.245457 0.618738 0.621836
0.324758 0.618830 0.622644
0.429236 0.620157 0.624033
0.532357 0.623301 0.626139
0.628443 0.628443 0.628443
0.712352 0.637568 0.632334
0.781018 0.651377 0.638865
0.827420 0.668605 0.647639
0.445090 0.744579 0.609262
0.443565 0.738216 0.611109
0.460777 0.732174 0.613840
0.507668 0.727749 0.617716
0.575692 0.725322 0.622858
0.649714 0.725353 0.629404
0.720836 0.728008 0.638941
0.782238 0.734249 0.653285
0.827420 0.744350 0.670649
0.546059 0.827420 0.565438
0.538399 0.822309 0.579370
0.544671 0.813077 0.592905
0.573236 0.806195 0.607050
0.623041 0.801938 0.622614
0.683497 0.800626 0.640375
0.742657 0.800763 0.659480
0.792477 0.800855 0.686488
0.819715 0.801404 0.731212
0.616892 0.827420 0.441093
0.608255 0.827420 0.520592
0.612024 0.827420 0.567758
0.632837 0.827420 0.602731
0.670588 0.827420 0.632059
0.718242 0.827420 0.661753
0.771862 0.827420 0.714015
0.808637 0.827420 0.766186
0.825437 0.827420 0.797635
0.006302 0.006302 0.330129
0.006302 0.006302 0.318318
0.006302 0.006302 0.320623
0.238865 0.006302 0.327443
0.377996 0.006302 0.336492
0.506966 0.145632 0.347417
0.629007 0.305837 0.360662
0.741619 0.414130 0.377005
0.827420 0.511910 0.397726
0.006302 0.006302 0.390204
0.006302 0.006302 0.400107
0.006302 0.006302 0.411566
0.238926 0.006302 0.423697
0.398535 0.006302 0.436347
0.529320 0.006302 0.449638
0.647013 0.252247 0.464073
0.753353 0.402319 0.480140
0.827420 0.504067 0.498039
0.006302 0.006302 0.486030
0.006302 0.006302 0.499916
0.006302 0.006302 0.513283
0.220401 0.006302 0.526009
0.422599 0.006302 0.538293
0.555108 0.006302 0.550820
0.667643 0.006302 0.563760
0.764279 0.369650 0.576745
0.827420 0.485466 0.589334
0.006302 0.006302 0.586770
0.006302 0.006302 0.599298
0.006302 0.006302 0.610239
0.006302 0.006302 0.619837
0.444511 0.006302 0.627893
0.577615 0.006302 0.634607
0.681880 0.006302 0.640482
0.768612 0.386481 0.646586
0.827420 0.492088 0.653269
0.006302 0.286015 0.670436
0.006302 0.274235 0.675807
0.006302 0.279026 0.679881
0.006302 0.306371 0.682841
0.470207 0.352605 0.684764
0.597253 0.407828 0.686046
0.693950 0.463828 0.687663
0.772152 0.516426 0.689845
0.827420 0.563851 0.692622
0.006302 0.581613 0.716091
0.006302 0.581369 0.715190
0.006302 0.582803 0.713756
0.353017 0.586618 0.712352
0.513237 0.592676 0.711574
0.619257 0.601572 0.711269
0.704677 0.615625 0.710216
0.772564 0.634150 0.710475
0.826032 0.655055 0.713130
0.296803 0.724987 0.726635
0.320165 0.718944 0.721874
0.388540 0.714229 0.717967
0.476890 0.711376 0.715373
0.564782 0.710719 0.714321
0.645197 0.712749 0.715099
0.717617 0.717617 0.717617
0.778286 0.726329 0.723095
0.820539 0.739483 0.733562
0.506462 0.819989 0.706508
0.502739 0.809705 0.705104
0.518761 0.801648 0.705699
0.560357 0.796033 0.708553
0.619791 0.793210 0.714000
0.684047 0.793225 0.722011
0.743069 0.793988 0.731380
0.790036 0.794202 0.750591
0.811200 0.798016 0.775448
0.594293 0.827420 0.678202
0.588571 0.827420 0.688228
0.598108 0.827420 0.699138
0.626841 0.827420 0.709789
0.671077 0.827420 0.720943
0.729183 0.827420 0.742351
0.783062 0.826917 0.773419
0.811948 0.824338 0.797650
0.825879 0.827054 0.816297
0.006302 0.006302 0.354849
0.006302 0.006302 0.347890
0.006302 0.006302 0.353262
0.213672 0.006302 0.361196
0.362371 0.006302 0.370855
0.491463 0.006302 0.382193
0.610727 0.264469 0.395422
0.720089 0.385626 0.411139
0.819150 0.483864 0.429953
0.006302 0.006302 0.426535
0.006302 0.006302 0.437385
0.006302 0.006302 0.449256
0.185168 0.006302 0.461555
0.379614 0.006302 0.474250
0.512505 0.006302 0.487495
0.628870 0.006302 0.501839
0.732219 0.348531 0.517342
0.821729 0.465599 0.534005
0.006302 0.006302 0.527474
0.006302 0.006302 0.541009
0.006302 0.006302 0.553887
0.006302 0.006302 0.566018
0.398062 0.006302 0.578058
0.537804 0.006302 0.590143
0.649607 0.006302 0.602258
0.743221 0.006302 0.614374
0.822492 0.423346 0.627131
0.006302 0.006302 0.630900
0.006302 0.006302 0.642161
0.006302 0.006302 0.652216
0.006302 0.006302 0.661463
0.410163 0.006302 0.669780
0.559121 0.006302 0.677470
0.665324 0.006302 0.684565
0.751507 0.006302 0.691356
0.822553 0.404211 0.697963
0.006302 0.006302 0.721416
0.006302 0.006302 0.727413
0.006302 0.006302 0.731853
0.006302 0.006302 0.734768
0.425666 0.006302 0.736522
0.579660 0.006302 0.738064
0.680446 0.223743 0.739422
0.758373 0.435233 0.740291
0.819486 0.516915 0.740963
0.006302 0.493584 0.782437
0.006302 0.495171 0.780682
0.006302 0.503563 0.777905
0.006302 0.516945 0.775219
0.475853 0.533928 0.772457
0.605417 0.554818 0.769619
0.694224 0.580026 0.766598
0.762158 0.608118 0.763943
0.813840 0.636576 0.762615
0.006302 0.691249 0.807294
0.006302 0.686931 0.799680
0.006302 0.684672 0.792874
0.392950 0.684672 0.787045
0.543297 0.687266 0.782483
0.638071 0.692821 0.779507
0.712749 0.701732 0.778271
0.772137 0.715419 0.777523
0.804349 0.736934 0.775906
0.359625 0.799664 0.801465
0.388846 0.790906 0.793881
0.453696 0.784573 0.788281
0.533257 0.780911 0.784909
0.612192 0.780301 0.784070
0.683299 0.782162 0.785153
0.746654 0.784024 0.785519
0.789075 0.789075 0.789075
0.807538 0.797589 0.797086
0.550912 0.827420 0.782467
0.552163 0.827420 0.781460
0.574350 0.827420 0.781521
0.617472 0.827420 0.782101
0.677180 0.827420 0.784405
0.747250 0.824292 0.792142
0.793484 0.819638 0.803571
0.815763 0.822248 0.814618
0.827420 0.827420 0.825849
0.006302 0.006302 0.377417
0.006302 0.006302 0.376196
0.006302 0.006302 0.382879
0.175372 0.006302 0.391516
0.344457 0.006302 0.401709
0.474388 0.006302 0.413458
0.591318 0.172015 0.426963
0.697993 0.348516 0.442634
0.793317 0.451743 0.460609
0.006302 0.006302 0.459495
0.006302 0.006302 0.470893
0.006302 0.006302 0.482872
0.006302 0.006302 0.495201
0.356390 0.006302 0.507836
0.494682 0.006302 0.521279
0.610224 0.006302 0.535607
0.710582 0.206729 0.550729
0.795987 0.412009 0.566537
0.006302 0.006302 0.564279
0.006302 0.006302 0.577279
0.006302 0.006302 0.589471
0.006302 0.006302 0.601266
0.364248 0.006302 0.613016
0.518730 0.006302 0.624613
0.630884 0.006302 0.635889
0.722866 0.006302 0.647211
0.800229 0.261341 0.659068
0.006302 0.006302 0.669261
0.006302 0.006302 0.679316
0.006302 0.006302 0.688563
0.006302 0.006302 0.696773
0.354253 0.006302 0.704005
0.538231 0.006302 0.710750
0.648219 0.006302 0.718013
0.734173 0.006302 0.725765
0.803677 0.006302 0.732891
0.006302 0.006302 0.759884
0.006302 0.006302 0.764782
0.006302 0.006302 0.768597
0.006302 0.006302 0.771633
0.333303 0.006302 0.774578
0.557794 0.006302 0.776944
0.665431 0.006302 0.778485
0.743755 0.006302 0.778775
0.803250 0.423178 0.778134
0.006302 0.006302 0.827420
0.006302 0.006302 0.826505
0.006302 0.006302 0.823896
0.006302 0.006302 0.820905
0.398276 0.335592 0.817273
0.586572 0.449592 0.813092
0.682490 0.517739 0.808515
0.750942 0.570413 0.803845
0.799588 0.615885 0.798474
0.006302 0.630167 0.827420
0.006302 0.630838 0.827420
0.006302 0.634867 0.827420
0.006302 0.642023 0.827420
0.507530 0.652308 0.827420
0.628183 0.665858 0.825940
0.707500 0.682780 0.820935
0.764172 0.709804 0.809277
0.789731 0.741619 0.794766
0.006302 0.770459 0.827420
0.006302 0.764233 0.827420
0.006302 0.760815 0.827420
0.481712 0.760479 0.827420
0.601175 0.763546 0.827420
0.687968 0.768551 0.827420
0.755383 0.777050 0.813382
0.790570 0.788479 0.806012
0.806226 0.799649 0.807279
0.419226 0.827420 0.827420
0.463127 0.827420 0.827420
0.531334 0.827420 0.827420
0.607294 0.827420 0.827420
0.698054 0.820081 0.823392
0.767895 0.814313 0.816083
0.801846 0.816892 0.817548
0.820081 0.822568 0.822690
0.827420 0.827420 0.827420
