resources/flame/Syncolor/Shared/transforms/camera_manufacturer_luts/arri/ARRI_Alexa_LUTs/ARRI_LogC3_v1-2_LUT_Package/LUTs/ARRI_LogC3-to-St2084_2K_P3-D65_DW200_v2_33.cube
LUT_3D_SIZE 5
0.00000073 0.00000073 0.00000073
0.22368216 0.00000073 0.02017679
0.45731219 0.00000073 0.07376295
0.71039950 0.00000073 0.17923779
0.82742464 0.00000073 0.34836992
0.00000073 0.19565066 0.00000073
0.19812563 0.20575102 0.00000073
0.48813624 0.20187538 0.00000073
0.75181858 0.00000073 0.19071362
0.82742464 0.00000073 0.35610875
0.00000073 0.50627258 0.00000073
0.00000073 0.52028738 0.00000073
0.51468481 0.52708460 0.00000073
0.76110726 0.52646855 0.00000073
0.82742464 0.49263960 0.17326834
0.00000073 0.78111093 0.00000073
0.00000073 0.77023355 0.00000073
0.00000073 0.75632881 0.00000073
0.73119916 0.74451076 0.00000073
0.82742464 0.73858991 0.00000073
0.00000073 0.82742464 0.00000073
0.00000073 0.82742464 0.00000073
0.00000073 0.82742464 0.00000073
0.67663753 0.82742464 0.00000073
0.82742464 0.82742464 0.00000073
0.00000073 0.00000073 0.18607845
0.19776893 0.00000073 0.14433472
0.45117304 0.00000073 0.14715672
0.70893122 0.00000073 0.20673547
0.82742464 0.00000073 0.34767452
0.00000073 0.18541451 0.18374393
0.19607037 0.19607037 0.19607037
0.49452602 0.18756749 0.21589715
0.74658138 0.00000073 0.26636853
0.82742464 0.00000073 0.36720682
0.00000073 0.51084480 0.00000073
0.00000073 0.52218885 0.00000073
0.51621729 0.52787065 0.00000073
0.75129702 0.53001965 0.19331803
0.82742464 0.51667194 0.35066367
0.00000073 0.77368831 0.00000073
0.00000073 0.76167584 0.00000073
0.32281180 0.74869799 0.00000073
0.72789678 0.74073825 0.00000073
0.82742464 0.73991931 0.00000073
0.00000073 0.82742464 0.00000073
0.00000073 0.82742464 0.00000073
0.00000073 0.82742464 0.00000073
0.69972301 0.82742464 0.00000073
0.82742464 0.82742464 0.55327790
0.00000073 0.00000073 0.27217433
0.14629454 0.00000073 0.24590632
0.43050898 0.00000073 0.25786017
0.69022721 0.00000073 0.28962524
0.82742464 0.00000073 0.36727998
0.00000073 0.00000073 0.38342327
0.00000073 0.00000073 0.40820859
0.48299750 0.00000073 0.43005877
0.72943369 0.00000073 0.45354260
0.82742464 0.00000073 0.48772870
0.00000073 0.49297145 0.48888909
0.00000073 0.50197289 0.49977232
0.50897895 0.50897896 0.50897896
0.73965236 0.51528453 0.52475123
0.82742464 0.51344526 0.55117754
0.00000073 0.76238415 0.34706092
0.00000073 0.74970591 0.42753038
0.38134647 0.73957137 0.48172932
0.72484394 0.73511025 0.53176587
0.82742464 0.73892487 0.58918207
0.00000073 0.82742464 0.00000073
0.00000073 0.82742464 0.00000073
0.00000073 0.82742464 0.14651416
0.72488692 0.82742464 0.59564274
0.82742464 0.82742464 0.76435598
0.00000073 0.00000073 0.33183450
0.00000073 0.00000073 0.32230791
0.40365313 0.00000073 0.33848259
0.65952626 0.00000073 0.36491052
0.82742464 0.00000073 0.41136682
0.00000073 0.00000073 0.48797382
0.00000073 0.00000073 0.51527144
0.44599321 0.00000073 0.54037981
0.69794768 0.00000073 0.56630725
0.82742464 0.00000073 0.59344945
0.00000073 0.25962937 0.67217925
0.00000073 0.23859175 0.68162668
0.44615540 0.30226596 0.68652609
0.71858571 0.37503113 0.68953368
0.82742464 0.41812617 0.69490705
0.00000073 0.73177482 0.72636549
0.00000073 0.72079913 0.71774266
0.00000073 0.71584507 0.71415497
0.71761718 0.71761720 0.71761721
0.82742464 0.73140528 0.73382201
0.00000073 0.82742464 0.66471152
0.00000073 0.82742464 0.69074607
0.00000073 0.82742464 0.71584382
0.76730327 0.82742464 0.77208393
0.82611498 0.82723853 0.81609901
0.00000073 0.00000073 0.37923662
0.00000073 0.00000073 0.38471826
0.36885438 0.00000073 0.40369396
0.62143084 0.00000073 0.42980293
0.82442359 0.00000073 0.46677765
0.00000073 0.00000073 0.56633760
0.00000073 0.00000073 0.59157012
0.37885487 0.00000073 0.61514591
0.66029613 0.00000073 0.63820551
0.82742464 0.00000073 0.66191429
0.00000073 0.00000073 0.76187485
0.00000073 0.00000073 0.77059338
0.00000073 0.00000073 0.77657519
0.68596356 0.00000073 0.78050996
0.82742464 0.00000073 0.78026356
0.00000073 0.63170294 0.82742464
0.00000073 0.63690299 0.82742464
0.00000073 0.65281360 0.82742464
0.70138667 0.67796689 0.82225918
0.79990658 0.73684998 0.79556857
0.00000073 0.82742464 0.82742464
0.00000073 0.82742464 0.82742464
0.56430483 0.82473140 0.82324000
0.79610984 0.81779118 0.81752528
0.82742464 0.82742464 0.82742464
