resources/flame/Syncolor/Shared/transforms/camera_manufacturer_luts/arri/ARRI_Alexa_LUTs/ARRI_LogC3_v1-2_LUT_Package/LUTs/ARRI_LogC3-to-St2084_4K_Rec2100-D65_DW200_v2_33.cube
LUT_3D_SIZE 5
0.00000073 0.00000073 0.00000073
0.20523733 0.06829599 0.01294967
0.43010518 0.19150739 0.05130229
0.67950674 0.37359992 0.13435456
0.90257239 0.60460291 0.27920753
0.07660623 0.19146709 0.00000073
0.19647053 0.20455117 0.00000073
0.46124262 0.26215964 0.00000073
0.72088135 0.41848834 0.13431203
0.90257239 0.61958026 0.28402338
0.27382022 0.49936318 0.00000073
0.32002321 0.51358388 0.00000073
0.51196617 0.52514694 0.00000073
0.73337434 0.55767284 0.00000073
0.90257239 0.63844223 0.00000073
0.50307895 0.77357225 0.00000073
0.50314478 0.76319553 0.00000073
0.58129702 0.75497599 0.00000073
0.74196553 0.75614460 0.00000073
0.89017454 0.77448827 0.00000073
0.69431627 0.90257239 0.00000073
0.67351081 0.90257239 0.00000073
0.69925683 0.90257239 0.00000073
0.79474096 0.90257239 0.00000073
0.89967906 0.90257239 0.00000073
0.00000073 0.00000073 0.18486859
0.18079279 0.00000073 0.14312576
0.42412265 0.18255188 0.14175637
0.67804687 0.37163058 0.17905284
0.90257239 0.59473860 0.28625301
0.02920548 0.18177347 0.18386712
0.19607037 0.19607037 0.19607037
0.46752346 0.25966780 0.21331755
0.71568582 0.41368170 0.24910590
0.90257239 0.59606273 0.32164298
0.27453713 0.50394183 0.00000073
0.32137681 0.51552559 0.00000073
0.51367340 0.52604437 0.00000073
0.72406567 0.55759400 0.21595989
0.88823149 0.62683063 0.33087038
0.49577067 0.76615584 0.00000073
0.49895129 0.75579935 0.00000073
0.58688072 0.75007696 0.00000073
0.74191020 0.75556915 0.00000073
0.87769463 0.77592845 0.16885055
0.67549272 0.90257239 0.00000073
0.66214684 0.90257239 0.00000073
0.70292864 0.90257239 0.00000073
0.80210150 0.90257239 0.00000073
0.89299678 0.90257239 0.63323671
0.00000073 0.00000073 0.27064225
0.13295203 0.00000073 0.24443409
0.40402251 0.11142180 0.25555660
0.65946065 0.35056379 0.28064879
0.89128470 0.56063815 0.33458529
0.00000073 0.00000073 0.38176035
0.00000073 0.00000073 0.40647417
0.45675052 0.00000073 0.42805035
0.69868939 0.37095566 0.44979497
0.89040609 0.55811026 0.47740038
0.14488424 0.48679539 0.48912064
0.26987070 0.49616979 0.49996042
0.50897895 0.50897896 0.50897896
0.71318019 0.54478546 0.52377927
0.86424626 0.61119482 0.54919540
0.47703618 0.75493540 0.41241957
0.48680848 0.74567631 0.46181206
0.59044486 0.74412189 0.50972661
0.74258479 0.75344734 0.56111077
0.86652925 0.77583361 0.62150018
0.65496151 0.90257239 0.00000073
0.65158455 0.90257239 0.00000073
0.70872473 0.90257239 0.48804858
0.81324387 0.89955903 0.66211176
0.88860416 0.89436094 0.82819383
0.00000073 0.00000073 0.33012607
0.00000073 0.00000073 0.32061800
0.37799530 0.00000073 0.33649355
0.62900672 0.30583687 0.36065935
0.84422566 0.51191552 0.39772146
0.00000073 0.00000073 0.48603608
0.00000073 0.00000073 0.51328652
0.42260059 0.00000073 0.53829627
0.66763639 0.00000073 0.56375251
0.84551538 0.48546851 0.58933897
0.00000073 0.28601061 0.67044100
0.00000073 0.27902032 0.67987488
0.47021198 0.35260459 0.68476323
0.69395361 0.46382919 0.68765838
0.83829775 0.56702062 0.69577165
0.29717951 0.72548330 0.72712877
0.39392990 0.71973323 0.72346717
0.57864418 0.72457791 0.72817575
0.74061168 0.74061169 0.74061170
0.85089512 0.76984775 0.76392242
0.62005358 0.90257239 0.70395481
0.63121790 0.90091657 0.73188013
0.71381273 0.89302590 0.76333537
0.83736681 0.88119257 0.82769193
0.89214005 0.89331002 0.88254859
0.00000073 0.00000073 0.37741095
0.00000073 0.00000073 0.38287774
0.34446378 0.00000073 0.40171305
0.59131979 0.17202204 0.42696167
0.79331729 0.45173894 0.46060216
0.00000073 0.00000073 0.56427449
0.00000073 0.00000073 0.58947853
0.36425395 0.00000073 0.61300934
0.63089129 0.00000073 0.63589068
0.80023395 0.26133702 0.65906675
0.00000073 0.00000073 0.75988747
0.00000073 0.00000073 0.76859828
0.33330781 0.00000073 0.77457731
0.66587085 0.00000073 0.77891547
0.80858309 0.42888752 0.78346219
0.00000073 0.63179135 0.86536737
0.00000073 0.64283445 0.85491448
0.52450731 0.66915760 0.84902501
0.73328969 0.70846567 0.84673600
0.82244903 0.77431357 0.82747144
0.44633266 0.88384911 0.88605029
0.56712793 0.87503318 0.87881208
0.74441885 0.86644977 0.86974464
0.86028427 0.87532258 0.87599012
0.89999998 0.90000000 0.90000003
