resources/flame/Syncolor/Shared/transforms/camera_manufacturer_luts/arri/ARRI_Alexa_LUTs/ARRI_LogC3_v1-2_LUT_Package/LUTs/ARRI_LogC3-to-St2084_4K_Rec2100-D65_DW100_v2_33.cube
LUT_3D_SIZE 33
0.00000073 0.00000073 0.00000073
0.02791784 0.00556370 0.00072140
0.05367364 0.01215183 0.00166668
0.07898963 0.01963176 0.00286187
0.10417733 0.02791900 0.00431493
0.12933013 0.03695232 0.00603512
0.15452100 0.04670090 0.00803605
0.17980881 0.05715075 0.01033456
0.20523733 0.06829599 0.01294967
0.23086285 0.08014676 0.01590506
0.25688221 0.09279239 0.01924737
0.28350814 0.10635130 0.02303786
0.31095223 0.12096256 0.02735248
0.33942528 0.13678562 0.03228408
0.36913599 0.15399973 0.03794487
0.39950138 0.17231846 0.04429670
0.42992407 0.19139171 0.05125900
0.46040543 0.21121074 0.05886078
0.49094772 0.23176887 0.06713227
0.52155222 0.25306009 0.07610447
0.55221993 0.27507924 0.08580929
0.58295156 0.29782187 0.09627957
0.61374762 0.32128412 0.10754905
0.64460838 0.34546265 0.11965240
0.67553395 0.37035451 0.13262520
0.70652426 0.39595713 0.14650398
0.73757910 0.42226822 0.16132618
0.76869814 0.44928576 0.17713020
0.79988090 0.47700791 0.19395536
0.83112115 0.50542780 0.21183861
0.86221873 0.53435597 0.23069614
0.89303741 0.56364841 0.25045888
0.90257239 0.59323243 0.27109568
0.00262578 0.01106067 0.00000073
0.00285857 0.00308364 0.00000073
0.03003518 0.00606061 0.00078872
0.05631957 0.01289027 0.00177927
0.08230692 0.02067720 0.00303808
0.10825686 0.02933442 0.00457544
0.13436216 0.03884506 0.00641227
0.16087308 0.04926470 0.00858569
0.18802236 0.06068226 0.01114540
0.21603349 0.07321440 0.01415492
0.24512494 0.08700313 0.01769363
0.27539301 0.10215362 0.02184203
0.30593548 0.11824423 0.02653212
0.33652231 0.13514191 0.03175951
0.36715485 0.15282986 0.03755061
0.39783374 0.17129365 0.04393260
0.42855912 0.19052072 0.05093344
0.45933098 0.21050020 0.05858188
0.49015165 0.23122424 0.06690814
0.52102300 0.25268610 0.07594335
0.55194632 0.27487979 0.08571946
0.58292256 0.29780009 0.09626933
0.61395243 0.32144239 0.10762667
0.64503640 0.34580265 0.11982610
0.67617472 0.37087723 0.13290315
0.70736749 0.39666292 0.14689420
0.73861462 0.42315679 0.16183657
0.76991589 0.45035621 0.17776846
0.80116955 0.47816745 0.19467247
0.83218118 0.50640342 0.21246387
0.86289843 0.53499533 0.23112035
0.89326853 0.56387042 0.25061122
0.90257239 0.59294986 0.27089536
0.00567109 0.02215866 0.00000073
0.00372321 0.01521060 0.00000073
0.00783463 0.00841811 0.00000073
0.03524301 0.00762891 0.00083970
0.06299907 0.01480091 0.00207628
0.09114240 0.02353102 0.00352975
0.12003352 0.03352938 0.00536748
0.14996668 0.04488848 0.00765325
0.18076686 0.05755926 0.01042750
0.21159315 0.07117828 0.01365226
0.24242723 0.08569217 0.01734729
0.27327937 0.10106963 0.02153645
0.30415626 0.11728522 0.02624461
0.33506228 0.13431782 0.03149758
0.36600026 0.15214951 0.03732196
0.39697191 0.17076488 0.04374514
0.42797816 0.19015044 0.05079526
0.45901937 0.21029430 0.05850115
0.49009645 0.23118649 0.06689262
0.52121217 0.25281976 0.07600092
0.55236819 0.27518733 0.08585799
0.58356575 0.29828324 0.09649662
0.61480582 0.32210218 0.10795047
0.64608908 0.34663940 0.12025402
0.67741601 0.37189064 0.13344266
0.70878685 0.39785203 0.14755258
0.74016759 0.42449074 0.16260400
0.77136075 0.45162757 0.17852772
0.80229463 0.47918072 0.19529999
0.83291932 0.50708323 0.21289998
0.86318218 0.53526233 0.23129759
0.89302790 0.56363927 0.25045261
0.90257239 0.59212920 0.27031394
0.00979877 0.03569783 0.00000073
0.00818262 0.03055118 0.00000073
0.00685613 0.02618593 0.00000073
0.02186532 0.02333154 0.00000073
0.05268553 0.02419954 0.00000073
0.08427652 0.02893777 0.00000073
0.11573531 0.03670008 0.00127667
0.14707495 0.04674435 0.00544952
0.17833748 0.05848889 0.00890311
0.20955605 0.07157892 0.01251731
0.24075350 0.08580683 0.01646893
0.27194522 0.10104747 0.02084262
0.30314159 0.11722133 0.02569362
0.33434966 0.13427503 0.03106490
0.36557419 0.15217070 0.03699351
0.39681834 0.17088017 0.04351354
0.42808411 0.19038153 0.05065755
0.45937269 0.21065709 0.05845741
0.49068468 0.23169220 0.06694478
0.52202245 0.25347589 0.07615206
0.55338842 0.27599931 0.08611222
0.58478419 0.29925464 0.09685869
0.61621101 0.32323511 0.10842550
0.64766984 0.34793475 0.12084738
0.67915716 0.37334480 0.13415791
0.71052453 0.39933534 0.14832329
0.74166511 0.42580009 0.16331325
0.77253192 0.45267732 0.17911577
0.80307528 0.47989977 0.19571061
0.83324276 0.50739455 0.21306850
0.86297921 0.53508289 0.23115038
0.89222676 0.56288010 0.24990662
0.90257239 0.59069542 0.26927630
0.01709028 0.05720417 0.00000073
0.01666506 0.05601137 0.00000073
0.01630222 0.05498842 0.00000073
0.02320383 0.05405842 0.00000073
0.05089704 0.05388310 0.00000073
0.08194546 0.05507698 0.00000073
0.11351520 0.05819545 0.00000073
0.14514672 0.06358966 0.00000073
0.17674619 0.07132849 0.00000073
0.20830332 0.08125279 0.00000073
0.23982707 0.09309765 0.00805374
0.27132899 0.10659231 0.01514591
0.30281904 0.12150728 0.02147826
0.33430498 0.13766432 0.02784190
0.36579251 0.15493010 0.03449803
0.39728574 0.17320607 0.04158153
0.42878751 0.19241912 0.04917965
0.46029971 0.21251439 0.05735738
0.49182344 0.23345002 0.06616794
0.52336006 0.25519400 0.07565807
0.55491259 0.27772263 0.08587123
0.58648300 0.30101688 0.09684843
0.61807283 0.32506140 0.10862928
0.64961039 0.34978597 0.12122218
0.68095230 0.37505757 0.13459547
0.71205306 0.40081424 0.14874714
0.74286601 0.42699098 0.16366795
0.77334172 0.45351815 0.17934022
0.80342803 0.48032108 0.19573710
0.83307000 0.50731976 0.21282197
0.86220998 0.53442867 0.23054775
0.89078759 0.56155657 0.24885623
0.90257239 0.58860642 0.26767755
0.02879886 0.08797914 0.00000073
0.02853564 0.08732371 0.00000073
0.02827806 0.08668093 0.00000073
0.03137665 0.08607909 0.00000073
0.05285688 0.08580896 0.00000073
0.08183520 0.08617830 0.00000073
0.11278931 0.08754449 0.00000073
0.14434017 0.09028277 0.00000073
0.17607313 0.09472801 0.00000073
0.20784947 0.10111769 0.00000073
0.23962332 0.10955556 0.00000073
0.27138208 0.12001390 0.00000073
0.30312491 0.13236968 0.00000073
0.33485472 0.14645201 0.01538744
0.36657522 0.16208111 0.02610428
0.39828974 0.17909140 0.03543551
0.43000100 0.19734131 0.04454536
0.46171102 0.21671474 0.05383420
0.49342115 0.23711851 0.06350588
0.52513235 0.25847867 0.07368798
0.55684717 0.28073800 0.08447251
0.58854468 0.30383462 0.09592298
0.62008769 0.32762591 0.10804194
0.65141908 0.35202488 0.12084701
0.68249533 0.37695654 0.13435024
0.71327011 0.40234498 0.14855286
0.74369432 0.42811216 0.16344561
0.77371607 0.45417698 0.17900872
0.80328069 0.48045461 0.19521163
0.83233079 0.50685588 0.21201270
0.86080620 0.53328692 0.22935878
0.88864400 0.55964882 0.24718484
0.90257239 0.58583747 0.26541359
0.04215887 0.11963957 0.00000073
0.04200696 0.11929499 0.00000073
0.04186430 0.11897109 0.00000073
0.04350082 0.11867675 0.00000073
0.05908619 0.11856087 0.00000073
0.08458441 0.11878755 0.00000073
0.11400203 0.11956478 0.00000073
0.14492826 0.12114539 0.00000073
0.17646824 0.12380900 0.00000073
0.20826192 0.12783775 0.00000073
0.24015578 0.13348500 0.00000073
0.27208295 0.14094192 0.00000073
0.30401462 0.15031312 0.00000073
0.33593908 0.16161127 0.00000073
0.36785221 0.17477133 0.00000073
0.39975322 0.18967640 0.01282512
0.43164260 0.20618463 0.03151690
0.46352122 0.22415045 0.04478728
0.49538990 0.24343780 0.05689648
0.52724654 0.26392493 0.06877747
0.55899444 0.28544481 0.08078829
0.59055746 0.30784789 0.09311649
0.62189514 0.33101766 0.10588124
0.65296424 0.35484589 0.11915450
0.68371874 0.37923005 0.13297786
0.71410982 0.40407105 0.14737077
0.74408588 0.42927129 0.16233482
0.77359256 0.45473307 0.17785602
0.80257270 0.48035728 0.19390601
0.83096640 0.50604242 0.21044270
0.85871099 0.53168381 0.22741055
0.88574104 0.55717304 0.24474070
0.90257239 0.58239750 0.26235104
0.05699388 0.15195581 0.00000073
0.05695816 0.15188083 0.00000073
0.05693329 0.15182862 0.00000073
0.05802321 0.15180177 0.00000073
0.06923779 0.15188435 0.00000073
0.09057037 0.15216930 0.00000073
0.11755180 0.15277959 0.00000073
0.14720853 0.15387615 0.00000073
0.17812685 0.15565441 0.00000073
0.20965384 0.15833748 0.00000073
0.24147673 0.16216501 0.00000073
0.27344054 0.16737568 0.00000073
0.30546686 0.17418393 0.00000073
0.33751564 0.18275522 0.00000073
0.36956640 0.19318769 0.00000073
0.40160877 0.20550589 0.00000073
0.43363761 0.21966812 0.00000073
0.46565044 0.23558321 0.00895286
0.49760199 0.25310822 0.03969546
0.52939723 0.27205064 0.05722788
0.56099545 0.29223500 0.07239810
0.59235624 0.31349252 0.08677945
0.62343631 0.33566395 0.10096459
0.65418964 0.35860073 0.11524207
0.68456753 0.38216416 0.12976827
0.71451858 0.40622361 0.14462895
0.74398862 0.43065438 0.15986599
0.77292075 0.45533571 0.17549033
0.80125528 0.48014890 0.19148894
0.82892980 0.50497577 0.20782867
0.85587912 0.52969742 0.22445856
0.88203527 0.55419323 0.24131135
0.90257239 0.57846265 0.25839357
0.07321923 0.18485847 0.00000073
0.07329963 0.18501631 0.00000073
0.07339102 0.18519563 0.00000073
0.07429176 0.18539678 0.00000073
0.08254870 0.18567048 0.00000073
0.09982516 0.18607169 0.00000073
0.12372060 0.18667539 0.00000073
0.15145662 0.18758406 0.00000073
0.18125935 0.18892914 0.00000073
0.21216680 0.19087082 0.00000073
0.24366909 0.19359589 0.00000073
0.27549161 0.19731273 0.00000073
0.30748353 0.20224129 0.00000073
0.33956062 0.20859738 0.00000073
0.37167527 0.21657266 0.00000073
0.40380029 0.22631444 0.00000073
0.43590762 0.23790724 0.00000073
0.46790841 0.25134412 0.00000073
0.49975150 0.26655145 0.00000073
0.53139364 0.28340171 0.01332841
0.56279046 0.30173055 0.05173130
0.59389736 0.32135540 0.07290719
0.62466771 0.34208848 0.09078263
0.65505236 0.36374534 0.10738389
0.68499968 0.38614955 0.12345976
0.71445548 0.40913416 0.13936378
0.74336291 0.43254137 0.15527837
0.77166242 0.45622112 0.17129521
0.79929176 0.48002936 0.18745028
0.82618592 0.50382618 0.20374107
0.85232573 0.52751812 0.22016823
0.87783655 0.55115327 0.23681391
0.90257239 0.57466531 0.25366141
0.09076130 0.21827025 0.00000073
0.09095395 0.21862668 0.00000073
0.09115656 0.21900130 0.00000073
0.09201515 0.21939360 0.00000073
0.09830568 0.21983549 0.00000073
0.11209014 0.22036042 0.00000073
0.13262845 0.22101543 0.00000073
0.15789445 0.22186665 0.00000073
0.18607040 0.22300207 0.00000073
0.21595644 0.22453347 0.00000073
0.24683720 0.22659770 0.00000073
0.27829567 0.22935688 0.00000073
0.31008765 0.23299640 0.00000073
0.34206846 0.23771938 0.00000073
0.37415022 0.24373592 0.00000073
0.40623404 0.25124072 0.00000073
0.43823747 0.26039162 0.00000073
0.47010279 0.27129074 0.00000073
0.50177732 0.28397050 0.00000073
0.53321045 0.29839154 0.00000073
0.56435197 0.31445083 0.00000073
0.59515213 0.33199719 0.02699775
0.62556018 0.35084826 0.06731557
0.65552328 0.37080573 0.09131038
0.68498652 0.39166719 0.11136630
0.71389263 0.41323376 0.12971680
0.74218186 0.43531408 0.14720183
0.76979190 0.45772577 0.16421297
0.79666729 0.48030300 0.18095078
0.82289459 0.50301177 0.19761137
0.84846652 0.52575834 0.21427226
0.87335514 0.54844387 0.23095522
0.89753542 0.57097891 0.24765986
0.10954981 0.25210944 0.00000073
0.10984764 0.25263191 0.00000073
0.11015348 0.25316799 0.00000073
0.11103042 0.25371685 0.00000073
0.11599089 0.25429898 0.00000073
0.12696243 0.25493505 0.00000073
0.14422369 0.25565520 0.00000073
0.16666204 0.25650277 0.00000073
0.19274232 0.25753695 0.00000073
0.22118282 0.25883521 0.00000073
0.25110052 0.26049560 0.00000073
0.28193082 0.26263873 0.00000073
0.31332091 0.26540917 0.00000073
0.34503611 0.26897336 0.00000073
0.37689485 0.27351671 0.00000073
0.40877403 0.27923530 0.00000073
0.44057986 0.28631607 0.00000073
0.47223597 0.29491796 0.00000073
0.50367615 0.30515285 0.00000073
0.53483977 0.31707097 0.00000073
0.56566891 0.33065421 0.00000073
0.59610745 0.34581921 0.00000073
0.62609941 0.36242792 0.00000073
0.65558761 0.38030223 0.04405161
0.68451324 0.39923943 0.08507454
0.71281560 0.41902554 0.11108634
0.74041471 0.43942907 0.13268065
0.76731592 0.46028819 0.15221328
0.79358376 0.48151350 0.17065644
0.81919480 0.50296937 0.18844488
0.84412484 0.52453118 0.20581332
0.86834902 0.54608435 0.22289128
0.89184178 0.56752304 0.23974628
0.12951405 0.28629176 0.00000073
0.12990721 0.28694889 0.00000073
0.13030561 0.28761417 0.00000073
0.13122155 0.28828667 0.00000073
0.13525227 0.28897952 0.00000073
0.14402527 0.28970557 0.00000073
0.15831728 0.29048433 0.00000073
0.17779763 0.29134454 0.00000073
0.20141621 0.29232631 0.00000073
0.22800106 0.29348337 0.00000073
0.25658946 0.29488541 0.00000073
0.28649023 0.29661903 0.00000073
0.31721892 0.29878752 0.00000073
0.34843695 0.30152570 0.00000073
0.37990787 0.30498937 0.00000073
0.41146142 0.30934951 0.00000073
0.44296978 0.31478379 0.00000073
0.47433202 0.32146374 0.00000073
0.50546397 0.32953849 0.00000073
0.53629170 0.33911751 0.00000073
0.56674717 0.35025589 0.00000073
0.59676626 0.36294593 0.00000073
0.62628467 0.37711460 0.00000073
0.65521286 0.39260804 0.00000073
0.68348157 0.40924818 0.00000073
0.71106228 0.42685448 0.06029925
0.73802713 0.44530114 0.10276454
0.76436233 0.46442279 0.13053643
0.79004394 0.48405386 0.15350578
0.81504758 0.50403757 0.17408048
0.83934831 0.52422779 0.19323937
0.86292059 0.54448946 0.21146589
0.88573825 0.56469799 0.22902839
0.15058077 0.32073136 0.00000073
0.15105687 0.32149257 0.00000073
0.15153475 0.32225591 0.00000073
0.15248989 0.32302033 0.00000073
0.15584426 0.32379412 0.00000073
0.16291289 0.32458509 0.00000073
0.17464119 0.32540594 0.00000073
0.19123592 0.32627580 0.00000073
0.21217254 0.32722201 0.00000073
0.23654820 0.32828153 0.00000073
0.26344355 0.32949289 0.00000073
0.29208181 0.33092017 0.00000073
0.32186900 0.33265073 0.00000073
0.35237284 0.33478958 0.00000073
0.38328185 0.33745977 0.00000073
0.41436897 0.34080106 0.00000073
0.44546424 0.34496601 0.00000073
0.47643567 0.35011261 0.00000073
0.50717613 0.35639334 0.00000073
0.53758583 0.36393235 0.00000073
0.56755743 0.37280170 0.00000073
0.59701855 0.38305390 0.00000073
0.62590257 0.39468627 0.00000073
0.65415018 0.40763821 0.00000073
0.68179843 0.42183732 0.00000073
0.70884934 0.43717146 0.00000073
0.73527744 0.45349328 0.00000073
0.76105752 0.47064004 0.07529709
0.78616435 0.48844290 0.11988704
0.81057245 0.50673415 0.14918899
0.83425597 0.52535210 0.17314954
0.85718856 0.54414386 0.19435704
0.87934331 0.56296707 0.21384603
0.17267304 0.35534137 0.00000073
0.17321737 0.35617672 0.00000073
0.17375939 0.35700774 0.00000073
0.17474253 0.35783332 0.00000073
0.17758328 0.35865836 0.00000073
0.18332442 0.35948745 0.00000073
0.19290187 0.36032871 0.00000073
0.20682564 0.36119489 0.00000073
0.22502325 0.36209483 0.00000073
0.24695005 0.36304266 0.00000073
0.27182742 0.36408069 0.00000073
0.29887586 0.36526274 0.00000073
0.32743320 0.36665541 0.00000073
0.35698173 0.36833950 0.00000073
0.38713149 0.37041084 0.00000073
0.41759121 0.37298035 0.00000073
0.44812061 0.37615165 0.00000073
0.47853460 0.38004348 0.00000073
0.50870171 0.38479766 0.00000073
0.53851344 0.39054959 0.00000073
0.56787660 0.39741605 0.00000073
0.59670838 0.40548204 0.00000073
0.62498303 0.41480157 0.00000073
0.65270966 0.42539653 0.00000073
0.67985633 0.43723765 0.00000073
0.70639341 0.45025371 0.00000073
0.73229276 0.46433732 0.00000073
0.75752708 0.47935323 0.00000073
0.78206943 0.49514767 0.00000073
0.80589298 0.51155696 0.08679610
0.82897071 0.52841552 0.13464799
0.85127531 0.54556102 0.16550705
0.87277901 0.56283806 0.19028551
0.19570956 0.39003430 0.00000073
0.19630521 0.39091429 0.00000073
0.19689393 0.39178324 0.00000073
0.19788718 0.39263989 0.00000073
0.20032028 0.39348679 0.00000073
0.20501469 0.39432637 0.00000073
0.21281422 0.39515868 0.00000073
0.22436630 0.39596824 0.00000073
0.23992526 0.39677042 0.00000073
0.25928171 0.39759084 0.00000073
0.28188517 0.39846254 0.00000073
0.30704294 0.39942715 0.00000073
0.33407620 0.40053309 0.00000073
0.36237821 0.40181460 0.00000073
0.39148295 0.40334290 0.00000073
0.42103632 0.40520939 0.00000073
0.45076699 0.40751765 0.00000073
0.48046517 0.41038150 0.00000073
0.50996523 0.41392118 0.00000073
0.53913249 0.41825705 0.00000073
0.56786933 0.42350314 0.00000073
0.59614969 0.42976494 0.00000073
0.62392654 0.43712195 0.00000073
0.65115657 0.44562407 0.00000073
0.67780195 0.45528588 0.00000073
0.70382865 0.46608334 0.00000073
0.72920507 0.47795430 0.00000073
0.75390121 0.49080212 0.00000073
0.77788801 0.50450271 0.00000073
0.80113688 0.51891232 0.00000073
0.82361942 0.53387534 0.00000073
0.84530708 0.54923138 0.09054375
0.86617109 0.56482088 0.14472816
0.21960506 0.42472339 0.00000073
0.22023258 0.42561816 0.00000073
0.22084831 0.42649537 0.00000073
0.22182981 0.42735349 0.00000073
0.22392419 0.42819227 0.00000073
0.22776821 0.42898499 0.00000073
0.23410111 0.42972571 0.00000073
0.24360619 0.43042638 0.00000073
0.25672151 0.43110293 0.00000073
0.27350458 0.43176467 0.00000073
0.29363562 0.43241307 0.00000073
0.31657950 0.43308409 0.00000073
0.34171460 0.43382255 0.00000073
0.36844527 0.43468197 0.00000073
0.39625840 0.43572534 0.00000073
0.42473701 0.43702573 0.00000073
0.45355148 0.43866622 0.00000073
0.48244293 0.44073894 0.00000073
0.51120840 0.44334314 0.00000073
0.53972432 0.44658690 0.00000073
0.56789737 0.45057227 0.00000073
0.59564794 0.45539451 0.00000073
0.62291213 0.46113799 0.00000073
0.64963708 0.46786887 0.00000073
0.67577773 0.47562815 0.00000073
0.70129442 0.48442603 0.00000073
0.72615124 0.49423893 0.00000073
0.75031480 0.50500965 0.00000073
0.77375336 0.51664982 0.00000073
0.79643619 0.52904500 0.00000073
0.81833309 0.54206118 0.00000073
0.83941409 0.55555164 0.00000073
0.85964917 0.56936340 0.00000073
0.24426957 0.45932181 0.00000073
0.24490764 0.46020197 0.00000073
0.24552893 0.46105779 0.00000073
0.24646080 0.46186848 0.00000073
0.24822468 0.46260518 0.00000073
0.25135299 0.46327261 0.00000073
0.25645848 0.46385481 0.00000073
0.26417132 0.46435020 0.00000073
0.27501182 0.46477647 0.00000073
0.28924474 0.46515510 0.00000073
0.30681409 0.46551205 0.00000073
0.32738037 0.46587850 0.00000073
0.35042987 0.46629164 0.00000073
0.37539364 0.46679539 0.00000073
0.40173266 0.46744115 0.00000073
0.42897978 0.46828818 0.00000073
0.45674992 0.46940372 0.00000073
0.48474509 0.47086885 0.00000073
0.51275168 0.47276816 0.00000073
0.54060417 0.47518243 0.00000073
0.56817527 0.47819585 0.00000073
0.59536568 0.48189244 0.00000073
0.62209638 0.48635133 0.00000073
0.64830294 0.49164111 0.00000073
0.67393136 0.49781363 0.00000073
0.69893513 0.50489890 0.00000073
0.72327301 0.51290020 0.00000073
0.74690741 0.52179149 0.00000073
0.76980328 0.53151713 0.00000073
0.79192723 0.54199391 0.00000073
0.81324693 0.55311508 0.00000073
0.83373062 0.56475570 0.00000073
0.85334682 0.57677843 0.00000073
0.26960798 0.49374225 0.00000073
0.27022720 0.49457029 0.00000073
0.27078605 0.49531120 0.00000073
0.27155914 0.49593288 0.00000073
0.27294774 0.49643819 0.00000073
0.27538143 0.49683660 0.00000073
0.27938774 0.49713944 0.00000073
0.28554415 0.49736027 0.00000073
0.29438808 0.49751528 0.00000073
0.30630126 0.49762371 0.00000073
0.32141499 0.49770843 0.00000073
0.33958378 0.49779645 0.00000073
0.36043772 0.49791956 0.00000073
0.38347957 0.49811487 0.00000073
0.40818008 0.49842532 0.00000073
0.43404316 0.49890453 0.00000073
0.46064841 0.49962087 0.00000073
0.48766558 0.50063029 0.00000073
0.51483589 0.50199310 0.00000073
0.54195840 0.50377493 0.00000073
0.56887717 0.50604521 0.00000073
0.59547022 0.50887490 0.00000073
0.62164078 0.51233303 0.00000073
0.64731069 0.51648312 0.00000073
0.67241535 0.52137828 0.00000073
0.69689993 0.52705630 0.00000073
0.72071674 0.53353511 0.00000073
0.74382310 0.54080928 0.00000073
0.76617994 0.54884802 0.00000073
0.78775127 0.55759560 0.00000073
0.80850753 0.56697731 0.00000073
0.82845843 0.57690954 0.00000073
0.84772771 0.58734792 0.00000073
0.29543348 0.52778455 0.00000073
0.29587285 0.52835530 0.00000073
0.29622503 0.52880048 0.00000073
0.29674853 0.52912741 0.00000073
0.29774961 0.52934448 0.00000073
0.29957625 0.52946127 0.00000073
0.30266724 0.52948899 0.00000073
0.30752834 0.52944072 0.00000073
0.31467467 0.52933175 0.00000073
0.32454157 0.52917990 0.00000073
0.33738846 0.52900595 0.00000073
0.35323671 0.52883409 0.00000073
0.37187064 0.52869229 0.00000073
0.39289675 0.52861426 0.00000073
0.41582239 0.52865732 0.00000073
0.44016102 0.52886396 0.00000073
0.46547832 0.52927314 0.00000073
0.49140740 0.52992874 0.00000073
0.51765019 0.53087954 0.00000073
0.54396973 0.53217877 0.00000073
0.57017926 0.53388294 0.00000073
0.59613168 0.53605073 0.00000073
0.62171017 0.53874062 0.00000073
0.64682069 0.54200797 0.00000073
0.67138616 0.54590153 0.00000073
0.69534202 0.55045950 0.00000073
0.71863510 0.55570792 0.00000073
0.74122122 0.56165723 0.00000073
0.76305519 0.56829149 0.00000073
0.78410391 0.57557485 0.00000073
0.80445364 0.58348319 0.00000073
0.82413584 0.59197317 0.00000073
0.84315001 0.60098400 0.00000073
0.32130819 0.56094925 0.00000073
0.32151780 0.56121433 0.00000073
0.32164664 0.56135981 0.00000073
0.32191247 0.56139348 0.00000073
0.32255222 0.56132405 0.00000073
0.32385069 0.56116136 0.00000073
0.32617395 0.56091669 0.00000073
0.32995940 0.56060295 0.00000073
0.33568097 0.56023495 0.00000073
0.34378474 0.55982966 0.00000073
0.35460527 0.55940652 0.00000073
0.36829048 0.55898775 0.00000073
0.38475921 0.55861701 0.00000073
0.40372608 0.55833912 0.00000073
0.42478837 0.55817897 0.00000073
0.44749710 0.55816495 0.00000073
0.47141518 0.55832918 0.00000073
0.49615181 0.55870768 0.00000073
0.52137598 0.55934019 0.00000073
0.54681668 0.56027007 0.00000073
0.57225610 0.56154370 0.00000073
0.59752041 0.56320934 0.00000073
0.62247082 0.56531562 0.00000073
0.64700010 0.56791396 0.00000073
0.67101876 0.57104853 0.00000073
0.69444945 0.57475274 0.00000073
0.71722636 0.57904946 0.00000073
0.73929220 0.58394793 0.00000073
0.76066312 0.58945287 0.00000073
0.78138459 0.59556143 0.00000073
0.80145029 0.60225122 0.00000073
0.82085576 0.60948872 0.00000073
0.83959772 0.61722999 0.00000073
0.34712933 0.59319639 0.00000073
0.34709660 0.59315601 0.00000073
0.34698964 0.59300207 0.00000073
0.34699171 0.59274286 0.00000073
0.34729031 0.59238749 0.00000073
0.34812169 0.59194619 0.00000073
0.34979357 0.59143046 0.00000073
0.35268316 0.59085326 0.00000073
0.35721724 0.59022923 0.00000073
0.36382754 0.58957485 0.00000073
0.37288340 0.58891853 0.00000073
0.38460676 0.58831379 0.00000073
0.39902353 0.58778057 0.00000073
0.41597436 0.58733768 0.00000073
0.43515332 0.58700644 0.00000073
0.45616858 0.58681090 0.00000073
0.47860272 0.58677803 0.00000073
0.50205750 0.58693777 0.00000073
0.52617922 0.58732321 0.00000073
0.55066880 0.58797118 0.00000073
0.57528427 0.58892533 0.00000073
0.59982444 0.59022504 0.00000073
0.62412574 0.59190898 0.00000073
0.64805556 0.59401466 0.00000073
0.67150546 0.59657645 0.00000073
0.69438550 0.59962325 0.00000073
0.71664140 0.60317946 0.00000073
0.73829531 0.60726830 0.00000073
0.75933171 0.61189538 0.00000073
0.77973589 0.61705731 0.00000073
0.79949699 0.62274171 0.00000073
0.81860681 0.62892687 0.00000073
0.83705892 0.63558180 0.00000073
0.37283739 0.62453588 0.00000073
0.37254965 0.62418909 0.00000073
0.37219476 0.62373486 0.00000073
0.37192731 0.62318200 0.00000073
0.37189934 0.62254011 0.00000073
0.37230997 0.62181986 0.00000073
0.37342094 0.62103309 0.00000073
0.37555895 0.62019298 0.00000073
0.37910620 0.61931682 0.00000073
0.38447752 0.61846033 0.00000073
0.39202948 0.61764998 0.00000073
0.40201904 0.61689903 0.00000073
0.41456055 0.61622233 0.00000073
0.42960166 0.61563655 0.00000073
0.44693543 0.61516030 0.00000073
0.46624223 0.61481436 0.00000073
0.48714663 0.61462469 0.00000073
0.50926444 0.61462085 0.00000073
0.53223024 0.61482933 0.00000073
0.55572109 0.61527873 0.00000073
0.57946251 0.61599946 0.00000073
0.60322668 0.61702317 0.00000073
0.62682683 0.61838183 0.00000073
0.65011038 0.62010651 0.00000073
0.67295551 0.62222685 0.00000073
0.69531324 0.62477901 0.00000073
0.71714433 0.62778309 0.00000073
0.73841166 0.63125087 0.00000073
0.75908752 0.63518900 0.00000073
0.77915108 0.63959801 0.00000073
0.79858643 0.64447144 0.00000073
0.81738121 0.64979528 0.00000073
0.83552546 0.65554768 0.00000073
