resources/flame/Syncolor/Shared/transforms/camera_manufacturer_luts/arri/ARRI_Alexa_LUTs/ARRI_LogC3_v1-2_LUT_Package/LUTs/ARRI_LogC3-to-St2084_4K_P3-D65_DW200_v2_33.cube
LUT_3D_SIZE 9
0.00000073 0.00000073 0.00000073
0.11581541 0.00000073 0.00700336
0.22368216 0.00000073 0.02017679
0.33435676 0.00000073 0.04095985
0.45731219 0.00000073 0.07376295
0.58338108 0.00000073 0.11939519
0.71039950 0.00000073 0.17923779
0.83835327 0.00000073 0.25531267
0.90257239 0.00000073 0.34836992
0.00000073 0.05892349 0.00000073
0.05204637 0.05489849 0.00000073
0.19544929 0.04521106 0.00000073
0.33110313 0.00000073 0.03621931
0.46496379 0.00000073 0.07439580
0.59796873 0.00000073 0.12464545
0.73005901 0.00000073 0.18939986
0.85781139 0.00000073 0.26814668
0.90257239 0.00000073 0.35820463
0.00000073 0.19565066 0.00000073
0.00000073 0.20055582 0.00000073
0.19812563 0.20575102 0.00000073
0.34803833 0.20905115 0.00000073
0.48813624 0.20187538 0.00000073
0.62326412 0.12191236 0.10799419
0.75181858 0.00000073 0.19071362
0.87103048 0.00000073 0.27227556
0.90257239 0.00000073 0.35610875
0.00000073 0.34902528 0.00000073
0.00000073 0.35757606 0.00000073
0.12616076 0.36584582 0.00000073
0.36231611 0.37305686 0.00000073
0.51012404 0.37779699 0.00000073
0.64254723 0.37621063 0.00000073
0.76259445 0.35521129 0.00000073
0.87063941 0.19932756 0.23622007
0.90257239 0.00000073 0.33067138
0.00000073 0.50627258 0.00000073
0.00000073 0.51420376 0.00000073
0.00000073 0.52028738 0.00000073
0.32576389 0.52445058 0.00000073
0.51468481 0.52708460 0.00000073
0.64749316 0.52824003 0.00000073
0.76110726 0.52646855 0.00000073
0.85999689 0.51769756 0.00000073
0.90257239 0.49263965 0.17326837
0.00000073 0.65391196 0.00000073
0.00000073 0.65605618 0.00000073
0.00000073 0.65618081 0.00000073
0.00000073 0.65504015 0.00000073
0.48204282 0.65368412 0.00000073
0.63934748 0.65245551 0.00000073
0.75258093 0.65189094 0.00000073
0.84576268 0.65175753 0.00000073
0.90257239 0.65104808 0.00000073
0.00000073 0.78111093 0.00000073
0.00000073 0.77620577 0.00000073
0.00000073 0.77068024 0.00000073
0.00000073 0.76572376 0.00000073
0.00000073 0.76170576 0.00000073
0.61717048 0.75900619 0.00000073
0.74489839 0.75822052 0.00000073
0.83850675 0.75915083 0.00000073
0.90257239 0.76143615 0.00000073
0.00000073 0.88708506 0.00000073
0.00000073 0.87808949 0.00000073
0.00000073 0.86944350 0.00000073
0.00000073 0.86149565 0.00000073
0.00000073 0.85521442 0.00000073
0.55230981 0.85115092 0.00000073
0.73605920 0.84908003 0.00000073
0.83550675 0.84874246 0.00000073
0.90257239 0.84957043 0.00000073
0.00000073 0.90257239 0.00000073
0.00000073 0.90257239 0.00000073
0.00000073 0.90257239 0.00000073
0.00000073 0.90257239 0.00000073
0.00000073 0.90257239 0.00000073
0.00000073 0.90257239 0.00000073
0.71836746 0.90257239 0.00000073
0.83149384 0.90257239 0.00000073
0.90252661 0.90257239 0.00000073
0.00000073 0.00000073 0.11099678
0.10087006 0.00000073 0.08448518
0.21380022 0.00000073 0.06192842
0.32988597 0.00000073 0.05797832
0.45630732 0.00000073 0.08179148
0.58350234 0.00000073 0.12343076
0.71141994 0.00000073 0.18177014
0.83958874 0.00000073 0.25713670
0.90257239 0.00000073 0.34727996
0.00000073 0.05203693 0.05146901
0.04904836 0.04904836 0.04904836
0.19750776 0.03753020 0.05095033
0.33358280 0.00000073 0.06329513
0.46785284 0.00000073 0.09028416
0.60117898 0.00000073 0.13422414
0.73163200 0.00000073 0.19473793
0.85580063 0.00000073 0.26928173
0.90257239 0.00000073 0.35358767
0.00000073 0.19693954 0.00000073
0.00000073 0.20256864 0.00000073
0.20030366 0.20769433 0.00000073
0.35208870 0.21058564 0.00000073
0.49194325 0.20321797 0.05927057
0.62514910 0.12669395 0.13154865
0.75024177 0.00000073 0.20045173
0.86434983 0.00000073 0.27385707
0.90257239 0.00000073 0.35088956
0.00000073 0.35196376 0.00000073
0.00000073 0.36072182 0.00000073
0.12281874 0.36890367 0.00000073
0.36495576 0.37558802 0.00000073
0.51223644 0.38004696 0.00000073
0.64194579 0.37900553 0.00000073
0.75835854 0.36152583 0.12861291
0.86228101 0.26383295 0.24871061
0.90257239 0.00000073 0.33012617
0.00000073 0.50923243 0.00000073
0.00000073 0.51654213 0.00000073
0.00000073 0.52187531 0.00000073
0.32904384 0.52547951 0.00000073
0.51563413 0.52793659 0.00000073
0.64602739 0.52944270 0.00000073
0.75632533 0.52876327 0.00000073
0.85093008 0.52305861 0.00000073
0.90257239 0.50698533 0.23517598
0.00000073 0.65434831 0.00000073
0.00000073 0.65549481 0.00000073
0.00000073 0.65493563 0.00000073
0.00000073 0.65380735 0.00000073
0.48638462 0.65267662 0.00000073
0.63904107 0.65204901 0.00000073
0.74882605 0.65257568 0.00000073
0.83894047 0.65401277 0.00000073
0.90257239 0.65552094 0.00000073
0.00000073 0.77777502 0.00000073
0.00000073 0.77235827 0.00000073
0.00000073 0.76705296 0.00000073
0.00000073 0.76251287 0.00000073
0.19304051 0.75908720 0.00000073
0.62233262 0.75745012 0.00000073
0.74463783 0.75783447 0.00000073
0.83478850 0.75994801 0.00000073
0.90257239 0.76356758 0.00000073
0.00000073 0.88092991 0.00000073
0.00000073 0.87198433 0.00000073
0.00000073 0.86357541 0.00000073
0.00000073 0.85635285 0.00000073
0.00000073 0.85135417 0.00000073
0.57656669 0.84843755 0.00000073
0.74073668 0.84742237 0.00000073
0.83491236 0.84796854 0.00000073
0.90257239 0.84968757 0.00000073
0.00000073 0.90257239 0.00000073
0.00000073 0.90257239 0.00000073
0.00000073 0.90257239 0.00000073
0.00000073 0.90257239 0.00000073
0.00000073 0.90257239 0.00000073
0.14402307 0.90257239 0.00000073
0.73245161 0.90257239 0.00000073
0.83519737 0.90257239 0.00000073
0.89957169 0.90257239 0.00000073
0.00000073 0.00000073 0.18607845
0.05944440 0.00000073 0.16356456
0.19776893 0.00000073 0.14433472
0.32244580 0.00000073 0.13926207
0.45117304 0.00000073 0.14715672
0.57986708 0.00000073 0.16742245
0.70893122 0.00000073 0.20673547
0.83559152 0.00000073 0.26802039
0.90257239 0.00000073 0.34767452
0.00000073 0.00000073 0.16764652
0.00000073 0.00000073 0.17062586
0.19124085 0.00000073 0.17342395
0.33268704 0.00000073 0.17873918
0.46872265 0.00000073 0.18919106
0.60216502 0.00000073 0.20816568
0.73045419 0.00000073 0.24152764
0.85064289 0.00000073 0.29319735
0.90257239 0.00000073 0.36002194
0.00000073 0.18541451 0.18374393
0.00000073 0.19120488 0.19001801
0.19607037 0.19607037 0.19607037
0.35520386 0.19785725 0.20367717
0.49452602 0.18756749 0.21589715
0.62546396 0.02921229 0.23530262
0.74658138 0.00000073 0.26636853
0.85631863 0.00000073 0.31111877
0.90257239 0.00000073 0.36720682
0.00000073 0.35196041 0.15818894
0.00000073 0.36087686 0.16522671
0.07811664 0.36907019 0.17145878
0.36612201 0.37517531 0.18281525
0.51384470 0.37909361 0.20573053
0.64061582 0.37842586 0.23507155
0.75347234 0.36337491 0.27181150
0.85303887 0.29107013 0.31648606
0.90257239 0.00000073 0.36634681
0.00000073 0.51084480 0.00000073
0.00000073 0.51741932 0.00000073
0.00000073 0.52218885 0.00000073
0.32986807 0.52547080 0.00000073
0.51621729 0.52787065 0.00000073
0.64449458 0.52965493 0.00000073
0.75129702 0.53001965 0.19331803
0.84149353 0.52702578 0.28678423
0.90257239 0.51706440 0.35105091
0.00000073 0.65369387 0.00000073
0.00000073 0.65394749 0.00000073
0.00000073 0.65318520 0.00000073
0.00000073 0.65223248 0.00000073
0.49022498 0.65140198 0.00000073
0.63887310 0.65147534 0.00000073
0.74559708 0.65309307 0.00000073
0.83274201 0.65590567 0.00000073
0.90257239 0.65931892 0.28564440
0.00000073 0.77368831 0.00000073
0.00000073 0.76822230 0.00000073
0.00000073 0.76325449 0.00000073
0.00000073 0.75922627 0.00000073
0.33341401 0.75664504 0.00000073
0.62728398 0.75614736 0.00000073
0.74473010 0.75757422 0.00000073
0.83151263 0.76074846 0.00000073
0.90029913 0.76557406 0.00000073
0.00000073 0.87447696 0.00000073
0.00000073 0.86566341 0.00000073
0.00000073 0.85766235 0.00000073
0.00000073 0.85169893 0.00000073
0.00000073 0.84788751 0.00000073
0.59645291 0.84602436 0.00000073
0.74549428 0.84596397 0.00000073
0.83458015 0.84723849 0.00000073
0.89896469 0.84977558 0.00000073
0.00000073 0.90257239 0.00000073
0.00000073 0.90257239 0.00000073
0.00000073 0.90257239 0.00000073
0.00000073 0.90257239 0.00000073
0.00000073 0.90257239 0.00000073
0.50265075 0.90257239 0.00000073
0.74547268 0.90257239 0.00000073
0.83957723 0.90257239 0.00000073
0.89543995 0.90257239 0.61055792
0.00000073 0.00000073 0.23597272
0.00000073 0.00000073 0.21649816
0.17573735 0.00000073 0.20256777
0.31084265 0.00000073 0.20328650
0.44219546 0.00000073 0.21036840
0.57260771 0.00000073 0.22410859
0.70181173 0.00000073 0.24944501
0.82597106 0.00000073 0.29234344
0.90257239 0.00000073 0.35451875
0.00000073 0.00000073 0.24977492
0.00000073 0.00000073 0.25519553
0.16808527 0.00000073 0.26184042
0.32462868 0.00000073 0.26982060
0.46426510 0.00000073 0.28012428
0.59758686 0.00000073 0.29387250
0.72365091 0.00000073 0.31395138
0.83960470 0.00000073 0.34449924
0.90257239 0.00000073 0.38829562
0.00000073 0.07860954 0.30041063
0.00000073 0.06480473 0.31062160
0.15695753 0.00000073 0.32152979
0.34913123 0.00000073 0.33029542
0.49258952 0.00000073 0.33946642
0.62235083 0.00000073 0.35130835
0.74020389 0.00000073 0.36744857
0.84636645 0.00000073 0.39029410
0.90257239 0.00000073 0.42132549
0.00000073 0.33879141 0.33592370
0.00000073 0.34719425 0.34507794
0.00000073 0.35497163 0.35355599
0.36074830 0.36074830 0.36074830
0.51371311 0.36452563 0.36892776
0.63822211 0.36408377 0.38034623
0.74757305 0.34905770 0.39546343
0.84269935 0.28011081 0.41569531
0.90257239 0.00000073 0.44138181
0.00000073 0.50832614 0.32756534
0.00000073 0.51413052 0.33528099
0.00000073 0.51848903 0.34315900
0.31956245 0.52202536 0.35136804
0.51527942 0.52441319 0.36298733
0.64267141 0.52628429 0.38185608
0.74582986 0.52768846 0.40423224
0.83235815 0.52676843 0.42961699
0.90257239 0.52124184 0.45772384
0.00000073 0.65109693 0.00000073
0.00000073 0.65073005 0.00000073
0.00000073 0.65004439 0.00000073
0.00000073 0.64939727 0.20423728
0.49186951 0.64904174 0.28591240
0.63847129 0.64985745 0.34396073
0.74275751 0.65242301 0.39198750
0.82698819 0.65644733 0.43489065
0.89638845 0.66154592 0.47538597
0.00000073 0.76885276 0.00000073
0.00000073 0.76347128 0.00000073
0.00000073 0.75889321 0.00000073
0.00000073 0.75549461 0.00000073
0.37845139 0.75407237 0.00000073
0.63145203 0.75460016 0.00000073
0.74491928 0.75693233 0.31643620
0.82852489 0.76104439 0.43002216
0.89390220 0.76697371 0.49945942
0.00000073 0.86759199 0.00000073
0.00000073 0.85896366 0.00000073
0.00000073 0.85196635 0.00000073
0.00000073 0.84723035 0.00000073
0.00000073 0.84450613 0.00000073
0.61272448 0.84360163 0.00000073
0.75003461 0.84433195 0.00000073
0.83436521 0.84624191 0.43840401
0.89375207 0.84938056 0.55761957
0.00000073 0.90257239 0.00000073
0.00000073 0.90257239 0.00000073
0.00000073 0.90257239 0.00000073
0.00000073 0.90257239 0.00000073
0.00000073 0.90257239 0.00000073
0.57345886 0.90257239 0.00000073
0.75753171 0.90257239 0.00000073
0.84651399 0.90257239 0.61291526
0.89158743 0.90021052 0.75882905
0.00000073 0.00000073 0.27217433
0.00000073 0.00000073 0.25454578
0.14629454 0.00000073 0.24590632
0.29610886 0.00000073 0.25010399
0.43050898 0.00000073 0.25786017
0.56232053 0.00000073 0.27014645
0.69022721 0.00000073 0.28962524
0.81131415 0.00000073 0.32091894
0.90257239 0.00000073 0.36727998
0.00000073 0.00000073 0.30699481
0.00000073 0.00000073 0.31472352
0.10414376 0.00000073 0.32408149
0.31003015 0.00000073 0.33483443
0.45449898 0.00000073 0.34684890
0.58786172 0.00000073 0.36061105
0.71154102 0.00000073 0.37745744
0.82376948 0.00000073 0.39951339
0.90257239 0.00000073 0.42929793
0.00000073 0.00000073 0.38342327
0.00000073 0.00000073 0.39573499
0.00000073 0.00000073 0.40820859
0.32932532 0.00000073 0.41954530
0.48299750 0.00000073 0.43005877
0.61329309 0.00000073 0.44095370
0.72943369 0.00000073 0.45354260
0.83240546 0.00000073 0.46886035
0.90257239 0.00000073 0.48772870
0.00000073 0.28398688 0.45102796
0.00000073 0.28793756 0.46240253
0.00000073 0.29161882 0.47278323
0.33343450 0.29438771 0.48193684
0.50523422 0.29844027 0.48817826
0.63198843 0.29655690 0.49452795
0.73920729 0.26756192 0.50285507
0.83039015 0.00000073 0.51365499
0.90257239 0.00000073 0.52743666
0.00000073 0.49297145 0.48888909
0.00000073 0.49787900 0.49485416
0.00000073 0.50197289 0.49977232
0.26384108 0.50594455 0.50454961
0.50897895 0.50897896 0.50897896
0.63941756 0.51194310 0.51513528
0.73965236 0.51528453 0.52475123
0.82327530 0.51662297 0.53711229
0.89371579 0.51492216 0.55265287
0.00000073 0.64407676 0.47685060
0.00000073 0.64352326 0.48247051
0.00000073 0.64296226 0.48891530
0.00000073 0.64276204 0.49652312
0.48718832 0.64338670 0.50573071
0.63690290 0.64514253 0.51860868
0.73997460 0.64851985 0.53705554
0.82138298 0.65384398 0.55780039
0.88752539 0.66071192 0.58064109
0.00000073 0.76239174 0.34707008
0.00000073 0.75718109 0.39319710
0.00000073 0.75300091 0.43099386
0.00000073 0.75061661 0.46357532
0.39350874 0.75037187 0.49270586
0.63375836 0.75191778 0.52134646
0.74480455 0.75506485 0.55181195
0.82561912 0.76004974 0.58409461
0.88756337 0.76710452 0.61740239
0.00000073 0.85990376 0.00000073
0.00000073 0.85181874 0.00000073
0.00000073 0.84604225 0.00000073
0.00000073 0.84240524 0.25055086
0.00000073 0.84067592 0.44455226
0.62541091 0.84066746 0.51950506
0.75401396 0.84205526 0.57513287
0.83408425 0.84456610 0.62360703
0.88381737 0.84752024 0.69229331
0.00000073 0.90257239 0.00000073
0.00000073 0.90257239 0.00000073
0.00000073 0.90257239 0.00000073
0.00000073 0.90257239 0.00000073
0.00000073 0.90257239 0.23394653
0.61598972 0.90257239 0.53677205
0.77483551 0.90257239 0.64514473
0.85464631 0.89693602 0.75281811
0.88975970 0.89524003 0.82661755
0.00000073 0.00000073 0.30390792
0.00000073 0.00000073 0.28864215
0.09083061 0.00000073 0.28605288
0.27916207 0.00000073 0.29171805
0.41783403 0.00000073 0.30024025
0.54996154 0.00000073 0.31191271
0.67597222 0.00000073 0.32825603
0.79329278 0.00000073 0.35215320
0.89919795 0.00000073 0.38641742
0.00000073 0.00000073 0.35173920
0.00000073 0.00000073 0.36061177
0.00000073 0.00000073 0.37118811
0.28882923 0.00000073 0.38298576
0.44082416 0.00000073 0.39561961
0.57421793 0.00000073 0.40953109
0.69527894 0.00000073 0.42555699
0.80487736 0.00000073 0.44507980
0.90230531 0.00000073 0.46922874
0.00000073 0.00000073 0.44152368
0.00000073 0.00000073 0.45539713
0.00000073 0.00000073 0.46904941
0.29161695 0.00000073 0.48198668
0.46705926 0.00000073 0.49415846
0.59990233 0.00000073 0.50616576
0.71499878 0.00000073 0.51867668
0.81502568 0.00000073 0.53198655
0.89942499 0.00000073 0.54640506
0.00000073 0.00000073 0.53247495
0.00000073 0.00000073 0.54461699
0.00000073 0.00000073 0.55515912
0.23973793 0.00000073 0.56397735
0.48622433 0.00000073 0.57113400
0.61970842 0.00000073 0.57717104
0.72656034 0.00000073 0.58334897
0.81528839 0.00000073 0.59055004
0.88997301 0.00000073 0.59951654
0.00000073 0.44823139 0.59717212
0.00000073 0.45124635 0.60270628
0.00000073 0.45482243 0.60708146
0.00000073 0.45904532 0.61100231
0.48900965 0.46363603 0.61460634
0.62959286 0.47090127 0.61651006
0.73102713 0.47894077 0.61974883
0.81314012 0.48475092 0.62567255
0.88118532 0.48834112 0.63445220
0.00000073 0.62582338 0.62083063
0.00000073 0.62531576 0.62159755
0.00000073 0.62520146 0.62243526
0.00000073 0.62586080 0.62385191
0.46769052 0.62815540 0.62693579
0.63167233 0.63167233 0.63167234
0.73631862 0.63700923 0.63914496
0.81530691 0.64478466 0.65011750
0.87837767 0.65438747 0.66383112
0.00000073 0.75202518 0.60383593
0.00000073 0.74707816 0.60768571
0.00000073 0.74362915 0.61370877
0.00000073 0.74250226 0.62176820
0.37236433 0.74352807 0.63170287
0.63230199 0.74642648 0.64333919
0.74377787 0.75059405 0.65807637
0.82254668 0.75659830 0.67736746
0.88102356 0.76516756 0.69895780
0.00000073 0.85060508 0.54960643
0.00000073 0.84361712 0.57417312
0.00000073 0.83892064 0.59660141
0.00000073 0.83628362 0.61839151
0.00000073 0.83551175 0.64047598
0.63407952 0.83644185 0.66355862
0.75700973 0.83853337 0.68810574
0.83292162 0.84084278 0.72171802
0.87200187 0.84477746 0.77379179
0.00000073 0.90257239 0.00000073
0.00000073 0.90257239 0.46198161
0.00000073 0.90257239 0.55757829
0.00000073 0.90257239 0.61320652
0.00000073 0.90257239 0.65628108
0.65171796 0.90257239 0.69747543
0.79805977 0.89436216 0.76169194
0.86262234 0.88923492 0.82293395
0.89034720 0.89330440 0.86131537
0.00000073 0.00000073 0.33183450
0.00000073 0.00000073 0.31998986
0.00000073 0.00000073 0.32230791
0.25874027 0.00000073 0.32921075
0.40365313 0.00000073 0.33848259
0.53582431 0.00000073 0.35006237
0.65952626 0.00000073 0.36491052
0.77272306 0.00000073 0.38465093
0.87519248 0.00000073 0.41136682
0.00000073 0.00000073 0.39203912
0.00000073 0.00000073 0.40195867
0.00000073 0.00000073 0.41345162
0.25670498 0.00000073 0.42563483
0.42438252 0.00000073 0.43840114
0.55842284 0.00000073 0.45199643
0.67761858 0.00000073 0.46712502
0.78444125 0.00000073 0.48457585
0.87798626 0.00000073 0.50486159
0.00000073 0.00000073 0.48797382
0.00000073 0.00000073 0.50187335
0.00000073 0.00000073 0.51527144
0.20578434 0.00000073 0.52802824
0.44599321 0.00000073 0.54037981
0.58358371 0.00000073 0.55305879
0.69794768 0.00000073 0.56630725
0.79514485 0.00000073 0.57990057
0.87632525 0.00000073 0.59344945
0.00000073 0.00000073 0.58868945
0.00000073 0.00000073 0.60123417
0.00000073 0.00000073 0.61219560
0.00000073 0.00000073 0.62180700
0.45613974 0.00000073 0.62991035
0.60276846 0.00000073 0.63669636
0.71068726 0.00000073 0.64272596
0.79865597 0.00000073 0.64912242
0.87163956 0.00000073 0.65628968
0.00000073 0.25962937 0.67217925
0.00000073 0.23877657 0.67755193
0.00000073 0.23859175 0.68162668
0.00000073 0.26345491 0.68459944
0.44615540 0.30226596 0.68652609
0.61298938 0.34198324 0.68784773
0.71858746 0.37503313 0.68953543
0.80076406 0.40049196 0.69276656
0.86715493 0.42149682 0.69806270
0.00000073 0.58651672 0.71728530
0.00000073 0.58622027 0.71638946
0.00000073 0.58741079 0.71493254
0.00000073 0.59046850 0.71366585
0.40810135 0.59567845 0.71429281
0.61922559 0.60256839 0.71671632
0.72831880 0.61249580 0.71934972
0.80736261 0.62525630 0.72399038
0.86821080 0.64008295 0.73136993
0.00000073 0.73226664 0.72685723
0.00000073 0.72809005 0.72404762
0.00000073 0.72630118 0.72324416
0.00000073 0.72691544 0.72458995
0.00000073 0.72970382 0.72801395
0.62552071 0.73446477 0.73348635
0.74061168 0.74061169 0.74061170
0.81878379 0.74898428 0.75028510
0.86902372 0.76175510 0.76417858
0.00000073 0.83820960 0.71323823
0.00000073 0.83241457 0.71686595
0.00000073 0.82884079 0.72253146
0.00000073 0.82729663 0.73019204
0.00000073 0.82763892 0.73985594
0.63836345 0.82970996 0.75146982
0.75943033 0.83268023 0.76532937
0.83138833 0.83535995 0.79018681
0.86254216 0.84341811 0.82117202
0.00000073 0.90257239 0.69034948
0.00000073 0.90257239 0.70685113
0.00000073 0.90257239 0.72341967
0.00000073 0.90257239 0.74031359
0.00000073 0.89931424 0.75819972
0.70323903 0.89158061 0.78742868
0.82155204 0.88394477 0.82635313
0.86939896 0.88571374 0.85747603
0.89237083 0.89349318 0.88235475
0.00000073 0.00000073 0.35662532
0.00000073 0.00000073 0.34964160
0.00000073 0.00000073 0.35503733
0.23187444 0.00000073 0.36301918
0.38746472 0.00000073 0.37282918
0.52000663 0.00000073 0.38456646
0.64106918 0.00000073 0.39876980
0.75113901 0.00000073 0.41649163
0.85020069 0.00000073 0.43888841
0.00000073 0.00000073 0.42845233
0.00000073 0.00000073 0.43932142
0.00000073 0.00000073 0.45120633
0.19508721 0.00000073 0.46354998
0.40451005 0.00000073 0.47631844
0.54117849 0.00000073 0.48976308
0.65926860 0.00000073 0.50452220
0.76325113 0.00000073 0.52082370
0.85273529 0.00000073 0.53882363
0.00000073 0.00000073 0.52948593
0.00000073 0.00000073 0.54303228
0.00000073 0.00000073 0.55592885
0.00000073 0.00000073 0.56809492
0.41849259 0.00000073 0.58016647
0.56542632 0.00000073 0.59234650
0.67954510 0.00000073 0.60465599
0.77394105 0.00000073 0.61711137
0.85330184 0.00000073 0.63040728
0.00000073 0.00000073 0.63291023
0.00000073 0.00000073 0.64417948
0.00000073 0.00000073 0.65425487
0.00000073 0.00000073 0.66350277
0.40927098 0.00000073 0.67184353
0.58208000 0.00000073 0.67959019
0.69326628 0.00000073 0.68677818
0.78113182 0.00000073 0.69372923
0.85267981 0.00000073 0.70058817
0.00000073 0.00000073 0.72332263
0.00000073 0.00000073 0.72933158
0.00000073 0.00000073 0.73376848
0.00000073 0.00000073 0.73669584
0.33618809 0.00000073 0.73845303
0.59047250 0.00000073 0.74000390
0.70350001 0.00000073 0.74153303
0.78673490 0.00000073 0.74386652
0.85197848 0.00000073 0.74732865
0.00000073 0.49064497 0.78409394
0.00000073 0.49236481 0.78234644
0.00000073 0.50099359 0.77954891
0.00000073 0.51405702 0.77730327
0.00000073 0.53011447 0.77641742
0.59836017 0.54846822 0.77663229
0.71653494 0.56943544 0.77751481
0.79700298 0.59284817 0.77930607
0.85649419 0.61817997 0.78263251
0.00000073 0.69771737 0.80937063
0.00000073 0.69573585 0.80408728
0.00000073 0.69671888 0.80065008
0.00000073 0.70032722 0.79893387
0.00000073 0.70626897 0.79887700
0.61203953 0.71427751 0.80050082
0.73461498 0.72421240 0.80363685
0.81193277 0.73779367 0.80669543
0.85046999 0.76160840 0.80809976
0.00000073 0.81896712 0.81370562
0.00000073 0.81476455 0.81075998
0.00000073 0.81284219 0.80974947
0.00000073 0.81302978 0.81061759
0.00000073 0.81521147 0.81336437
0.63880411 0.81911968 0.81782937
0.76718501 0.82324435 0.82264168
0.83144529 0.83144531 0.83144533
0.85888346 0.84501340 0.84521157
0.00000073 0.90257239 0.80657486
0.00000073 0.90204036 0.80924168
0.00000073 0.89670943 0.81340561
0.00000073 0.89261515 0.81906422
0.00000073 0.88704615 0.82726296
0.75519154 0.87838733 0.84157011
0.84044940 0.87765501 0.85956582
0.87634351 0.88514890 0.87687508
0.89573471 0.89594121 0.89396959
0.00000073 0.00000073 0.37923662
0.00000073 0.00000073 0.37802379
0.00000073 0.00000073 0.38471826
0.19038857 0.00000073 0.39339718
0.36885438 0.00000073 0.40369396
0.50254896 0.00000073 0.41570485
0.62143084 0.00000073 0.42980293
0.72896725 0.00000073 0.44669491
0.82442359 0.00000073 0.46677765
0.00000073 0.00000073 0.46146989
0.00000073 0.00000073 0.47289115
0.00000073 0.00000073 0.48487694
0.00000073 0.00000073 0.49723599
0.37981994 0.00000073 0.50993631
0.52283320 0.00000073 0.52350361
0.64034782 0.00000073 0.53808537
0.74150347 0.00000073 0.55368114
0.82702916 0.00000073 0.57026966
0.00000073 0.00000073 0.56633760
0.00000073 0.00000073 0.57935059
0.00000073 0.00000073 0.59157012
0.00000073 0.00000073 0.60336667
0.37885487 0.00000073 0.61514591
0.54513065 0.00000073 0.62680384
0.66029613 0.00000073 0.63820551
0.75333862 0.00000073 0.64973842
0.83097103 0.00000073 0.66191429
0.00000073 0.00000073 0.67132487
0.00000073 0.00000073 0.68138906
0.00000073 0.00000073 0.69064065
0.00000073 0.00000073 0.69885962
0.30985899 0.00000073 0.70609920
0.55789229 0.00000073 0.71288147
0.67496571 0.00000073 0.72020141
0.76321010 0.00000073 0.72804308
0.83348946 0.00000073 0.73532199
0.00000073 0.00000073 0.76187485
0.00000073 0.00000073 0.76676778
0.00000073 0.00000073 0.77059338
0.00000073 0.00000073 0.77363604
0.00000073 0.00000073 0.77657519
0.56048011 0.00000073 0.77894915
0.68639631 0.00000073 0.78094255
0.77167329 0.00000073 0.78313167
0.83610697 0.00000073 0.78558865
0.00000073 0.00000073 0.83018093
0.00000073 0.00000073 0.82834349
0.00000073 0.00000073 0.82572827
0.00000073 0.00000073 0.82367528
0.00000073 0.00000073 0.82234565
0.56596061 0.39023318 0.82154003
0.70249199 0.47827613 0.82106305
0.78534671 0.53844126 0.82090356
0.84216974 0.59233974 0.82013227
0.00000073 0.63332196 0.86691297
0.00000073 0.63704101 0.86103391
0.00000073 0.64486519 0.85641265
0.00000073 0.65594674 0.85292122
0.00000073 0.66964089 0.85044624
0.58893369 0.68554359 0.84888803
0.72715382 0.70363149 0.84806121
0.80189977 0.73262127 0.83982661
0.83261104 0.76953983 0.82827812
0.00000073 0.79028589 0.88288601
0.00000073 0.78867173 0.87689219
0.00000073 0.78960011 0.87231678
0.00000073 0.79287616 0.86908767
0.00000073 0.79836140 0.86716859
0.65360338 0.80557238 0.86269946
0.78210416 0.81673552 0.85271237
0.83440491 0.83240036 0.85054535
0.85808000 0.84925744 0.85755557
0.00000073 0.89055748 0.88579242
0.00000073 0.88530194 0.88163513
0.00000073 0.88145924 0.87859619
0.00000073 0.87830820 0.87607969
0.60907953 0.87108323 0.86959908
0.79800737 0.86906018 0.86833935
0.85453679 0.87622752 0.87596195
0.88360625 0.88714331 0.88709667
0.89999997 0.90000000 0.90000003
