resources/flame/Syncolor/Shared/transforms/camera_manufacturer_luts/arri/ARRI_Alexa_LUTs/ARRI_LogC3_v1-2_LUT_Package/LUTs/ARRI_LogC3-to-St2084_2K_P3-D65_DW100_v2_33.cube
LUT_3D_SIZE 9
0.00000073 0.00000073 0.00000073
0.11581541 0.00000073 0.00700336
0.22368216 0.00000073 0.02017679
0.33435676 0.00000073 0.04095985
0.45712647 0.00000073 0.07370505
0.58184917 0.00000073 0.11876170
0.70640435 0.00000073 0.17712684
0.82742464 0.00000073 0.25046993
0.82742464 0.00000073 0.33921828
0.00000073 0.05892349 0.00000073
0.05150367 0.05433169 0.00000073
0.19305091 0.04234964 0.00000073
0.32580355 0.00000073 0.03581520
0.45593294 0.00000073 0.07206225
0.58457172 0.00000073 0.11933210
0.71184963 0.00000073 0.17975419
0.82742464 0.00000073 0.25266627
0.82742464 0.00000073 0.33540869
0.00000073 0.18894730 0.00000073
0.00000073 0.18967788 0.00000073
0.18282944 0.19006888 0.00000073
0.32755864 0.18793121 0.00000073
0.46237200 0.17339835 0.00000073
0.59228598 0.00000073 0.10258269
0.71582111 0.00000073 0.17392219
0.82742464 0.00000073 0.24627696
0.82742464 0.00000073 0.32116383
0.00000073 0.32640841 0.00000073
0.00000073 0.32947325 0.00000073
0.04988088 0.33228670 0.00000073
0.32408504 0.33424370 0.00000073
0.46713828 0.33401265 0.00000073
0.59548002 0.32747815 0.00000073
0.71199353 0.29944513 0.06097833
0.81699467 0.00000073 0.20877523
0.82742464 0.00000073 0.28990475
0.00000073 0.46602199 0.00000073
0.00000073 0.46931341 0.00000073
0.00000073 0.47130111 0.00000073
0.26924508 0.47180201 0.00000073
0.45935758 0.47126626 0.00000073
0.58973273 0.46978580 0.00000073
0.70162980 0.46592349 0.00000073
0.79956595 0.45560916 0.00000073
0.82742464 0.42957821 0.14804871
0.00000073 0.60046835 0.00000073
0.00000073 0.59965221 0.00000073
0.00000073 0.59741371 0.00000073
0.00000073 0.59458715 0.00000073
0.41969279 0.59230189 0.00000073
0.57808349 0.59091098 0.00000073
0.69148140 0.59034120 0.00000073
0.78483474 0.59020226 0.00000073
0.82742464 0.58955203 0.00000073
0.00000073 0.72063789 0.00000073
0.00000073 0.71507745 0.00000073
0.00000073 0.70950380 0.00000073
0.00000073 0.70451806 0.00000073
0.00000073 0.70045496 0.00000073
0.55566065 0.69768975 0.00000073
0.68357887 0.69681444 0.00000073
0.77721690 0.69763230 0.00000073
0.82742464 0.69979651 0.00000073
0.00000073 0.82622412 0.00000073
0.00000073 0.81715500 0.00000073
0.00000073 0.80840971 0.00000073
0.00000073 0.80033333 0.00000073
0.00000073 0.79389192 0.00000073
0.49003695 0.78963222 0.00000073
0.67421869 0.78732332 0.00000073
0.77345706 0.78675168 0.00000073
0.82742464 0.78762597 0.00000073
0.00000073 0.82742464 0.00000073
0.00000073 0.82742464 0.00000073
0.00000073 0.82742464 0.00000073
0.00000073 0.82742464 0.00000073
0.00000073 0.82742464 0.00000073
0.00000073 0.82742464 0.00000073
0.65716168 0.82742464 0.00000073
0.76948530 0.82742464 0.00000073
0.82742464 0.82742464 0.00000073
0.00000073 0.00000073 0.11008715
0.10228012 0.00000073 0.08712942
0.21507672 0.00000073 0.06674847
0.33099659 0.00000073 0.06267682
0.45673064 0.00000073 0.08440169
0.58198348 0.00000073 0.12354964
0.70691510 0.00000073 0.17938174
0.82742464 0.00000073 0.25149968
0.82742464 0.00000073 0.33699467
0.00000073 0.05221480 0.05081589
0.04805825 0.04805825 0.04805825
0.19423386 0.03365375 0.04790034
0.32708042 0.00000073 0.05795662
0.45736855 0.00000073 0.08318314
0.58614694 0.00000073 0.12505691
0.71166934 0.00000073 0.18211909
0.82742464 0.00000073 0.25144407
0.82742464 0.00000073 0.32890031
0.00000073 0.18900423 0.00000073
0.00000073 0.19027140 0.00000073
0.18340732 0.19048715 0.00000073
0.32982381 0.18791934 0.00000073
0.46434272 0.17320530 0.03432315
0.59236026 0.00000073 0.11234135
0.71252158 0.00000073 0.17662637
0.82209969 0.00000073 0.24359949
0.82742464 0.00000073 0.31336358
0.00000073 0.32758158 0.00000073
0.00000073 0.33085881 0.00000073
0.02305362 0.33365592 0.00000073
0.32511754 0.33523046 0.00000073
0.46776738 0.33494332 0.00000073
0.59354660 0.32923385 0.00000073
0.70656533 0.30549599 0.09553976
0.80760920 0.15937921 0.21032242
0.82742464 0.00000073 0.28450065
0.00000073 0.46739896 0.00000073
0.00000073 0.47027201 0.00000073
0.00000073 0.47166080 0.00000073
0.27177214 0.47177835 0.00000073
0.45941493 0.47127501 0.00000073
0.58755278 0.47038881 0.00000073
0.69635092 0.46790795 0.00000073
0.79024591 0.46104118 0.00000073
0.82742464 0.44454135 0.18042084
0.00000073 0.59986236 0.00000073
0.00000073 0.59824517 0.00000073
0.00000073 0.59554870 0.00000073
0.00000073 0.59299038 0.00000073
0.42412355 0.59121367 0.00000073
0.57780701 0.59056764 0.00000073
0.68772590 0.59109961 0.00000073
0.77798666 0.59253844 0.00000073
0.82742464 0.59409378 0.00000073
0.00000073 0.71699627 0.00000073
0.00000073 0.71120394 0.00000073
0.00000073 0.70588071 0.00000073
0.00000073 0.70131073 0.00000073
0.00000073 0.69783924 0.00000073
0.56087252 0.69613558 0.00000073
0.68329717 0.69642722 0.00000073
0.77344561 0.69842182 0.00000073
0.82742464 0.70190585 0.00000073
0.00000073 0.82004444 0.00000073
0.00000073 0.81101841 0.00000073
0.00000073 0.80250284 0.00000073
0.00000073 0.79514463 0.00000073
0.00000073 0.78997830 0.00000073
0.51462823 0.78685557 0.00000073
0.67882340 0.78558988 0.00000073
0.77285547 0.78598007 0.00000073
0.82742464 0.78780464 0.00000073
0.00000073 0.82742464 0.00000073
0.00000073 0.82742464 0.00000073
0.00000073 0.82742464 0.00000073
0.00000073 0.82742464 0.00000073
0.00000073 0.82742464 0.00000073
0.00000073 0.82742464 0.00000073
0.67108168 0.82742464 0.00000073
0.77299864 0.82742464 0.00000073
0.82742464 0.82742464 0.00000073
0.00000073 0.00000073 0.18283388
0.06769546 0.00000073 0.16716150
0.20299573 0.00000073 0.15381753
0.32740147 0.00000073 0.15331982
0.45488822 0.00000073 0.16295826
0.58112810 0.00000073 0.18096545
0.70675458 0.00000073 0.21442564
0.82742464 0.00000073 0.26837181
0.82742464 0.00000073 0.34066568
0.00000073 0.00000073 0.16212793
0.00000073 0.00000073 0.16810183
0.18841739 0.00000073 0.17188720
0.32614546 0.00000073 0.17599690
0.45780686 0.00000073 0.18334452
0.58636208 0.00000073 0.19768491
0.70942502 0.00000073 0.22556961
0.82424035 0.00000073 0.27160436
0.82742464 0.00000073 0.33235691
0.00000073 0.17717366 0.17239884
0.00000073 0.17796155 0.17597845
0.17772259 0.17772259 0.17772259
0.33123653 0.17404124 0.18014487
0.46513030 0.15573773 0.18733844
0.59090025 0.00000073 0.20248479
0.70718366 0.00000073 0.23029017
0.81255479 0.00000073 0.27195812
0.82742464 0.00000073 0.32408055
0.00000073 0.32605850 0.12757427
0.00000073 0.32955951 0.12826128
0.00000073 0.33249298 0.12821141
0.32489714 0.33367614 0.13508801
0.46802295 0.33310688 0.15646016
0.59095378 0.32800878 0.18519550
0.70055037 0.30728779 0.22151026
0.79740560 0.21104189 0.26508956
0.82742464 0.00000073 0.31277339
0.00000073 0.46761436 0.00000073
0.00000073 0.46995350 0.00000073
0.00000073 0.47093812 0.00000073
0.27204093 0.47092093 0.00000073
0.45924381 0.47057561 0.00000073
0.58540832 0.47021320 0.00000073
0.69092159 0.46906295 0.06051097
0.78065423 0.46526119 0.22230905
0.82742464 0.45515851 0.29115699
0.00000073 0.59827799 0.00000073
0.00000073 0.59597683 0.00000073
0.00000073 0.59331486 0.00000073
0.00000073 0.59119661 0.00000073
0.42821113 0.59000934 0.00000073
0.57769223 0.59010593 0.00000073
0.68450456 0.59173134 0.00000073
0.77176485 0.59454233 0.00000073
0.82742464 0.59798186 0.19773930
0.00000073 0.71271440 0.00000073
0.00000073 0.70709139 0.00000073
0.00000073 0.70210562 0.00000073
0.00000073 0.69804679 0.00000073
0.23776619 0.69541790 0.00000073
0.56588416 0.69484903 0.00000073
0.68337073 0.69617493 0.00000073
0.77011444 0.69921751 0.00000073
0.82742464 0.70388662 0.00000073
0.00000073 0.81357089 0.00000073
0.00000073 0.80467026 0.00000073
0.00000073 0.79655538 0.00000073
0.00000073 0.79044918 0.00000073
0.00000073 0.78646020 0.00000073
0.53467764 0.78437778 0.00000073
0.68350783 0.78405426 0.00000073
0.77254499 0.78527911 0.00000073
0.82742464 0.78794444 0.00000073
0.00000073 0.82742464 0.00000073
0.00000073 0.82742464 0.00000073
0.00000073 0.82742464 0.00000073
0.00000073 0.82742464 0.00000073
0.00000073 0.82742464 0.00000073
0.44425787 0.82742464 0.00000073
0.68392514 0.82742464 0.00000073
0.77710628 0.82742464 0.00000073
0.82742464 0.82742464 0.54762003
0.00000073 0.00000073 0.22931046
0.00000073 0.00000073 0.21935519
0.18764102 0.00000073 0.21424839
0.32175365 0.00000073 0.22264141
0.45134229 0.00000073 0.23491879
0.57883353 0.00000073 0.25062000
0.70414739 0.00000073 0.27339166
0.82357363 0.00000073 0.30850109
0.82742464 0.00000073 0.35978405
0.00000073 0.00000073 0.23849749
0.00000073 0.00000073 0.24960328
0.16926107 0.00000073 0.26017028
0.32065574 0.00000073 0.27021081
0.45556986 0.00000073 0.28072527
0.58369623 0.00000073 0.29266595
0.70422663 0.00000073 0.30859066
0.81449478 0.00000073 0.33249925
0.82742464 0.00000073 0.36782343
0.00000073 0.10163841 0.27942673
0.00000073 0.06154657 0.29015488
0.13866891 0.00000073 0.30041496
0.32487352 0.00000073 0.30739005
0.46260152 0.00000073 0.31337747
0.58703165 0.00000073 0.32092358
0.69995752 0.00000073 0.33201718
0.80173316 0.00000073 0.34956650
0.82742464 0.00000073 0.37545255
0.00000073 0.31308436 0.30345321
0.00000073 0.31525357 0.31007606
0.00000073 0.31734294 0.31514930
0.31819023 0.31819023 0.31819022
0.46664297 0.31765030 0.32217867
0.58737224 0.31281228 0.32992560
0.69359001 0.29193276 0.34196918
0.78617339 0.19720468 0.35974736
0.82742464 0.00000073 0.38345633
0.00000073 0.46388707 0.28187147
0.00000073 0.46564076 0.28551828
0.00000073 0.46638498 0.28980713
0.26016037 0.46681186 0.29497123
0.45767227 0.46666336 0.30428563
0.58307809 0.46662105 0.32171081
0.68515216 0.46676959 0.34336670
0.77146584 0.46533762 0.36872890
0.82742464 0.45974006 0.39700536
0.00000073 0.59487417 0.00000073
0.00000073 0.59217201 0.00000073
0.00000073 0.58983173 0.00000073
0.00000073 0.58828777 0.00000073
0.43012144 0.58779936 0.19740688
0.57735794 0.58863181 0.27386425
0.68167702 0.59119344 0.32722822
0.76598738 0.59519866 0.37219785
0.82742464 0.60029093 0.41350161
0.00000073 0.70779963 0.00000073
0.00000073 0.70238273 0.00000073
0.00000073 0.69778508 0.00000073
0.00000073 0.69435233 0.00000073
0.30242174 0.69287569 0.00000073
0.57010591 0.69332111 0.00000073
0.68353708 0.69553693 0.22020376
0.76706492 0.69949719 0.36361448
0.82742464 0.70524226 0.43629928
0.00000073 0.80666778 0.00000073
0.00000073 0.79794490 0.00000073
0.00000073 0.79082600 0.00000073
0.00000073 0.78593700 0.00000073
0.00000073 0.78302138 0.00000073
0.55100342 0.78187994 0.00000073
0.68800704 0.78237437 0.00000073
0.77236525 0.78431779 0.37087771
0.82742464 0.78757079 0.49542597
0.00000073 0.82742464 0.00000073
0.00000073 0.82742464 0.00000073
0.00000073 0.82742464 0.00000073
0.00000073 0.82742464 0.00000073
0.00000073 0.82742464 0.00000073
0.51395356 0.82742464 0.00000073
0.69576612 0.82742464 0.00000073
0.78366426 0.82742464 0.55089812
0.82708356 0.82742464 0.69447248
0.00000073 0.00000073 0.26252844
0.00000073 0.00000073 0.25502646
0.16971777 0.00000073 0.25638646
0.31461478 0.00000073 0.26981974
0.44657450 0.00000073 0.28511921
0.57505515 0.00000073 0.30291218
0.69860349 0.00000073 0.32438713
0.81442141 0.00000073 0.35201590
0.82742464 0.00000073 0.38883189
0.00000073 0.00000073 0.28963725
0.00000073 0.00000073 0.30486430
0.12615908 0.00000073 0.32050099
0.31123229 0.00000073 0.33598557
0.45016790 0.00000073 0.35102645
0.57790249 0.00000073 0.36578099
0.69560099 0.00000073 0.38114828
0.80167747 0.00000073 0.39883713
0.82742464 0.00000073 0.42146274
0.00000073 0.00000073 0.35258108
0.00000073 0.00000073 0.36817745
0.00000073 0.00000073 0.38298370
0.30800603 0.00000073 0.39566985
0.45491830 0.00000073 0.40619777
0.57955917 0.00000073 0.41563436
0.69057214 0.00000073 0.42548968
0.78899015 0.00000073 0.43701063
0.82742464 0.00000073 0.45101818
0.00000073 0.27325092 0.40529824
0.00000073 0.26510358 0.41749162
0.00000073 0.25611155 0.42810717
0.29136090 0.24621588 0.43697219
0.45814955 0.23902518 0.44223170
0.58092393 0.22585975 0.44657824
0.68494309 0.16344626 0.45224687
0.77357453 0.00000073 0.46007759
0.82742464 0.00000073 0.47095590
0.00000073 0.45013572 0.43467962
0.00000073 0.44992430 0.44065396
0.00000073 0.44968759 0.44482618
0.18894858 0.45022614 0.44819147
0.45076100 0.45076100 0.45076100
0.57940785 0.45201782 0.45524593
0.67876813 0.45432690 0.46394757
0.76237253 0.45534276 0.47615615
0.82742464 0.45352603 0.49167828
0.00000073 0.58714926 0.41953390
0.00000073 0.58448537 0.42308857
0.00000073 0.58251754 0.42817413
0.00000073 0.58168961 0.43520187
0.42549211 0.58229753 0.44444208
0.57584889 0.58404990 0.45738044
0.67890188 0.58739974 0.47587242
0.76035292 0.59267627 0.49660789
0.82653407 0.59949877 0.51937098
0.00000073 0.70136231 0.26569940
0.00000073 0.69613987 0.32322617
0.00000073 0.69193487 0.36541814
0.00000073 0.68950797 0.40001592
0.32115292 0.68919590 0.43013802
0.57243586 0.69064205 0.45929771
0.68338647 0.69365138 0.49000681
0.76408559 0.69845914 0.52231988
0.82590086 0.70529862 0.55549175
0.00000073 0.79895455 0.00000073
0.00000073 0.79076606 0.00000073
0.00000073 0.78485747 0.00000073
0.00000073 0.78105335 0.00000073
0.00000073 0.77911480 0.37793781
0.56366031 0.77884783 0.45654870
0.69197308 0.78007072 0.51291469
0.77211869 0.78266490 0.56171343
0.82197529 0.78567743 0.63047703
0.00000073 0.82742464 0.00000073
0.00000073 0.82742464 0.00000073
0.00000073 0.82742464 0.00000073
0.00000073 0.82742464 0.00000073
0.00000073 0.82742464 0.00000073
0.55575295 0.82742464 0.47589697
0.71274951 0.82742464 0.58355037
0.79131016 0.82742464 0.68964126
0.82443319 0.82742464 0.76131046
0.00000073 0.00000073 0.29109671
0.00000073 0.00000073 0.28641706
0.14477759 0.00000073 0.29427813
0.30634305 0.00000073 0.30928969
0.44123507 0.00000073 0.32567936
0.56937299 0.00000073 0.34348391
0.69041563 0.00000073 0.36344668
0.80185441 0.00000073 0.38724887
0.82742464 0.00000073 0.41676792
0.00000073 0.00000073 0.33029585
0.00000073 0.00000073 0.34680469
0.00000073 0.00000073 0.36397468
0.29856372 0.00000073 0.38143100
0.44244035 0.00000073 0.39869335
0.56946570 0.00000073 0.41596508
0.68399292 0.00000073 0.43357462
0.78693653 0.00000073 0.45164526
0.82742464 0.00000073 0.47098063
0.00000073 0.00000073 0.40187158
0.00000073 0.00000073 0.42056405
0.00000073 0.00000073 0.43870317
0.27963482 0.00000073 0.45552982
0.44309993 0.00000073 0.47022795
0.56943496 0.00000073 0.48315031
0.67900447 0.00000073 0.49505859
0.77410237 0.00000073 0.50630122
0.82742464 0.00000073 0.51712475
0.00000073 0.00000073 0.47405395
0.00000073 0.00000073 0.49007119
0.00000073 0.00000073 0.50401036
0.21013885 0.00000073 0.51559673
0.44175504 0.00000073 0.52452708
0.57034365 0.00000073 0.53107497
0.67367465 0.00000073 0.53660656
0.75966305 0.00000073 0.54232063
0.82742464 0.00000073 0.54944188
0.00000073 0.42046972 0.52816084
0.00000073 0.41384684 0.53725261
0.00000073 0.40848784 0.54435421
0.00000073 0.40512185 0.55020071
0.43176480 0.40382414 0.55509824
0.57006835 0.40736275 0.55774255
0.67060322 0.41381741 0.56128978
0.75264599 0.41932152 0.56733764
0.82069919 0.42309270 0.57573933
0.00000073 0.57186814 0.55169078
0.00000073 0.56805341 0.55526989
0.00000073 0.56572070 0.55827656
0.00000073 0.56532573 0.56144112
0.40534542 0.56725305 0.56560771
0.57063820 0.57063821 0.57063821
0.67523870 0.57592388 0.57806274
0.75423551 0.58362698 0.58895805
0.81731474 0.59315465 0.60255572
0.00000073 0.69106885 0.54243217
0.00000073 0.68605863 0.54661178
0.00000073 0.68257734 0.55261378
0.00000073 0.68139657 0.56062687
0.29447984 0.68233974 0.57048498
0.57095259 0.68511963 0.58200977
0.68230464 0.68912763 0.59659530
0.76092405 0.69493032 0.61568627
0.81923714 0.70325671 0.63702027
0.00000073 0.78960445 0.48817133
0.00000073 0.78250371 0.51284003
0.00000073 0.77766256 0.53524074
0.00000073 0.77484245 0.55691289
0.00000073 0.77384218 0.57880409
0.57224698 0.77449718 0.60162843
0.69497372 0.77652746 0.62611767
0.77097752 0.77893711 0.65981806
0.81008698 0.78285374 0.71185832
0.00000073 0.82742464 0.00000073
0.00000073 0.82742464 0.40146418
0.00000073 0.82742464 0.49697903
0.00000073 0.82742464 0.55221151
0.00000073 0.82742464 0.59506262
0.59087819 0.82742464 0.63589962
0.73557567 0.82742464 0.69924827
0.79870628 0.82534985 0.75903974
0.82407797 0.82704347 0.79504834
0.00000073 0.00000073 0.31569934
0.00000073 0.00000073 0.31485852
0.09260278 0.00000073 0.32787828
0.29665098 0.00000073 0.34416868
0.43483644 0.00000073 0.36143329
0.56199734 0.00000073 0.37934770
0.67993844 0.00000073 0.39837400
0.78646304 0.00000073 0.41935641
0.82742464 0.00000073 0.44384591
0.00000073 0.00000073 0.36624052
0.00000073 0.00000073 0.38391575
0.00000073 0.00000073 0.40219296
0.28062397 0.00000073 0.42026803
0.43273693 0.00000073 0.43788414
0.55898445 0.00000073 0.45503923
0.67095003 0.00000073 0.47225702
0.77065060 0.00000073 0.49023983
0.82742464 0.00000073 0.50929272
0.00000073 0.00000073 0.44274669
0.00000073 0.00000073 0.46194108
0.00000073 0.00000073 0.48029776
0.23143920 0.00000073 0.49754827
0.42866192 0.00000073 0.51372010
0.55766439 0.00000073 0.52944237
0.66578304 0.00000073 0.54439112
0.75743288 0.00000073 0.55725269
0.82742464 0.00000073 0.56830154
0.00000073 0.00000073 0.52044068
0.00000073 0.00000073 0.53818754
0.00000073 0.00000073 0.55456005
0.00000073 0.00000073 0.56937104
0.41820261 0.00000073 0.58139235
0.55665804 0.00000073 0.59061750
0.66023929 0.00000073 0.59760274
0.74510168 0.00000073 0.60385175
0.81587601 0.00000073 0.61020601
0.00000073 0.36258788 0.59014792
0.00000073 0.32916867 0.60216283
0.00000073 0.28909556 0.61186679
0.00000073 0.24484989 0.61946821
0.39514609 0.21381376 0.62506857
0.55576230 0.22517169 0.62915486
0.65988641 0.26043739 0.63288495
0.74161025 0.29386403 0.63730712
0.80770514 0.32321401 0.64285976
0.00000073 0.54674376 0.63409811
0.00000073 0.53937104 0.63943273
0.00000073 0.53479391 0.64338566
0.00000073 0.53381257 0.64673791
0.34857446 0.53628758 0.65069199
0.55919793 0.54139252 0.65530190
0.66771368 0.55035271 0.65916400
0.74655193 0.56280907 0.66420754
0.80727443 0.57768518 0.67145414
0.00000073 0.67532383 0.65290962
0.00000073 0.66962244 0.65511441
0.00000073 0.66669258 0.65776539
0.00000073 0.66650320 0.66130650
0.00000073 0.66875168 0.66595954
0.56413305 0.67315993 0.67194200
0.67906977 0.67906978 0.67906979
0.75705831 0.68722353 0.68852144
0.80709288 0.69973353 0.70214509
0.00000073 0.77731379 0.65090789
0.00000073 0.77123137 0.65546127
0.00000073 0.76747061 0.66115589
0.00000073 0.76573044 0.66861581
0.00000073 0.76582874 0.67803352
0.57649117 0.76765914 0.68940749
0.69741908 0.77065726 0.70329738
0.76945272 0.77343411 0.72825461
0.80052754 0.78139536 0.75914620
0.00000073 0.82742464 0.62939137
0.00000073 0.82742464 0.64542454
0.00000073 0.82742464 0.66169836
0.00000073 0.82742464 0.67857869
0.00000073 0.82742464 0.69645463
0.64170400 0.82742464 0.72535847
0.75864156 0.82102193 0.76341963
0.80480499 0.82112714 0.79288454
0.82501890 0.82614247 0.81500294
0.00000073 0.00000073 0.33703446
0.00000073 0.00000073 0.34142977
0.00000073 0.00000073 0.35757867
0.28488509 0.00000073 0.37493889
0.42699058 0.00000073 0.39270966
0.55292392 0.00000073 0.41075311
0.66717625 0.00000073 0.42920669
0.76975235 0.00000073 0.44876675
0.82742464 0.00000073 0.47031876
0.00000073 0.00000073 0.39806309
0.00000073 0.00000073 0.41678658
0.00000073 0.00000073 0.43565059
0.25384805 0.00000073 0.45406953
0.42083810 0.00000073 0.47181413
0.54713904 0.00000073 0.48890951
0.65705234 0.00000073 0.50595337
0.75327482 0.00000073 0.52309430
0.82742464 0.00000073 0.54038713
0.00000073 0.00000073 0.47862734
0.00000073 0.00000073 0.49797461
0.00000073 0.00000073 0.51630179
0.00000073 0.00000073 0.53335417
0.41094401 0.00000073 0.54957270
0.54470842 0.00000073 0.56510860
0.65140503 0.00000073 0.57993081
0.73958896 0.00000073 0.59378090
0.81346007 0.00000073 0.60674685
0.00000073 0.00000073 0.55913623
0.00000073 0.00000073 0.57642248
0.00000073 0.00000073 0.59241858
0.00000073 0.00000073 0.60724935
0.38662728 0.00000073 0.62054343
0.54085654 0.00000073 0.63225653
0.64603669 0.00000073 0.64168691
0.73017709 0.00000073 0.64960559
0.79916794 0.00000073 0.65653272
0.00000073 0.18036141 0.63186370
0.00000073 0.00000073 0.64548578
0.00000073 0.00000073 0.65770363
0.00000073 0.00000073 0.66744891
0.31857334 0.00000073 0.67473803
0.53771249 0.00000073 0.68061219
0.64744583 0.00000073 0.68547579
0.72947934 0.00000073 0.68979243
0.79395709 0.00000073 0.69399872
0.00000073 0.50805507 0.68938458
0.00000073 0.49042416 0.69680286
0.00000073 0.47817790 0.70210871
0.00000073 0.47367966 0.70657836
0.00000073 0.47699479 0.71067729
0.54164660 0.48742363 0.71440357
0.65739130 0.50449817 0.71752746
0.73707789 0.52687421 0.72045044
0.79612286 0.55265735 0.72403763
0.00000073 0.65279419 0.72392728
0.00000073 0.64584203 0.72642584
0.00000073 0.64280204 0.72881999
0.00000073 0.64334779 0.73133466
0.00000073 0.64709833 0.73419944
0.55224207 0.65363250 0.73768608
0.67351166 0.66262486 0.74185400
0.75032497 0.67566489 0.74526081
0.78850685 0.69934335 0.74636450
0.00000073 0.76168230 0.74011108
0.00000073 0.75597127 0.74166051
0.00000073 0.75287043 0.74371349
0.00000073 0.75215359 0.74651580
0.00000073 0.75363985 0.75032195
0.57718043 0.75715015 0.75534633
0.70522791 0.76125356 0.76057586
0.76950974 0.76950976 0.76950978
0.79673591 0.78286275 0.78306076
0.00000073 0.82742464 0.74291906
0.00000073 0.82742464 0.74662241
0.00000073 0.82742464 0.75128324
0.00000073 0.82742464 0.75713765
0.00000073 0.82512543 0.76532166
0.69311881 0.81605202 0.77922383
0.77706323 0.81425365 0.79616147
0.81095028 0.81975590 0.81148145
0.82714386 0.82735039 0.82537873
0.00000073 0.00000073 0.35608601
0.00000073 0.00000073 0.36654691
0.00000073 0.00000073 0.38389178
0.26975401 0.00000073 0.40187288
0.41757382 0.00000073 0.42001034
0.54210841 0.00000073 0.43814724
0.65287831 0.00000073 0.45636141
0.75205206 0.00000073 0.47529018
0.82742464 0.00000073 0.49510279
0.00000073 0.00000073 0.42628898
0.00000073 0.00000073 0.44569262
0.00000073 0.00000073 0.46484722
0.20820897 0.00000073 0.48342179
0.40645294 0.00000073 0.50115610
0.53445174 0.00000073 0.51843816
0.64237765 0.00000073 0.53537428
0.73494901 0.00000073 0.55190458
0.81231871 0.00000073 0.56798143
0.00000073 0.00000073 0.50992251
0.00000073 0.00000073 0.52924351
0.00000073 0.00000073 0.54734950
0.00000073 0.00000073 0.56436692
0.38817750 0.00000073 0.58057135
0.53037331 0.00000073 0.59583060
0.63605664 0.00000073 0.60988322
0.72207283 0.00000073 0.62298257
0.79380000 0.00000073 0.63586259
0.00000073 0.00000073 0.59239179
0.00000073 0.00000073 0.60922865
0.00000073 0.00000073 0.62498022
0.00000073 0.00000073 0.63919095
0.33779426 0.00000073 0.65168785
0.52362450 0.00000073 0.66288129
0.63164938 0.00000073 0.67382091
0.71517221 0.00000073 0.68378960
0.78239067 0.00000073 0.69185568
0.00000073 0.00000073 0.66638718
0.00000073 0.00000073 0.67930988
0.00000073 0.00000073 0.69075166
0.00000073 0.00000073 0.70090909
0.00000073 0.00000073 0.71052165
0.51566520 0.00000073 0.71844219
0.63384786 0.00000073 0.72466506
0.71666324 0.00000073 0.72940072
0.77966355 0.00000073 0.73293796
0.00000073 0.44967130 0.72672417
0.00000073 0.39605528 0.73602099
0.00000073 0.33049610 0.74357677
0.00000073 0.26618977 0.74973563
0.00000073 0.26490782 0.75462031
0.51656105 0.33144242 0.75829236
0.64571476 0.40212772 0.76076794
0.72669810 0.46375707 0.76222792
0.78250738 0.52238332 0.76187775
0.00000073 0.62192882 0.77276160
0.00000073 0.61142327 0.77671910
0.00000073 0.60683791 0.77972785
0.00000073 0.60819791 0.78199516
0.00000073 0.61503967 0.78369259
0.53393720 0.62660764 0.78496659
0.66728675 0.64226856 0.78584969
0.74061497 0.67028566 0.77827668
0.77069040 0.70725516 0.76648235
0.00000073 0.74169575 0.80029703
0.00000073 0.73596351 0.80096787
0.00000073 0.73359676 0.80132685
0.00000073 0.73436571 0.80159271
0.00000073 0.73803317 0.80198690
0.59339476 0.74413985 0.79930274
0.72033975 0.75486779 0.79049579
0.77246774 0.77043983 0.78857460
0.79574586 0.78691659 0.79522384
0.00000073 0.82742464 0.81328693
0.00000073 0.82539032 0.81290924
0.00000073 0.82070606 0.81269838
0.00000073 0.81704286 0.81217718
0.54934896 0.80924711 0.80698112
0.73550978 0.80646745 0.80563073
0.79058512 0.81226812 0.81199015
0.81727608 0.82081292 0.82076593
0.82742464 0.82742464 0.82742464
