resources/flame/Syncolor/Shared/transforms/camera_manufacturer_luts/arri/ARRI_Alexa_LUTs/ARRI_LogC3_v1-2_LUT_Package/LUTs/ARRI_LogC3-to-St2084_2K_P3-D65_DW200_v2_33.cube
LUT_3D_SIZE 9
0.00000073 0.00000073 0.00000073
0.11581541 0.00000073 0.00700336
0.22368216 0.00000073 0.02017679
0.33435676 0.00000073 0.04095985
0.45731219 0.00000073 0.07376295
0.58338108 0.00000073 0.11939519
0.71039950 0.00000073 0.17923779
0.82742464 0.00000073 0.25531267
0.82742464 0.00000073 0.34836992
0.00000073 0.05892349 0.00000073
0.05204637 0.05489849 0.00000073
0.19544929 0.04521106 0.00000073
0.33110313 0.00000073 0.03621931
0.46496379 0.00000073 0.07439580
0.59796873 0.00000073 0.12464545
0.73005901 0.00000073 0.18939986
0.82742464 0.00000073 0.26814668
0.82742464 0.00000073 0.35820463
0.00000073 0.19565066 0.00000073
0.00000073 0.20055582 0.00000073
0.19812563 0.20575102 0.00000073
0.34803833 0.20905115 0.00000073
0.48813624 0.20187538 0.00000073
0.62326412 0.12191236 0.10799419
0.75181858 0.00000073 0.19071362
0.82742464 0.00000073 0.27227556
0.82742464 0.00000073 0.35610875
0.00000073 0.34902528 0.00000073
0.00000073 0.35757606 0.00000073
0.12616076 0.36584582 0.00000073
0.36231611 0.37305686 0.00000073
0.51012404 0.37779699 0.00000073
0.64254723 0.37621063 0.00000073
0.76259445 0.35521129 0.00000073
0.82742464 0.19932756 0.23622007
0.82742464 0.00000073 0.33067138
0.00000073 0.50627258 0.00000073
0.00000073 0.51420376 0.00000073
0.00000073 0.52028738 0.00000073
0.32576389 0.52445058 0.00000073
0.51468481 0.52708460 0.00000073
0.64749316 0.52824003 0.00000073
0.76110726 0.52646855 0.00000073
0.82742464 0.51769756 0.00000073
0.82742464 0.49263960 0.17326834
0.00000073 0.65391196 0.00000073
0.00000073 0.65605618 0.00000073
0.00000073 0.65618081 0.00000073
0.00000073 0.65504015 0.00000073
0.48204282 0.65368412 0.00000073
0.63923056 0.65233817 0.00000073
0.75109344 0.65039383 0.00000073
0.82742464 0.64758732 0.00000073
0.82742464 0.64325124 0.00000073
0.00000073 0.78111093 0.00000073
0.00000073 0.77620577 0.00000073
0.00000073 0.77023355 0.00000073
0.00000073 0.76339823 0.00000073
0.00000073 0.75632881 0.00000073
0.60786794 0.74972692 0.00000073
0.73119916 0.74451076 0.00000073
0.82022253 0.74080784 0.00000073
0.82742464 0.73858991 0.00000073
0.00000073 0.82742464 0.00000073
0.00000073 0.82742464 0.00000073
0.00000073 0.82742464 0.00000073
0.00000073 0.82742464 0.00000073
0.00000073 0.82742464 0.00000073
0.52793616 0.82682401 0.00000073
0.70785811 0.82091759 0.00000073
0.80411240 0.81738911 0.00000073
0.82742464 0.81423185 0.00000073
0.00000073 0.82742464 0.00000073
0.00000073 0.82742464 0.00000073
0.00000073 0.82742464 0.00000073
0.00000073 0.82742464 0.00000073
0.00000073 0.82742464 0.00000073
0.00000073 0.82742464 0.00000073
0.67663753 0.82742464 0.00000073
0.78358597 0.82742464 0.00000073
0.82742464 0.82742464 0.00000073
0.00000073 0.00000073 0.11099678
0.10087006 0.00000073 0.08448518
0.21380022 0.00000073 0.06192842
0.32988597 0.00000073 0.05797832
0.45630732 0.00000073 0.08179148
0.58350234 0.00000073 0.12343076
0.71141994 0.00000073 0.18177014
0.82742464 0.00000073 0.25713670
0.82742464 0.00000073 0.34727996
0.00000073 0.05203693 0.05146901
0.04904836 0.04904836 0.04904836
0.19750776 0.03753020 0.05095033
0.33358280 0.00000073 0.06329513
0.46785284 0.00000073 0.09028416
0.60117898 0.00000073 0.13422414
0.73163200 0.00000073 0.19473793
0.82742464 0.00000073 0.26928173
0.82742464 0.00000073 0.35358767
0.00000073 0.19693954 0.00000073
0.00000073 0.20256864 0.00000073
0.20030366 0.20769433 0.00000073
0.35208870 0.21058564 0.00000073
0.49194325 0.20321797 0.05927057
0.62514910 0.12669395 0.13154865
0.75024177 0.00000073 0.20045173
0.82742464 0.00000073 0.27385707
0.82742464 0.00000073 0.35088956
0.00000073 0.35196376 0.00000073
0.00000073 0.36072182 0.00000073
0.12281874 0.36890367 0.00000073
0.36495576 0.37558802 0.00000073
0.51223644 0.38004696 0.00000073
0.64194579 0.37900553 0.00000073
0.75835854 0.36152583 0.12861291
0.82742464 0.26383295 0.24871061
0.82742464 0.00000073 0.33012617
0.00000073 0.50923243 0.00000073
0.00000073 0.51654213 0.00000073
0.00000073 0.52187531 0.00000073
0.32904384 0.52547951 0.00000073
0.51563413 0.52793659 0.00000073
0.64602739 0.52944270 0.00000073
0.75632533 0.52876327 0.00000073
0.82742464 0.52305861 0.00000073
0.82742464 0.50688230 0.23507827
0.00000073 0.65434831 0.00000073
0.00000073 0.65549481 0.00000073
0.00000073 0.65493563 0.00000073
0.00000073 0.65380735 0.00000073
0.48638462 0.65267662 0.00000073
0.63862220 0.65162884 0.00000073
0.74656421 0.65030170 0.00000073
0.82742464 0.64870422 0.00000073
0.82742464 0.64633543 0.00000073
0.00000073 0.77777502 0.00000073
0.00000073 0.77235340 0.00000073
0.00000073 0.76611980 0.00000073
0.00000073 0.75926728 0.00000073
0.16734752 0.75246650 0.00000073
0.61157554 0.74671388 0.00000073
0.72937611 0.74256508 0.00000073
0.81494410 0.74005296 0.00000073
0.82742464 0.73928488 0.00000073
0.00000073 0.82742464 0.00000073
0.00000073 0.82742464 0.00000073
0.00000073 0.82742464 0.00000073
0.00000073 0.82742464 0.00000073
0.00000073 0.82742464 0.00000073
0.55088506 0.82273449 0.00000073
0.71142037 0.81814636 0.00000073
0.80228154 0.81538401 0.00000073
0.82742464 0.81278342 0.00000073
0.00000073 0.82742464 0.00000073
0.00000073 0.82742464 0.00000073
0.00000073 0.82742464 0.00000073
0.00000073 0.82742464 0.00000073
0.00000073 0.82742464 0.00000073
0.07204215 0.82742464 0.00000073
0.68872967 0.82742464 0.00000073
0.78525810 0.82742464 0.00000073
0.82742464 0.82742464 0.00000073
0.00000073 0.00000073 0.18607845
0.05944440 0.00000073 0.16356456
0.19776893 0.00000073 0.14433472
0.32244580 0.00000073 0.13926207
0.45117304 0.00000073 0.14715672
0.57986708 0.00000073 0.16742245
0.70893122 0.00000073 0.20673547
0.82742464 0.00000073 0.26802039
0.82742464 0.00000073 0.34767452
0.00000073 0.00000073 0.16764652
0.00000073 0.00000073 0.17062586
0.19124085 0.00000073 0.17342395
0.33268704 0.00000073 0.17873918
0.46872265 0.00000073 0.18919106
0.60216502 0.00000073 0.20816568
0.73045419 0.00000073 0.24152764
0.82742464 0.00000073 0.29319735
0.82742464 0.00000073 0.36002194
0.00000073 0.18541451 0.18374393
0.00000073 0.19120488 0.19001801
0.19607037 0.19607037 0.19607037
0.35520386 0.19785725 0.20367717
0.49452602 0.18756749 0.21589715
0.62546396 0.02921229 0.23530262
0.74658138 0.00000073 0.26636853
0.82742464 0.00000073 0.31111877
0.82742464 0.00000073 0.36720682
0.00000073 0.35196041 0.15818894
0.00000073 0.36087686 0.16522671
0.07811664 0.36907019 0.17145878
0.36612201 0.37517531 0.18281525
0.51384470 0.37909361 0.20573053
0.64061582 0.37842586 0.23507155
0.75347234 0.36337491 0.27181150
0.82742464 0.29107013 0.31648606
0.82742464 0.00000073 0.36634681
0.00000073 0.51084480 0.00000073
0.00000073 0.51741932 0.00000073
0.00000073 0.52218885 0.00000073
0.32986807 0.52547080 0.00000073
0.51621729 0.52787065 0.00000073
0.64449458 0.52965493 0.00000073
0.75129702 0.53001965 0.19331803
0.82742464 0.52702578 0.28678423
0.82742464 0.51667194 0.35066367
0.00000073 0.65369387 0.00000073
0.00000073 0.65394749 0.00000073
0.00000073 0.65318520 0.00000073
0.00000073 0.65223248 0.00000073
0.49022273 0.65139975 0.00000073
0.63797954 0.65057974 0.00000073
0.74242553 0.64990929 0.00000073
0.82623984 0.64936529 0.00000073
0.82742464 0.64868954 0.27189685
0.00000073 0.77368831 0.00000073
0.00000073 0.76807737 0.00000073
0.00000073 0.76167584 0.00000073
0.00000073 0.75493963 0.00000073
0.32281180 0.74869799 0.00000073
0.61502929 0.74390972 0.00000073
0.72789678 0.74073825 0.00000073
0.81013428 0.73933072 0.00000073
0.82742464 0.73991931 0.00000073
0.00000073 0.82742464 0.00000073
0.00000073 0.82742464 0.00000073
0.00000073 0.82742464 0.00000073
0.00000073 0.82742464 0.00000073
0.00000073 0.82493060 0.00000073
0.56951370 0.81902271 0.00000073
0.71515913 0.81566955 0.00000073
0.80058827 0.81329705 0.00000073
0.82742464 0.81120620 0.00000073
0.00000073 0.82742464 0.00000073
0.00000073 0.82742464 0.00000073
0.00000073 0.82742464 0.00000073
0.00000073 0.82742464 0.00000073
0.00000073 0.82742464 0.00000073
0.46531729 0.82742464 0.00000073
0.69972301 0.82742464 0.00000073
0.78757513 0.82742464 0.00000073
0.82742464 0.82742464 0.55327790
0.00000073 0.00000073 0.23597272
0.00000073 0.00000073 0.21649816
0.17573735 0.00000073 0.20256777
0.31084265 0.00000073 0.20328650
0.44219546 0.00000073 0.21036840
0.57260771 0.00000073 0.22410859
0.70181173 0.00000073 0.24944501
0.82597106 0.00000073 0.29234344
0.82742464 0.00000073 0.35451875
0.00000073 0.00000073 0.24977492
0.00000073 0.00000073 0.25519553
0.16808527 0.00000073 0.26184042
0.32462868 0.00000073 0.26982060
0.46426510 0.00000073 0.28012428
0.59758686 0.00000073 0.29387250
0.72365091 0.00000073 0.31395138
0.82742464 0.00000073 0.34449924
0.82742464 0.00000073 0.38829562
0.00000073 0.07860954 0.30041063
0.00000073 0.06480473 0.31062160
0.15695753 0.00000073 0.32152979
0.34913123 0.00000073 0.33029542
0.49258952 0.00000073 0.33946642
0.62235083 0.00000073 0.35130835
0.74020389 0.00000073 0.36744857
0.82742464 0.00000073 0.39029410
0.82742464 0.00000073 0.42132549
0.00000073 0.33879141 0.33592370
0.00000073 0.34719425 0.34507794
0.00000073 0.35497163 0.35355599
0.36074830 0.36074830 0.36074830
0.51371311 0.36452563 0.36892776
0.63822211 0.36408377 0.38034623
0.74757305 0.34905770 0.39546343
0.82742464 0.28011081 0.41569531
0.82742464 0.00000073 0.44138181
0.00000073 0.50832614 0.32756534
0.00000073 0.51413052 0.33528099
0.00000073 0.51848903 0.34315900
0.31956245 0.52202536 0.35136804
0.51527942 0.52441319 0.36298733
0.64267141 0.52628429 0.38185608
0.74582986 0.52768846 0.40423224
0.82742464 0.52676782 0.42961639
0.82742464 0.52038811 0.45687344
0.00000073 0.65109693 0.00000073
0.00000073 0.65073005 0.00000073
0.00000073 0.65004439 0.00000073
0.00000073 0.64939727 0.20423728
0.49173987 0.64891291 0.28574859
0.63694354 0.64832772 0.34227180
0.73855366 0.64820977 0.38758880
0.81916526 0.64859315 0.42688604
0.82742464 0.64942652 0.46314682
0.00000073 0.76885276 0.00000073
0.00000073 0.76300257 0.00000073
0.00000073 0.75652316 0.00000073
0.00000073 0.75005899 0.00000073
0.36758689 0.74472876 0.00000073
0.61766683 0.74082782 0.00000073
0.72651639 0.73853229 0.29123949
0.80564997 0.73814110 0.40570754
0.82742464 0.74001770 0.47200295
0.00000073 0.82742464 0.00000073
0.00000073 0.82742464 0.00000073
0.00000073 0.82742464 0.00000073
0.00000073 0.82721279 0.00000073
0.00000073 0.82011171 0.00000073
0.58459599 0.81538743 0.00000073
0.71858855 0.81292495 0.00000073
0.79889483 0.81082198 0.40064917
0.82742464 0.80904908 0.51717527
0.00000073 0.82742464 0.00000073
0.00000073 0.82742464 0.00000073
0.00000073 0.82742464 0.00000073
0.00000073 0.82742464 0.00000073
0.00000073 0.82742464 0.00000073
0.53308319 0.82742464 0.00000073
0.70971743 0.82742464 0.00000073
0.79241494 0.82742464 0.55960616
0.82742464 0.82742464 0.69875407
0.00000073 0.00000073 0.27217433
0.00000073 0.00000073 0.25454578
0.14629454 0.00000073 0.24590632
0.29610886 0.00000073 0.25010399
0.43050898 0.00000073 0.25786017
0.56232053 0.00000073 0.27014645
0.69022721 0.00000073 0.28962524
0.81131415 0.00000073 0.32091894
0.82742464 0.00000073 0.36727998
0.00000073 0.00000073 0.30699481
0.00000073 0.00000073 0.31472352
0.10414376 0.00000073 0.32408149
0.31003015 0.00000073 0.33483443
0.45449898 0.00000073 0.34684890
0.58786172 0.00000073 0.36061105
0.71154102 0.00000073 0.37745744
0.82376948 0.00000073 0.39951339
0.82742464 0.00000073 0.42929793
0.00000073 0.00000073 0.38342327
0.00000073 0.00000073 0.39573499
0.00000073 0.00000073 0.40820859
0.32932532 0.00000073 0.41954530
0.48299750 0.00000073 0.43005877
0.61329309 0.00000073 0.44095370
0.72943369 0.00000073 0.45354260
0.82742464 0.00000073 0.46886035
0.82742464 0.00000073 0.48772870
0.00000073 0.28398688 0.45102796
0.00000073 0.28793756 0.46240253
0.00000073 0.29161882 0.47278323
0.33343450 0.29438771 0.48193684
0.50523422 0.29844027 0.48817826
0.63198843 0.29655690 0.49452795
0.73920729 0.26756192 0.50285507
0.82742464 0.00000073 0.51365499
0.82742464 0.00000073 0.52743666
0.00000073 0.49297145 0.48888909
0.00000073 0.49787900 0.49485416
0.00000073 0.50197289 0.49977232
0.26384108 0.50594455 0.50454961
0.50897895 0.50897896 0.50897896
0.63941756 0.51194310 0.51513528
0.73965236 0.51528453 0.52475123
0.82316257 0.51650964 0.53699928
0.82742464 0.51344526 0.55117754
0.00000073 0.64407676 0.47685060
0.00000073 0.64352326 0.48247051
0.00000073 0.64296226 0.48891530
0.00000073 0.64276204 0.49652312
0.48674515 0.64294681 0.50528971
0.63459409 0.64283279 0.51629495
0.73462801 0.64316830 0.53169928
0.81216486 0.64460239 0.54855280
0.82742464 0.64706272 0.56696951
0.00000073 0.76238415 0.34706092
0.00000073 0.75621768 0.39213952
0.00000073 0.74970591 0.42753038
0.00000073 0.74393545 0.45670475
0.38134647 0.73957137 0.48172932
0.61841735 0.73658575 0.50587507
0.72484394 0.73511025 0.53176587
0.80129547 0.73570433 0.55969588
0.82742464 0.73892487 0.58918207
0.00000073 0.82742464 0.00000073
0.00000073 0.82742464 0.00000073
0.00000073 0.82742464 0.00000073
0.00000073 0.82085625 0.20103670
0.00000073 0.81490181 0.41739141
0.59617471 0.81133321 0.48987854
0.72131783 0.80939183 0.54245273
0.79702544 0.80755063 0.58664160
0.82742464 0.80532889 0.65012923
0.00000073 0.82742464 0.00000073
0.00000073 0.82742464 0.00000073
0.00000073 0.82742464 0.00000073
0.00000073 0.82742464 0.00000073
0.00000073 0.82742464 0.14651416
0.57311363 0.82742464 0.49360719
0.72488692 0.82742464 0.59564274
0.79843381 0.82742464 0.69675182
0.82742464 0.82742464 0.76435598
0.00000073 0.00000073 0.30390792
0.00000073 0.00000073 0.28864215
0.09083061 0.00000073 0.28605288
0.27916207 0.00000073 0.29171805
0.41783403 0.00000073 0.30024025
0.54996154 0.00000073 0.31191271
0.67597222 0.00000073 0.32825603
0.79329278 0.00000073 0.35215320
0.82742464 0.00000073 0.38641742
0.00000073 0.00000073 0.35173920
0.00000073 0.00000073 0.36061177
0.00000073 0.00000073 0.37118811
0.28882923 0.00000073 0.38298576
0.44082416 0.00000073 0.39561961
0.57421793 0.00000073 0.40953109
0.69527894 0.00000073 0.42555699
0.80487736 0.00000073 0.44507980
0.82742464 0.00000073 0.46922874
0.00000073 0.00000073 0.44152368
0.00000073 0.00000073 0.45539713
0.00000073 0.00000073 0.46904941
0.29161695 0.00000073 0.48198668
0.46705926 0.00000073 0.49415846
0.59990233 0.00000073 0.50616576
0.71499878 0.00000073 0.51867668
0.81502568 0.00000073 0.53198655
0.82742464 0.00000073 0.54640506
0.00000073 0.00000073 0.53247495
0.00000073 0.00000073 0.54461699
0.00000073 0.00000073 0.55515912
0.23973793 0.00000073 0.56397735
0.48622433 0.00000073 0.57113400
0.61970842 0.00000073 0.57717104
0.72656034 0.00000073 0.58334897
0.81528839 0.00000073 0.59055004
0.82742464 0.00000073 0.59951654
0.00000073 0.44823139 0.59717212
0.00000073 0.45124635 0.60270628
0.00000073 0.45482243 0.60708146
0.00000073 0.45904532 0.61100231
0.48900965 0.46363603 0.61460634
0.62959286 0.47090127 0.61651006
0.73102713 0.47894077 0.61974883
0.81272990 0.48433497 0.62526123
0.82742464 0.48607123 0.63220403
0.00000073 0.62582338 0.62083063
0.00000073 0.62531576 0.62159755
0.00000073 0.62520146 0.62243526
0.00000073 0.62585663 0.62384774
0.46675173 0.62723265 0.62601309
0.62844706 0.62844707 0.62844707
0.72973032 0.63041853 0.63255428
0.80463037 0.63408891 0.63941925
0.82742464 0.63917650 0.64860262
0.00000073 0.75186716 0.60367782
0.00000073 0.74546111 0.60606785
0.00000073 0.73928632 0.60936400
0.00000073 0.73448812 0.61375077
0.35777951 0.73121815 0.61938846
0.61538741 0.72951702 0.62642488
0.72228176 0.72910208 0.63658014
0.79683295 0.73086355 0.65162689
0.82742464 0.73585422 0.66962993
0.00000073 0.82742464 0.54012795
0.00000073 0.82742464 0.56026092
0.00000073 0.82036060 0.57806690
0.00000073 0.81323198 0.59536656
0.00000073 0.80842191 0.61341261
0.60381346 0.80606374 0.63320493
0.72293478 0.80447622 0.65406815
0.79417277 0.80212038 0.68300243
0.82742464 0.80064950 0.72965676
0.00000073 0.82742464 0.00000073
0.00000073 0.82742464 0.43535063
0.00000073 0.82742464 0.52705908
0.00000073 0.82742464 0.57827033
0.00000073 0.82742464 0.61617311
0.60645969 0.82742464 0.65160172
0.74594543 0.82742464 0.70961353
0.80431210 0.82742464 0.76464403
0.82605282 0.82742464 0.79702314
0.00000073 0.00000073 0.33183450
0.00000073 0.00000073 0.31998986
0.00000073 0.00000073 0.32230791
0.25874027 0.00000073 0.32921075
0.40365313 0.00000073 0.33848259
0.53582431 0.00000073 0.35006237
0.65952626 0.00000073 0.36491052
0.77272306 0.00000073 0.38465093
0.82742464 0.00000073 0.41136682
0.00000073 0.00000073 0.39203912
0.00000073 0.00000073 0.40195867
0.00000073 0.00000073 0.41345162
0.25670498 0.00000073 0.42563483
0.42438252 0.00000073 0.43840114
0.55842284 0.00000073 0.45199643
0.67761858 0.00000073 0.46712502
0.78444125 0.00000073 0.48457585
0.82742464 0.00000073 0.50486159
0.00000073 0.00000073 0.48797382
0.00000073 0.00000073 0.50187335
0.00000073 0.00000073 0.51527144
0.20578434 0.00000073 0.52802824
0.44599321 0.00000073 0.54037981
0.58358371 0.00000073 0.55305879
0.69794768 0.00000073 0.56630725
0.79514485 0.00000073 0.57990057
0.82742464 0.00000073 0.59344945
0.00000073 0.00000073 0.58868945
0.00000073 0.00000073 0.60123417
0.00000073 0.00000073 0.61219560
0.00000073 0.00000073 0.62180700
0.45613974 0.00000073 0.62991035
0.60276846 0.00000073 0.63669636
0.71068726 0.00000073 0.64272596
0.79865597 0.00000073 0.64912242
0.82742464 0.00000073 0.65628968
0.00000073 0.25962937 0.67217925
0.00000073 0.23877657 0.67755193
0.00000073 0.23859175 0.68162668
0.00000073 0.26345491 0.68459944
0.44615540 0.30226596 0.68652609
0.61298938 0.34198324 0.68784773
0.71858571 0.37503113 0.68953368
0.79988319 0.39952408 0.69188396
0.82742464 0.41812617 0.69490705
0.00000073 0.58651672 0.71728530
0.00000073 0.58622027 0.71638946
0.00000073 0.58741079 0.71493254
0.00000073 0.59032735 0.71352488
0.40641351 0.59411154 0.71272738
0.61495990 0.59830073 0.71245158
0.72040189 0.60457453 0.71143197
0.79517601 0.61305289 0.71178690
0.82742464 0.62329748 0.71456842
0.00000073 0.73177482 0.72636549
0.00000073 0.72567208 0.72163003
0.00000073 0.72079913 0.71774266
0.00000073 0.71749279 0.71516759
0.00000073 0.71584507 0.71415497
0.60703176 0.71597503 0.71499627
0.71761718 0.71761720 0.71761721
0.79175189 0.72193435 0.72323360
0.82742464 0.73140528 0.73382201
0.00000073 0.82723058 0.70226226
0.00000073 0.81689469 0.70134732
0.00000073 0.80870165 0.70239103
0.00000073 0.80278071 0.70567217
0.00000073 0.79930929 0.71152054
0.60698428 0.79817873 0.71993254
0.72386479 0.79710643 0.72975020
0.79086445 0.79484299 0.74966542
0.81644693 0.79731656 0.77506807
0.00000073 0.82742464 0.66471152
0.00000073 0.82742464 0.67760663
0.00000073 0.82742464 0.69074607
0.00000073 0.82742464 0.70319655
0.00000073 0.82742464 0.71584382
0.65551721 0.82742464 0.73925756
0.76730327 0.82742464 0.77208393
0.80902315 0.82534489 0.79710256
0.82611498 0.82723853 0.81609901
0.00000073 0.00000073 0.35662532
0.00000073 0.00000073 0.34964160
0.00000073 0.00000073 0.35503733
0.23187444 0.00000073 0.36301918
0.38746472 0.00000073 0.37282918
0.52000663 0.00000073 0.38456646
0.64106918 0.00000073 0.39876980
0.75113901 0.00000073 0.41649163
0.82742464 0.00000073 0.43888841
0.00000073 0.00000073 0.42845233
0.00000073 0.00000073 0.43932142
0.00000073 0.00000073 0.45120633
0.19508721 0.00000073 0.46354998
0.40451005 0.00000073 0.47631844
0.54117849 0.00000073 0.48976308
0.65926860 0.00000073 0.50452220
0.76325113 0.00000073 0.52082370
0.82742464 0.00000073 0.53882363
0.00000073 0.00000073 0.52948593
0.00000073 0.00000073 0.54303228
0.00000073 0.00000073 0.55592885
0.00000073 0.00000073 0.56809492
0.41849259 0.00000073 0.58016647
0.56542632 0.00000073 0.59234650
0.67954510 0.00000073 0.60465599
0.77394105 0.00000073 0.61711137
0.82742464 0.00000073 0.63040728
0.00000073 0.00000073 0.63291023
0.00000073 0.00000073 0.64417948
0.00000073 0.00000073 0.65425487
0.00000073 0.00000073 0.66350277
0.40927098 0.00000073 0.67184353
0.58208000 0.00000073 0.67959019
0.69326628 0.00000073 0.68677818
0.78113182 0.00000073 0.69372923
0.82742464 0.00000073 0.70058817
0.00000073 0.00000073 0.72332263
0.00000073 0.00000073 0.72933158
0.00000073 0.00000073 0.73376848
0.00000073 0.00000073 0.73669584
0.33618809 0.00000073 0.73845303
0.59047250 0.00000073 0.74000390
0.70337517 0.00000073 0.74140823
0.78522252 0.00000073 0.74235267
0.82742464 0.00000073 0.74314327
0.00000073 0.49064497 0.78409394
0.00000073 0.49236481 0.78234644
0.00000073 0.50099359 0.77954891
0.00000073 0.51359086 0.77684165
0.00000073 0.52774621 0.77406317
0.59294642 0.54303991 0.77122000
0.70721923 0.56011328 0.76820000
0.78326951 0.57911907 0.76556513
0.82742464 0.59985208 0.76426242
0.00000073 0.69672378 0.80837501
0.00000073 0.69239176 0.80073728
0.00000073 0.68997622 0.79389691
0.00000073 0.68945818 0.78804969
0.00000073 0.69086598 0.78345505
0.59202301 0.69425330 0.78045553
0.71018634 0.69980073 0.77920376
0.78367276 0.70954849 0.77843053
0.81902833 0.73015476 0.77663409
0.00000073 0.80645888 0.80119588
0.00000073 0.79764991 0.79364320
0.00000073 0.79115283 0.78805702
0.00000073 0.78711825 0.78470208
0.00000073 0.78575085 0.78389970
0.60625299 0.78631231 0.78501913
0.73003531 0.78606329 0.78545979
0.78908201 0.78908203 0.78908205
0.81078508 0.79691252 0.79711056
0.00000073 0.82742464 0.77932075
0.00000073 0.82742464 0.77871564
0.00000073 0.82742464 0.77914729
0.00000073 0.82742464 0.78010374
0.00000073 0.82742464 0.78288045
0.70515265 0.82742464 0.79129874
0.78410155 0.82129335 0.80320146
0.81393314 0.82273875 0.81446432
0.82742464 0.82742464 0.82580961
0.00000073 0.00000073 0.37923662
0.00000073 0.00000073 0.37802379
0.00000073 0.00000073 0.38471826
0.19038857 0.00000073 0.39339718
0.36885438 0.00000073 0.40369396
0.50254896 0.00000073 0.41570485
0.62143084 0.00000073 0.42980293
0.72896725 0.00000073 0.44669491
0.82442359 0.00000073 0.46677765
0.00000073 0.00000073 0.46146989
0.00000073 0.00000073 0.47289115
0.00000073 0.00000073 0.48487694
0.00000073 0.00000073 0.49723599
0.37981994 0.00000073 0.50993631
0.52283320 0.00000073 0.52350361
0.64034782 0.00000073 0.53808537
0.74150347 0.00000073 0.55368114
0.82702916 0.00000073 0.57026966
0.00000073 0.00000073 0.56633760
0.00000073 0.00000073 0.57935059
0.00000073 0.00000073 0.59157012
0.00000073 0.00000073 0.60336667
0.37885487 0.00000073 0.61514591
0.54513065 0.00000073 0.62680384
0.66029613 0.00000073 0.63820551
0.75333862 0.00000073 0.64973842
0.82742464 0.00000073 0.66191429
0.00000073 0.00000073 0.67132487
0.00000073 0.00000073 0.68138906
0.00000073 0.00000073 0.69064065
0.00000073 0.00000073 0.69885962
0.30985899 0.00000073 0.70609920
0.55789229 0.00000073 0.71288147
0.67496571 0.00000073 0.72020141
0.76321010 0.00000073 0.72804308
0.82742464 0.00000073 0.73532199
0.00000073 0.00000073 0.76187485
0.00000073 0.00000073 0.76676778
0.00000073 0.00000073 0.77059338
0.00000073 0.00000073 0.77363604
0.00000073 0.00000073 0.77657519
0.56048011 0.00000073 0.77894915
0.68596356 0.00000073 0.78050996
0.76938132 0.00000073 0.78083930
0.82742464 0.00000073 0.78026356
0.00000073 0.00000073 0.82742464
0.00000073 0.00000073 0.82742464
0.00000073 0.00000073 0.82572156
0.00000073 0.00000073 0.82272203
0.00000073 0.00000073 0.81906920
0.55931446 0.38299522 0.81488435
0.69172860 0.46742684 0.81029274
0.77004751 0.52323403 0.80560384
0.82226435 0.57257120 0.80020844
0.00000073 0.63170294 0.82742464
0.00000073 0.63272233 0.82742464
0.00000073 0.63690299 0.82742464
0.00000073 0.64370919 0.82742464
0.00000073 0.65281360 0.82742464
0.56752001 0.66413291 0.82732049
0.70138667 0.67796689 0.82225918
0.77252259 0.70331901 0.81045145
0.79990658 0.73684998 0.79556857
0.00000073 0.77627381 0.82742464
0.00000073 0.77003391 0.82742464
0.00000073 0.76647295 0.82742464
0.00000073 0.76571699 0.82742464
0.00000073 0.76791833 0.82742464
0.61980501 0.77141747 0.82742464
0.74327662 0.77788485 0.81385227
0.79014403 0.78814152 0.80628429
0.80794944 0.79912716 0.80742476
0.00000073 0.82742464 0.82742464
0.00000073 0.82742464 0.82742464
0.00000073 0.82742464 0.82742464
0.00000073 0.82742464 0.82742464
0.56430483 0.82473140 0.82324000
0.74577230 0.81672697 0.81600403
0.79610984 0.81779118 0.81752528
0.81919711 0.82273390 0.82268724
0.82742464 0.82742464 0.82742464
