resources/flame/Syncolor/Shared/transforms/camera_manufacturer_luts/arri/ARRI_Alexa_LUTs/ARRI_LogC3_v1-2_LUT_Package/LUTs/ARRI_LogC3-to-St2084_4K_Rec2100-D65_DW200_v1_33.cube
LUT_3D_SIZE 9
0.006302 0.006302 0.006302
0.104173 0.027924 0.006302
0.205234 0.068299 0.012955
0.310948 0.120958 0.027359
0.430106 0.191501 0.051301
0.553735 0.276188 0.086305
0.679500 0.373602 0.134356
0.807263 0.483665 0.198093
0.902571 0.604608 0.279210
0.017090 0.057206 0.006302
0.051438 0.054444 0.006302
0.179034 0.073411 0.006302
0.307927 0.125261 0.021164
0.437613 0.198718 0.050568
0.568124 0.287831 0.089815
0.699077 0.390219 0.142382
0.826780 0.501671 0.208911
0.902571 0.616983 0.287861
0.076600 0.191470 0.006302
0.091325 0.196429 0.006302
0.196475 0.204547 0.006302
0.327611 0.222721 0.006302
0.461250 0.262165 0.006302
0.593454 0.329381 0.038407
0.720882 0.418494 0.134310
0.840101 0.518395 0.208484
0.902571 0.619577 0.284031
0.164782 0.343145 0.006302
0.177050 0.351675 0.006302
0.244358 0.360632 0.006302
0.359976 0.371374 0.006302
0.488136 0.388312 0.006302
0.614328 0.419501 0.006302
0.732311 0.471229 0.006302
0.839979 0.541100 0.125582
0.902571 0.619684 0.246860
0.273823 0.499367 0.006302
0.283711 0.507286 0.006302
0.320027 0.513588 0.006302
0.402228 0.518822 0.006302
0.511971 0.525154 0.006302
0.625788 0.536416 0.006302
0.733379 0.557671 0.006302
0.830411 0.592386 0.006302
0.902571 0.638437 0.006302
0.391211 0.646509 0.006302
0.395148 0.648661 0.006302
0.410712 0.648875 0.006302
0.457862 0.648142 0.006302
0.539620 0.648112 0.006302
0.636469 0.650416 0.006302
0.732357 0.657801 0.006302
0.819608 0.672572 0.006302
0.896468 0.695521 0.006302
0.503075 0.773571 0.006302
0.499870 0.768673 0.006302
0.503151 0.763195 0.006302
0.526696 0.758419 0.006302
0.581292 0.754971 0.006302
0.658793 0.753750 0.006302
0.741970 0.756146 0.006302
0.820523 0.762951 0.006302
0.890181 0.774487 0.006302
0.603433 0.879606 0.006302
0.595621 0.870619 0.006302
0.592599 0.861982 0.006302
0.603235 0.854124 0.006302
0.638209 0.848157 0.006302
0.696223 0.844831 0.006302
0.764828 0.844282 0.006302
0.832593 0.846677 0.006302
0.892729 0.851652 0.006302
0.694316 0.902571 0.006302
0.681697 0.902571 0.006302
0.673518 0.902571 0.006302
0.677043 0.902571 0.006302
0.699260 0.902571 0.006302
0.741085 0.902571 0.006302
0.794736 0.902571 0.006302
0.849989 0.902571 0.006302
0.899672 0.902571 0.006302
0.006302 0.006302 0.110155
0.090425 0.006302 0.083726
0.195895 0.059098 0.060227
0.306645 0.117800 0.050858
0.429129 0.190616 0.064225
0.553857 0.276158 0.093294
0.680522 0.374380 0.138506
0.808499 0.484764 0.200763
0.902571 0.602594 0.278843
0.006302 0.050629 0.051514
0.049042 0.049042 0.049042
0.180972 0.071183 0.049760
0.310323 0.125505 0.057237
0.440421 0.200153 0.074311
0.571298 0.290013 0.104997
0.700649 0.391470 0.151400
0.824765 0.499794 0.212634
0.902571 0.609491 0.285451
0.076417 0.192752 0.006302
0.091524 0.198428 0.006302
0.198703 0.206531 0.006302
0.331502 0.224720 0.006302
0.464973 0.264530 0.036194
0.595331 0.331151 0.098344
0.719326 0.417716 0.155138
0.833402 0.512734 0.217182
0.902571 0.608621 0.284215
0.166247 0.346059 0.006302
0.178759 0.354803 0.006302
0.246281 0.363668 0.006302
0.362631 0.373922 0.006302
0.490272 0.390539 0.006302
0.613809 0.421042 0.006302
0.728145 0.470497 0.006302
0.831632 0.536202 0.180468
0.902571 0.608942 0.261799
0.275792 0.502312 0.006302
0.285344 0.509621 0.006302
0.321691 0.515175 0.006302
0.404105 0.519875 0.006302
0.512932 0.526009 0.006302
0.624567 0.537301 0.006302
0.728817 0.557961 0.006302
0.821500 0.590417 0.006302
0.900908 0.632334 0.006302
0.391455 0.646937 0.006302
0.394781 0.648096 0.006302
0.410880 0.647654 0.006302
0.459403 0.646952 0.006302
0.541100 0.647166 0.006302
0.636179 0.650019 0.006302
0.729061 0.658030 0.006302
0.813199 0.672892 0.006302
0.886824 0.694804 0.006302
0.499962 0.770245 0.006302
0.496574 0.764828 0.006302
0.501183 0.759579 0.006302
0.527321 0.755245 0.006302
0.583932 0.752422 0.006302
0.660838 0.752300 0.006302
0.741741 0.755779 0.006302
0.817350 0.763363 0.006302
0.883711 0.775158 0.006302
0.597406 0.873457 0.006302
0.589975 0.864500 0.006302
0.588418 0.856123 0.006302
0.602380 0.849012 0.006302
0.640711 0.844343 0.006302
0.699687 0.842222 0.006302
0.766979 0.842756 0.006302
0.832044 0.845930 0.006302
0.888762 0.851438 0.006302
0.685100 0.902571 0.006302
0.673060 0.902571 0.006302
0.667445 0.902571 0.006302
0.674693 0.902571 0.006302
0.700679 0.902571 0.006302
0.744701 0.902571 0.006302
0.798184 0.902571 0.006302
0.851499 0.902571 0.006302
0.896834 0.902571 0.006302
0.006302 0.006302 0.184863
0.053193 0.006302 0.162448
0.180789 0.006302 0.143130
0.299504 0.098268 0.137133
0.424125 0.182559 0.141756
0.550271 0.271717 0.153979
0.678050 0.371633 0.179049
0.804501 0.480842 0.222766
0.902571 0.594736 0.286259
0.006302 0.006302 0.166583
0.006302 0.006302 0.169528
0.175235 0.006302 0.172198
0.309499 0.093874 0.176883
0.441291 0.191150 0.185168
0.572274 0.287160 0.198383
0.699474 0.389059 0.220188
0.819593 0.494484 0.255528
0.902571 0.598322 0.305913
0.029206 0.181781 0.183871
0.062898 0.187640 0.190127
0.196063 0.196063 0.196063
0.334524 0.216236 0.203082
0.467521 0.259663 0.213321
0.595651 0.328420 0.227680
0.715679 0.413687 0.249104
0.825345 0.505165 0.280247
0.902571 0.596063 0.321645
0.159350 0.346136 0.171206
0.172808 0.355047 0.178256
0.244434 0.363928 0.184405
0.364172 0.373739 0.193973
0.491936 0.390143 0.212116
0.612604 0.420356 0.234211
0.723354 0.468162 0.260807
0.822431 0.530114 0.293385
0.902571 0.597238 0.331472
0.274540 0.503944 0.006302
0.283833 0.510521 0.006302
0.321370 0.515526 0.006302
0.405112 0.519936 0.006302
0.513680 0.526040 0.006302
0.623316 0.537377 0.094087
0.724071 0.557595 0.215961
0.812253 0.588067 0.279500
0.888228 0.626825 0.330877
0.389899 0.646296 0.006302
0.392767 0.646571 0.006302
0.410132 0.645930 0.006302
0.460563 0.645426 0.006302
0.542535 0.645975 0.006302
0.636118 0.649500 0.006302
0.726299 0.658213 0.006302
0.807431 0.673198 0.006302
0.877775 0.694285 0.305348
0.495766 0.766155 0.006302
0.492653 0.760708 0.006302
0.498955 0.755795 0.006302
0.528145 0.751995 0.006302
0.586877 0.750072 0.006302
0.663157 0.751110 0.006302
0.741909 0.755566 0.006302
0.814664 0.763851 0.006302
0.877699 0.775921 0.168856
0.590921 0.866987 0.006302
0.584009 0.858183 0.006302
0.584390 0.850217 0.006302
0.602182 0.844388 0.006302
0.643732 0.840955 0.006302
0.703517 0.839933 0.006302
0.769482 0.841444 0.006302
0.831800 0.845258 0.006302
0.885100 0.851240 0.174990
0.675486 0.902571 0.006302
0.664958 0.902571 0.006302
0.662150 0.902571 0.006302
0.673198 0.902571 0.006302
0.702922 0.902571 0.006302
0.748943 0.902571 0.006302
0.802106 0.902571 0.006302
0.853574 0.902571 0.006302
0.893004 0.902571 0.633234
0.006302 0.006302 0.234562
0.006302 0.006302 0.215167
0.160189 0.006302 0.201221
0.288396 0.006302 0.201602
0.415381 0.161227 0.207416
0.543114 0.261128 0.217563
0.670970 0.363745 0.234546
0.794858 0.471290 0.262928
0.902571 0.580560 0.307286
0.006302 0.006302 0.248341
0.006302 0.006302 0.253742
0.154314 0.006302 0.260334
0.301854 0.006302 0.268101
0.436973 0.141573 0.277684
0.567773 0.270512 0.289403
0.692699 0.378332 0.304601
0.808530 0.482231 0.325765
0.902571 0.582162 0.355886
0.006302 0.086702 0.299153
0.006302 0.078813 0.309316
0.171038 0.083284 0.320165
0.329259 0.141192 0.328771
0.465766 0.221180 0.337453
0.592630 0.309331 0.347936
0.709361 0.401175 0.360952
0.815381 0.492958 0.377813
0.902571 0.580331 0.399695
0.076402 0.333577 0.336110
0.107942 0.341985 0.345251
0.225635 0.350607 0.353689
0.360754 0.360754 0.360754
0.492027 0.378866 0.368460
0.610391 0.411444 0.378729
0.717586 0.460212 0.391424
0.812131 0.520455 0.407462
0.892531 0.583368 0.427451
0.259739 0.501564 0.336278
0.269566 0.507378 0.343755
0.313085 0.512001 0.351232
0.402518 0.516716 0.358846
0.513313 0.522972 0.369238
0.621836 0.534478 0.385916
0.718929 0.554711 0.405402
0.803342 0.584039 0.427176
0.876112 0.620615 0.451148
0.383200 0.643748 0.006302
0.385992 0.643412 0.198260
0.405814 0.642863 0.253895
0.459800 0.642695 0.294987
0.543191 0.643778 0.332311
0.635996 0.648066 0.370443
0.723980 0.657465 0.407294
0.802152 0.672694 0.442817
0.869184 0.693217 0.477943
0.489448 0.761334 0.006302
0.486763 0.755978 0.006302
0.495232 0.751476 0.006302
0.528313 0.748348 0.006302
0.589425 0.747631 0.006302
0.665400 0.749722 0.273610
0.742290 0.755047 0.391150
0.812329 0.763973 0.459083
0.872023 0.776349 0.513939
0.583307 0.860105 0.006302
0.577050 0.851484 0.006302
0.580133 0.844541 0.006302
0.602029 0.839979 0.006302
0.646830 0.837675 0.006302
0.707439 0.837659 0.006302
0.772122 0.839994 0.354131
0.831769 0.844388 0.494728
0.880888 0.850629 0.578378
0.665614 0.902571 0.006302
0.657038 0.902571 0.006302
0.657145 0.902571 0.006302
0.672190 0.902571 0.006302
0.705730 0.902571 0.006302
0.753628 0.902571 0.006302
0.806394 0.902571 0.422660
0.856962 0.901869 0.635355
0.889738 0.898848 0.763531
0.006302 0.006302 0.270649
0.006302 0.006302 0.253071
0.132952 0.006302 0.244434
0.274311 0.006302 0.248447
0.404028 0.111421 0.255558
0.532998 0.243595 0.265934
0.659464 0.350561 0.280644
0.780194 0.456550 0.302434
0.891279 0.560632 0.334585
0.006302 0.006302 0.305379
0.006302 0.006302 0.313085
0.099886 0.006302 0.322393
0.288106 0.006302 0.333043
0.427512 0.006302 0.344717
0.558206 0.228473 0.357549
0.680659 0.356817 0.372137
0.792660 0.462959 0.389593
0.893965 0.560998 0.411475
0.006302 0.006302 0.381765
0.006302 0.006302 0.394034
0.006302 0.006302 0.406470
0.312078 0.006302 0.417731
0.456748 0.006302 0.428046
0.583810 0.241306 0.438422
0.698695 0.370962 0.449790
0.801419 0.471122 0.462669
0.890410 0.558114 0.477394
0.006302 0.282048 0.449714
0.006302 0.286351 0.461051
0.058595 0.291997 0.471397
0.342794 0.303212 0.480507
0.484764 0.331121 0.486610
0.604562 0.377371 0.492622
0.709422 0.436622 0.500175
0.799908 0.501366 0.509529
0.876753 0.564767 0.521065
0.144884 0.486793 0.489128
0.172091 0.491737 0.495064
0.269871 0.496162 0.499962
0.388998 0.501549 0.504692
0.508980 0.508980 0.508980
0.619135 0.522515 0.514794
0.713176 0.544793 0.523781
0.794537 0.575006 0.535103
0.864240 0.611200 0.549203
0.359304 0.636896 0.483864
0.363195 0.636378 0.489006
0.389700 0.635981 0.494942
0.453147 0.636332 0.501961
0.541238 0.638483 0.510506
0.635142 0.643839 0.522484
0.721798 0.654017 0.539712
0.797101 0.669856 0.559167
0.860792 0.690364 0.580667
0.477043 0.754940 0.412421
0.474983 0.749752 0.437049
0.486809 0.745678 0.461814
0.525673 0.743603 0.486122
0.590448 0.744121 0.509728
0.666911 0.747295 0.534173
0.742580 0.753445 0.561105
0.810163 0.763027 0.590478
0.866529 0.775830 0.621500
0.572869 0.852445 0.006302
0.567651 0.844373 0.006302
0.574121 0.838666 0.282033
0.600732 0.835233 0.432059
0.649317 0.833982 0.498970
0.711086 0.834928 0.549004
0.774640 0.837980 0.593027
0.831815 0.842924 0.634745
0.872908 0.848463 0.697551
0.654963 0.902571 0.006302
0.648264 0.902571 0.006302
0.651591 0.902571 0.006302
0.671031 0.902571 0.006302
0.708721 0.902571 0.488045
0.758587 0.902571 0.581720
0.813245 0.899565 0.662104
0.861585 0.894316 0.757794
0.888609 0.894362 0.828199
0.006302 0.006302 0.302281
0.006302 0.006302 0.287053
0.083207 0.006302 0.284459
0.258183 0.006302 0.290013
0.391730 0.006302 0.298177
0.520851 0.213687 0.308751
0.645319 0.332113 0.322347
0.762158 0.437598 0.340459
0.868345 0.537301 0.365087
0.006302 0.006302 0.349996
0.006302 0.006302 0.358846
0.006302 0.006302 0.369390
0.268330 0.006302 0.381109
0.414313 0.006302 0.393545
0.544793 0.006302 0.406943
0.664515 0.321248 0.421775
0.773770 0.437064 0.438849
0.871489 0.535012 0.458732
0.006302 0.006302 0.439689
0.006302 0.006302 0.453529
0.006302 0.006302 0.467155
0.280797 0.006302 0.480049
0.441901 0.006302 0.492103
0.570825 0.006302 0.503853
0.684428 0.299886 0.515785
0.784070 0.434607 0.527962
0.868681 0.527382 0.540475
0.006302 0.006302 0.530724
0.006302 0.006302 0.542840
0.006302 0.006302 0.553368
0.296361 0.006302 0.562158
0.468742 0.006302 0.569253
0.593133 0.244602 0.575143
0.697154 0.377005 0.581003
0.784985 0.464836 0.587594
0.859556 0.536828 0.595590
0.006302 0.444343 0.595880
0.006302 0.447471 0.601404
0.006302 0.451637 0.605768
0.345357 0.458061 0.609689
0.495583 0.468925 0.613245
0.610849 0.489525 0.615061
0.705241 0.519219 0.618112
0.784802 0.555062 0.623667
0.851957 0.594491 0.631876
0.221973 0.619196 0.621088
0.245457 0.618738 0.621836
0.324758 0.618830 0.622644
0.429236 0.620157 0.624033
0.533288 0.624216 0.627054
0.631678 0.631678 0.631678
0.718944 0.644160 0.638926
0.791714 0.662089 0.649561
0.852216 0.683864 0.662867
0.445228 0.744747 0.609430
0.445029 0.739834 0.612726
0.464927 0.736522 0.618189
0.515587 0.735760 0.625727
0.587991 0.737636 0.635172
0.666636 0.742260 0.646311
0.742336 0.749508 0.660441
0.807965 0.759991 0.679026
0.861006 0.773678 0.699977
0.555108 0.843198 0.574914
0.551812 0.836255 0.593301
0.562905 0.831647 0.611460
0.596262 0.829267 0.630091
0.650217 0.829038 0.649699
0.713970 0.831022 0.670741
0.776761 0.834836 0.693523
0.831235 0.839582 0.725216
0.863859 0.845548 0.775357
0.641382 0.902571 0.464240
0.636637 0.902571 0.548058
0.643839 0.902571 0.598718
0.668849 0.902571 0.637934
0.711498 0.900175 0.672343
0.764630 0.897139 0.707729
0.824094 0.890440 0.766125
0.866957 0.887526 0.824475
0.889738 0.892821 0.861936
0.006302 0.006302 0.330129
0.006302 0.006302 0.318318
0.006302 0.006302 0.320623
0.238865 0.006302 0.327443
0.377996 0.006302 0.336492
0.506966 0.145632 0.347417
0.629007 0.305837 0.360662
0.741619 0.414130 0.377005
0.844221 0.511910 0.397726
0.006302 0.006302 0.390204
0.006302 0.006302 0.400107
0.006302 0.006302 0.411566
0.238926 0.006302 0.423697
0.398535 0.006302 0.436347
0.529320 0.006302 0.449638
0.647013 0.252247 0.464073
0.753353 0.402319 0.480140
0.847059 0.504067 0.498039
0.006302 0.006302 0.486030
0.006302 0.006302 0.499916
0.006302 0.006302 0.513283
0.220401 0.006302 0.526009
0.422599 0.006302 0.538293
0.555108 0.006302 0.550820
0.667643 0.006302 0.563760
0.764279 0.369650 0.576745
0.845518 0.485466 0.589334
0.006302 0.006302 0.586770
0.006302 0.006302 0.599298
0.006302 0.006302 0.610239
0.006302 0.006302 0.619837
0.444511 0.006302 0.627893
0.577615 0.006302 0.634607
0.681880 0.006302 0.640482
0.768612 0.386481 0.646586
0.841321 0.492088 0.653269
0.006302 0.286015 0.670436
0.006302 0.274235 0.675807
0.006302 0.279026 0.679881
0.006302 0.306371 0.682841
0.470207 0.352605 0.684764
0.597253 0.407828 0.686046
0.693950 0.463828 0.687663
0.773037 0.517311 0.690730
0.838300 0.567025 0.695766
0.006302 0.581613 0.716091
0.006302 0.581369 0.715190
0.006302 0.582803 0.713756
0.353185 0.586755 0.712505
0.514809 0.594247 0.713130
0.623514 0.605844 0.715541
0.712596 0.623545 0.718120
0.784771 0.646372 0.722683
0.842847 0.671885 0.729931
0.297185 0.725490 0.727123
0.322362 0.721355 0.724300
0.393927 0.719738 0.723461
0.486290 0.720790 0.724788
0.578637 0.724575 0.728176
0.663691 0.731243 0.733593
0.740612 0.740612 0.740612
0.805341 0.753384 0.750149
0.850889 0.769848 0.763928
0.516762 0.830976 0.717479
0.517601 0.825238 0.720623
0.538567 0.821790 0.725841
0.584848 0.820569 0.733089
0.648188 0.821546 0.742336
0.715633 0.824781 0.753552
0.778668 0.829572 0.766964
0.830564 0.834714 0.791104
0.857298 0.844129 0.821546
0.620050 0.902571 0.703960
0.618051 0.902571 0.717556
0.631220 0.900923 0.731884
0.664454 0.896223 0.746960
0.713817 0.893019 0.763333
0.777523 0.886564 0.790539
0.837369 0.881193 0.827695
0.872328 0.884703 0.858030
0.892134 0.893309 0.882551
0.006302 0.006302 0.354849
0.006302 0.006302 0.347890
0.006302 0.006302 0.353262
0.213672 0.006302 0.361196
0.362371 0.006302 0.370855
0.491463 0.006302 0.382193
0.610727 0.264469 0.395422
0.720089 0.385626 0.411139
0.819150 0.483864 0.429953
0.006302 0.006302 0.426535
0.006302 0.006302 0.437385
0.006302 0.006302 0.449256
0.185168 0.006302 0.461555
0.379614 0.006302 0.474250
0.512505 0.006302 0.487495
0.628870 0.006302 0.501839
0.732219 0.348531 0.517342
0.821729 0.465599 0.534005
0.006302 0.006302 0.527474
0.006302 0.006302 0.541009
0.006302 0.006302 0.553887
0.006302 0.006302 0.566018
0.398062 0.006302 0.578058
0.537804 0.006302 0.590143
0.649607 0.006302 0.602258
0.743221 0.006302 0.614374
0.822492 0.423346 0.627131
0.006302 0.006302 0.630900
0.006302 0.006302 0.642161
0.006302 0.006302 0.652216
0.006302 0.006302 0.661463
0.410163 0.006302 0.669780
0.559121 0.006302 0.677470
0.665324 0.006302 0.684565
0.751507 0.006302 0.691356
0.822553 0.404211 0.697963
0.006302 0.006302 0.721416
0.006302 0.006302 0.727413
0.006302 0.006302 0.731853
0.006302 0.006302 0.734768
0.425666 0.006302 0.736522
0.579660 0.006302 0.738064
0.680583 0.224048 0.739559
0.759899 0.436835 0.741802
0.823682 0.521157 0.745144
0.006302 0.493584 0.782437
0.006302 0.495171 0.780682
0.006302 0.503563 0.777905
0.006302 0.517403 0.775677
0.478248 0.536294 0.774807
0.610834 0.560250 0.775036
0.703532 0.589349 0.775921
0.775906 0.621851 0.777691
0.832227 0.654963 0.780987
0.006302 0.692241 0.808286
0.006302 0.690272 0.803037
0.006302 0.691417 0.799619
0.404471 0.695537 0.797940
0.558724 0.702663 0.797910
0.658106 0.712856 0.799557
0.737194 0.726146 0.802701
0.800412 0.743679 0.805783
0.835813 0.768399 0.807370
0.370565 0.812177 0.813977
0.405173 0.808042 0.811002
0.475196 0.806271 0.809979
0.559152 0.806836 0.810819
0.641672 0.809781 0.813535
0.716121 0.814984 0.817960
0.783841 0.821210 0.822705
0.831449 0.831449 0.831449
0.855634 0.845686 0.845197
0.577783 0.901671 0.809735
0.582620 0.895018 0.811994
0.608850 0.889845 0.815778
0.656733 0.886107 0.821073
0.721721 0.881331 0.828794
0.797559 0.874571 0.842405
0.849851 0.876005 0.859937
0.878172 0.884657 0.877028
0.895689 0.895903 0.893996
0.006302 0.006302 0.377417
0.006302 0.006302 0.376196
0.006302 0.006302 0.382879
0.175372 0.006302 0.391516
0.344457 0.006302 0.401709
0.474388 0.006302 0.413458
0.591318 0.172015 0.426963
0.697993 0.348516 0.442634
0.793317 0.451743 0.460609
0.006302 0.006302 0.459495
0.006302 0.006302 0.470893
0.006302 0.006302 0.482872
0.006302 0.006302 0.495201
0.356390 0.006302 0.507836
0.494682 0.006302 0.521279
0.610224 0.006302 0.535607
0.710582 0.206729 0.550729
0.795987 0.412009 0.566537
0.006302 0.006302 0.564279
0.006302 0.006302 0.577279
0.006302 0.006302 0.589471
0.006302 0.006302 0.601266
0.364248 0.006302 0.613016
0.518730 0.006302 0.624613
0.630884 0.006302 0.635889
0.722866 0.006302 0.647211
0.800229 0.261341 0.659068
0.006302 0.006302 0.669261
0.006302 0.006302 0.679316
0.006302 0.006302 0.688563
0.006302 0.006302 0.696773
0.354253 0.006302 0.704005
0.538231 0.006302 0.710750
0.648219 0.006302 0.718013
0.734173 0.006302 0.725765
0.803677 0.006302 0.732891
0.006302 0.006302 0.759884
0.006302 0.006302 0.764782
0.006302 0.006302 0.768597
0.006302 0.006302 0.771633
0.333303 0.006302 0.774578
0.557794 0.006302 0.776944
0.665873 0.006302 0.778912
0.746044 0.006302 0.781064
0.808576 0.428885 0.783459
0.006302 0.006302 0.828336
0.006302 0.006302 0.826505
0.006302 0.006302 0.823896
0.006302 0.006302 0.821851
0.401831 0.339574 0.820539
0.593210 0.456367 0.819760
0.693248 0.528466 0.819287
0.766247 0.585611 0.819150
0.819547 0.635737 0.818402
0.006302 0.631785 0.865370
0.006302 0.635172 0.859510
0.006302 0.642832 0.854917
0.006302 0.654276 0.851453
0.524514 0.669154 0.849027
0.649683 0.687282 0.847517
0.733288 0.708461 0.846738
0.793561 0.739117 0.838666
0.822446 0.774319 0.827466
0.006302 0.784466 0.881956
0.006302 0.782864 0.875990
0.006302 0.783948 0.871458
0.508812 0.787655 0.868269
0.631510 0.794003 0.866407
0.722103 0.802716 0.862028
0.794232 0.815915 0.852232
0.834836 0.832746 0.850263
0.856367 0.849790 0.857420
0.446326 0.883848 0.886046
0.494484 0.878676 0.881865
0.567132 0.875029 0.878813
0.648096 0.872343 0.876280
0.744411 0.866453 0.869749
0.820233 0.866651 0.868421
0.860288 0.875319 0.875990
0.884489 0.886976 0.887098
0.899992 0.899992 0.899992
