resources/flame/Syncolor/Shared/transforms/camera_manufacturer_luts/arri/ARRI_Alexa_LUTs/ARRI_LogC3_v1-2_LUT_Package/LUTs/ARRI_LogC3-to-St2084_4K_Rec2100-D65_DW100_v2_33.cube
LUT_3D_SIZE 5
0.00000073 0.00000073 0.00000073
0.20523733 0.06829599 0.01294967
0.42992407 0.19139171 0.05125900
0.67553395 0.37035451 0.13262520
0.90257239 0.59323243 0.27109568
0.07321923 0.18485847 0.00000073
0.18125935 0.18892914 0.00000073
0.43590762 0.23790724 0.00000073
0.68499968 0.38614955 0.12345976
0.90257239 0.57466531 0.25366141
0.24426957 0.45932181 0.00000073
0.27501182 0.46477647 0.00000073
0.45674992 0.46940372 0.00000073
0.67393136 0.49781363 0.00000073
0.85334682 0.57677843 0.00000073
0.44869579 0.71313144 0.00000073
0.44600403 0.70211666 0.00000073
0.52138887 0.69481707 0.00000073
0.68433509 0.69842686 0.00000073
0.83692088 0.72106339 0.00000073
0.63780478 0.90257239 0.00000073
0.62205838 0.89392406 0.00000073
0.65537185 0.88352233 0.00000073
0.76347286 0.88469147 0.00000073
0.88273408 0.89654376 0.00000073
0.00000073 0.00000073 0.18163801
0.18572802 0.00000073 0.15257247
0.42774514 0.18287728 0.15827695
0.67588262 0.36955202 0.19019362
0.90257239 0.58355173 0.28185106
0.03114508 0.17362241 0.17257587
0.17772259 0.17772259 0.17772259
0.43860532 0.23305225 0.18455093
0.67642790 0.37870605 0.21165353
0.87571307 0.54917210 0.27791653
0.24341711 0.46092683 0.00000073
0.27443966 0.46445045 0.00000073
0.45677091 0.46879929 0.00000073
0.66373829 0.49711115 0.12450297
0.82727259 0.56559732 0.26867670
0.44133008 0.70521986 0.00000073
0.44191168 0.69494680 0.00000073
0.52764840 0.69061868 0.00000073
0.68554103 0.69916185 0.00000073
0.82640690 0.72455978 0.00000073
0.62091946 0.89759157 0.00000073
0.61310061 0.88149111 0.00000073
0.66290396 0.87673858 0.00000073
0.77563018 0.88251628 0.00000073
0.88077611 0.89269447 0.62119288
0.00000073 0.00000073 0.26102819
0.15476943 0.00000073 0.25487032
0.41966667 0.08415061 0.28283116
0.66778382 0.35351589 0.31726548
0.88834958 0.55693557 0.36367379
0.00000073 0.00000073 0.35101217
0.00000073 0.00000073 0.38128392
0.42897510 0.00000073 0.40420377
0.65997996 0.33104097 0.42189680
0.84260933 0.51091810 0.44146408
0.14689886 0.44410572 0.43512600
0.21979731 0.44402254 0.44505868
0.45076100 0.45076100 0.45076100
0.65235392 0.48420457 0.46296139
0.80347001 0.55050658 0.48844471
0.42355711 0.69395122 0.34556246
0.43010487 0.68524946 0.39916577
0.53209516 0.68558457 0.45040567
0.68770675 0.69857482 0.50601210
0.81747787 0.72675082 0.57240195
0.60251460 0.88108075 0.00000073
0.60515535 0.87059626 0.00000073
0.67299231 0.87069789 0.45325893
0.79166074 0.87805479 0.64078146
0.88085984 0.88662061 0.82045182
0.00000073 0.00000073 0.31403530
0.08607163 0.00000073 0.32616644
0.40828933 0.00000073 0.35935956
0.64925475 0.31389573 0.39437871
0.85075012 0.51549442 0.43289233
0.00000073 0.00000073 0.44089919
0.00000073 0.00000073 0.47835206
0.40458238 0.00000073 0.51163931
0.63555489 0.00000073 0.54186684
0.80257971 0.43132511 0.56447865
0.00000073 0.36227414 0.58861431
0.00000073 0.29965947 0.61019519
0.41572461 0.28345457 0.62331680
0.63512308 0.39089954 0.63098861
0.77917559 0.50194400 0.64113716
0.29644747 0.66858032 0.65359660
0.34305221 0.66123952 0.65921013
0.52141120 0.66734600 0.66986856
0.68744197 0.68744197 0.68744198
0.80436425 0.72329686 0.71739292
0.56987964 0.86364342 0.65336097
0.58784737 0.85780745 0.68891251
0.68269637 0.86212707 0.73248141
0.82065503 0.86449197 0.81099007
0.88851345 0.88968351 0.87892200
0.00000073 0.00000073 0.35431513
0.00000073 0.00000073 0.38204850
0.39160552 0.00000073 0.41795510
0.62243881 0.19409720 0.45343375
0.80768399 0.46027265 0.48941279
0.00000073 0.00000073 0.50793927
0.00000073 0.00000073 0.54529499
0.36823013 0.00000073 0.57843777
0.60648306 0.00000073 0.60755250
0.76292643 0.00000073 0.63306118
0.00000073 0.00000073 0.66453533
0.00000073 0.00000073 0.68881145
0.32493608 0.00000073 0.70852721
0.61247716 0.00000073 0.72267789
0.75287560 0.27373248 0.73184990
0.00000073 0.61766544 0.77174466
0.00000073 0.60514029 0.78013962
0.47840084 0.61907546 0.78735787
0.68331403 0.65759168 0.79500751
0.77914328 0.73072576 0.78434531
0.43911649 0.83835443 0.82692627
0.53287726 0.83681253 0.83562498
0.71838403 0.84045835 0.84301383
0.84830489 0.86334518 0.86400131
0.89999998 0.90000000 0.90000003
