resources/flame/Syncolor/Shared/transforms/camera_manufacturer_luts/arri/ARRI_Alexa_LUTs/ARRI_LogC3_v1-2_LUT_Package/LUTs/ARRI_LogC3-to-St2084_2K_P3-D65_DW100_v2_33.cube
LUT_3D_SIZE 33
0.00000073 0.00000073 0.00000073
0.03200717 0.00000073 0.00119519
0.06068005 0.00000073 0.00275465
0.08845930 0.00000073 0.00469080
0.11581541 0.00000073 0.00700336
0.14291289 0.00000073 0.00969557
0.16986841 0.00000073 0.01277788
0.19677009 0.00000073 0.01626558
0.22368216 0.00000073 0.02017679
0.25067697 0.00000073 0.02453596
0.27797034 0.00000073 0.02939987
0.30578963 0.00000073 0.03484368
0.33435676 0.00000073 0.04095985
0.36388930 0.00000073 0.04786013
0.39459949 0.00000073 0.05567768
0.42588251 0.00000073 0.06433566
0.45712647 0.00000073 0.07370505
0.48833851 0.00000073 0.08380852
0.51952596 0.00000073 0.09466970
0.55069454 0.00000073 0.10631260
0.58184917 0.00000073 0.11876170
0.61299409 0.00000073 0.13204201
0.64413291 0.00000073 0.14617897
0.67526878 0.00000073 0.16119847
0.70640435 0.00000073 0.17712684
0.73754192 0.00000073 0.19399083
0.76868343 0.00000073 0.21181758
0.79983053 0.00000073 0.23063464
0.82742464 0.00000073 0.25046993
0.82742464 0.00000073 0.27134785
0.82742464 0.00000073 0.29315330
0.82742464 0.00000073 0.31579252
0.82742464 0.00000073 0.33921828
0.00000073 0.01147806 0.00000073
0.00290381 0.00311797 0.00000073
0.03438510 0.00000073 0.00130718
0.06359940 0.00000073 0.00293860
0.09207665 0.00000073 0.00497343
0.12022415 0.00000073 0.00741399
0.14831108 0.00000073 0.01028027
0.17663986 0.00000073 0.01361665
0.20547729 0.00000073 0.01748426
0.23506981 0.00000073 0.02196174
0.26565118 0.00000073 0.02714682
0.29732202 0.00000073 0.03313388
0.32914243 0.00000073 0.03980299
0.36088300 0.00000073 0.04713035
0.39255491 0.00000073 0.05513646
0.42416708 0.00000073 0.06384235
0.45572668 0.00000073 0.07326952
0.48723981 0.00000073 0.08343999
0.51871413 0.00000073 0.09437708
0.55015624 0.00000073 0.10610470
0.58157156 0.00000073 0.11864712
0.61296473 0.00000073 0.13202909
0.64433977 0.00000073 0.14627581
0.67570014 0.00000073 0.16141288
0.70704880 0.00000073 0.17746631
0.73838830 0.00000073 0.19446251
0.76972082 0.00000073 0.21242826
0.80104822 0.00000073 0.23139070
0.82742464 0.00000073 0.25131106
0.82742464 0.00000073 0.27207421
0.82742464 0.00000073 0.29364147
0.82742464 0.00000073 0.31596623
0.82742464 0.00000073 0.33899189
0.00000073 0.02293388 0.00000073
0.00000073 0.01576678 0.00000073
0.00795222 0.00850677 0.00000073
0.04020182 0.00000073 0.00148887
0.07095139 0.00000073 0.00342219
0.10168901 0.00000073 0.00575871
0.13292049 0.00000073 0.00865585
0.16500732 0.00000073 0.01219182
0.19778646 0.00000073 0.01640554
0.23038884 0.00000073 0.02121856
0.26282139 0.00000073 0.02664274
0.29511498 0.00000073 0.03269587
0.32729232 0.00000073 0.03939690
0.35937060 0.00000073 0.04676558
0.39136314 0.00000073 0.05482237
0.42328043 0.00000073 0.06358822
0.45513085 0.00000073 0.07308459
0.48692114 0.00000073 0.08333327
0.51865784 0.00000073 0.09435681
0.55034866 0.00000073 0.10617898
0.58199960 0.00000073 0.11882382
0.61361580 0.00000073 0.13231578
0.64520166 0.00000073 0.14667973
0.67676101 0.00000073 0.16194093
0.70829713 0.00000073 0.17812503
0.73981286 0.00000073 0.19525802
0.77127647 0.00000073 0.21334609
0.80249289 0.00000073 0.23228971
0.82742464 0.00000073 0.25204684
0.82742464 0.00000073 0.27258070
0.82742464 0.00000073 0.29384541
0.82742464 0.00000073 0.31578537
0.82742464 0.00000073 0.33833469
0.00000073 0.03686424 0.00000073
0.00000073 0.03157361 0.00000073
0.00000073 0.02708187 0.00000073
0.02216197 0.02355310 0.00000073
0.05883543 0.02067211 0.00000073
0.09391280 0.01669947 0.00000073
0.12813889 0.00712721 0.00565881
0.16183417 0.00000073 0.01030321
0.19515934 0.00000073 0.01503929
0.22820939 0.00000073 0.02017282
0.26104521 0.00000073 0.02581799
0.29370821 0.00000073 0.03203748
0.32622785 0.00000073 0.03887399
0.35862583 0.00000073 0.04636103
0.39091862 0.00000073 0.05452739
0.42311898 0.00000073 0.06339934
0.45523693 0.00000073 0.07300174
0.48728049 0.00000073 0.08335866
0.51925621 0.00000073 0.09449379
0.55117164 0.00000073 0.10643145
0.58303380 0.00000073 0.11919630
0.61484834 0.00000073 0.13281303
0.64662015 0.00000073 0.14730656
0.67835344 0.00000073 0.16270208
0.71004762 0.00000073 0.17902279
0.74155643 0.00000073 0.19621008
0.77277619 0.00000073 0.21421228
0.80366361 0.00000073 0.23300164
0.82742464 0.00000073 0.25254209
0.82742464 0.00000073 0.27278867
0.82742464 0.00000073 0.29368695
0.82742464 0.00000073 0.31517246
0.82742464 0.00000073 0.33717023
0.00000073 0.05892349 0.00000073
0.00000073 0.05770179 0.00000073
0.00000073 0.05665391 0.00000073
0.00000073 0.05557647 0.00000073
0.05150367 0.05433169 0.00000073
0.08911288 0.05278191 0.00000073
0.12457242 0.05066686 0.00000073
0.15909502 0.04750297 0.00000073
0.19305091 0.04234964 0.00000073
0.22661572 0.03283627 0.01191899
0.25989028 0.00000073 0.02024484
0.29293852 0.00000073 0.02797116
0.32580355 0.00000073 0.03581520
0.35851583 0.00000073 0.04403510
0.39109764 0.00000073 0.05276435
0.42356571 0.00000073 0.06208678
0.45593294 0.00000073 0.07206225
0.48820939 0.00000073 0.08273750
0.52040305 0.00000073 0.09415156
0.55252111 0.00000073 0.10633897
0.58457172 0.00000073 0.11933210
0.61656127 0.00000073 0.13316119
0.64849524 0.00000073 0.14785520
0.68030489 0.00000073 0.16340502
0.71184963 0.00000073 0.17975419
0.74308795 0.00000073 0.19688458
0.77397716 0.00000073 0.21477079
0.80447178 0.00000073 0.23337897
0.82742464 0.00000073 0.25266627
0.82742464 0.00000073 0.27258037
0.82742464 0.00000073 0.29305901
0.82742464 0.00000073 0.31402957
0.82742464 0.00000073 0.33540869
0.00000073 0.09038778 0.00000073
0.00000073 0.08971867 0.00000073
0.00000073 0.08906244 0.00000073
0.00000073 0.08840441 0.00000073
0.03701582 0.08767731 0.00000073
0.08271986 0.08682829 0.00000073
0.12058610 0.08577580 0.00000073
0.15638819 0.08437343 0.00000073
0.19119594 0.08237811 0.00000073
0.22539672 0.07939628 0.00000073
0.25917894 0.07475478 0.00000073
0.29265050 0.06713138 0.01015548
0.32587952 0.05306184 0.02543074
0.35891177 0.00000073 0.03680295
0.39177943 0.00000073 0.04746895
0.42450590 0.00000073 0.05814091
0.45710867 0.00000073 0.06912336
0.48960108 0.00000073 0.08058449
0.52199351 0.00000073 0.09263254
0.55429424 0.00000073 0.10534486
0.58651198 0.00000073 0.11878208
0.61863074 0.00000073 0.13298317
0.65051664 0.00000073 0.14792044
0.68211712 0.00000073 0.16358927
0.71339325 0.00000073 0.17998205
0.74430315 0.00000073 0.19708122
0.77480204 0.00000073 0.21485932
0.80484235 0.00000073 0.23327892
0.82742464 0.00000073 0.25229247
0.82742464 0.00000073 0.27184198
0.82742464 0.00000073 0.29185885
0.82742464 0.00000073 0.31226357
0.82742464 0.00000073 0.33296558
0.00000073 0.12266620 0.00000073
0.00000073 0.12231530 0.00000073
0.00000073 0.12198546 0.00000073
0.00000073 0.12166572 0.00000073
0.00000073 0.12131560 0.00000073
0.07175813 0.12090443 0.00000073
0.11513739 0.12039494 0.00000073
0.15317928 0.11972520 0.00000073
0.18925636 0.11879240 0.00000073
0.22430641 0.11743572 0.00000073
0.25871501 0.11541077 0.00000073
0.29267805 0.11233989 0.00000073
0.32630923 0.10760359 0.00000073
0.35968056 0.10006831 0.00207020
0.39284046 0.08721159 0.03230884
0.42582294 0.06022649 0.04806324
0.45865266 0.00000073 0.06194116
0.49134799 0.00000073 0.07534371
0.52392288 0.00000073 0.08880408
0.55638538 0.00000073 0.10259536
0.58864546 0.00000073 0.11683712
0.62063347 0.00000073 0.13159999
0.65231534 0.00000073 0.14693582
0.68365362 0.00000073 0.16287106
0.71460763 0.00000073 0.17941280
0.74513357 0.00000073 0.19655217
0.77518472 0.00000073 0.21426615
0.80471142 0.00000073 0.23251870
0.82742464 0.00000073 0.25126136
0.82742464 0.00000073 0.27043356
0.82742464 0.00000073 0.28996282
0.82742464 0.00000073 0.30976489
0.82742464 0.00000073 0.32974386
0.00000073 0.15553966 0.00000073
0.00000073 0.15546347 0.00000073
0.00000073 0.15541041 0.00000073
0.00000073 0.15537177 0.00000073
0.00000073 0.15532075 0.00000073
0.04505779 0.15523645 0.00000073
0.10613798 0.15509659 0.00000073
0.14857160 0.15486890 0.00000073
0.18673236 0.15450199 0.00000073
0.22301838 0.15391530 0.00000073
0.25825935 0.15298780 0.00000073
0.29283060 0.15154182 0.00000073
0.32693145 0.14931499 0.00000073
0.36067986 0.14590666 0.00000073
0.39415118 0.14066554 0.00000073
0.42739626 0.13242036 0.00000073
0.46045082 0.11866972 0.04320395
0.49334079 0.09176822 0.06323258
0.52604030 0.00000073 0.08031925
0.55846818 0.00000073 0.09640930
0.59059593 0.00000073 0.11222195
0.62239312 0.00000073 0.12810135
0.65382480 0.00000073 0.14423296
0.68485220 0.00000073 0.16072010
0.71543310 0.00000073 0.17761670
0.74552198 0.00000073 0.19494323
0.77507025 0.00000073 0.21269509
0.80402627 0.00000073 0.23084750
0.82742464 0.00000073 0.24935830
0.82742464 0.00000073 0.26816978
0.82742464 0.00000073 0.28720990
0.82742464 0.00000073 0.30639308
0.82742464 0.00000073 0.32572074
0.00000073 0.18894730 0.00000073
0.00000073 0.18910742 0.00000073
0.00000073 0.18928934 0.00000073
0.00000073 0.18948579 0.00000073
0.00000073 0.18967788 0.00000073
0.00000073 0.18985047 0.00000073
0.08825516 0.18998803 0.00000073
0.14093548 0.19007059 0.00000073
0.18282944 0.19006888 0.00000073
0.22106115 0.18993809 0.00000073
0.25749462 0.18961087 0.00000073
0.29287313 0.18898892 0.00000073
0.32755864 0.18793121 0.00000073
0.36175126 0.18623480 0.00000073
0.39557195 0.18360097 0.00000073
0.42909883 0.17957101 0.00000073
0.46237200 0.17339835 0.00000073
0.49534683 0.16377626 0.02007411
0.52800476 0.14789910 0.05975809
0.56032656 0.11728589 0.08291693
0.59228598 0.00000073 0.10258269
0.62385254 0.00000073 0.12089741
0.65499101 0.00000073 0.13866617
0.68566169 0.00000073 0.15627368
0.71582111 0.00000073 0.17392219
0.74542226 0.00000073 0.19171780
0.77441480 0.00000073 0.20970825
0.80274527 0.00000073 0.22790169
0.82742464 0.00000073 0.24627696
0.82742464 0.00000073 0.26478956
0.82742464 0.00000073 0.28341134
0.82742464 0.00000073 0.30221369
0.82742464 0.00000073 0.32116383
0.00000073 0.22281734 0.00000073
0.00000073 0.22317839 0.00000073
0.00000073 0.22355786 0.00000073
0.00000073 0.22394945 0.00000073
0.00000073 0.22433923 0.00000073
0.00000073 0.22471577 0.00000073
0.01720363 0.22506740 0.00000073
0.12675284 0.22538019 0.00000073
0.17619211 0.22563542 0.00000073
0.21771434 0.22580585 0.00000073
0.25597263 0.22585115 0.00000073
0.29249599 0.22571253 0.00000073
0.32795873 0.22530606 0.00000073
0.36270894 0.22451327 0.00000073
0.39694466 0.22316665 0.00000073
0.43074021 0.22103632 0.00000073
0.46412491 0.21779032 0.00000073
0.49711646 0.21291640 0.00000073
0.52971422 0.20557451 0.00000073
0.56190460 0.19423650 0.04362936
0.59366451 0.17558746 0.08109536
0.62496472 0.13924335 0.10631926
0.65577042 0.00000073 0.12793548
0.68604160 0.00000073 0.14795381
0.71573393 0.00000073 0.16717877
0.74479916 0.00000073 0.18599918
0.77318549 0.00000073 0.20461459
0.80083773 0.00000073 0.22312189
0.82742464 0.00000073 0.24156157
0.82742464 0.00000073 0.26003945
0.82742464 0.00000073 0.27857255
0.82742464 0.00000073 0.29714180
0.82742464 0.00000073 0.31571715
0.00000073 0.25707204 0.00000073
0.00000073 0.25760058 0.00000073
0.00000073 0.25814287 0.00000073
0.00000073 0.25869331 0.00000073
0.00000073 0.25924120 0.00000073
0.00000073 0.25977765 0.00000073
0.00000073 0.26029346 0.00000073
0.09418774 0.26077816 0.00000073
0.16416383 0.26121863 0.00000073
0.21180110 0.26159690 0.00000073
0.25302811 0.26188724 0.00000073
0.29127004 0.26205252 0.00000073
0.32782872 0.26203986 0.00000073
0.36330706 0.26177506 0.00000073
0.39799377 0.26116191 0.00000073
0.43205103 0.26007165 0.00000073
0.46556596 0.25832373 0.00000073
0.49858132 0.25566076 0.00000073
0.53111181 0.25170486 0.00000073
0.56315338 0.24587519 0.00000073
0.59468874 0.23721430 0.00000073
0.62569175 0.22396109 0.06967148
0.65612918 0.20221408 0.10578178
0.68596150 0.15913503 0.13223097
0.71514411 0.00000073 0.15510764
0.74362796 0.00000073 0.17618693
0.77134297 0.00000073 0.19621431
0.79830337 0.00000073 0.21561434
0.82458103 0.00000073 0.23466630
0.82742464 0.00000073 0.25348649
0.82742464 0.00000073 0.27213572
0.82742464 0.00000073 0.29063846
0.82742464 0.00000073 0.30899387
0.00000073 0.29163018 0.00000073
0.00000073 0.29229413 0.00000073
0.00000073 0.29296631 0.00000073
0.00000073 0.29364164 0.00000073
0.00000073 0.29431162 0.00000073
0.00000073 0.29496910 0.00000073
0.00000073 0.29560661 0.00000073
0.00000073 0.29621587 0.00000073
0.13977036 0.29678704 0.00000073
0.20115471 0.29730741 0.00000073
0.24760731 0.29775955 0.00000073
0.28857031 0.29811734 0.00000073
0.32672831 0.29834153 0.00000073
0.36318588 0.29839166 0.00000073
0.39848230 0.29821246 0.00000073
0.43290345 0.29772724 0.00000073
0.46660557 0.29683062 0.00000073
0.49967212 0.29537781 0.00000073
0.53214267 0.29316816 0.00000073
0.56402860 0.28991805 0.00000073
0.59532229 0.28521385 0.00000073
0.62600342 0.27842217 0.00000073
0.65604016 0.26849867 0.00000073
0.68536756 0.25349209 0.09665941
0.71393578 0.22910970 0.13176377
0.74173211 0.18089529 0.15873042
0.76884196 0.00000073 0.18226332
0.79526142 0.00000073 0.20393324
0.82097478 0.00000073 0.22445951
0.82742464 0.00000073 0.24422120
0.82742464 0.00000073 0.26342986
0.82742464 0.00000073 0.28220338
0.82742464 0.00000073 0.30060574
0.00000073 0.32640841 0.00000073
0.00000073 0.32717668 0.00000073
0.00000073 0.32794708 0.00000073
0.00000073 0.32871490 0.00000073
0.00000073 0.32947325 0.00000073
0.00000073 0.33021616 0.00000073
0.00000073 0.33093739 0.00000073
0.00000073 0.33163015 0.00000073
0.04988088 0.33228670 0.00000073
0.18079026 0.33289711 0.00000073
0.23786804 0.33343751 0.00000073
0.28344227 0.33389136 0.00000073
0.32408504 0.33424370 0.00000073
0.36200833 0.33447188 0.00000073
0.39819653 0.33454304 0.00000073
0.43314955 0.33441105 0.00000073
0.46713828 0.33401265 0.00000073
0.50031198 0.33326231 0.00000073
0.53274974 0.33204499 0.00000073
0.56447867 0.33019659 0.00000073
0.59548002 0.32747815 0.00000073
0.62574504 0.32359685 0.00000073
0.65525367 0.31813399 0.00000073
0.68398153 0.31045400 0.00000073
0.71199353 0.29944513 0.06097833
0.73931209 0.28306371 0.12280032
0.76592731 0.25675752 0.15741758
0.79182650 0.20523694 0.18482064
0.81699467 0.00000073 0.20877523
0.82742464 0.00000073 0.23071209
0.82742464 0.00000073 0.25132190
0.82742464 0.00000073 0.27098611
0.82742464 0.00000073 0.28990475
0.00000073 0.36132201 0.00000073
0.00000073 0.36216427 0.00000073
0.00000073 0.36300213 0.00000073
0.00000073 0.36383122 0.00000073
0.00000073 0.36464578 0.00000073
0.00000073 0.36544067 0.00000073
0.00000073 0.36621056 0.00000073
0.00000073 0.36694972 0.00000073
0.00000073 0.36764180 0.00000073
0.13165359 0.36826685 0.00000073
0.22005128 0.36882265 0.00000073
0.27437178 0.36930512 0.00000073
0.31912238 0.36970688 0.00000073
0.35931795 0.37001574 0.00000073
0.39684732 0.37021303 0.00000073
0.43259753 0.37027169 0.00000073
0.46701235 0.37013303 0.00000073
0.50033213 0.36973017 0.00000073
0.53270255 0.36899928 0.00000073
0.56420181 0.36785513 0.00000073
0.59486584 0.36618499 0.00000073
0.62470324 0.36383983 0.00000073
0.65375566 0.36060481 0.00000073
0.68208179 0.35616528 0.00000073
0.70968510 0.35008089 0.00000073
0.73656288 0.34168416 0.00000073
0.76270774 0.32988564 0.09431155
0.78810870 0.31269852 0.14809460
0.81275194 0.28577570 0.18220153
0.82742464 0.23537422 0.20963126
0.82742464 0.00000073 0.23359121
0.82742464 0.00000073 0.25538886
0.82742464 0.00000073 0.27567351
0.00000073 0.39628546 0.00000073
0.00000073 0.39717190 0.00000073
0.00000073 0.39804719 0.00000073
0.00000073 0.39890717 0.00000073
0.00000073 0.39974688 0.00000073
0.00000073 0.40056182 0.00000073
0.00000073 0.40134224 0.00000073
0.00000073 0.40205895 0.00000073
0.00000073 0.40270897 0.00000073
0.00000073 0.40329345 0.00000073
0.18293932 0.40381306 0.00000073
0.25840286 0.40426739 0.00000073
0.31055932 0.40465093 0.00000073
0.35439732 0.40492993 0.00000073
0.39392415 0.40509152 0.00000073
0.43078535 0.40512514 0.00000073
0.46578934 0.40501348 0.00000073
0.49937166 0.40473094 0.00000073
0.53177694 0.40424195 0.00000073
0.56314235 0.40349897 0.00000073
0.59355684 0.40243828 0.00000073
0.62312703 0.40096585 0.00000073
0.65189802 0.39895804 0.00000073
0.67989290 0.39625324 0.00000073
0.70712280 0.39263637 0.00000073
0.73359026 0.38781432 0.00000073
0.75929159 0.38137363 0.00000073
0.78421834 0.37270131 0.00000073
0.80835845 0.36082667 0.12049031
0.82742464 0.34405093 0.17093104
0.82742464 0.31889594 0.20464693
0.82742464 0.27585659 0.23183975
0.82742464 0.14949518 0.25542998
0.00000073 0.43121382 0.00000073
0.00000073 0.43211437 0.00000073
0.00000073 0.43299723 0.00000073
0.00000073 0.43385827 0.00000073
0.00000073 0.43469204 0.00000073
0.00000073 0.43546650 0.00000073
0.00000073 0.43616839 0.00000073
0.00000073 0.43679972 0.00000073
0.00000073 0.43736296 0.00000073
0.00000073 0.43784935 0.00000073
0.00000073 0.43823654 0.00000073
0.22778991 0.43852965 0.00000073
0.29577337 0.43873395 0.00000073
0.34588964 0.43885297 0.00000073
0.38861855 0.43888775 0.00000073
0.42726803 0.43883597 0.00000073
0.46328488 0.43869109 0.00000073
0.49740481 0.43844142 0.00000073
0.53003407 0.43806948 0.00000073
0.56144684 0.43755109 0.00000073
0.59181587 0.43684341 0.00000073
0.62124379 0.43588906 0.00000073
0.64979490 0.43461538 0.00000073
0.67750828 0.43293061 0.00000073
0.70440597 0.43071870 0.00000073
0.73049805 0.42783143 0.00000073
0.75578605 0.42407729 0.00000073
0.78026523 0.41920446 0.00000073
0.80392605 0.41287123 0.00000073
0.82675532 0.40459490 0.00000073
0.82742464 0.39365464 0.13981699
0.82742464 0.37888644 0.18936886
0.82742464 0.35818162 0.22285775
0.00000073 0.46602199 0.00000073
0.00000073 0.46690713 0.00000073
0.00000073 0.46776778 0.00000073
0.00000073 0.46858075 0.00000073
0.00000073 0.46931341 0.00000073
0.00000073 0.46996660 0.00000073
0.00000073 0.47051885 0.00000073
0.00000073 0.47096112 0.00000073
0.00000073 0.47130111 0.00000073
0.00000073 0.47154694 0.00000073
0.00000073 0.47170695 0.00000073
0.14077711 0.47178937 0.00000073
0.26924508 0.47180201 0.00000073
0.33194805 0.47175170 0.00000073
0.38015974 0.47164383 0.00000073
0.42170349 0.47148176 0.00000073
0.45935758 0.47126626 0.00000073
0.49441506 0.47100097 0.00000073
0.52758413 0.47068070 0.00000073
0.55927381 0.47028472 0.00000073
0.58973273 0.46978580 0.00000073
0.61911649 0.46914914 0.00000073
0.64752349 0.46833119 0.00000073
0.67501547 0.46727803 0.00000073
0.70162980 0.46592349 0.00000073
0.72738714 0.46418754 0.00000073
0.75229640 0.46197304 0.00000073
0.77635797 0.45916180 0.00000073
0.79956595 0.45560916 0.00000073
0.82190966 0.45113599 0.00000073
0.82742464 0.44551671 0.00000073
0.82742464 0.43846023 0.00000073
0.82742464 0.42957821 0.14804871
0.00000073 0.50062437 0.00000073
0.00000073 0.50145647 0.00000073
0.00000073 0.50220098 0.00000073
0.00000073 0.50282372 0.00000073
0.00000073 0.50332499 0.00000073
0.00000073 0.50371136 0.00000073
0.00000073 0.50399010 0.00000073
0.00000073 0.50416920 0.00000073
0.00000073 0.50425728 0.00000073
0.00000073 0.50426350 0.00000073
0.00000073 0.50419742 0.00000073
0.00000073 0.50406878 0.00000073
0.21116204 0.50388726 0.00000073
0.30872662 0.50366214 0.00000073
0.36718723 0.50340192 0.00000073
0.41350947 0.50311861 0.00000073
0.45376148 0.50283134 0.00000073
0.49033866 0.50253720 0.00000073
0.52440898 0.50222838 0.00000073
0.55661369 0.50189332 0.00000073
0.58733113 0.50151622 0.00000073
0.61679456 0.50107650 0.00000073
0.64515126 0.50054805 0.00000073
0.67249492 0.49989929 0.00000073
0.69888432 0.49909251 0.00000073
0.72435474 0.49808338 0.00000073
0.74892525 0.49682068 0.00000073
0.77260335 0.49524603 0.00000073
0.79538815 0.49329376 0.00000073
0.81727195 0.49089055 0.00000073
0.82742464 0.48795087 0.00000073
0.82742464 0.48436280 0.00000073
0.82742464 0.47992016 0.00000073
0.00000073 0.53482195 0.00000073
0.00000073 0.53539511 0.00000073
0.00000073 0.53584210 0.00000073
0.00000073 0.53616871 0.00000073
0.00000073 0.53638149 0.00000073
0.00000073 0.53648778 0.00000073
0.00000073 0.53649567 0.00000073
0.00000073 0.53641397 0.00000073
0.00000073 0.53625215 0.00000073
0.00000073 0.53602029 0.00000073
0.00000073 0.53572900 0.00000073
0.00000073 0.53538925 0.00000073
0.00000073 0.53501217 0.00000073
0.26487264 0.53461036 0.00000073
0.34690070 0.53421575 0.00000073
0.40159231 0.53383957 0.00000073
0.44599667 0.53348304 0.00000073
0.48491580 0.53314549 0.00000073
0.52037911 0.53282408 0.00000073
0.55341755 0.53251343 0.00000073
0.58461218 0.53220512 0.00000073
0.61431203 0.53188786 0.00000073
0.64273489 0.53154715 0.00000073
0.67001939 0.53116523 0.00000073
0.69625395 0.53072113 0.00000073
0.72149391 0.53019085 0.00000073
0.74577007 0.52954572 0.00000073
0.76909338 0.52875105 0.00000073
0.79146718 0.52777508 0.00000073
0.81289580 0.52658470 0.00000073
0.82742464 0.52511005 0.00000073
0.82742464 0.52327967 0.00000073
0.82742464 0.52102254 0.00000073
0.00000073 0.56811570 0.00000073
0.00000073 0.56838172 0.00000073
0.00000073 0.56852764 0.00000073
0.00000073 0.56855999 0.00000073
0.00000073 0.56848609 0.00000073
0.00000073 0.56831406 0.00000073
0.00000073 0.56805273 0.00000073
0.00000073 0.56771168 0.00000073
0.00000073 0.56730117 0.00000073
0.00000073 0.56683215 0.00000073
0.00000073 0.56631611 0.00000073
0.00000073 0.56576507 0.00000073
0.00000073 0.56520995 0.00000073
0.01025365 0.56467989 0.00000073
0.31198009 0.56418007 0.00000073
0.38379654 0.56371487 0.00000073
0.43516987 0.56328764 0.00000073
0.47772241 0.56290045 0.00000073
0.51528717 0.56255376 0.00000073
0.54959300 0.56224632 0.00000073
0.58155086 0.56197512 0.00000073
0.61168628 0.56173513 0.00000073
0.64031983 0.56151932 0.00000073
0.66764900 0.56131410 0.00000073
0.69379851 0.56110417 0.00000073
0.71884866 0.56087529 0.00000073
0.74284860 0.56061265 0.00000073
0.76582607 0.56030171 0.00000073
0.78786338 0.55991874 0.00000073
0.80905568 0.55942744 0.00000073
0.82742464 0.55879444 0.00000073
0.82742464 0.55798529 0.00000073
0.82742464 0.55696493 0.00000073
0.00000073 0.60046835 0.00000073
0.00000073 0.60042785 0.00000073
0.00000073 0.60027334 0.00000073
0.00000073 0.60001211 0.00000073
0.00000073 0.59965221 0.00000073
0.00000073 0.59920249 0.00000073
0.00000073 0.59867250 0.00000073
0.00000073 0.59807257 0.00000073
0.00000073 0.59741371 0.00000073
0.00000073 0.59670763 0.00000073
0.00000073 0.59597654 0.00000073
0.00000073 0.59526637 0.00000073
0.00000073 0.59458715 0.00000073
0.00000073 0.59394532 0.00000073
0.22963133 0.59334692 0.00000073
0.35530874 0.59279752 0.00000073
0.41969279 0.59230189 0.00000073
0.46808025 0.59186393 0.00000073
0.50881401 0.59148660 0.00000073
0.54499154 0.59117086 0.00000073
0.57808349 0.59091098 0.00000073
0.60889032 0.59070297 0.00000073
0.63788304 0.59054244 0.00000073
0.66535209 0.59042392 0.00000073
0.69148140 0.59034120 0.00000073
0.71638841 0.59028767 0.00000073
0.74017032 0.59025676 0.00000073
0.76296385 0.59023504 0.00000073
0.78483474 0.59020226 0.00000073
0.80582865 0.59013772 0.00000073
0.82598036 0.59002089 0.00000073
0.82742464 0.58983188 0.00000073
0.82742464 0.58955203 0.00000073
0.00000073 0.63189242 0.00000073
0.00000073 0.63154479 0.00000073
0.00000073 0.63108932 0.00000073
0.00000073 0.63053401 0.00000073
0.00000073 0.62988764 0.00000073
0.00000073 0.62915974 0.00000073
0.00000073 0.62836060 0.00000073
0.00000073 0.62750124 0.00000073
0.00000073 0.62659603 0.00000073
0.00000073 0.62569711 0.00000073
0.00000073 0.62482614 0.00000073
0.00000073 0.62399019 0.00000073
0.00000073 0.62319630 0.00000073
0.00000073 0.62245141 0.00000073
0.00000073 0.62176219 0.00000073
0.30080084 0.62113494 0.00000073
0.39635987 0.62057290 0.00000073
0.45483651 0.62007535 0.00000073
0.50043276 0.61964444 0.00000073
0.53932137 0.61928161 0.00000073
0.57402137 0.61898749 0.00000073
0.60579160 0.61876190 0.00000073
0.63533625 0.61860392 0.00000073
0.66307708 0.61851208 0.00000073
0.68928106 0.61848534 0.00000073
0.71417584 0.61852805 0.00000073
0.73791837 0.61863006 0.00000073
0.76061238 0.61877715 0.00000073
0.78233363 0.61895505 0.00000073
0.80313832 0.61914987 0.00000073
0.82306867 0.61934837 0.00000073
0.82742464 0.61953850 0.00000073
0.82742464 0.61970993 0.00000073
