resources/flame/Syncolor/Shared/transforms/camera_manufacturer_luts/arri/ARRI_Alexa_LUTs/ARRI_LogC3_v1-2_LUT_Package/LUTs/ARRI_LogC3-to-St2084_4K_Rec2100-D65_DW200_v1_33.cube
LUT_3D_SIZE 5
0.006302 0.006302 0.006302
0.205234 0.068299 0.012955
0.430106 0.191501 0.051301
0.679500 0.373602 0.134356
0.902571 0.604608 0.279210
0.076600 0.191470 0.006302
0.196475 0.204547 0.006302
0.461250 0.262165 0.006302
0.720882 0.418494 0.134310
0.902571 0.619577 0.284031
0.273823 0.499367 0.006302
0.320027 0.513588 0.006302
0.511971 0.525154 0.006302
0.733379 0.557671 0.006302
0.902571 0.638437 0.006302
0.503075 0.773571 0.006302
0.503151 0.763195 0.006302
0.581292 0.754971 0.006302
0.741970 0.756146 0.006302
0.890181 0.774487 0.006302
0.694316 0.902571 0.006302
0.673518 0.902571 0.006302
0.699260 0.902571 0.006302
0.794736 0.902571 0.006302
0.899672 0.902571 0.006302
0.006302 0.006302 0.184863
0.180789 0.006302 0.143130
0.424125 0.182559 0.141756
0.678050 0.371633 0.179049
0.902571 0.594736 0.286259
0.029206 0.181781 0.183871
0.196063 0.196063 0.196063
0.467521 0.259663 0.213321
0.715679 0.413687 0.249104
0.902571 0.596063 0.321645
0.274540 0.503944 0.006302
0.321370 0.515526 0.006302
0.513680 0.526040 0.006302
0.724071 0.557595 0.215961
0.888228 0.626825 0.330877
0.495766 0.766155 0.006302
0.498955 0.755795 0.006302
0.586877 0.750072 0.006302
0.741909 0.755566 0.006302
0.877699 0.775921 0.168856
0.675486 0.902571 0.006302
0.662150 0.902571 0.006302
0.702922 0.902571 0.006302
0.802106 0.902571 0.006302
0.893004 0.902571 0.633234
0.006302 0.006302 0.270649
0.132952 0.006302 0.244434
0.404028 0.111421 0.255558
0.659464 0.350561 0.280644
0.891279 0.560632 0.334585
0.006302 0.006302 0.381765
0.006302 0.006302 0.406470
0.456748 0.006302 0.428046
0.698695 0.370962 0.449790
0.890410 0.558114 0.477394
0.144884 0.486793 0.489128
0.269871 0.496162 0.499962
0.508980 0.508980 0.508980
0.713176 0.544793 0.523781
0.864240 0.611200 0.549203
0.477043 0.754940 0.412421
0.486809 0.745678 0.461814
0.590448 0.744121 0.509728
0.742580 0.753445 0.561105
0.866529 0.775830 0.621500
0.654963 0.902571 0.006302
0.651591 0.902571 0.006302
0.708721 0.902571 0.488045
0.813245 0.899565 0.662104
0.888609 0.894362 0.828199
0.006302 0.006302 0.330129
0.006302 0.006302 0.320623
0.377996 0.006302 0.336492
0.629007 0.305837 0.360662
0.844221 0.511910 0.397726
0.006302 0.006302 0.486030
0.006302 0.006302 0.513283
0.422599 0.006302 0.538293
0.667643 0.006302 0.563760
0.845518 0.485466 0.589334
0.006302 0.286015 0.670436
0.006302 0.279026 0.679881
0.470207 0.352605 0.684764
0.693950 0.463828 0.687663
0.838300 0.567025 0.695766
0.297185 0.725490 0.727123
0.393927 0.719738 0.723461
0.578637 0.724575 0.728176
0.740612 0.740612 0.740612
0.850889 0.769848 0.763928
0.620050 0.902571 0.703960
0.631220 0.900923 0.731884
0.713817 0.893019 0.763333
0.837369 0.881193 0.827695
0.892134 0.893309 0.882551
0.006302 0.006302 0.377417
0.006302 0.006302 0.382879
0.344457 0.006302 0.401709
0.591318 0.172015 0.426963
0.793317 0.451743 0.460609
0.006302 0.006302 0.564279
0.006302 0.006302 0.589471
0.364248 0.006302 0.613016
0.630884 0.006302 0.635889
0.800229 0.261341 0.659068
0.006302 0.006302 0.759884
0.006302 0.006302 0.768597
0.333303 0.006302 0.774578
0.665873 0.006302 0.778912
0.808576 0.428885 0.783459
0.006302 0.631785 0.865370
0.006302 0.642832 0.854917
0.524514 0.669154 0.849027
0.733288 0.708461 0.846738
0.822446 0.774319 0.827466
0.446326 0.883848 0.886046
0.567132 0.875029 0.878813
0.744411 0.866453 0.869749
0.860288 0.875319 0.875990
0.899992 0.899992 0.899992
