resources/flame/Syncolor/Shared/transforms/camera_manufacturer_luts/arri/ARRI_Alexa_LUTs/ARRI_LogC3_v1-2_LUT_Package/LUTs/ARRI_LogC3-to-St2084_2K_Rec2100-D65_DW100_v2_33.cube
LUT_3D_SIZE 9
0.00000073 0.00000073 0.00000073
0.10417733 0.02791900 0.00431493
0.20523733 0.06829599 0.01294967
0.31095223 0.12096256 0.02735248
0.42992407 0.19139171 0.05125900
0.55221993 0.27507924 0.08580929
0.67553395 0.37035451 0.13262520
0.79988090 0.47700791 0.19395536
0.82742464 0.59323243 0.27109568
0.01709028 0.05720417 0.00000073
0.05089704 0.05388310 0.00000073
0.17674619 0.07132849 0.00000073
0.30281904 0.12150728 0.02147826
0.42878751 0.19241912 0.04917965
0.55491259 0.27772263 0.08587123
0.68095230 0.37505757 0.13459547
0.80342803 0.48032108 0.19573710
0.82742464 0.58860642 0.26767755
0.07321923 0.18485847 0.00000073
0.08254870 0.18567048 0.00000073
0.18125935 0.18892914 0.00000073
0.30748353 0.20224129 0.00000073
0.43590762 0.23790724 0.00000073
0.56279046 0.30173055 0.05173130
0.68499968 0.38614955 0.12345976
0.79929176 0.48002936 0.18745028
0.82742464 0.57466531 0.25366141
0.15058077 0.32073136 0.00000073
0.15584426 0.32379412 0.00000073
0.21217254 0.32722201 0.00000073
0.32186900 0.33265073 0.00000073
0.44546424 0.34496601 0.00000073
0.56755743 0.37280170 0.00000073
0.68179843 0.42183732 0.00000073
0.78616435 0.48844290 0.11988704
0.82742464 0.56296707 0.21384603
0.24426957 0.45932181 0.00000073
0.24822468 0.46260518 0.00000073
0.27501182 0.46477647 0.00000073
0.35042987 0.46629164 0.00000073
0.45674992 0.46940372 0.00000073
0.56817527 0.47819585 0.00000073
0.67393136 0.49781363 0.00000073
0.76980328 0.53151713 0.00000073
0.82742464 0.57677842 0.00000073
0.34712933 0.59319639 0.00000073
0.34729031 0.59238749 0.00000073
0.35721724 0.59022923 0.00000073
0.39902353 0.58778057 0.00000073
0.47860272 0.58677803 0.00000073
0.57526735 0.58890831 0.00000073
0.67125763 0.59632684 0.00000073
0.75853845 0.61109659 0.00000073
0.82742464 0.63385795 0.00000073
0.44869579 0.71313144 0.00000073
0.44437156 0.70757978 0.00000073
0.44594139 0.70204850 0.00000073
0.46713747 0.69723640 0.00000073
0.52031170 0.69373201 0.00000073
0.59750802 0.69243526 0.00000073
0.68066779 0.69475068 0.00000073
0.75915790 0.70143704 0.00000073
0.82742464 0.71276849 0.00000073
0.54500181 0.81869545 0.00000073
0.53701589 0.80962477 0.00000073
0.53325048 0.80089942 0.00000073
0.54268390 0.79291926 0.00000073
0.57672232 0.78678002 0.00000073
0.63442699 0.78326636 0.00000073
0.70291183 0.78250629 0.00000073
0.77052963 0.78468036 0.00000073
0.82742464 0.78968735 0.00000073
0.63278011 0.82742464 0.00000073
0.62014600 0.82742464 0.00000073
0.61161011 0.82742464 0.00000073
0.61456646 0.82742464 0.00000073
0.63650699 0.82742464 0.00000073
0.67864657 0.82742464 0.00000073
0.73265883 0.82742464 0.00000073
0.78786291 0.82742464 0.00000073
0.82742464 0.82742464 0.00000073
0.00000073 0.00000073 0.10925038
0.09173192 0.00000073 0.08634954
0.19709709 0.05857937 0.06513170
0.30771969 0.11809448 0.05627890
0.42953826 0.19078714 0.06789127
0.55235235 0.27505022 0.09405318
0.67604181 0.37072341 0.13654094
0.80017980 0.47725983 0.19575515
0.82742464 0.58998936 0.26955093
0.00545601 0.05080441 0.05087682
0.04805825 0.04805825 0.04805825
0.17783636 0.06856195 0.04665617
0.30404433 0.12112100 0.05145545
0.43018730 0.19296105 0.06629707
0.55646558 0.27872985 0.09521869
0.68077317 0.37486927 0.13910345
0.79959891 0.47686338 0.19611015
0.82742464 0.57949510 0.26278725
0.07260138 0.18492457 0.00000073
0.08179121 0.18625855 0.00000073
0.18187402 0.18937150 0.00000073
0.30961803 0.20269249 0.00000073
0.43782511 0.23877807 0.00000073
0.56286986 0.30199871 0.07558437
0.68172452 0.38388879 0.13118964
0.79102742 0.47305356 0.18843538
0.82742464 0.56265213 0.24914085
0.15109547 0.32189644 0.00000073
0.15640440 0.32516904 0.00000073
0.21251127 0.32857316 0.00000073
0.32291230 0.33364428 0.00000073
0.44611812 0.34585119 0.00000073
0.56571806 0.37313963 0.00000073
0.67645634 0.42000371 0.00000073
0.77681143 0.48265342 0.13998569
0.82742464 0.55169989 0.21740318
0.24516456 0.46069211 0.00000073
0.24884613 0.46355982 0.00000073
0.27558568 0.46513901 0.00000073
0.35126254 0.46628759 0.00000073
0.45681866 0.46941971 0.00000073
0.56623730 0.47845228 0.00000073
0.66888979 0.49770630 0.00000073
0.76065156 0.52939917 0.00000073
0.82742464 0.57084658 0.00000073
0.34659002 0.59259268 0.00000073
0.34621824 0.59098601 0.00000073
0.35673446 0.58837820 0.00000073
0.40016003 0.58621685 0.00000073
0.47998373 0.58574996 0.00000073
0.57500661 0.58857491 0.00000073
0.66795791 0.59661509 0.00000073
0.75210420 0.61147719 0.00000073
0.82568350 0.63322945 0.00000073
0.44545829 0.70949380 0.00000073
0.44111573 0.70371202 0.00000073
0.44391503 0.69843760 0.00000073
0.46767419 0.69406059 0.00000073
0.52293799 0.69118771 0.00000073
0.59955750 0.69098100 0.00000073
0.68041103 0.69437909 0.00000073
0.75594012 0.70183474 0.00000073
0.82212379 0.71343157 0.00000073
0.53916295 0.81251298 0.00000073
0.53147275 0.80348762 0.00000073
0.52905137 0.79499936 0.00000073
0.54174048 0.78775702 0.00000073
0.57918046 0.78292737 0.00000073
0.63784957 0.78059479 0.00000073
0.70499812 0.78089602 0.00000073
0.76996834 0.78393391 0.00000073
0.82680770 0.78952857 0.00000073
0.62377353 0.82742464 0.00000073
0.61164221 0.82742464 0.00000073
0.60557093 0.82742464 0.00000073
0.61218703 0.82742464 0.00000073
0.63802500 0.82742464 0.00000073
0.68237459 0.82742464 0.00000073
0.73611221 0.82742464 0.00000073
0.78920557 0.82742464 0.00000073
0.82742464 0.82742464 0.00000073
0.00000073 0.00000073 0.18163801
0.06059616 0.00000073 0.16602073
0.18572802 0.00000073 0.15257247
0.30427248 0.09524048 0.15127644
0.42774514 0.18287728 0.15827695
0.55151051 0.27182460 0.16962607
0.67588262 0.36955202 0.19019362
0.79806058 0.47493908 0.22656018
0.82742464 0.58355173 0.28185106
0.00000073 0.00000073 0.16108974
0.00000073 0.00000073 0.16701846
0.17249120 0.00000073 0.17066840
0.30316625 0.08653818 0.17416970
0.43062038 0.18324640 0.17942706
0.55667968 0.27527492 0.18803704
0.67854204 0.37166181 0.20420246
0.79312774 0.47050580 0.23382509
0.82742464 0.56717229 0.27866694
0.03114508 0.17362241 0.17257587
0.05081416 0.17451487 0.17610216
0.17772259 0.17772259 0.17772259
0.31096273 0.19315093 0.17951712
0.43860532 0.23305225 0.18455093
0.56144429 0.29827318 0.19414324
0.67642790 0.37870605 0.21165353
0.78148088 0.46437351 0.23966430
0.82742464 0.54917210 0.27791653
0.14433180 0.32045782 0.14270700
0.15008101 0.32395184 0.14383306
0.20936520 0.32749362 0.14415122
0.32299934 0.33229121 0.14881635
0.44643525 0.34449199 0.16375917
0.56325206 0.37158117 0.18355922
0.67054717 0.41681248 0.20853761
0.76665703 0.47586209 0.23983358
0.82742464 0.53960904 0.27640613
0.24341711 0.46092683 0.00000073
0.24680956 0.46326497 0.00000073
0.27443966 0.46445045 0.00000073
0.35139568 0.46549008 0.00000073
0.45677091 0.46879929 0.00000073
0.56436831 0.47809513 0.00000073
0.66373829 0.49711115 0.12450297
0.75127028 0.52706523 0.21226149
0.82721361 0.56553839 0.26861645
0.34455731 0.59102041 0.00000073
0.34377104 0.58873404 0.00000073
0.35552765 0.58617064 0.00000073
0.40108383 0.58447315 0.00000073
0.48146361 0.58463135 0.00000073
0.57497334 0.58816483 0.00000073
0.66521436 0.59689559 0.00000073
0.74632943 0.61187728 0.00000073
0.81662039 0.63280579 0.22684565
0.44133008 0.70521986 0.00000073
0.43734049 0.69960992 0.00000073
0.44166765 0.69468202 0.00000073
0.46844838 0.69084100 0.00000073
0.52589613 0.68885499 0.00000073
0.60188397 0.68981259 0.00000073
0.68056141 0.69417518 0.00000073
0.75319988 0.70231853 0.00000073
0.81604277 0.71417454 0.00000073
0.53288343 0.80603881 0.00000073
0.52562062 0.79714235 0.00000073
0.52498760 0.78906523 0.00000073
0.54147327 0.78309760 0.00000073
0.58215877 0.77948417 0.00000073
0.64163493 0.77824048 0.00000073
0.70743033 0.77950667 0.00000073
0.76975004 0.78329085 0.00000073
0.82318928 0.78939491 0.00000073
0.61438553 0.82742464 0.00000073
0.60365654 0.82742464 0.00000073
0.60026615 0.82742464 0.00000073
0.61069773 0.82742464 0.00000073
0.64038630 0.82742464 0.00000073
0.68670782 0.82742464 0.00000073
0.73999245 0.82742464 0.00000073
0.79101761 0.82742464 0.00000073
0.82742464 0.82742464 0.57001022
0.00000073 0.00000073 0.22792763
0.00000073 0.00000073 0.21800496
0.17137739 0.00000073 0.21285415
0.29887191 0.00000073 0.22091645
0.42429794 0.15761469 0.23218280
0.54925284 0.26199781 0.24518812
0.67329185 0.36408204 0.26162556
0.79245876 0.46847059 0.28475070
0.82742464 0.57265539 0.31927410
0.00000073 0.00000073 0.23710995
0.00000073 0.00000073 0.24816827
0.15512165 0.00000073 0.25866015
0.29798046 0.00000073 0.26848819
0.42846386 0.12297101 0.27835693
0.55406035 0.25721622 0.28851288
0.67337679 0.36113862 0.30014356
0.78337262 0.45907142 0.31562018
0.82742464 0.55203570 0.33815165
0.00000073 0.10427746 0.27824871
0.00000073 0.07310775 0.28890460
0.15210551 0.00000073 0.29907763
0.30526419 0.09655011 0.30588423
0.43622011 0.18874970 0.31138348
0.55766499 0.27727692 0.31758505
0.66926487 0.36524066 0.32555002
0.77066682 0.45154314 0.33706125
0.82742464 0.53296905 0.35374909
0.07860165 0.30803599 0.30375988
0.08543517 0.31024370 0.31029771
0.18821515 0.31308412 0.31529760
0.31819023 0.31819023 0.31819022
0.44527216 0.33234861 0.32170547
0.55985363 0.36198159 0.32823912
0.66372539 0.40825351 0.33772411
0.75549845 0.46568099 0.35116560
0.82742464 0.52547906 0.36911281
0.22936544 0.45733434 0.29107015
0.23272253 0.45909405 0.29449058
0.26530615 0.46006210 0.29836550
0.34799579 0.46159419 0.30290357
0.45573697 0.46524098 0.31088502
0.56237687 0.47492411 0.32591690
0.65830718 0.49415551 0.34447544
0.74233001 0.52319048 0.36607701
0.81509266 0.55952488 0.39017418
0.33790538 0.58766426 0.00000073
0.33693246 0.58498307 0.00000073
0.35094269 0.58275582 0.14715831
0.40021000 0.58166668 0.21462287
0.48223082 0.58257783 0.26167148
0.57490467 0.58686131 0.30466049
0.66290278 0.59626222 0.34383623
0.74104478 0.61144762 0.38049444
0.80799623 0.63181081 0.41613861
0.43531107 0.70032611 0.00000073
0.43169446 0.69492710 0.00000073
0.43796785 0.69040109 0.00000073
0.46857313 0.68721939 0.00000073
0.52846081 0.68643350 0.00000073
0.60412432 0.68844637 0.13082259
0.68091623 0.69365711 0.32153615
0.75080207 0.70241985 0.39500335
0.81029344 0.71455459 0.45127379
0.52553884 0.79914171 0.00000073
0.51878785 0.79042901 0.00000073
0.52070677 0.78336202 0.00000073
0.54123224 0.77863930 0.00000073
0.58520926 0.77614483 0.00000073
0.64551017 0.77589854 0.00000073
0.71001982 0.77801533 0.26934539
0.76975358 0.78244598 0.43095909
0.81900653 0.78879549 0.51634993
0.60471425 0.82742464 0.00000073
0.59580112 0.82742464 0.00000073
0.59523435 0.82742464 0.00000073
0.60971096 0.82742464 0.00000073
0.64329967 0.82742464 0.00000073
0.69145707 0.82742464 0.00000073
0.74418274 0.82742464 0.35674684
0.79406512 0.82742464 0.57304765
0.82521747 0.82742464 0.69913055
0.00000073 0.00000073 0.26102819
0.00000073 0.00000073 0.25354943
0.15476943 0.00000073 0.25487032
0.29205963 0.00000073 0.26809679
0.41966667 0.08415061 0.28283116
0.54553597 0.24435425 0.29917127
0.66778382 0.35351589 0.31726548
0.78329721 0.45749219 0.33805108
0.82742464 0.55693557 0.36367379
0.00000073 0.00000073 0.28807163
0.00000073 0.00000073 0.30324719
0.11738364 0.00000073 0.31881892
0.28911945 0.00000073 0.33417635
0.42324979 0.00000073 0.34890271
0.54836944 0.20543484 0.36286718
0.66481215 0.33861541 0.37640491
0.77055276 0.44083499 0.39038003
0.82742464 0.53275370 0.40651018
0.00000073 0.00000073 0.35101217
0.00000073 0.00000073 0.36654313
0.00000073 0.00000073 0.38128392
0.29040203 0.00000073 0.39387712
0.42897510 0.00000073 0.40420377
0.55038731 0.18740202 0.41315107
0.65997996 0.33104097 0.42189680
0.75794878 0.42871883 0.43120186
0.82742464 0.51091810 0.44146408
0.00000073 0.27043326 0.40414065
0.00000073 0.26299637 0.41624423
0.00000073 0.25627640 0.42678172
0.30004150 0.25612848 0.43555669
0.43781822 0.27793018 0.44066769
0.55376120 0.32321690 0.44466720
0.65528111 0.38219252 0.44956734
0.74301195 0.44542864 0.45597397
0.81775164 0.50648578 0.46464058
0.14689886 0.44410572 0.43512600
0.14580329 0.44394922 0.44097706
0.21979731 0.44402254 0.44505868
0.33331188 0.44588416 0.44833911
0.45076100 0.45076100 0.45076100
0.55924326 0.46269374 0.45490601
0.65235392 0.48420457 0.46296139
0.73353802 0.51432338 0.47411953
0.80322475 0.55026295 0.48819963
0.31520142 0.58010626 0.42670035
0.31472921 0.57747132 0.42976354
0.33451069 0.57564051 0.43431100
0.39336578 0.57532584 0.44074352
0.48034577 0.57742382 0.44929841
0.57409504 0.58274689 0.46130490
0.66072265 0.59291084 0.47855951
0.73597468 0.60868378 0.49797929
0.79956152 0.62900927 0.51940712
0.42355621 0.69395016 0.34556126
0.42031517 0.68875445 0.37237684
0.42954493 0.68464263 0.39852850
0.46584320 0.68250876 0.42365572
0.52947251 0.68294778 0.44771994
0.60563216 0.68602204 0.47240337
0.68116640 0.69203278 0.49943123
0.74857066 0.70142519 0.52874989
0.80470871 0.71397265 0.55961197
0.51541351 0.79145281 0.00000073
0.50952592 0.78328445 0.00000073
0.51461778 0.77744684 0.10481638
0.53983047 0.77384433 0.36479193
0.58763531 0.77238286 0.43570864
0.64908682 0.77307988 0.48662751
0.71252780 0.77597330 0.53089430
0.76983275 0.78100443 0.57283656
0.81101493 0.78660759 0.63571344
0.59423538 0.82742464 0.00000073
0.58705786 0.82742464 0.00000073
0.58959175 0.82742464 0.00000073
0.60859256 0.82742464 0.00000073
0.64637917 0.82742464 0.42607417
0.69641873 0.82742464 0.52056154
0.75086026 0.82742464 0.60029011
0.79822730 0.82742464 0.69457134
0.82327221 0.82742464 0.76287792
0.00000073 0.00000073 0.28950500
0.00000073 0.00000073 0.28483873
0.13198770 0.00000073 0.29265482
0.28419189 0.00000073 0.30752263
0.41448733 0.00000073 0.32354648
0.53994780 0.21370328 0.34044088
0.65965245 0.33779251 0.35832439
0.77072540 0.44213186 0.37796224
0.82742464 0.53751794 0.40051152
0.00000073 0.00000073 0.32861061
0.00000073 0.00000073 0.34507153
0.00000073 0.00000073 0.36218577
0.27728583 0.00000073 0.37954943
0.41580175 0.00000073 0.39661259
0.54008949 0.00000073 0.41343049
0.65329674 0.29838177 0.43007614
0.75582322 0.41503432 0.44627093
0.82742464 0.50847235 0.46235463
0.00000073 0.00000073 0.40013298
0.00000073 0.00000073 0.41876490
0.00000073 0.00000073 0.43684635
0.26626137 0.00000073 0.45360340
0.41791807 0.00000073 0.46818338
0.54056954 0.00000073 0.48085979
0.64856419 0.23061686 0.49225480
0.74311463 0.38720145 0.50252147
0.82301731 0.47898613 0.51173446
0.00000073 0.11073394 0.47245423
0.00000073 0.00000073 0.48839496
0.00000073 0.00000073 0.50227224
0.25811112 0.00000073 0.51380034
0.42379142 0.00000073 0.52265012
0.54387625 0.00000073 0.52904364
0.64434638 0.30559745 0.53426315
0.72927739 0.40276812 0.53941190
0.80168630 0.47591821 0.54562974
0.00000073 0.41588463 0.52710812
0.00000073 0.40963096 0.53610336
0.00000073 0.40502746 0.54313456
0.29050903 0.40399148 0.54892224
0.43781291 0.40935743 0.55374938
0.55129771 0.42720278 0.55629073
0.64482588 0.45654941 0.55963605
0.72420665 0.49302414 0.56531698
0.79121780 0.53278966 0.57316925
0.22280327 0.56529901 0.55224820
0.21772402 0.56155604 0.55567457
0.27118198 0.55942289 0.55857323
0.36914963 0.55967546 0.56165540
0.47234790 0.56332795 0.56573782
0.57063821 0.57063821 0.57063821
0.65786024 0.58308775 0.57783639
0.73055434 0.60091582 0.58840113
0.79094956 0.62250825 0.60158960
0.39335178 0.68383428 0.54806272
0.39111174 0.67886401 0.55166175
0.40751841 0.67550508 0.55710413
0.45550561 0.67467326 0.56460042
0.52694791 0.67645483 0.57396352
0.60532309 0.68095113 0.58498635
0.68085714 0.68803768 0.59896358
0.74630025 0.69830643 0.61734938
0.79907487 0.71172371 0.63804870
0.49809959 0.78217358 0.51370029
0.49384271 0.77510700 0.53204745
0.50328269 0.77036242 0.55011931
0.53518157 0.76778998 0.56860400
0.58843254 0.76733847 0.58800610
0.65187929 0.76904405 0.60878664
0.71466593 0.77281010 0.63151715
0.76927740 0.77767145 0.66330629
0.80192211 0.78361436 0.71341107
0.58079287 0.82742464 0.40375025
0.57540726 0.82742464 0.48750843
0.58175687 0.82742464 0.53761029
0.60642362 0.82742464 0.57659747
0.64921709 0.82742464 0.61089957
0.70242783 0.82742464 0.64602469
0.76146706 0.82742464 0.70364438
0.80303454 0.82363663 0.76057701
0.82346191 0.82656291 0.79566126
0.00000073 0.00000073 0.31403530
0.00000073 0.00000073 0.31319636
0.08607163 0.00000073 0.32616644
0.27500942 0.00000073 0.34234836
0.40828933 0.00000073 0.35935956
0.53269915 0.13701811 0.37667449
0.64925475 0.31389573 0.39437871
0.75534124 0.42173739 0.41278868
0.82742464 0.51549442 0.43289233
0.00000073 0.00000073 0.36446278
0.00000073 0.00000073 0.38209299
0.00000073 0.00000073 0.40032103
0.26068468 0.00000073 0.41832499
0.40647894 0.00000073 0.43580404
0.52981877 0.00000073 0.45266830
0.64037392 0.21319092 0.46929440
0.73956813 0.37952958 0.48617987
0.82620509 0.47842302 0.50345192
0.00000073 0.00000073 0.44089919
0.00000073 0.00000073 0.46004230
0.00000073 0.00000073 0.47835206
0.22840645 0.00000073 0.49554955
0.40458238 0.00000073 0.51163931
0.52921829 0.00000073 0.52720762
0.63555489 0.00000073 0.54186684
0.72653888 0.29736670 0.55422196
0.80257971 0.43132511 0.56447865
0.00000073 0.00000073 0.51865999
0.00000073 0.00000073 0.53634206
0.00000073 0.00000073 0.55266097
0.11008040 0.00000073 0.56742293
0.40442338 0.00000073 0.57938784
0.53127613 0.00000073 0.58852393
0.63141209 0.00000073 0.59535011
0.71497520 0.28501352 0.60132302
0.78532142 0.42142811 0.60724629
0.00000073 0.36227414 0.58861431
0.00000073 0.33234055 0.60054862
0.00000073 0.29965947 0.61019519
0.00000073 0.27480177 0.61775437
0.41572461 0.28345457 0.62331680
0.53953683 0.33090586 0.62735129
0.63512284 0.39089928 0.63098837
0.71373985 0.44889139 0.63524873
0.77859895 0.50136854 0.64056028
0.00000073 0.54122395 0.63319021
0.00000073 0.53409996 0.63842723
0.00000073 0.52992645 0.64231854
0.29962380 0.52992912 0.64563415
0.45547522 0.53476254 0.64955734
0.56316995 0.54472437 0.65412351
0.65189605 0.56166893 0.65792903
0.72384341 0.58431001 0.66288424
0.78170069 0.60980804 0.67000828
0.29639194 0.66850516 0.65352135
0.29359602 0.66288315 0.65555978
0.34198279 0.66012734 0.65809707
0.42692416 0.66037885 0.66155690
0.51768560 0.66361898 0.66614090
0.60235146 0.66992956 0.67204679
0.67906977 0.67906978 0.67906979
0.74356935 0.69161013 0.68838361
0.78886111 0.70778894 0.70189015
0.46133673 0.77006351 0.65520932
0.46002088 0.76403316 0.65921292
0.47871340 0.76040064 0.66445479
0.52353922 0.75896717 0.67149858
0.58628387 0.75970827 0.68051084
0.65348859 0.76270158 0.69147961
0.71659737 0.76754031 0.70492746
0.76862111 0.77279133 0.72917394
0.79528047 0.78209854 0.75951894
0.55960809 0.82742464 0.64277006
0.55674263 0.82742464 0.65597896
0.56903954 0.82742464 0.67005259
0.60206174 0.82742464 0.68515245
0.65157434 0.82742464 0.70154087
0.71525036 0.82445415 0.72844762
0.77439510 0.81825785 0.76475271
0.80772641 0.82011908 0.79343559
0.82478790 0.82595910 0.81519658
0.00000073 0.00000073 0.33531221
0.00000073 0.00000073 0.33969576
0.00000073 0.00000073 0.35579455
0.26391041 0.00000073 0.37306782
0.40069986 0.00000073 0.39065416
0.52378978 0.00000073 0.40828591
0.63660052 0.27525125 0.42587659
0.73865533 0.39598864 0.44380828
0.82742464 0.49018417 0.46262805
0.00000073 0.00000073 0.39621289
0.00000073 0.00000073 0.41489386
0.00000073 0.00000073 0.43371427
0.23629233 0.00000073 0.45207609
0.39509618 0.00000073 0.46972121
0.51823850 0.00000073 0.48662021
0.62662623 0.00000073 0.50328191
0.72224843 0.32129155 0.51974395
0.80416998 0.43969069 0.53598392
0.00000073 0.00000073 0.47670141
0.00000073 0.00000073 0.49600467
0.00000073 0.00000073 0.51429282
0.12780772 0.00000073 0.53130381
0.38847593 0.00000073 0.54746261
0.51681149 0.00000073 0.56289419
0.62145920 0.00000073 0.57753136
0.70884014 0.00000073 0.59108183
0.78250639 0.34665577 0.60360425
0.00000073 0.00000073 0.55724467
0.00000073 0.00000073 0.57448025
0.00000073 0.00000073 0.59043539
0.00000073 0.00000073 0.60522880
0.38013336 0.00000073 0.61848022
0.51701519 0.00000073 0.63013206
0.61788462 0.00000073 0.63946527
0.70041002 0.00000073 0.64722747
0.76880935 0.26290247 0.65392231
0.00000073 0.22553995 0.63013116
0.00000073 0.00000073 0.64368553
0.00000073 0.00000073 0.65585155
0.00000073 0.00000073 0.66556027
0.38092779 0.00000073 0.67282098
0.52533787 0.00000073 0.67866171
0.62411131 0.00000073 0.68347343
0.70239538 0.33414025 0.68770711
0.76537938 0.44389388 0.69179596
0.00000073 0.50475717 0.68796320
0.00000073 0.48819203 0.69530374
0.00000073 0.47726338 0.70056339
0.00000073 0.47491226 0.70500761
0.42505996 0.48225187 0.70909170
0.55256070 0.49947601 0.71280514
0.64400576 0.52573653 0.71591220
0.71576492 0.55771677 0.71881083
0.77162447 0.59112727 0.72237055
0.00000073 0.64678044 0.72316389
0.00000073 0.64000685 0.72557666
0.00000073 0.63724828 0.72792271
0.35791188 0.63839488 0.73041488
0.50019246 0.64339038 0.73327218
0.59753101 0.65216233 0.73675563
0.67592816 0.66457699 0.74091713
0.73873222 0.68159557 0.74434267
0.77377704 0.70614659 0.74562629
0.36378833 0.75479503 0.74070728
0.37087103 0.74916885 0.74210393
0.42207465 0.74624491 0.74405127
0.49944428 0.74591702 0.74677727
0.58012354 0.74817265 0.75052132
0.65407989 0.75299453 0.75548514
0.72183766 0.75921875 0.76064044
0.76950975 0.76950976 0.76950978
0.79348970 0.78353987 0.78303964
0.51912231 0.82742464 0.74616477
0.52173816 0.82742464 0.74939528
0.54667896 0.82742464 0.75365179
0.59442822 0.82413605 0.75913810
0.65957434 0.81936391 0.76684762
0.73516909 0.81222127 0.78006410
0.78644408 0.81259235 0.79652855
0.81278184 0.81926853 0.81163333
0.82710162 0.82731656 0.82541159
0.00000073 0.00000073 0.35431513
0.00000073 0.00000073 0.36475046
0.00000073 0.00000073 0.38204850
0.24970663 0.00000073 0.39995753
0.39160552 0.00000073 0.41795510
0.51318122 0.00000073 0.43579976
0.62243881 0.19409720 0.45343375
0.72100114 0.36190426 0.47130461
0.80768399 0.46027265 0.48941279
0.00000073 0.00000073 0.42438144
0.00000073 0.00000073 0.44374526
0.00000073 0.00000073 0.46286091
0.19615946 0.00000073 0.48138810
0.38141376 0.00000073 0.49904705
0.50587379 0.00000073 0.51618972
0.61213792 0.00000073 0.53286915
0.70401049 0.00000073 0.54896643
0.78123497 0.38255260 0.56440622
0.00000073 0.00000073 0.50793927
0.00000073 0.00000073 0.52722196
0.00000073 0.00000073 0.54529499
0.00000073 0.00000073 0.56227873
0.36823013 0.00000073 0.57843777
0.50320454 0.00000073 0.59362325
0.60648306 0.00000073 0.60755250
0.69152437 0.00000073 0.62045819
0.76292643 0.00000073 0.63306118
0.00000073 0.00000073 0.59042616
0.00000073 0.00000073 0.60722216
0.00000073 0.00000073 0.62294119
0.00000073 0.00000073 0.63712353
0.34672699 0.00000073 0.64958982
0.50187131 0.00000073 0.66074092
0.60436716 0.00000073 0.67161429
0.68588365 0.00000073 0.68148399
0.75232097 0.00000073 0.68941314
0.00000073 0.00000073 0.66453533
0.00000073 0.00000073 0.67740730
0.00000073 0.00000073 0.68881145
0.00000073 0.00000073 0.69894025
0.32493608 0.00000073 0.70852721
0.50899827 0.00000073 0.71642214
0.61241141 0.00000073 0.72261210
0.69061762 0.00000073 0.72730137
0.75180457 0.27196381 0.73077919
0.00000073 0.45160247 0.72508226
0.00000073 0.40504636 0.73431118
0.00000073 0.35578696 0.74182483
0.00000073 0.32518862 0.74796090
0.37126100 0.34390035 0.75283513
0.53881453 0.39916252 0.75650362
0.63552112 0.46090215 0.75897887
0.70720037 0.51782882 0.76044181
0.75958380 0.56977131 0.76011822
0.00000073 0.61738738 0.77146572
0.00000073 0.60736897 0.77536097
0.00000073 0.60334491 0.77833876
0.00000073 0.60560203 0.78059824
0.47326490 0.61403605 0.78230511
0.59104096 0.62814091 0.78360157
0.67283003 0.64712794 0.78451950
0.73210777 0.67687324 0.77709909
0.76046287 0.71205310 0.76566841
0.00000073 0.73544370 0.79966098
0.00000073 0.72985460 0.80026568
0.00000073 0.72773185 0.80059519
0.45870449 0.72899067 0.80085912
0.57210217 0.73357105 0.80127170
0.66067511 0.74123849 0.79865104
0.73238316 0.75403478 0.79002235
0.77289345 0.77077910 0.78829828
0.79402325 0.78744373 0.79508233
0.42690811 0.82524592 0.81382442
0.45027832 0.81864744 0.81331506
0.51031946 0.81418613 0.81301168
0.58735530 0.81100449 0.81241937
0.68250309 0.80457377 0.80714136
0.75762268 0.80404397 0.80570810
0.79632200 0.81136176 0.81201856
0.81815522 0.82065305 0.82077091
0.82742464 0.82742464 0.82742464
