resources/flame/Syncolor/Shared/transforms/camera_manufacturer_luts/arri/ARRI_Alexa_LUTs/ARRI_LogC3_v1-2_LUT_Package/LUTs/ARRI_LogC3-to-St2084_1K_Rec2100-D65_DW200_v1_33.cube
LUT_3D_SIZE 9
0.006302 0.006302 0.006302
0.104173 0.027924 0.006302
0.205234 0.068299 0.012955
0.310948 0.120958 0.027359
0.430106 0.191501 0.051301
0.553735 0.276188 0.086305
0.679500 0.373602 0.134356
0.751827 0.483665 0.198093
0.751827 0.604608 0.279210
0.017090 0.057206 0.006302
0.051438 0.054444 0.006302
0.179034 0.073411 0.006302
0.307927 0.125261 0.021164
0.437613 0.198718 0.050568
0.568124 0.287831 0.089815
0.699077 0.390219 0.142382
0.751827 0.501671 0.208911
0.751827 0.616983 0.287861
0.076600 0.191470 0.006302
0.091325 0.196429 0.006302
0.196475 0.204547 0.006302
0.327611 0.222721 0.006302
0.461250 0.262165 0.006302
0.593454 0.329381 0.038407
0.720882 0.418494 0.134310
0.751827 0.518395 0.208484
0.751827 0.619577 0.284031
0.164782 0.343145 0.006302
0.177050 0.351675 0.006302
0.244358 0.360632 0.006302
0.359976 0.371374 0.006302
0.488136 0.388312 0.006302
0.614359 0.419547 0.006302
0.732647 0.471565 0.006302
0.751827 0.541894 0.125734
0.751827 0.620951 0.247669
0.273823 0.499367 0.006302
0.283711 0.507286 0.006302
0.320134 0.513695 0.006302
0.402731 0.519341 0.006302
0.512963 0.526146 0.006302
0.627161 0.537804 0.006302
0.734829 0.559136 0.006302
0.751827 0.593454 0.006302
0.751827 0.638437 0.006302
0.391791 0.647181 0.006302
0.396155 0.649805 0.006302
0.412055 0.650324 0.006302
0.459220 0.649531 0.006302
0.540383 0.648875 0.006302
0.635798 0.649744 0.006302
0.728695 0.654108 0.006302
0.751827 0.664240 0.006302
0.751827 0.681041 0.006302
0.504204 0.751827 0.006302
0.500206 0.751827 0.006302
0.501656 0.751827 0.006302
0.521630 0.751827 0.006302
0.570977 0.744640 0.006302
0.641871 0.736843 0.006302
0.717281 0.731441 0.006302
0.751827 0.729366 0.006302
0.751827 0.731075 0.006302
0.596765 0.751827 0.006302
0.583413 0.751827 0.006302
0.573419 0.751827 0.006302
0.575662 0.751827 0.006302
0.601129 0.751827 0.006302
0.649027 0.751827 0.006302
0.706966 0.751827 0.006302
0.751827 0.751827 0.006302
0.751827 0.751827 0.006302
0.662959 0.751827 0.006302
0.640894 0.751827 0.006302
0.622339 0.751827 0.006302
0.614664 0.751827 0.006302
0.625437 0.751827 0.006302
0.656214 0.751827 0.006302
0.699001 0.751827 0.006302
0.743282 0.751827 0.006302
0.751827 0.751827 0.006302
0.006302 0.006302 0.110155
0.090425 0.006302 0.083726
0.195895 0.059098 0.060227
0.306645 0.117800 0.050858
0.429129 0.190616 0.064225
0.553857 0.276158 0.093294
0.680522 0.374380 0.138506
0.751827 0.484764 0.200763
0.751827 0.602594 0.278843
0.006302 0.050629 0.051514
0.049042 0.049042 0.049042
0.180972 0.071183 0.049760
0.310323 0.125505 0.057237
0.440421 0.200153 0.074311
0.571298 0.290013 0.104997
0.700649 0.391470 0.151400
0.751827 0.499794 0.212634
0.751827 0.609491 0.285451
0.076417 0.192752 0.006302
0.091524 0.198428 0.006302
0.198703 0.206531 0.006302
0.331502 0.224720 0.006302
0.464973 0.264530 0.036194
0.595331 0.331151 0.098344
0.719326 0.417716 0.155138
0.751827 0.512734 0.217182
0.751827 0.608652 0.284245
0.166247 0.346059 0.006302
0.178759 0.354803 0.006302
0.246281 0.363668 0.006302
0.362631 0.373922 0.006302
0.490272 0.390539 0.006302
0.613931 0.421149 0.006302
0.728634 0.470985 0.006302
0.751827 0.537163 0.181262
0.751827 0.610315 0.262928
0.275792 0.502312 0.006302
0.285344 0.509621 0.006302
0.321904 0.515404 0.006302
0.404776 0.520546 0.006302
0.514076 0.527153 0.006302
0.626001 0.538750 0.006302
0.730205 0.559365 0.006302
0.751827 0.591211 0.006302
0.751827 0.631708 0.006302
0.392172 0.647791 0.006302
0.395895 0.649378 0.006302
0.412253 0.649119 0.006302
0.460609 0.648188 0.006302
0.541482 0.647547 0.006302
0.634684 0.648524 0.006302
0.723995 0.652949 0.006302
0.751827 0.662654 0.006302
0.751827 0.677974 0.006302
0.500893 0.751827 0.006302
0.496468 0.751827 0.006302
0.498695 0.751827 0.006302
0.520684 0.748486 0.006302
0.571542 0.740017 0.006302
0.641413 0.732876 0.006302
0.714168 0.728176 0.006302
0.751827 0.726574 0.006302
0.751827 0.728298 0.006302
0.589044 0.751827 0.006302
0.575631 0.751827 0.006302
0.566659 0.751827 0.006302
0.571801 0.751827 0.006302
0.600320 0.751827 0.006302
0.648936 0.751827 0.006302
0.705364 0.751827 0.006302
0.751827 0.751827 0.006302
0.751827 0.751827 0.006302
0.650736 0.751827 0.006302
0.628977 0.751827 0.006302
0.612726 0.751827 0.006302
0.608545 0.751827 0.006302
0.623117 0.751827 0.006302
0.656107 0.751827 0.006302
0.698695 0.751827 0.006302
0.741009 0.751827 0.006302
0.751827 0.751827 0.006302
0.006302 0.006302 0.184863
0.053193 0.006302 0.162448
0.180789 0.006302 0.143130
0.299504 0.098268 0.137133
0.424125 0.182559 0.141756
0.550271 0.271717 0.153979
0.678050 0.371633 0.179049
0.751827 0.480842 0.222766
0.751827 0.594736 0.286259
0.006302 0.006302 0.166583
0.006302 0.006302 0.169528
0.175235 0.006302 0.172198
0.309499 0.093874 0.176883
0.441291 0.191150 0.185168
0.572274 0.287160 0.198383
0.699474 0.389059 0.220188
0.751827 0.494484 0.255528
0.751827 0.598322 0.305913
0.029206 0.181781 0.183871
0.062898 0.187640 0.190127
0.196063 0.196063 0.196063
0.334524 0.216236 0.203082
0.467521 0.259663 0.213321
0.595651 0.328420 0.227680
0.715679 0.413687 0.249104
0.751827 0.505165 0.280247
0.751827 0.596170 0.321736
0.159350 0.346136 0.171206
0.172808 0.355047 0.178256
0.244434 0.363928 0.184405
0.364172 0.373739 0.193973
0.491936 0.390143 0.212116
0.612818 0.420569 0.234440
0.724010 0.468803 0.261463
0.751827 0.531228 0.294469
0.751827 0.598688 0.332845
0.274540 0.503944 0.006302
0.283864 0.510552 0.006302
0.321721 0.515892 0.006302
0.405951 0.520775 0.006302
0.514946 0.527321 0.006302
0.624781 0.538857 0.099809
0.725307 0.558846 0.217563
0.751827 0.588495 0.279957
0.751827 0.625391 0.329412
0.390738 0.647303 0.006302
0.393973 0.647944 0.006302
0.411475 0.647379 0.006302
0.461570 0.646464 0.006302
0.542458 0.645899 0.006302
0.633585 0.646983 0.006302
0.719677 0.651560 0.006302
0.751827 0.660914 0.006302
0.751827 0.674983 0.282063
0.496422 0.751827 0.006302
0.491951 0.751827 0.006302
0.495308 0.751827 0.006302
0.519783 0.743481 0.006302
0.572259 0.735439 0.006302
0.641093 0.729046 0.006302
0.711330 0.724971 0.006302
0.751827 0.723766 0.006302
0.751827 0.725505 0.006302
0.580728 0.751827 0.006302
0.567391 0.751827 0.006302
0.559915 0.751827 0.006302
0.568505 0.751827 0.006302
0.599939 0.751827 0.006302
0.649134 0.751827 0.006302
0.704051 0.751827 0.006302
0.751827 0.751827 0.006302
0.751827 0.751827 0.006302
0.638056 0.751827 0.006302
0.617548 0.751827 0.006302
0.603815 0.751827 0.006302
0.603296 0.751827 0.006302
0.621637 0.751827 0.006302
0.656626 0.751827 0.006302
0.698863 0.751827 0.006302
0.739345 0.751827 0.006302
0.751827 0.751827 0.543954
0.006302 0.006302 0.234562
0.006302 0.006302 0.215167
0.160189 0.006302 0.201221
0.288396 0.006302 0.201602
0.415381 0.161227 0.207416
0.543114 0.261128 0.217563
0.670970 0.363745 0.234546
0.751827 0.471290 0.262928
0.751827 0.580560 0.307286
0.006302 0.006302 0.248341
0.006302 0.006302 0.253742
0.154314 0.006302 0.260334
0.301854 0.006302 0.268101
0.436973 0.141573 0.277684
0.567773 0.270512 0.289403
0.692699 0.378332 0.304601
0.751827 0.482231 0.325765
0.751827 0.582162 0.355886
0.006302 0.086702 0.299153
0.006302 0.078813 0.309316
0.171038 0.083284 0.320165
0.329259 0.141192 0.328771
0.465766 0.221180 0.337453
0.592630 0.309331 0.347936
0.709361 0.401175 0.360952
0.751827 0.492958 0.377813
0.751827 0.580545 0.399893
0.076402 0.333577 0.336110
0.107942 0.341985 0.345251
0.225635 0.350607 0.353689
0.360754 0.360754 0.360754
0.492073 0.378912 0.368505
0.610742 0.411795 0.379080
0.718395 0.461006 0.392233
0.751827 0.521675 0.408713
0.751827 0.584833 0.428901
0.259739 0.501564 0.336278
0.269657 0.507500 0.343877
0.313573 0.512520 0.351751
0.403494 0.517723 0.359854
0.514687 0.524346 0.370626
0.623285 0.535927 0.387381
0.719982 0.555749 0.406439
0.751827 0.584009 0.427131
0.751827 0.618158 0.448707
0.384161 0.644907 0.009857
0.387243 0.644846 0.201099
0.407095 0.644221 0.255802
0.460533 0.643442 0.295888
0.542489 0.643076 0.331518
0.632258 0.644327 0.366491
0.715602 0.649073 0.398657
0.751827 0.658198 0.428122
0.751827 0.671290 0.455924
0.489754 0.751827 0.006302
0.485283 0.751827 0.006302
0.490242 0.746227 0.006302
0.518059 0.737911 0.006302
0.572442 0.730617 0.006302
0.640558 0.724910 0.231342
0.708598 0.721355 0.353689
0.751827 0.720485 0.414008
0.751827 0.722301 0.459174
0.571160 0.751827 0.006302
0.558053 0.751827 0.006302
0.552850 0.751827 0.006302
0.565133 0.751827 0.006302
0.599557 0.751827 0.006302
0.649363 0.751827 0.006302
0.702876 0.751827 0.257282
0.751339 0.751827 0.411475
0.751827 0.751827 0.488640
0.625040 0.751827 0.006302
0.606195 0.751827 0.006302
0.595132 0.751827 0.006302
0.598520 0.751827 0.006302
0.620722 0.751827 0.006302
0.657588 0.751827 0.006302
0.699382 0.751827 0.299168
0.739376 0.751827 0.536873
0.751827 0.751827 0.667582
0.006302 0.006302 0.270649
0.006302 0.006302 0.253071
0.132952 0.006302 0.244434
0.274311 0.006302 0.248447
0.404028 0.111421 0.255558
0.532998 0.243595 0.265934
0.659464 0.350561 0.280644
0.751827 0.456550 0.302434
0.751827 0.560632 0.334585
0.006302 0.006302 0.305379
0.006302 0.006302 0.313085
0.099886 0.006302 0.322393
0.288106 0.006302 0.333043
0.427512 0.006302 0.344717
0.558206 0.228473 0.357549
0.680659 0.356817 0.372137
0.751827 0.462959 0.389593
0.751827 0.560998 0.411475
0.006302 0.006302 0.381765
0.006302 0.006302 0.394034
0.006302 0.006302 0.406470
0.312078 0.006302 0.417731
0.456748 0.006302 0.428046
0.583810 0.241306 0.438422
0.698695 0.370962 0.449790
0.751827 0.471168 0.462699
0.751827 0.558434 0.477745
0.006302 0.282048 0.449714
0.006302 0.286351 0.461051
0.058595 0.291997 0.471397
0.342794 0.303212 0.480507
0.484886 0.331243 0.486732
0.605066 0.377859 0.493126
0.710399 0.437583 0.501152
0.751827 0.502693 0.510887
0.751827 0.566201 0.522515
0.144884 0.486793 0.489128
0.172290 0.491966 0.495293
0.270542 0.496849 0.500633
0.390143 0.502693 0.505821
0.510414 0.510414 0.510414
0.620508 0.523888 0.516167
0.713939 0.545541 0.524544
0.751827 0.574350 0.534447
0.751827 0.607538 0.545556
0.360327 0.638178 0.485145
0.364431 0.637842 0.490486
0.390845 0.637201 0.496162
0.453498 0.636698 0.502327
0.539696 0.636942 0.508965
0.629999 0.638697 0.517327
0.711513 0.643732 0.529412
0.751827 0.653010 0.542321
0.751827 0.665690 0.556039
0.476905 0.751827 0.412268
0.472557 0.747097 0.434272
0.480308 0.738842 0.454795
0.513344 0.731090 0.473396
0.570947 0.724590 0.489998
0.639185 0.719585 0.506279
0.705669 0.716533 0.524056
0.751827 0.716060 0.543420
0.751827 0.718090 0.563729
0.558633 0.751827 0.006302
0.546151 0.751827 0.006302
0.543877 0.751827 0.224796
0.560525 0.751827 0.388510
0.598474 0.751827 0.447028
0.649241 0.751827 0.486793
0.701564 0.751827 0.519875
0.747585 0.751827 0.550530
0.751827 0.751827 0.610986
0.611170 0.751827 0.006302
0.593927 0.751827 0.006302
0.585794 0.751827 0.006302
0.593576 0.751827 0.006302
0.619959 0.751827 0.397864
0.658793 0.751827 0.482658
0.703426 0.751827 0.558694
0.740902 0.751827 0.657511
0.751827 0.751827 0.721981
0.006302 0.006302 0.302281
0.006302 0.006302 0.287053
0.083207 0.006302 0.284459
0.258183 0.006302 0.290013
0.391730 0.006302 0.298177
0.520851 0.213687 0.308751
0.645319 0.332113 0.322347
0.751827 0.437598 0.340459
0.751827 0.537301 0.365087
0.006302 0.006302 0.349996
0.006302 0.006302 0.358846
0.006302 0.006302 0.369390
0.268330 0.006302 0.381109
0.414313 0.006302 0.393545
0.544793 0.006302 0.406943
0.664515 0.321248 0.421775
0.751827 0.437064 0.438849
0.751827 0.535012 0.458732
0.006302 0.006302 0.439689
0.006302 0.006302 0.453529
0.006302 0.006302 0.467155
0.280797 0.006302 0.480049
0.441901 0.006302 0.492103
0.570825 0.006302 0.503853
0.684428 0.299886 0.515785
0.751827 0.434699 0.528069
0.751827 0.527840 0.540978
0.006302 0.006302 0.530724
0.006302 0.006302 0.542840
0.006302 0.006302 0.553368
0.296361 0.006302 0.562158
0.468956 0.006302 0.569482
0.593805 0.245533 0.575814
0.698283 0.378134 0.582132
0.751827 0.466224 0.589029
0.751827 0.538186 0.596963
0.006302 0.444388 0.595926
0.006302 0.447852 0.601770
0.006302 0.452491 0.606622
0.346700 0.459342 0.610956
0.497063 0.470405 0.614710
0.612085 0.490761 0.616312
0.705623 0.519615 0.618509
0.751827 0.553597 0.622187
0.751827 0.589456 0.626841
0.222873 0.620569 0.622477
0.246693 0.620172 0.623270
0.325750 0.619837 0.623667
0.429129 0.620050 0.623926
0.530709 0.621637 0.624475
0.624949 0.624949 0.624949
0.706584 0.631800 0.626551
0.751827 0.642725 0.630213
0.751827 0.656306 0.635355
0.444526 0.743938 0.608621
0.441505 0.735943 0.608820
0.456718 0.727916 0.609583
0.501015 0.721004 0.610971
0.565835 0.715465 0.612985
0.635889 0.711528 0.615564
0.702083 0.709255 0.620188
0.751827 0.709422 0.628473
0.751827 0.712154 0.638468
0.538705 0.751827 0.557656
0.527703 0.751827 0.568185
0.529580 0.751827 0.577432
0.552590 0.751827 0.586236
0.595712 0.751827 0.595300
0.648295 0.751827 0.605203
0.699886 0.751827 0.616739
0.742931 0.751202 0.639857
0.751827 0.745083 0.687510
0.594308 0.751827 0.418204
0.578698 0.751827 0.490898
0.574228 0.751827 0.530007
0.587564 0.751827 0.557748
0.618967 0.751827 0.580774
0.661494 0.751827 0.605921
0.713085 0.751827 0.662730
0.743328 0.751827 0.717830
0.750347 0.751553 0.740383
0.006302 0.006302 0.330129
0.006302 0.006302 0.318318
0.006302 0.006302 0.320623
0.238865 0.006302 0.327443
0.377996 0.006302 0.336492
0.506966 0.145632 0.347417
0.629007 0.305837 0.360662
0.741619 0.414130 0.377005
0.751827 0.511910 0.397726
0.006302 0.006302 0.390204
0.006302 0.006302 0.400107
0.006302 0.006302 0.411566
0.238926 0.006302 0.423697
0.398535 0.006302 0.436347
0.529320 0.006302 0.449638
0.647013 0.252247 0.464073
0.751827 0.402319 0.480140
0.751827 0.504067 0.498039
0.006302 0.006302 0.486030
0.006302 0.006302 0.499916
0.006302 0.006302 0.513283
0.220401 0.006302 0.526009
0.422599 0.006302 0.538293
0.555108 0.006302 0.550820
0.667643 0.006302 0.563760
0.751827 0.369848 0.576959
0.751827 0.486076 0.589990
0.006302 0.006302 0.586770
0.006302 0.006302 0.599298
0.006302 0.006302 0.610239
0.006302 0.006302 0.619867
0.444862 0.006302 0.628260
0.578439 0.006302 0.635447
0.683131 0.006302 0.641749
0.751827 0.387976 0.648051
0.751827 0.493324 0.654520
0.006302 0.286198 0.670573
0.006302 0.275029 0.676326
0.006302 0.280537 0.680873
0.006302 0.308232 0.684215
0.471672 0.354314 0.686213
0.598291 0.408942 0.687083
0.693889 0.463752 0.687587
0.751827 0.514809 0.688228
0.751827 0.560388 0.689174
0.006302 0.583047 0.717525
0.006302 0.582727 0.716548
0.006302 0.583536 0.714473
0.352361 0.586007 0.711742
0.510994 0.590433 0.709331
0.615045 0.597360 0.707057
0.698009 0.608942 0.703532
0.751827 0.624369 0.700694
0.751827 0.641321 0.699413
0.295888 0.723812 0.725460
0.317540 0.716030 0.718959
0.383597 0.709194 0.712917
0.469200 0.703655 0.707637
0.553674 0.699596 0.703197
0.629816 0.697368 0.699718
0.696941 0.696941 0.696941
0.751110 0.699153 0.695933
0.751827 0.704738 0.699062
0.498238 0.751827 0.697642
0.490852 0.751827 0.692546
0.502007 0.751827 0.688533
0.537591 0.751827 0.685679
0.589929 0.751827 0.684154
0.646128 0.751827 0.684123
0.698146 0.748791 0.686580
0.738201 0.741985 0.703136
0.748348 0.740352 0.726604
0.569650 0.751827 0.653117
0.556435 0.751827 0.655665
0.557733 0.751827 0.658640
0.579339 0.751827 0.662440
0.617517 0.751827 0.667582
0.673976 0.751827 0.687190
0.725872 0.751827 0.719280
0.745418 0.750790 0.739406
0.750118 0.750454 0.747448
0.006302 0.006302 0.354849
0.006302 0.006302 0.347890
0.006302 0.006302 0.353262
0.213672 0.006302 0.361196
0.362371 0.006302 0.370855
0.491463 0.006302 0.382193
0.610727 0.264469 0.395422
0.720089 0.385626 0.411139
0.751827 0.483864 0.429953
0.006302 0.006302 0.426535
0.006302 0.006302 0.437385
0.006302 0.006302 0.449256
0.185168 0.006302 0.461555
0.379614 0.006302 0.474250
0.512505 0.006302 0.487495
0.628870 0.006302 0.501839
0.732219 0.348531 0.517342
0.751827 0.465599 0.534005
0.006302 0.006302 0.527474
0.006302 0.006302 0.541009
0.006302 0.006302 0.553887
0.006302 0.006302 0.566018
0.398062 0.006302 0.578058
0.537804 0.006302 0.590143
0.649653 0.006302 0.602289
0.743572 0.006302 0.614725
0.751827 0.424109 0.627939
0.006302 0.006302 0.630900
0.006302 0.006302 0.642161
0.006302 0.006302 0.652216
0.006302 0.006302 0.661585
0.410681 0.006302 0.670283
0.560113 0.006302 0.678462
0.666682 0.006302 0.685939
0.751827 0.006302 0.692805
0.751827 0.405295 0.699016
0.006302 0.006302 0.721660
0.006302 0.006302 0.728099
0.006302 0.006302 0.732998
0.006302 0.006302 0.736217
0.427100 0.006302 0.737896
0.580392 0.006302 0.738811
0.679881 0.222354 0.738857
0.751827 0.432914 0.738094
0.751827 0.512703 0.736812
0.006302 0.495064 0.751827
0.006302 0.496391 0.751827
0.006302 0.503914 0.751827
0.006302 0.515801 0.751827
0.472938 0.531044 0.751827
0.600443 0.549828 0.751827
0.686564 0.572381 0.751827
0.751125 0.597101 0.751827
0.751827 0.621302 0.747356
0.006302 0.689525 0.751827
0.006302 0.683345 0.751827
0.006302 0.678798 0.751827
0.383566 0.675898 0.751827
0.530816 0.674815 0.751827
0.621027 0.675792 0.751827
0.690013 0.679011 0.751827
0.742260 0.685939 0.747631
0.751827 0.701472 0.736309
0.350958 0.751827 0.751827
0.375586 0.751827 0.751827
0.434928 0.751827 0.751827
0.508186 0.751827 0.751827
0.579660 0.747768 0.751537
0.642832 0.741695 0.744686
0.701183 0.736309 0.737728
0.735775 0.735775 0.735775
0.744045 0.739818 0.739620
0.524239 0.751827 0.751827
0.517342 0.751827 0.745953
0.531487 0.751827 0.738476
0.567834 0.751827 0.732555
0.624292 0.751827 0.729335
0.696254 0.751827 0.733455
0.736553 0.749706 0.741680
0.747173 0.749187 0.746822
0.750484 0.750561 0.749920
0.006302 0.006302 0.377417
0.006302 0.006302 0.376196
0.006302 0.006302 0.382879
0.175372 0.006302 0.391516
0.344457 0.006302 0.401709
0.474388 0.006302 0.413458
0.591318 0.172015 0.426963
0.697993 0.348516 0.442634
0.751827 0.451743 0.460609
0.006302 0.006302 0.459495
0.006302 0.006302 0.470893
0.006302 0.006302 0.482872
0.006302 0.006302 0.495201
0.356390 0.006302 0.507836
0.494682 0.006302 0.521279
0.610224 0.006302 0.535607
0.710582 0.206729 0.550729
0.751827 0.412009 0.566537
0.006302 0.006302 0.564279
0.006302 0.006302 0.577279
0.006302 0.006302 0.589471
0.006302 0.006302 0.601266
0.364248 0.006302 0.613016
0.518730 0.006302 0.624613
0.631006 0.006302 0.636011
0.723369 0.006302 0.647715
0.751827 0.262470 0.660044
0.006302 0.006302 0.669261
0.006302 0.006302 0.679316
0.006302 0.006302 0.688563
0.006302 0.006302 0.697002
0.355001 0.006302 0.704677
0.539376 0.006302 0.711894
0.649653 0.006302 0.719448
0.735561 0.006302 0.727138
0.751827 0.006302 0.733654
0.006302 0.006302 0.751827
0.006302 0.006302 0.751827
0.006302 0.006302 0.751827
0.006302 0.006302 0.751827
0.334829 0.006302 0.751827
0.558175 0.006302 0.751827
0.664347 0.006302 0.751827
0.740932 0.006302 0.751827
0.751827 0.417868 0.751827
0.006302 0.006302 0.751827
0.006302 0.006302 0.751827
0.006302 0.006302 0.751827
0.006302 0.006302 0.751827
0.394430 0.331228 0.751827
0.580758 0.443610 0.751827
0.673793 0.509026 0.751827
0.738582 0.558083 0.751827
0.751827 0.599802 0.751827
0.006302 0.627909 0.751827
0.006302 0.626627 0.751827
0.006302 0.628168 0.751827
0.006302 0.632197 0.751827
0.493568 0.638514 0.751827
0.609369 0.647105 0.751827
0.682582 0.657923 0.751827
0.730800 0.680186 0.751827
0.741924 0.707530 0.746105
0.006302 0.751827 0.751827
0.006302 0.748684 0.751827
0.006302 0.739925 0.751827
0.454002 0.733043 0.751827
0.565927 0.728237 0.751827
0.647440 0.725704 0.751827
0.710857 0.728542 0.751827
0.736461 0.735439 0.744228
0.743114 0.741085 0.743450
0.391119 0.751827 0.751827
0.425681 0.751827 0.751827
0.486107 0.751827 0.751827
0.556802 0.751827 0.751827
0.651545 0.751827 0.751827
0.720317 0.748440 0.749615
0.742153 0.747539 0.747799
0.748516 0.749218 0.749248
0.751003 0.751003 0.751003
