resources/flame/Syncolor/Shared/transforms/camera_manufacturer_luts/arri/ARRI_Alexa_LUTs/ARRI_LogC3_v1-2_LUT_Package/LUTs/ARRI_LogC3-to-Gamma26_P3_D60-v1_33.cube
LUT_3D_SIZE 5
0.000000 0.000000 0.000000
0.072724 0.000000 0.001007
0.307378 0.000000 0.011795
0.630381 0.000000 0.064912
0.864820 0.000000 0.120790
0.000000 0.143435 0.000000
0.177676 0.189715 0.000000
0.571054 0.196551 0.027939
0.962295 0.181323 0.131395
1.000000 0.263508 0.157229
0.000000 0.574578 0.000000
0.000000 0.651255 0.000000
0.645823 0.677287 0.000000
1.000000 0.692027 0.000000
1.000000 0.733669 0.000000
0.000000 0.994659 0.000000
0.000000 1.000000 0.000000
0.643290 1.000000 0.000000
1.000000 1.000000 0.000000
1.000000 1.000000 0.000000
0.000000 1.000000 0.158618
0.308812 1.000000 0.000000
0.664622 1.000000 0.000000
0.925582 1.000000 0.256855
1.000000 1.000000 0.584054
0.000000 0.000000 0.030762
0.125475 0.000000 0.118547
0.432151 0.000000 0.179782
0.777584 0.000000 0.210391
0.959991 0.000000 0.228885
0.000000 0.153643 0.150729
0.175006 0.175006 0.175006
0.636027 0.155581 0.196277
1.000000 0.122835 0.255314
1.000000 0.213657 0.315785
0.000000 0.617365 0.144839
0.000000 0.671885 0.053391
0.653880 0.683497 0.101457
1.000000 0.687190 0.235889
1.000000 0.715267 0.317830
0.000000 1.000000 0.180911
0.000000 1.000000 0.000000
0.588296 1.000000 0.000000
1.000000 1.000000 0.051865
1.000000 1.000000 0.408057
0.000000 1.000000 0.453437
0.000000 1.000000 0.329091
0.605264 1.000000 0.318151
0.908415 1.000000 0.515328
1.000000 1.000000 0.754162
0.000000 0.000000 0.164599
0.129091 0.000000 0.352544
0.498833 0.000000 0.481025
0.807462 0.000000 0.484871
0.970779 0.000000 0.451301
0.000000 0.000000 0.446799
0.000000 0.000000 0.572366
0.625986 0.000000 0.605783
1.000000 0.000000 0.609430
1.000000 0.000000 0.615808
0.000000 0.590936 0.583215
0.000000 0.625956 0.618448
0.631846 0.631846 0.631846
1.000000 0.631113 0.649653
1.000000 0.669673 0.685344
0.000000 1.000000 0.631189
0.000000 1.000000 0.621653
0.522850 1.000000 0.593362
0.996536 1.000000 0.623331
1.000000 0.985397 0.735042
0.000000 1.000000 0.701061
0.000000 1.000000 0.636805
0.597513 1.000000 0.650690
0.909651 1.000000 0.767147
1.000000 1.000000 0.904234
0.000000 0.000000 0.371756
0.000000 0.000000 0.630091
0.445914 0.000000 0.743786
0.740047 0.000000 0.715206
0.923613 0.000000 0.661677
0.000000 0.000000 0.775616
0.000000 0.000000 0.919051
0.541939 0.000000 0.953155
0.982498 0.000000 0.951537
1.000000 0.000000 0.908568
0.000000 0.425376 0.935637
0.000000 0.425696 1.000000
0.562814 0.440543 1.000000
1.000000 0.458488 1.000000
1.000000 0.576608 1.000000
0.000000 0.978058 0.966125
0.000000 1.000000 0.993835
0.449012 0.999527 0.991272
0.958053 0.958053 0.958053
1.000000 0.948135 0.949905
0.000000 1.000000 0.940948
0.000000 1.000000 0.911101
0.668696 1.000000 0.903868
0.929290 1.000000 0.935668
1.000000 1.000000 0.984390
0.000000 0.000000 0.565499
0.000000 0.000000 0.803769
0.307958 0.000000 0.890440
0.634043 0.000000 0.860868
0.856535 0.000000 0.828290
0.000000 0.000000 0.955001
0.000000 0.000000 1.000000
0.482673 0.000000 1.000000
0.901183 0.000000 1.000000
1.000000 0.000000 1.000000
0.000000 0.302876 1.000000
0.000000 0.422766 1.000000
0.576471 0.463096 1.000000
1.000000 0.516960 1.000000
1.000000 0.644404 1.000000
0.000000 0.957580 0.996429
0.000000 1.000000 0.994293
0.583017 0.969467 0.998138
0.948333 0.941253 1.000000
1.000000 0.950622 1.000000
0.000000 1.000000 0.994171
0.370565 1.000000 0.995377
0.783856 1.000000 0.997604
0.963912 1.000000 0.999527
1.000000 1.000000 1.000000
