resources/flame/Syncolor/Shared/transforms/camera_manufacturer_luts/arri/ARRI_Alexa_LUTs/ARRI_LogC3_v1-2_LUT_Package/LUTs/ARRI_LogC3-to-St2084_2K_Rec2100-D65_DW200_v2_33.cube
LUT_3D_SIZE 9
0.00000073 0.00000073 0.00000073
0.10417733 0.02791900 0.00431493
0.20523733 0.06829599 0.01294967
0.31095223 0.12096256 0.02735248
0.43010518 0.19150739 0.05130229
0.55372981 0.27618084 0.08630605
0.67950674 0.37359992 0.13435456
0.80726450 0.48366669 0.19808797
0.82742464 0.60460291 0.27920753
0.01709028 0.05720417 0.00000073
0.05143452 0.05444610 0.00000073
0.17904066 0.07341459 0.00000073
0.30793456 0.12525427 0.02115982
0.43760678 0.19871968 0.05056975
0.56813069 0.28782580 0.08981622
0.69907679 0.39022334 0.14238394
0.82677902 0.50166426 0.20890716
0.82742464 0.61698108 0.28785468
0.07660623 0.19146709 0.00000073
0.09133101 0.19643078 0.00000073
0.19647053 0.20455117 0.00000073
0.32760906 0.22272266 0.00000073
0.46124262 0.26215964 0.00000073
0.59344922 0.32938108 0.03840280
0.72088135 0.41848834 0.13431203
0.82742464 0.51839256 0.20847831
0.82742464 0.61958026 0.28402338
0.16478647 0.34314761 0.00000073
0.17705020 0.35167828 0.00000073
0.24435332 0.36062725 0.00000073
0.35997030 0.37137399 0.00000073
0.48813438 0.38831028 0.00000073
0.61432803 0.41950400 0.00000073
0.73230831 0.47123496 0.00000073
0.82742464 0.54109665 0.12558643
0.82742464 0.61968100 0.24686455
0.27382022 0.49936318 0.00000073
0.28370468 0.50728229 0.00000073
0.32002321 0.51358388 0.00000073
0.40223009 0.51882825 0.00000073
0.51196617 0.52514694 0.00000073
0.62579158 0.53642288 0.00000073
0.73337434 0.55767284 0.00000073
0.82742464 0.59239012 0.00000073
0.82742464 0.63844218 0.00000073
0.39121493 0.64650625 0.00000073
0.39515314 0.64865820 0.00000073
0.41071671 0.64887807 0.00000073
0.45786207 0.64814688 0.00000073
0.53962003 0.64810954 0.00000073
0.63634970 0.65029334 0.00000073
0.73086973 0.65630120 0.00000073
0.81546986 0.66839729 0.00000073
0.82742464 0.68767557 0.00000073
0.50307895 0.77357225 0.00000073
0.49987179 0.76867443 0.00000073
0.50272002 0.76274886 0.00000073
0.52441339 0.75609749 0.00000073
0.57592742 0.74959817 0.00000073
0.64950493 0.74446825 0.00000073
0.72826921 0.74243619 0.00000073
0.80221241 0.74460355 0.00000073
0.82742464 0.75160158 0.00000073
0.60021184 0.82742464 0.00000073
0.58909003 0.82742464 0.00000073
0.58196885 0.82742464 0.00000073
0.58795023 0.82742464 0.00000073
0.61814566 0.82742464 0.00000073
0.67175600 0.82047958 0.00000073
0.73657463 0.81611207 0.00000073
0.80118772 0.81532117 0.00000073
0.82742464 0.81630013 0.00000073
0.67701226 0.82742464 0.00000073
0.65983000 0.82742464 0.00000073
0.64735985 0.82742464 0.00000073
0.64721931 0.82742464 0.00000073
0.66607957 0.82742464 0.00000073
0.70368759 0.82742464 0.00000073
0.75234845 0.82742464 0.00000073
0.80198402 0.82742464 0.00000073
0.82742464 0.82742464 0.00000073
0.00000073 0.00000073 0.11015490
0.09043145 0.00000073 0.08372053
0.19588934 0.05909899 0.06023424
0.30665116 0.11779542 0.05085954
0.42912543 0.19061324 0.06422753
0.55384938 0.27616326 0.09330004
0.68052165 0.37438546 0.13850892
0.80850277 0.48476666 0.20075888
0.82742464 0.60260048 0.27884050
0.00485882 0.05063550 0.05151512
0.04904836 0.04904836 0.04904836
0.18096852 0.07117707 0.04975399
0.31032220 0.12550016 0.05723096
0.44042808 0.20015134 0.07431813
0.57129962 0.29001403 0.10499552
0.70064377 0.39146894 0.15139218
0.82476211 0.49980081 0.21263900
0.82742464 0.60949394 0.28545226
0.07642198 0.19275076 0.00000073
0.09152982 0.19842742 0.00000073
0.19870302 0.20652973 0.00000073
0.33150133 0.22472520 0.00000073
0.46497134 0.26452872 0.03619352
0.59532387 0.33115349 0.09834138
0.71931908 0.41771144 0.15514188
0.82742464 0.51273979 0.21718305
0.82742464 0.60862820 0.28421762
0.16624632 0.34606618 0.00000073
0.17875272 0.35480441 0.00000073
0.24627693 0.36366497 0.00000073
0.36263559 0.37392123 0.00000073
0.49026691 0.39054433 0.00000073
0.61381407 0.42103587 0.00000073
0.72814707 0.47049961 0.00000073
0.82742464 0.53619820 0.18047015
0.82742464 0.60894228 0.26179883
0.27579502 0.50231152 0.00000073
0.28534195 0.50961359 0.00000073
0.32169606 0.51517380 0.00000073
0.40411054 0.51987929 0.00000073
0.51293841 0.52601340 0.00000073
0.62456944 0.53730541 0.00000073
0.72882245 0.55796901 0.00000073
0.82149759 0.59042022 0.00000073
0.82742464 0.63223109 0.00000073
0.39145409 0.64694295 0.00000073
0.39477488 0.64810085 0.00000073
0.41088469 0.64764669 0.00000073
0.45939728 0.64694875 0.00000073
0.54109294 0.64716494 0.00000073
0.63576517 0.64959899 0.00000073
0.72679405 0.65575266 0.00000073
0.80790918 0.66757909 0.00000073
0.82742464 0.68557411 0.00000073
0.49996432 0.77023746 0.00000073
0.49656812 0.76482535 0.00000073
0.50028991 0.75864593 0.00000073
0.52412891 0.75199772 0.00000073
0.57732268 0.74580749 0.00000073
0.65009819 0.74155592 0.00000073
0.72647523 0.74050864 0.00000073
0.79748178 0.74346024 0.00000073
0.82742464 0.75084501 0.00000073
0.59318458 0.82742464 0.00000073
0.58216520 0.82742464 0.00000073
0.57631708 0.82742464 0.00000073
0.58552247 0.82742464 0.00000073
0.61912258 0.82286043 0.00000073
0.67384805 0.81649346 0.00000073
0.73761923 0.81346345 0.00000073
0.79939826 0.81334180 0.00000073
0.82742464 0.81451395 0.00000073
0.66628323 0.82742464 0.00000073
0.64976827 0.82742464 0.00000073
0.64004282 0.82742464 0.00000073
0.64387724 0.82742464 0.00000073
0.66616757 0.82742464 0.00000073
0.70566159 0.82742464 0.00000073
0.75391601 0.82742464 0.00000073
0.80148038 0.82742464 0.00000073
0.82742464 0.82742464 0.00000073
0.00000073 0.00000073 0.18486859
0.05319241 0.00000073 0.16244200
0.18079279 0.00000073 0.14312576
0.29950627 0.09827276 0.13712526
0.42412265 0.18255188 0.14175637
0.55026746 0.27171689 0.15397744
0.67804687 0.37163058 0.17905284
0.80449691 0.48084802 0.22277135
0.82742464 0.59473860 0.28625301
0.00000073 0.00000073 0.16657845
0.00000073 0.00000073 0.16953395
0.17524202 0.00000073 0.17220478
0.30949242 0.09386629 0.17688670
0.44128664 0.19115102 0.18517481
0.57227638 0.28715610 0.19837570
0.69947249 0.38906429 0.22018698
0.81958950 0.49447902 0.25553441
0.82742464 0.59832622 0.30591931
0.02920548 0.18177347 0.18386712
0.06290239 0.18764262 0.19013066
0.19607037 0.19607037 0.19607037
0.33452996 0.21623166 0.20307630
0.46752346 0.25966780 0.21331755
0.59565627 0.32842035 0.22768315
0.71568582 0.41368170 0.24910590
0.82534796 0.50516128 0.28024527
0.82742464 0.59606273 0.32164298
0.15935484 0.34614308 0.17119992
0.17280173 0.35504233 0.17825440
0.24442876 0.36392755 0.18440901
0.36416599 0.37374662 0.19397066
0.49193884 0.39014714 0.21211142
0.61260543 0.42035707 0.23421641
0.72335433 0.46815756 0.26080718
0.82242373 0.53011793 0.29338356
0.82742464 0.59724284 0.33147390
0.27453713 0.50394183 0.00000073
0.28383637 0.51051520 0.00000073
0.32137681 0.51552559 0.00000073
0.40511542 0.51993978 0.00000073
0.51367340 0.52604437 0.00000073
0.62331716 0.53738007 0.09409364
0.72406567 0.55759400 0.21595989
0.81224947 0.58807059 0.27950508
0.82742464 0.62643681 0.33047273
0.38989315 0.64629938 0.00000073
0.39276707 0.64656958 0.00000073
0.41013029 0.64592425 0.00000073
0.46055624 0.64542779 0.00000073
0.54252583 0.64597924 0.00000073
0.63521817 0.64861031 0.00000073
0.72313291 0.65502717 0.00000073
0.80090895 0.66666206 0.00000073
0.82742464 0.68361475 0.29258717
0.49577067 0.76615584 0.00000073
0.49252395 0.76055785 0.00000073
0.49744887 0.75422085 0.00000073
0.52393164 0.74771493 0.00000073
0.57894552 0.74212866 0.00000073
0.65091539 0.73887152 0.00000073
0.72507797 0.73873334 0.00000073
0.79325814 0.74243005 0.00000073
0.82742464 0.75023847 0.00000073
0.58558802 0.82742464 0.00000073
0.57485736 0.82742464 0.00000073
0.57077448 0.82742464 0.00000073
0.58376840 0.82591057 0.00000073
0.62065716 0.81797837 0.00000073
0.67638398 0.81290380 0.00000073
0.73910750 0.81113249 0.00000073
0.79779806 0.81131316 0.00000073
0.82742464 0.81266282 0.00000073
0.65519886 0.82742464 0.00000073
0.64030510 0.82742464 0.00000073
0.63357171 0.82742464 0.00000073
0.64128928 0.82742464 0.00000073
0.66696971 0.82742464 0.00000073
0.70817436 0.82742464 0.00000073
0.75590305 0.82742464 0.00000073
0.80149730 0.82742464 0.00000073
0.82742464 0.82742464 0.57567239
0.00000073 0.00000073 0.23456533
0.00000073 0.00000073 0.21516064
0.16018726 0.00000073 0.20122373
0.28838804 0.00000073 0.20159696
0.41538363 0.16123067 0.20741965
0.54311832 0.26112711 0.21756795
0.67096947 0.36374497 0.23454085
0.79485944 0.47129522 0.26292267
0.82742464 0.58055865 0.30728897
0.00000073 0.00000073 0.24834496
0.00000073 0.00000073 0.25374349
0.15431545 0.00000073 0.26033133
0.30186078 0.00000073 0.26809753
0.43696870 0.14156880 0.27768789
0.56776980 0.27051645 0.28940342
0.69270412 0.37833576 0.30459378
0.80852498 0.48223766 0.32577193
0.82742464 0.58216522 0.35588195
0.00000073 0.08670722 0.29914588
0.00000073 0.07881854 0.30932124
0.17103080 0.08328665 0.32016747
0.32926618 0.14119342 0.32877740
0.46575900 0.22118240 0.33745750
0.59263222 0.30932525 0.34794156
0.70935871 0.40116922 0.36095608
0.81538291 0.49296197 0.37781667
0.82742464 0.58033541 0.39968864
0.07640152 0.33357034 0.33610880
0.10793964 0.34198135 0.34524940
0.22562921 0.35060243 0.35369350
0.36074830 0.36074830 0.36074830
0.49203383 0.37886695 0.36846704
0.61039060 0.41145163 0.37873140
0.71757991 0.46021469 0.39141898
0.81213260 0.52045039 0.40746894
0.82742464 0.58336319 0.42744500
0.25973769 0.50155772 0.33627396
0.26956518 0.50737105 0.34375675
0.31309142 0.51199921 0.35123305
0.40251121 0.51672361 0.35884926
0.51331423 0.52296786 0.36924269
0.62184147 0.53447903 0.38591546
0.71893153 0.55470653 0.40539757
0.80334127 0.58404081 0.42717172
0.82742464 0.61975997 0.45028919
0.38320724 0.64374915 0.00000073
0.38599360 0.64340659 0.19825693
0.40581701 0.64285502 0.25389117
0.45979949 0.64270081 0.29499306
0.54306579 0.64365677 0.33216194
0.63446576 0.64654019 0.36882731
0.71977819 0.65325126 0.40295717
0.79431454 0.66482827 0.43485221
0.82742464 0.68104829 0.46572753
0.48945247 0.76133861 0.00000073
0.48633795 0.75550733 0.00000073
0.49298118 0.74910770 0.00000073
0.52296637 0.74290826 0.00000073
0.58009790 0.73828172 0.00000073
0.65161364 0.73595321 0.25127520
0.72389119 0.73665038 0.37088642
0.78942125 0.74106552 0.43544123
0.82742464 0.74935859 0.48665642
0.57680218 0.82742464 0.00000073
0.56650727 0.82742464 0.00000073
0.56500260 0.82742464 0.00000073
0.58205846 0.81993924 0.00000073
0.62232200 0.81325718 0.00000073
0.67910805 0.80942310 0.00000073
0.74062786 0.80857576 0.31449612
0.79628808 0.80895447 0.45856950
0.82742464 0.81027892 0.53798423
0.64388121 0.82742464 0.00000073
0.63106647 0.82742464 0.00000073
0.62749931 0.82742464 0.00000073
0.63903951 0.82742464 0.00000073
0.66821898 0.82742464 0.00000073
0.71105896 0.82742464 0.00000073
0.75821382 0.82742464 0.37276368
0.80282166 0.82742464 0.58176557
0.82742464 0.82742464 0.70341452
0.00000073 0.00000073 0.27064225
0.00000073 0.00000073 0.25307169
0.13295203 0.00000073 0.24443409
0.27430909 0.00000073 0.24844923
0.40402251 0.11142180 0.25555660
0.53299508 0.24360145 0.26592990
0.65946065 0.35056379 0.28064879
0.78018689 0.45654501 0.30242628
0.82742464 0.56063815 0.33458529
0.00000073 0.00000073 0.30537568
0.00000073 0.00000073 0.31308036
0.09987816 0.00000073 0.32239683
0.28810538 0.00000073 0.33303617
0.42751247 0.00000073 0.34471260
0.55820172 0.22847982 0.35754415
0.68066537 0.35681886 0.37214073
0.79266564 0.46296021 0.38959059
0.82742464 0.56099892 0.41147893
0.00000073 0.00000073 0.38176035
0.00000073 0.00000073 0.39404018
0.00000073 0.00000073 0.40647417
0.31207503 0.00000073 0.41773571
0.45675052 0.00000073 0.42805035
0.58381247 0.24130215 0.43842308
0.69868939 0.37095566 0.44979497
0.80142119 0.47112917 0.46266188
0.82742464 0.55811026 0.47740038
0.00000073 0.28205041 0.44971225
0.00000073 0.28634376 0.46105671
0.05859601 0.29199057 0.47140441
0.34278745 0.30321013 0.48050002
0.48477137 0.33111740 0.48661194
0.60455972 0.37736403 0.49261929
0.70941867 0.43662498 0.50016857
0.79991217 0.50136461 0.50952260
0.82742464 0.56476438 0.52106024
0.14488424 0.48679539 0.48912064
0.17209786 0.49173131 0.49506584
0.26987070 0.49616979 0.49996042
0.38900554 0.50154651 0.50468758
0.50897895 0.50897896 0.50897896
0.61913541 0.52251312 0.51479898
0.71318019 0.54478546 0.52377927
0.79442810 0.57489803 0.53498772
0.82742464 0.60971434 0.54772016
0.35930376 0.63689245 0.48386677
0.36319307 0.63637377 0.48901070
0.38970361 0.63597461 0.49493447
0.45314407 0.63632948 0.50196543
0.54080494 0.63804737 0.51006760
0.63283236 0.64152372 0.52016828
0.71644903 0.64866707 0.53436400
0.78786673 0.66061205 0.54991903
0.82742464 0.67666965 0.56700265
0.47702936 0.75492781 0.41241148
0.47410608 0.74879046 0.43604053
0.48367141 0.74238178 0.45843310
0.51908623 0.73691938 0.47933128
0.57965984 0.73331964 0.49881991
0.65156951 0.73196726 0.51874874
0.72262314 0.73349166 0.54109235
0.78581023 0.73867419 0.56608931
0.82742464 0.74762422 0.59328757
0.56511136 0.82742464 0.00000073
0.55568444 0.82742464 0.00000073
0.55743492 0.82167488 0.25332887
0.57923450 0.81366896 0.40914604
0.62344283 0.80818989 0.47275519
0.68164873 0.80558067 0.51953146
0.74189761 0.80530295 0.56034782
0.79474361 0.80589370 0.59775617
0.82742464 0.80626222 0.65537021
0.63182911 0.82742464 0.00000073
0.62105062 0.82742464 0.00000073
0.62092024 0.82742464 0.00000073
0.63651931 0.82742464 0.00000073
0.66955243 0.82742464 0.44980885
0.71413260 0.82742464 0.53816615
0.76304432 0.82742464 0.61240505
0.80535321 0.82742464 0.70168612
0.82631864 0.82742464 0.76592377
0.00000073 0.00000073 0.30227783
0.00000073 0.00000073 0.28705778
0.08320095 0.00000073 0.28446240
0.25818510 0.00000073 0.29001965
0.39172385 0.00000073 0.29817053
0.52084621 0.21368299 0.30875475
0.64531178 0.33211302 0.32235028
0.76216371 0.43760328 0.34046422
0.82742464 0.53729522 0.36508678
0.00000073 0.00000073 0.34999740
0.00000073 0.00000073 0.35884685
0.00000073 0.00000073 0.36938979
0.26833122 0.00000073 0.38111420
0.41431352 0.00000073 0.39355236
0.54479969 0.00000073 0.40695015
0.66451891 0.32124691 0.42177682
0.77376694 0.43706722 0.43885163
0.82742464 0.53501934 0.45872639
0.00000073 0.00000073 0.43968808
0.00000073 0.00000073 0.45353251
0.00000073 0.00000073 0.46715367
0.28079080 0.00000073 0.48004281
0.44189813 0.00000073 0.49210770
0.57082590 0.00000073 0.50385672
0.68442493 0.29987809 0.51578926
0.78407113 0.43460099 0.52796128
0.82742464 0.52737597 0.54047996
0.00000073 0.00000073 0.53072268
0.00000073 0.00000073 0.54284082
0.00000073 0.00000073 0.55336198
0.29635339 0.00000073 0.56215308
0.46873875 0.00000073 0.56925067
0.59313687 0.24460857 0.57514219
0.69714793 0.37700310 0.58099727
0.78497805 0.46482970 0.58759407
0.82742464 0.53682230 0.59558359
0.00000073 0.44433598 0.59588618
0.00000073 0.44747371 0.60140792
0.00000073 0.45163702 0.60577535
0.34536249 0.45806087 0.60968269
0.49558749 0.46892361 0.61324762
0.61084994 0.48951920 0.61506680
0.70523473 0.51922142 0.61810935
0.78439033 0.55465821 0.62324918
0.82742464 0.59223861 0.62962730
0.22196629 0.61919650 0.62109042
0.24545139 0.61873400 0.62183289
0.32476379 0.61882439 0.62264816
0.42923389 0.62015895 0.62402978
0.53236263 0.62329501 0.62613621
0.62844706 0.62844707 0.62844707
0.71235223 0.63757325 0.63232825
0.78101725 0.65137989 0.63886234
0.82742464 0.66860971 0.64763387
0.44508522 0.74458197 0.60926475
0.44356873 0.73821959 0.61110271
0.46078248 0.73217969 0.61384259
0.50766266 0.72774731 0.61771535
0.57569378 0.72532956 0.62286059
0.64971937 0.72535009 0.62939754
0.72083470 0.72801264 0.63894674
0.78223376 0.73424388 0.65328929
0.82742464 0.74434286 0.67065688
0.54606607 0.82742464 0.56543591
0.53839563 0.82230394 0.57937208
0.54466662 0.81307881 0.59290628
0.57324139 0.80619817 0.60704551
0.62303375 0.80193553 0.62261508
0.68350490 0.80062362 0.64036903
0.74264897 0.80076535 0.65947439
0.79247496 0.80085675 0.68649506
0.81972206 0.80141135 0.73121071
0.61689657 0.82742464 0.44109368
0.60825410 0.82742464 0.52059211
0.61202803 0.82742464 0.56775986
0.63283147 0.82742464 0.60273779
0.67058136 0.82742464 0.63205918
0.71824788 0.82742464 0.66175004
0.77185699 0.82742464 0.71401488
0.80864097 0.82742464 0.76618187
0.82543681 0.82742464 0.79763611
0.00000073 0.00000073 0.33012607
0.00000073 0.00000073 0.31831377
0.00000073 0.00000073 0.32061800
0.23886814 0.00000073 0.32744989
0.37799530 0.00000073 0.33649355
0.50696800 0.14563715 0.34742426
0.62900672 0.30583687 0.36065935
0.74161605 0.41412800 0.37700910
0.82742464 0.51191552 0.39772146
0.00000073 0.00000073 0.39020208
0.00000073 0.00000073 0.40009944
0.00000073 0.00000073 0.41156405
0.23892187 0.00000073 0.42369644
0.39853456 0.00000073 0.43634088
0.52932628 0.00000073 0.44963338
0.64701562 0.25224227 0.46407419
0.75335347 0.40232523 0.48014112
0.82742464 0.50406479 0.49803796
0.00000073 0.00000073 0.48603608
0.00000073 0.00000073 0.49991190
0.00000073 0.00000073 0.51328652
0.22039374 0.00000073 0.52601074
0.42260059 0.00000073 0.53829627
0.55511013 0.00000073 0.55082439
0.66763639 0.00000073 0.56375251
0.76427237 0.36965061 0.57674965
0.82742464 0.48546851 0.58933897
0.00000073 0.00000073 0.58676903
0.00000073 0.00000073 0.59929399
0.00000073 0.00000073 0.61023892
0.00000073 0.00000073 0.61983148
0.44450563 0.00000073 0.62790047
0.57761860 0.00000073 0.63461019
0.68187487 0.00000073 0.64047969
0.76861973 0.38648370 0.64657874
0.82742464 0.49208811 0.65326799
0.00000073 0.28601061 0.67044100
0.00000073 0.27422843 0.67580434
0.00000073 0.27902032 0.67987488
0.00000073 0.30636491 0.68284515
0.47021198 0.35260459 0.68476323
0.59725711 0.40783548 0.68605320
0.69395186 0.46382740 0.68765663
0.77215635 0.51642951 0.68984493
0.82742464 0.56385177 0.69261626
0.00000073 0.58161037 0.71608696
0.00000073 0.58136441 0.71519392
0.00000073 0.58280937 0.71374924
0.35302504 0.58661727 0.71235811
0.51324170 0.59267635 0.71156654
0.61925325 0.60157190 0.71127141
0.70467709 0.61562192 0.71020882
0.77256209 0.63415545 0.71047939
0.82603210 0.65505556 0.71313573
0.29679790 0.72499181 0.72663703
0.32017025 0.71894095 0.72187511
0.38853598 0.71423322 0.71796561
0.47689418 0.71137073 0.71536608
0.56478805 0.71071847 0.71431679
0.64520226 0.71274859 0.71509690
0.71761719 0.71761720 0.71761721
0.77828172 0.72632526 0.72309564
0.82053830 0.73947690 0.73356654
0.50646674 0.81999666 0.70650204
0.50274605 0.80970873 0.70509882
0.51876068 0.80164461 0.70569730
0.56035870 0.79603186 0.70855998
0.61978335 0.79320248 0.71400141
0.68404217 0.79323082 0.72200729
0.74306208 0.79399330 0.73138206
0.79003336 0.79420070 0.75058537
0.81120202 0.79802003 0.77544090
0.59428675 0.82742464 0.67820102
0.58857403 0.82742464 0.68822831
0.59810746 0.82742464 0.69914168
0.62684514 0.82742464 0.70979413
0.67108030 0.82742464 0.72094262
0.72918480 0.82742464 0.74235082
0.78306372 0.82692221 0.77341766
0.81194474 0.82433694 0.79765368
0.82588398 0.82705516 0.81629266
0.00000073 0.00000073 0.35485319
0.00000073 0.00000073 0.34788683
0.00000073 0.00000073 0.35326507
0.21367108 0.00000073 0.36119592
0.36236674 0.00000073 0.37085756
0.49146521 0.00000073 0.38219083
0.61073233 0.26447214 0.39542571
0.72008410 0.38563226 0.41113971
0.81914636 0.48386173 0.42994830
0.00000073 0.00000073 0.42654051
0.00000073 0.00000073 0.43738841
0.00000073 0.00000073 0.44924924
0.18516552 0.00000073 0.46155552
0.37961732 0.00000073 0.47424357
0.51249743 0.00000073 0.48750018
0.62887086 0.00000073 0.50184614
0.73222402 0.34853649 0.51734256
0.82172392 0.46559925 0.53399840
0.00000073 0.00000073 0.52747522
0.00000073 0.00000073 0.54100255
0.00000073 0.00000073 0.55388135
0.00000073 0.00000073 0.56602499
0.39806573 0.00000073 0.57805366
0.53780405 0.00000073 0.59014037
0.64961119 0.00000073 0.60225856
0.74322571 0.00000073 0.61437087
0.82249245 0.42335040 0.62712615
0.00000073 0.00000073 0.63090115
0.00000073 0.00000073 0.64215741
0.00000073 0.00000073 0.65222233
0.00000073 0.00000073 0.66145806
0.41015797 0.00000073 0.66977697
0.55911909 0.00000073 0.67747731
0.66531884 0.00000073 0.68457315
0.75150903 0.00000073 0.69135933
0.82255049 0.40420426 0.69796107
0.00000073 0.00000073 0.72141588
0.00000073 0.00000073 0.72741483
0.00000073 0.00000073 0.73184700
0.00000073 0.00000073 0.73477331
0.42566422 0.00000073 0.73652831
0.57965526 0.00000073 0.73806466
0.68045309 0.22374722 0.73942895
0.75837924 0.43523877 0.74029446
0.81948536 0.51691539 0.74096369
0.00000073 0.49358768 0.78243287
0.00000073 0.49517077 0.78068923
0.00000073 0.50356633 0.77790529
0.00000073 0.51694307 0.77521615
0.47585272 0.53393150 0.77245474
0.60542025 0.55482508 0.76962173
0.69421981 0.58003068 0.76660006
0.76215559 0.60811757 0.76394847
0.81384112 0.63657287 0.76261965
0.00000073 0.69124285 0.80729753
0.00000073 0.68692393 0.79968032
0.00000073 0.68467003 0.79286733
0.39295341 0.68467192 0.78705137
0.54329403 0.68726262 0.78248700
0.63806836 0.69282637 0.77950972
0.71275501 0.70173414 0.77826721
0.77214417 0.71542424 0.77752002
0.80434212 0.73693210 0.77590219
0.35962092 0.79966603 0.80146504
0.38884938 0.79091251 0.79388782
0.45369530 0.78457350 0.78828103
0.53325910 0.78091549 0.78490425
0.61219610 0.78030704 0.78407246
0.68330192 0.78216924 0.78514880
0.74666129 0.78403114 0.78552306
0.78908202 0.78908203 0.78908205
0.80753950 0.79758974 0.79708943
0.55091783 0.82742464 0.78247505
0.55215810 0.82742464 0.78146537
0.57434371 0.82742464 0.78151690
0.61747772 0.82742464 0.78210719
0.67717762 0.82742464 0.78440773
0.74725123 0.82429776 0.79213930
0.79348466 0.81963241 0.80356858
0.81576474 0.82225140 0.81461621
0.82742464 0.82742464 0.82584248
0.00000073 0.00000073 0.37741095
0.00000073 0.00000073 0.37620064
0.00000073 0.00000073 0.38287774
0.17536689 0.00000073 0.39151781
0.34446378 0.00000073 0.40171305
0.47438917 0.00000073 0.41346295
0.59131979 0.17202204 0.42696167
0.69799869 0.34851162 0.44263915
0.79331729 0.45173894 0.46060216
0.00000073 0.00000073 0.45949884
0.00000073 0.00000073 0.47090053
0.00000073 0.00000073 0.48286581
0.00000073 0.00000073 0.49519619
0.35639269 0.00000073 0.50784085
0.49468828 0.00000073 0.52128525
0.61021682 0.00000073 0.53560872
0.71058471 0.20673510 0.55072183
0.79598853 0.41200247 0.56653854
0.00000073 0.00000073 0.56427449
0.00000073 0.00000073 0.57727234
0.00000073 0.00000073 0.58947853
0.00000073 0.00000073 0.60125900
0.36425395 0.00000073 0.61300934
0.51873146 0.00000073 0.62460734
0.63089129 0.00000073 0.63589068
0.72286902 0.00000073 0.64721519
0.80023395 0.26133702 0.65906675
0.00000073 0.00000073 0.66925921
0.00000073 0.00000073 0.67931501
0.00000073 0.00000073 0.68856021
0.00000073 0.00000073 0.69677245
0.35424914 0.00000073 0.70399979
0.53823117 0.00000073 0.71075465
0.64821570 0.00000073 0.71801760
0.73417734 0.00000073 0.72575958
0.80367507 0.00000073 0.73288981
0.00000073 0.00000073 0.75988747
0.00000073 0.00000073 0.76477497
0.00000073 0.00000073 0.76859828
0.00000073 0.00000073 0.77164043
0.33330781 0.00000073 0.77457731
0.55779961 0.00000073 0.77694315
0.66543827 0.00000073 0.77848281
0.74374819 0.00000073 0.77877157
0.80325003 0.42317992 0.77813635
0.00000073 0.00000073 0.82742464
0.00000073 0.00000073 0.82650456
0.00000073 0.00000073 0.82389121
0.00000073 0.00000073 0.82090513
0.39828260 0.33559827 0.81726841
0.58656958 0.44958692 0.81309946
0.68248515 0.51774422 0.80852098
0.75093683 0.57040723 0.80384284
0.79958952 0.61588432 0.79847640
0.00000073 0.63017226 0.82742464
0.00000073 0.63084537 0.82742464
0.00000073 0.63486909 0.82742464
0.00000073 0.64202532 0.82742464
0.50753724 0.65231523 0.82742464
0.62818384 0.66585440 0.82594189
0.70750590 0.68277919 0.82093071
0.76417609 0.70979630 0.80928246
0.78972999 0.74161366 0.79476069
0.00000073 0.77045277 0.82742464
0.00000073 0.76422817 0.82742464
0.00000073 0.76081496 0.82742464
0.48170859 0.76047926 0.82742464
0.60117589 0.76354118 0.82742464
0.68797091 0.76855338 0.82742464
0.75538106 0.77705622 0.81337511
0.79057674 0.78847981 0.80600797
0.80622816 0.79965388 0.80728342
0.41922573 0.82742464 0.82742464
0.46313158 0.82742464 0.82742464
0.53133868 0.82742464 0.82742464
0.60729956 0.82742464 0.82742464
0.69804843 0.82007332 0.82338633
0.76790220 0.81430649 0.81607941
0.80184746 0.81688514 0.81755348
0.82007627 0.82257403 0.82269222
0.82742464 0.82742464 0.82742464
