resources/flame/Syncolor/Shared/transforms/camera_manufacturer_luts/arri/ARRI_Alexa_LUTs/ARRI_LogC3_v1-2_LUT_Package/LUTs/ARRI_LogC3-to-St2084_2K_Rec2100-D65_DW100_v1_33.cube
LUT_3D_SIZE 9
0.006302 0.006302 0.006302
0.104173 0.027924 0.006302
0.205234 0.068299 0.012955
0.310948 0.120958 0.027359
0.429923 0.191394 0.051255
0.552224 0.275074 0.085817
0.675532 0.370352 0.132631
0.799878 0.477012 0.193957
0.827420 0.593225 0.271092
0.017090 0.057206 0.006302
0.050904 0.053880 0.006302
0.176745 0.071336 0.006302
0.302815 0.121508 0.021485
0.428794 0.192416 0.049180
0.554910 0.277729 0.085878
0.680949 0.375051 0.134600
0.803433 0.480323 0.195743
0.827420 0.588602 0.267674
0.073213 0.184863 0.006302
0.082551 0.185672 0.006302
0.181262 0.188922 0.006302
0.307485 0.202243 0.006302
0.435904 0.237903 0.006302
0.562783 0.301732 0.051728
0.684993 0.386145 0.123461
0.799298 0.480034 0.187457
0.827420 0.574670 0.253666
0.150576 0.320729 0.006302
0.155840 0.323796 0.006302
0.212177 0.327214 0.006302
0.321874 0.332647 0.006302
0.445457 0.344961 0.006302
0.567559 0.372808 0.006302
0.681804 0.421836 0.006302
0.786160 0.488441 0.119890
0.827420 0.562966 0.213840
0.244266 0.459327 0.006302
0.248219 0.462608 0.006302
0.275013 0.464775 0.006302
0.350423 0.466285 0.006302
0.456748 0.469398 0.006302
0.568170 0.478202 0.006302
0.673930 0.497810 0.006302
0.769802 0.531518 0.006302
0.827420 0.576776 0.006302
0.347127 0.593194 0.006302
0.347295 0.592386 0.006302
0.357214 0.590234 0.006302
0.399023 0.587778 0.006302
0.478599 0.586770 0.006302
0.575265 0.588907 0.006302
0.671260 0.596323 0.006302
0.758541 0.611093 0.006302
0.827420 0.633860 0.006302
0.448692 0.713130 0.006302
0.444373 0.707576 0.006302
0.445945 0.702052 0.006302
0.467140 0.697230 0.006302
0.520317 0.693736 0.006302
0.597513 0.692439 0.006302
0.680674 0.694743 0.006302
0.759152 0.701442 0.006302
0.827420 0.712764 0.006302
0.545006 0.818692 0.006302
0.537011 0.809628 0.006302
0.533257 0.800900 0.006302
0.542687 0.792920 0.006302
0.576715 0.786786 0.006302
0.634424 0.783261 0.006302
0.702907 0.782513 0.006302
0.770535 0.784680 0.006302
0.827420 0.789685 0.006302
0.632776 0.827420 0.006302
0.620142 0.827420 0.006302
0.611612 0.827420 0.006302
0.614572 0.827420 0.006302
0.636500 0.827420 0.006302
0.678645 0.827420 0.006302
0.732662 0.827420 0.006302
0.787869 0.827420 0.006302
0.827420 0.827420 0.006302
0.006302 0.006302 0.109255
0.091737 0.006302 0.086351
0.197101 0.058579 0.065126
0.307713 0.118090 0.056275
0.429541 0.190784 0.067887
0.552346 0.275044 0.094057
0.676036 0.370718 0.136538
0.800183 0.477256 0.195758
0.827420 0.589990 0.269551
0.006302 0.050797 0.050874
0.048051 0.048051 0.048051
0.177844 0.068559 0.046662
0.304051 0.121126 0.051453
0.430182 0.192966 0.066300
0.556466 0.278737 0.095216
0.680766 0.374868 0.139101
0.799603 0.476860 0.196109
0.827420 0.579492 0.262791
0.072602 0.184924 0.006302
0.081788 0.186252 0.006302
0.181872 0.189364 0.006302
0.309621 0.202686 0.006302
0.437827 0.238773 0.006302
0.562875 0.301991 0.075578
0.681727 0.383886 0.131197
0.791028 0.473060 0.188434
0.827420 0.562646 0.249134
0.151095 0.321889 0.006302
0.156405 0.325170 0.006302
0.212512 0.328573 0.006302
0.322911 0.333639 0.006302
0.446113 0.345846 0.006302
0.565713 0.373144 0.006302
0.676463 0.420005 0.006302
0.776806 0.482658 0.139986
0.827420 0.551705 0.217411
0.245167 0.460685 0.006302
0.248844 0.463554 0.006302
0.275593 0.465141 0.006302
0.351263 0.466285 0.006302
0.456825 0.469413 0.006302
0.566232 0.478447 0.006302
0.668894 0.497704 0.006302
0.760647 0.529397 0.006302
0.827420 0.570840 0.006302
0.346593 0.592599 0.006302
0.346212 0.590982 0.006302
0.356741 0.588373 0.006302
0.400153 0.586221 0.006302
0.479988 0.585748 0.006302
0.575006 0.588571 0.006302
0.667964 0.596612 0.006302
0.752102 0.611475 0.006302
0.825681 0.633234 0.006302
0.445457 0.709499 0.006302
0.441123 0.703716 0.006302
0.443915 0.698436 0.006302
0.467674 0.694057 0.006302
0.522942 0.691188 0.006302
0.599557 0.690974 0.006302
0.680415 0.694377 0.006302
0.755947 0.701839 0.006302
0.822126 0.713436 0.006302
0.539162 0.812512 0.006302
0.531472 0.803494 0.006302
0.529046 0.794995 0.006302
0.541741 0.787762 0.006302
0.579187 0.782925 0.006302
0.637842 0.780591 0.006302
0.704997 0.780896 0.006302
0.769970 0.783932 0.006302
0.826810 0.789532 0.006302
0.623774 0.827420 0.006302
0.611643 0.827420 0.006302
0.605570 0.827420 0.006302
0.612192 0.827420 0.006302
0.638025 0.827420 0.006302
0.682368 0.827420 0.006302
0.736110 0.827420 0.006302
0.789212 0.827420 0.006302
0.827420 0.827420 0.006302
0.006302 0.006302 0.181643
0.060594 0.006302 0.166018
0.185733 0.006302 0.152575
0.304265 0.095247 0.151278
0.427741 0.182879 0.158282
0.551507 0.271824 0.169619
0.675883 0.369558 0.190188
0.798062 0.474937 0.226566
0.827420 0.583551 0.281849
0.006302 0.006302 0.161089
0.006302 0.006302 0.167025
0.172488 0.006302 0.170672
0.303166 0.086534 0.174166
0.430625 0.183246 0.179431
0.556680 0.275273 0.188037
0.678538 0.371664 0.204196
0.793133 0.470512 0.233829
0.827420 0.567178 0.278660
0.031144 0.173617 0.172580
0.050813 0.174517 0.176104
0.177722 0.177722 0.177722
0.310964 0.193149 0.179522
0.438605 0.233051 0.184558
0.561440 0.298268 0.194141
0.676432 0.378698 0.211658
0.781476 0.464378 0.239658
0.827420 0.549172 0.277913
0.144335 0.320455 0.142702
0.150088 0.323949 0.143832
0.209369 0.327489 0.144152
0.323003 0.332296 0.148821
0.446433 0.344488 0.163760
0.563256 0.371588 0.183566
0.670542 0.416815 0.208545
0.766659 0.475868 0.239841
0.827420 0.539605 0.276402
0.243412 0.460929 0.006302
0.246815 0.463264 0.006302
0.274434 0.464454 0.006302
0.351400 0.465492 0.006302
0.456764 0.468803 0.006302
0.564370 0.478096 0.006302
0.663737 0.497108 0.124498
0.751263 0.527062 0.212268
0.827207 0.565545 0.268620
0.344564 0.591028 0.006302
0.343771 0.588739 0.006302
0.355535 0.586175 0.006302
0.401083 0.584466 0.006302
0.481468 0.584634 0.006302
0.574975 0.588159 0.006302
0.665217 0.596902 0.006302
0.746334 0.611872 0.006302
0.816617 0.632807 0.226841
0.441337 0.705226 0.006302
0.437339 0.699611 0.006302
0.441672 0.694682 0.006302
0.468452 0.690837 0.006302
0.525902 0.688853 0.006302
0.601877 0.689815 0.006302
0.680568 0.694179 0.006302
0.753201 0.702312 0.006302
0.816037 0.714168 0.006302
0.532891 0.806043 0.006302
0.525628 0.797147 0.006302
0.524987 0.789059 0.006302
0.541466 0.783093 0.006302
0.582162 0.779477 0.006302
0.641642 0.778241 0.006302
0.707424 0.779507 0.006302
0.769757 0.783291 0.006302
0.823194 0.789395 0.006302
0.614389 0.827420 0.006302
0.603662 0.827420 0.006302
0.600259 0.827420 0.006302
0.610697 0.827420 0.006302
0.640391 0.827420 0.006302
0.686702 0.827420 0.006302
0.739986 0.827420 0.006302
0.791012 0.827420 0.006302
0.827420 0.827420 0.570016
0.006302 0.006302 0.227924
0.006302 0.006302 0.218006
0.171374 0.006302 0.212848
0.298878 0.006302 0.220920
0.424292 0.157610 0.232181
0.549248 0.261997 0.245182
0.673289 0.364080 0.261631
0.792462 0.468467 0.284749
0.827420 0.572656 0.319280
0.006302 0.006302 0.237110
0.006302 0.006302 0.248173
0.155123 0.006302 0.258656
0.297978 0.006302 0.268482
0.428458 0.122972 0.278355
0.554055 0.257221 0.288518
0.673381 0.361135 0.300145
0.783368 0.459068 0.315618
0.827420 0.552041 0.338155
0.006302 0.104280 0.278248
0.006302 0.073106 0.288899
0.152102 0.006302 0.299077
0.305257 0.096544 0.305882
0.436225 0.188754 0.311391
0.557671 0.277272 0.317586
0.669261 0.365240 0.325551
0.770672 0.451545 0.337057
0.827420 0.532967 0.353750
0.078599 0.308034 0.303761
0.085435 0.310246 0.310292
0.188220 0.313085 0.315297
0.318196 0.318196 0.318196
0.445274 0.332341 0.321706
0.559854 0.361975 0.328237
0.663722 0.408255 0.337728
0.755505 0.465675 0.351171
0.827420 0.525475 0.369116
0.229358 0.457328 0.291066
0.232715 0.459098 0.294484
0.265309 0.460060 0.298360
0.347997 0.461601 0.302907
0.455741 0.465248 0.310887
0.562371 0.474922 0.325917
0.658305 0.494148 0.344472
0.742336 0.523186 0.366079
0.815091 0.559518 0.390173
0.337911 0.587671 0.006302
0.336934 0.584985 0.006302
0.350942 0.582757 0.147158
0.400214 0.581674 0.214618
0.482231 0.582574 0.261677
0.574899 0.586862 0.304662
0.662898 0.596262 0.343832
0.741039 0.611444 0.380499
0.807996 0.631815 0.416144
0.435309 0.700328 0.006302
0.431693 0.694926 0.006302
0.437964 0.690394 0.006302
0.468574 0.687221 0.006302
0.528466 0.686427 0.006302
0.604120 0.688441 0.130816
0.680919 0.693660 0.321538
0.750805 0.702419 0.395010
0.810300 0.714549 0.451270
0.525536 0.799145 0.006302
0.518791 0.790433 0.006302
0.520714 0.783368 0.006302
0.541238 0.778637 0.006302
0.585214 0.776150 0.006302
0.645518 0.775906 0.006302
0.710018 0.778012 0.269352
0.769757 0.782452 0.430961
0.819013 0.788800 0.516350
0.604715 0.827420 0.006302
0.595804 0.827420 0.006302
0.595239 0.827420 0.006302
0.609705 0.827420 0.006302
0.643305 0.827420 0.006302
0.691463 0.827420 0.006302
0.744182 0.827420 0.356741
0.794064 0.827420 0.573053
0.825223 0.827420 0.699138
0.006302 0.006302 0.261021
0.006302 0.006302 0.253544
0.154772 0.006302 0.254871
0.292058 0.006302 0.268101
0.419669 0.084154 0.282826
0.545541 0.244358 0.299168
0.667781 0.353521 0.317266
0.783291 0.457496 0.338048
0.827420 0.556939 0.363668
0.006302 0.006302 0.288075
0.006302 0.006302 0.303243
0.117388 0.006302 0.318822
0.289113 0.006302 0.334173
0.423255 0.006302 0.348898
0.548363 0.205432 0.362875
0.664805 0.338613 0.376410
0.770550 0.440833 0.390387
0.827420 0.532753 0.406516
0.006302 0.006302 0.351019
0.006302 0.006302 0.366537
0.006302 0.006302 0.381277
0.290394 0.006302 0.393881
0.428977 0.006302 0.404196
0.550393 0.187396 0.413153
0.659983 0.331044 0.421897
0.757946 0.428717 0.431205
0.827420 0.510918 0.441459
0.006302 0.270436 0.404135
0.006302 0.262989 0.416251
0.006302 0.256275 0.426780
0.300038 0.256123 0.435554
0.437812 0.277928 0.440665
0.553765 0.323217 0.444663
0.655283 0.382193 0.449561
0.743008 0.445426 0.455970
0.817746 0.506493 0.464637
0.146899 0.444099 0.435126
0.145800 0.443946 0.440970
0.219791 0.444022 0.445060
0.333318 0.445884 0.448341
0.450767 0.450767 0.450767
0.559243 0.462699 0.454902
0.652354 0.484199 0.462959
0.733532 0.514321 0.474113
0.803220 0.550256 0.488197
0.315206 0.580102 0.426703
0.314733 0.577478 0.429770
0.334508 0.575647 0.434318
0.393362 0.575326 0.440742
0.480339 0.577417 0.449302
0.574090 0.582742 0.461311
0.660716 0.592905 0.478553
0.735973 0.608682 0.497978
0.799557 0.629007 0.519402
0.423560 0.693950 0.345556
0.420310 0.688762 0.372381
0.429541 0.684642 0.398535
0.465843 0.682506 0.423651
0.529473 0.682948 0.447715
0.605631 0.686015 0.472404
0.681163 0.692027 0.499428
0.748577 0.701427 0.528756
0.804715 0.713970 0.559609
0.515419 0.791455 0.006302
0.509529 0.783291 0.006302
0.514611 0.777447 0.104814
0.539834 0.773846 0.364797
0.587640 0.772381 0.435706
0.649088 0.773083 0.486625
0.712535 0.775967 0.530892
0.769833 0.781003 0.572839
0.811017 0.786603 0.635706
0.594232 0.827420 0.006302
0.587060 0.827420 0.006302
0.589593 0.827420 0.006302
0.608591 0.827420 0.006302
0.646372 0.827420 0.426078
0.696422 0.827420 0.520562
0.750866 0.827420 0.600290
0.798230 0.827420 0.694575
0.823270 0.827420 0.762875
0.006302 0.006302 0.289509
0.006302 0.006302 0.284840
0.131991 0.006302 0.292653
0.284199 0.006302 0.307515
0.414481 0.006302 0.323552
0.539940 0.213703 0.340444
0.659648 0.337789 0.358328
0.770718 0.442130 0.377966
0.827420 0.537514 0.400519
0.006302 0.006302 0.328603
0.006302 0.006302 0.345068
0.006302 0.006302 0.362188
0.277287 0.006302 0.379553
0.415808 0.006302 0.396612
0.540093 0.006302 0.413428
0.653300 0.298375 0.430076
0.755825 0.415030 0.446265
0.827420 0.508476 0.462348
0.006302 0.006302 0.400137
0.006302 0.006302 0.418769
0.006302 0.006302 0.436851
0.266255 0.006302 0.453605
0.417914 0.006302 0.468177
0.540566 0.006302 0.480858
0.648569 0.230610 0.492256
0.743114 0.387198 0.502525
0.823011 0.478981 0.511742
0.006302 0.110735 0.472450
0.006302 0.006302 0.488396
0.006302 0.006302 0.502266
0.258106 0.006302 0.513802
0.423789 0.006302 0.522652
0.543877 0.006302 0.529046
0.644343 0.305592 0.534264
0.729274 0.402762 0.539406
0.801694 0.475914 0.545632
0.006302 0.415885 0.527108
0.006302 0.409628 0.536110
0.006302 0.405020 0.543130
0.290517 0.403998 0.548928
0.437812 0.409354 0.553750
0.551293 0.427207 0.556298
0.644831 0.456550 0.559640
0.724208 0.493019 0.565316
0.791211 0.532784 0.573175
0.222797 0.565301 0.552255
0.217731 0.561563 0.555673
0.271183 0.559426 0.558572
0.369146 0.559670 0.561654
0.472343 0.563333 0.565743
0.570642 0.570642 0.570642
0.657862 0.583093 0.577844
0.730556 0.600916 0.588403
0.790951 0.622507 0.601587
0.393347 0.683833 0.548058
0.391119 0.678859 0.551659
0.407523 0.675502 0.557107
0.455512 0.674678 0.564599
0.526955 0.676448 0.573968
0.605325 0.680949 0.584985
0.680858 0.688045 0.598962
0.746304 0.698314 0.617350
0.799069 0.711727 0.638056
0.498100 0.782177 0.513695
0.493843 0.775113 0.532052
0.503288 0.770367 0.550118
0.535180 0.767788 0.568597
0.588434 0.767346 0.588006
0.651881 0.769039 0.608789
0.714672 0.772808 0.631510
0.769284 0.777676 0.663310
0.801923 0.783612 0.713405
0.580789 0.827420 0.403754
0.575402 0.827420 0.487510
0.581750 0.827420 0.537606
0.606424 0.827420 0.576593
0.649210 0.827420 0.610895
0.702434 0.827420 0.646021
0.761471 0.827420 0.703639
0.803037 0.823636 0.760571
0.823468 0.826566 0.795666
0.006302 0.006302 0.314031
0.006302 0.006302 0.313191
0.086076 0.006302 0.326162
0.275013 0.006302 0.342351
0.408286 0.006302 0.359365
0.532692 0.137011 0.376669
0.649256 0.313893 0.394385
0.755337 0.421744 0.412787
0.827420 0.515496 0.432898
0.006302 0.006302 0.364462
0.006302 0.006302 0.382086
0.006302 0.006302 0.400320
0.260685 0.006302 0.418326
0.406485 0.006302 0.435798
0.529824 0.006302 0.452674
0.640375 0.213184 0.469291
0.739574 0.379522 0.486183
0.826200 0.478416 0.503456
0.006302 0.006302 0.440894
0.006302 0.006302 0.460044
0.006302 0.006302 0.478355
0.228412 0.006302 0.495552
0.404578 0.006302 0.511635
0.529213 0.006302 0.527214
0.635554 0.006302 0.541863
0.726543 0.297368 0.554223
0.802579 0.431327 0.564477
0.006302 0.006302 0.518654
0.006302 0.006302 0.536339
0.006302 0.006302 0.552667
0.110079 0.006302 0.567422
0.404425 0.006302 0.579385
0.531273 0.006302 0.588525
0.631418 0.006302 0.595346
0.714977 0.285008 0.601328
0.785321 0.421424 0.607248
0.006302 0.362280 0.588617
0.006302 0.332341 0.600549
0.006302 0.299657 0.610193
0.006302 0.274800 0.617762
0.415732 0.283452 0.623316
0.539544 0.330907 0.627344
0.635126 0.390906 0.630991
0.713741 0.448890 0.635248
0.778592 0.501366 0.640558
0.006302 0.541222 0.633188
0.006302 0.534096 0.638422
0.006302 0.529931 0.642313
0.299626 0.529931 0.645640
0.455482 0.534768 0.649561
0.563165 0.544732 0.654124
0.651896 0.561669 0.657923
0.723842 0.584314 0.662882
0.781704 0.609812 0.670008
0.296391 0.668498 0.653529
0.293599 0.662882 0.655558
0.341985 0.660121 0.658091
0.426917 0.660380 0.661555
0.517693 0.663615 0.666148
0.602350 0.669932 0.672053
0.679072 0.679072 0.679072
0.743572 0.691615 0.688380
0.788861 0.707790 0.701884
0.461341 0.770062 0.655207
0.460014 0.764034 0.659220
0.478706 0.760403 0.664454
0.523537 0.758968 0.671504
0.586282 0.759701 0.680507
0.653483 0.762707 0.691478
0.716594 0.767544 0.704921
0.768627 0.772793 0.729168
0.795285 0.782101 0.759518
0.559609 0.827420 0.642771
0.556741 0.827420 0.655985
0.569039 0.827420 0.670054
0.602060 0.827420 0.685145
0.651575 0.827420 0.701534
0.715251 0.824460 0.728450
0.774395 0.818265 0.764752
0.807721 0.820127 0.793439
0.824781 0.825956 0.815198
0.006302 0.006302 0.335317
0.006302 0.006302 0.339696
0.006302 0.006302 0.355795
0.263905 0.006302 0.373068
0.400702 0.006302 0.390661
0.523796 0.006302 0.408286
0.636606 0.275257 0.425879
0.738659 0.395987 0.443809
0.827420 0.490181 0.462623
0.006302 0.006302 0.396216
0.006302 0.006302 0.414893
0.006302 0.006302 0.433707
0.236286 0.006302 0.452079
0.395102 0.006302 0.469718
0.518242 0.006302 0.486625
0.626627 0.006302 0.503288
0.722255 0.321294 0.519738
0.804166 0.439689 0.535988
0.006302 0.006302 0.476707
0.006302 0.006302 0.496010
0.006302 0.006302 0.514290
0.127810 0.006302 0.531304
0.388479 0.006302 0.547463
0.516808 0.006302 0.562890
0.621454 0.006302 0.577539
0.708843 0.006302 0.591089
0.782513 0.346654 0.603601
0.006302 0.006302 0.557244
0.006302 0.006302 0.574487
0.006302 0.006302 0.590433
0.006302 0.006302 0.605234
0.380133 0.006302 0.618479
0.517021 0.006302 0.630137
0.617884 0.006302 0.639460
0.700404 0.006302 0.647227
0.768811 0.262898 0.653925
0.006302 0.225544 0.630137
0.006302 0.006302 0.643687
0.006302 0.006302 0.655848
0.006302 0.006302 0.665553
0.380926 0.006302 0.672816
0.525338 0.006302 0.678660
0.624109 0.006302 0.683467
0.702388 0.334142 0.687709
0.765377 0.443900 0.691798
0.006302 0.504753 0.687968
0.006302 0.488197 0.695308
0.006302 0.477256 0.700557
0.006302 0.474907 0.705013
0.425055 0.482246 0.709087
0.552560 0.499474 0.712810
0.644007 0.525734 0.715908
0.715770 0.557717 0.718807
0.771618 0.591135 0.722377
0.006302 0.646784 0.723171
0.006302 0.640009 0.725582
0.006302 0.637247 0.727916
0.357916 0.638392 0.730419
0.500191 0.643397 0.733272
0.597528 0.652155 0.736751
0.675929 0.664576 0.740917
0.738735 0.681590 0.744335
0.773770 0.706142 0.745632
0.363790 0.754788 0.740703
0.370871 0.749172 0.742107
0.422080 0.746242 0.744045
0.499443 0.745922 0.746777
0.580117 0.748165 0.750515
0.654078 0.752987 0.755489
0.721843 0.759213 0.760647
0.769512 0.769512 0.769512
0.793484 0.783536 0.783047
0.519127 0.827420 0.746166
0.521736 0.827420 0.749401
0.546685 0.827420 0.753658
0.594430 0.824140 0.759136
0.659571 0.819364 0.766842
0.735164 0.812222 0.780056
0.786450 0.812589 0.796521
0.812787 0.819272 0.811627
0.827100 0.827314 0.825406
0.006302 0.006302 0.354314
0.006302 0.006302 0.364752
0.006302 0.006302 0.382055
0.249714 0.006302 0.399954
0.391608 0.006302 0.417960
0.513176 0.006302 0.435798
0.622446 0.194095 0.453437
0.721004 0.361898 0.471305
0.807691 0.460273 0.489418
0.006302 0.006302 0.424384
0.006302 0.006302 0.443748
0.006302 0.006302 0.462867
0.196155 0.006302 0.481392
0.381415 0.006302 0.499046
0.505867 0.006302 0.516182
0.612131 0.006302 0.532876
0.704005 0.006302 0.548974
0.781231 0.382559 0.564401
0.006302 0.006302 0.507942
0.006302 0.006302 0.527214
0.006302 0.006302 0.545296
0.006302 0.006302 0.562280
0.368231 0.006302 0.578439
0.503212 0.006302 0.593622
0.606485 0.006302 0.607553
0.691524 0.006302 0.620462
0.762921 0.006302 0.633066
0.006302 0.006302 0.590433
0.006302 0.006302 0.607218
0.006302 0.006302 0.622934
0.006302 0.006302 0.637125
0.346731 0.006302 0.649592
0.501869 0.006302 0.660746
0.604364 0.006302 0.671611
0.685878 0.006302 0.681483
0.752316 0.006302 0.689418
0.006302 0.006302 0.664530
0.006302 0.006302 0.677409
0.006302 0.006302 0.688808
0.006302 0.006302 0.698939
0.324941 0.006302 0.708522
0.508995 0.006302 0.716426
0.612406 0.006302 0.722606
0.690623 0.006302 0.727306
0.751812 0.271962 0.730785
0.006302 0.451606 0.725078
0.006302 0.405051 0.734310
0.006302 0.355795 0.741817
0.006302 0.325185 0.747967
0.371267 0.343908 0.752834
0.538811 0.399161 0.756497
0.635523 0.460899 0.758984
0.707195 0.517830 0.760449
0.759579 0.569772 0.760113
0.006302 0.617380 0.771466
0.006302 0.607370 0.775357
0.006302 0.603342 0.778332
0.006302 0.605600 0.780606
0.473259 0.614038 0.782300
0.591043 0.628138 0.783597
0.672831 0.647135 0.784512
0.732113 0.676875 0.777096
0.760464 0.712047 0.765667
0.006302 0.735439 0.799664
0.006302 0.729854 0.800259
0.006302 0.727733 0.800595
0.458701 0.728985 0.800855
0.572107 0.733577 0.801266
0.660670 0.741238 0.798657
0.732387 0.754040 0.790021
0.772900 0.770779 0.788296
0.794018 0.787442 0.795087
0.426902 0.825238 0.813825
0.450278 0.818647 0.813321
0.510323 0.814191 0.813016
0.587350 0.811002 0.812421
0.682506 0.804578 0.807141
0.757626 0.804044 0.805707
0.796323 0.811368 0.812024
0.818158 0.820645 0.820768
0.827420 0.827420 0.827420
