resources/flame/Syncolor/Shared/transforms/camera_manufacturer_luts/arri/ARRI_Alexa_LUTs/ARRI_LogC3_v1-2_LUT_Package/LUTs/ARRI_LogC3-to-St2084_4K_Rec2100-D65_DW100_v2_33.cube
LUT_3D_SIZE 9
0.00000073 0.00000073 0.00000073
0.10417733 0.02791900 0.00431493
0.20523733 0.06829599 0.01294967
0.31095223 0.12096256 0.02735248
0.42992407 0.19139171 0.05125900
0.55221993 0.27507924 0.08580929
0.67553395 0.37035451 0.13262520
0.79988090 0.47700791 0.19395536
0.90257239 0.59323243 0.27109568
0.01709028 0.05720417 0.00000073
0.05089704 0.05388310 0.00000073
0.17674619 0.07132849 0.00000073
0.30281904 0.12150728 0.02147826
0.42878751 0.19241912 0.04917965
0.55491259 0.27772263 0.08587123
0.68095230 0.37505757 0.13459547
0.80342803 0.48032108 0.19573710
0.90257239 0.58860642 0.26767755
0.07321923 0.18485847 0.00000073
0.08254870 0.18567048 0.00000073
0.18125935 0.18892914 0.00000073
0.30748353 0.20224129 0.00000073
0.43590762 0.23790724 0.00000073
0.56279046 0.30173055 0.05173130
0.68499968 0.38614955 0.12345976
0.79929176 0.48002936 0.18745028
0.90257239 0.57466531 0.25366141
0.15058077 0.32073136 0.00000073
0.15584426 0.32379412 0.00000073
0.21217254 0.32722201 0.00000073
0.32186900 0.33265073 0.00000073
0.44546424 0.34496601 0.00000073
0.56755743 0.37280170 0.00000073
0.68179843 0.42183732 0.00000073
0.78616435 0.48844290 0.11988704
0.87934331 0.56296707 0.21384603
0.24426957 0.45932181 0.00000073
0.24822468 0.46260518 0.00000073
0.27501182 0.46477647 0.00000073
0.35042987 0.46629164 0.00000073
0.45674992 0.46940372 0.00000073
0.56817527 0.47819585 0.00000073
0.67393136 0.49781363 0.00000073
0.76980328 0.53151713 0.00000073
0.85334682 0.57677843 0.00000073
0.34712933 0.59319639 0.00000073
0.34729031 0.59238749 0.00000073
0.35721724 0.59022923 0.00000073
0.39902353 0.58778057 0.00000073
0.47860272 0.58677803 0.00000073
0.57528427 0.58892533 0.00000073
0.67150546 0.59657645 0.00000073
0.75933171 0.61189538 0.00000073
0.83705892 0.63558180 0.00000073
0.44869579 0.71313144 0.00000073
0.44437156 0.70757978 0.00000073
0.44600403 0.70211666 0.00000073
0.46753094 0.69764447 0.00000073
0.52138887 0.69481707 0.00000073
0.59966046 0.69459111 0.00000073
0.68433509 0.69842686 0.00000073
0.76484192 0.70713906 0.00000073
0.83692088 0.72106339 0.00000073
0.54557600 0.81930493 0.00000073
0.53835585 0.81104411 0.00000073
0.53577930 0.80354170 0.00000073
0.54693100 0.79725455 0.00000073
0.58326085 0.79333481 0.00000073
0.64380462 0.79262247 0.00000073
0.71572316 0.79529979 0.00000073
0.78749551 0.80163962 0.00000073
0.85287258 0.81182119 0.00000073
0.63780478 0.90257239 0.00000073
0.62755708 0.90257239 0.00000073
0.62205838 0.89392406 0.00000073
0.62879855 0.88724292 0.00000073
0.65537185 0.88352233 0.00000073
0.70307082 0.88271605 0.00000073
0.76347286 0.88469147 0.00000073
0.82585691 0.88935776 0.00000073
0.88273408 0.89654376 0.00000073
0.00000073 0.00000073 0.10925038
0.09173192 0.00000073 0.08634954
0.19709709 0.05857937 0.06513170
0.30771969 0.11809448 0.05627890
0.42953826 0.19078714 0.06789127
0.55235235 0.27505022 0.09405318
0.67604181 0.37072341 0.13654094
0.80017980 0.47725983 0.19575515
0.90257239 0.58998936 0.26955093
0.00545601 0.05080441 0.05087682
0.04805825 0.04805825 0.04805825
0.17783636 0.06856195 0.04665617
0.30404433 0.12112100 0.05145545
0.43018730 0.19296105 0.06629707
0.55646558 0.27872985 0.09521869
0.68077317 0.37486927 0.13910345
0.79959891 0.47686338 0.19611015
0.90257239 0.57949510 0.26278725
0.07260138 0.18492457 0.00000073
0.08179121 0.18625855 0.00000073
0.18187402 0.18937150 0.00000073
0.30961803 0.20269249 0.00000073
0.43782511 0.23877807 0.00000073
0.56286986 0.30199871 0.07558437
0.68172452 0.38388879 0.13118964
0.79102742 0.47305356 0.18843538
0.88989007 0.56265213 0.24914085
0.15109547 0.32189644 0.00000073
0.15640440 0.32516904 0.00000073
0.21251127 0.32857316 0.00000073
0.32291230 0.33364428 0.00000073
0.44611812 0.34585119 0.00000073
0.56571806 0.37313963 0.00000073
0.67645634 0.42000371 0.00000073
0.77681143 0.48265342 0.13998569
0.86514842 0.55169989 0.21740318
0.24516456 0.46069211 0.00000073
0.24884613 0.46355982 0.00000073
0.27558568 0.46513901 0.00000073
0.35126254 0.46628759 0.00000073
0.45681866 0.46941971 0.00000073
0.56623730 0.47845228 0.00000073
0.66888979 0.49770630 0.00000073
0.76065156 0.52939917 0.00000073
0.83990593 0.57086130 0.00000073
0.34659002 0.59259268 0.00000073
0.34621824 0.59098601 0.00000073
0.35673446 0.58837820 0.00000073
0.40016003 0.58621685 0.00000073
0.47998373 0.58574996 0.00000073
0.57507019 0.58863883 0.00000073
0.66835300 0.59701259 0.00000073
0.75316442 0.61254354 0.00000073
0.82779934 0.63535916 0.00000073
0.44545829 0.70949380 0.00000073
0.44111633 0.70371270 0.00000073
0.44405247 0.69858690 0.00000073
0.46825112 0.69465768 0.00000073
0.52432952 0.69258879 0.00000073
0.60217121 0.69359866 0.00000073
0.68470467 0.69868134 0.00000073
0.76243469 0.70834552 0.00000073
0.83140067 0.72273605 0.00000073
0.53995311 0.81335470 0.00000073
0.53315478 0.80527302 0.00000073
0.53207786 0.79816074 0.00000073
0.54667186 0.79278347 0.00000073
0.58660146 0.79036404 0.00000073
0.64831862 0.79104196 0.00000073
0.71912989 0.79500813 0.00000073
0.78857642 0.80253041 0.00000073
0.85092202 0.81363499 0.00000073
0.62952474 0.90257239 0.00000073
0.61997423 0.89549911 0.00000073
0.61717271 0.88740240 0.00000073
0.62783291 0.88221462 0.00000073
0.65866019 0.87991074 0.00000073
0.70888339 0.88037498 0.00000073
0.76929418 0.88348579 0.00000073
0.82981661 0.88913868 0.00000073
0.88227241 0.89558389 0.00000073
0.00000073 0.00000073 0.18163801
0.06059616 0.00000073 0.16602073
0.18572802 0.00000073 0.15257247
0.30427248 0.09524048 0.15127644
0.42774514 0.18287728 0.15827695
0.55151051 0.27182460 0.16962607
0.67588262 0.36955202 0.19019362
0.79806058 0.47493908 0.22656018
0.90257239 0.58355173 0.28185106
0.00000073 0.00000073 0.16108974
0.00000073 0.00000073 0.16701846
0.17249120 0.00000073 0.17066840
0.30316625 0.08653818 0.17416970
0.43062038 0.18324640 0.17942706
0.55667968 0.27527492 0.18803704
0.67854204 0.37166181 0.20420246
0.79312774 0.47050580 0.23382509
0.89688735 0.56717229 0.27866694
0.03114508 0.17362241 0.17257587
0.05081416 0.17451487 0.17610216
0.17772259 0.17772259 0.17772259
0.31096273 0.19315093 0.17951712
0.43860532 0.23305225 0.18455093
0.56144429 0.29827318 0.19414324
0.67642790 0.37870605 0.21165353
0.78148088 0.46437351 0.23966430
0.87571307 0.54917210 0.27791653
0.14433180 0.32045782 0.14270700
0.15008101 0.32395184 0.14383306
0.20936520 0.32749362 0.14415122
0.32299934 0.33229121 0.14881635
0.44643525 0.34449199 0.16375917
0.56325206 0.37158117 0.18355922
0.67054717 0.41681248 0.20853761
0.76665703 0.47586209 0.23983358
0.84990848 0.53960904 0.27640613
0.24341711 0.46092683 0.00000073
0.24680956 0.46326497 0.00000073
0.27443966 0.46445045 0.00000073
0.35139568 0.46549008 0.00000073
0.45677091 0.46879929 0.00000073
0.56436831 0.47809513 0.00000073
0.66373829 0.49711115 0.12450297
0.75127028 0.52706523 0.21226149
0.82727259 0.56559732 0.26867670
0.34455731 0.59102041 0.00000073
0.34377104 0.58873404 0.00000073
0.35552765 0.58617064 0.00000073
0.40108383 0.58447315 0.00000073
0.48146391 0.58463166 0.00000073
0.57511557 0.58830766 0.00000073
0.66579513 0.59747895 0.00000073
0.74770154 0.61325496 0.00000073
0.81919360 0.63539106 0.23047887
0.44133008 0.70521986 0.00000073
0.43735922 0.69963105 0.00000073
0.44191168 0.69494680 0.00000073
0.46924863 0.69166769 0.00000073
0.52764840 0.69061868 0.00000073
0.60501181 0.69294451 0.00000073
0.68554103 0.69916185 0.00000073
0.76057145 0.70970261 0.00000073
0.82640690 0.72455978 0.00000073
0.53392771 0.80715590 0.00000073
0.52768939 0.79934329 0.00000073
0.52856607 0.79280140 0.00000073
0.54715096 0.78887693 0.00000073
0.59052953 0.78787052 0.00000073
0.65326925 0.78985273 0.00000073
0.72296680 0.79502112 0.00000073
0.79011947 0.80364319 0.00000073
0.84939098 0.81558096 0.00000073
0.62091946 0.89759157 0.00000073
0.61297750 0.88806604 0.00000073
0.61310061 0.88149111 0.00000073
0.62787876 0.87772461 0.00000073
0.66290396 0.87673858 0.00000073
0.71540030 0.87837404 0.00000073
0.77563018 0.88251628 0.00000073
0.83432160 0.88853156 0.00000073
0.88077611 0.89269447 0.62119288
0.00000073 0.00000073 0.22792763
0.00000073 0.00000073 0.21800496
0.17137739 0.00000073 0.21285415
0.29887191 0.00000073 0.22091645
0.42429794 0.15761469 0.23218280
0.54925284 0.26199781 0.24518812
0.67329185 0.36408204 0.26162556
0.79245876 0.46847059 0.28475070
0.90257239 0.57265539 0.31927410
0.00000073 0.00000073 0.23710995
0.00000073 0.00000073 0.24816827
0.15512165 0.00000073 0.25866015
0.29798046 0.00000073 0.26848819
0.42846386 0.12297101 0.27835693
0.55406035 0.25721622 0.28851288
0.67337679 0.36113862 0.30014356
0.78337262 0.45907142 0.31562018
0.88241565 0.55203570 0.33815165
0.00000073 0.10427746 0.27824871
0.00000073 0.07310775 0.28890460
0.15210551 0.00000073 0.29907763
0.30526419 0.09655011 0.30588423
0.43622011 0.18874970 0.31138348
0.55766499 0.27727692 0.31758505
0.66926487 0.36524066 0.32555002
0.77066682 0.45154314 0.33706125
0.86006931 0.53296905 0.35374909
0.07860165 0.30803599 0.30375988
0.08543517 0.31024370 0.31029771
0.18821515 0.31308412 0.31529760
0.31819023 0.31819023 0.31819022
0.44527216 0.33234861 0.32170547
0.55985363 0.36198159 0.32823912
0.66372539 0.40825351 0.33772411
0.75549845 0.46568099 0.35116560
0.83372670 0.52547906 0.36911281
0.22936544 0.45733434 0.29107015
0.23272253 0.45909405 0.29449058
0.26530615 0.46006210 0.29836550
0.34799579 0.46159419 0.30290357
0.45573697 0.46524098 0.31088502
0.56237687 0.47492411 0.32591690
0.65830718 0.49415551 0.34447544
0.74233009 0.52319056 0.36607709
0.81522776 0.55965946 0.39030902
0.33790538 0.58766426 0.00000073
0.33693246 0.58498307 0.00000073
0.35094269 0.58275582 0.14715831
0.40021000 0.58166668 0.21462287
0.48224943 0.58259654 0.26169419
0.57515962 0.58711692 0.30494129
0.66370977 0.59707118 0.34468347
0.74277589 0.61318239 0.38226879
0.81108051 0.63490371 0.41926102
0.43531107 0.70032611 0.00000073
0.43175768 0.69499875 0.00000073
0.43835203 0.69081770 0.00000073
0.46963871 0.68831815 0.00000073
0.53062234 0.68860828 0.00000073
0.60782140 0.69214711 0.14690397
0.68664380 0.69938913 0.32831358
0.75911958 0.71074505 0.40377990
0.82182070 0.72609602 0.46303418
0.52687590 0.80057938 0.00000073
0.52128907 0.79309700 0.00000073
0.52489360 0.78773070 0.00000073
0.54772117 0.78523552 0.00000073
0.59460049 0.78555139 0.00000073
0.65838714 0.78875334 0.00000073
0.72707994 0.79505144 0.29556348
0.79200020 0.80467155 0.45414304
0.84739912 0.81716840 0.54490271
0.61208967 0.88914907 0.00000073
0.60618238 0.88116143 0.00000073
0.60938513 0.87599424 0.00000073
0.62855394 0.87356101 0.00000073
0.66781026 0.87378110 0.00000073
0.72243096 0.87648101 0.00000073
0.78236245 0.88154341 0.39867919
0.84013715 0.88508660 0.61875238
0.87978977 0.88891184 0.75361217
0.00000073 0.00000073 0.26102819
0.00000073 0.00000073 0.25354943
0.15476943 0.00000073 0.25487032
0.29205963 0.00000073 0.26809679
0.41966667 0.08415061 0.28283116
0.54553597 0.24435425 0.29917127
0.66778382 0.35351589 0.31726548
0.78329721 0.45749219 0.33805108
0.88834958 0.55693557 0.36367379
0.00000073 0.00000073 0.28807163
0.00000073 0.00000073 0.30324719
0.11738364 0.00000073 0.31881892
0.28911945 0.00000073 0.33417635
0.42324979 0.00000073 0.34890271
0.54836944 0.20543484 0.36286718
0.66481215 0.33861541 0.37640491
0.77055276 0.44083499 0.39038003
0.86566212 0.53275370 0.40651018
0.00000073 0.00000073 0.35101217
0.00000073 0.00000073 0.36654313
0.00000073 0.00000073 0.38128392
0.29040203 0.00000073 0.39387712
0.42897510 0.00000073 0.40420377
0.55038731 0.18740202 0.41315107
0.65997996 0.33104097 0.42189680
0.75794878 0.42871883 0.43120186
0.84260933 0.51091810 0.44146408
0.00000073 0.27043326 0.40414065
0.00000073 0.26299637 0.41624423
0.00000073 0.25627640 0.42678172
0.30004150 0.25612848 0.43555669
0.43781822 0.27793018 0.44066769
0.55376120 0.32321690 0.44466720
0.65528111 0.38219252 0.44956734
0.74301195 0.44542864 0.45597397
0.81775164 0.50648578 0.46464058
0.14689886 0.44410572 0.43512600
0.14580329 0.44394922 0.44097706
0.21979731 0.44402254 0.44505868
0.33331188 0.44588416 0.44833911
0.45076100 0.45076100 0.45076100
0.55924326 0.46269374 0.45490601
0.65235392 0.48420457 0.46296139
0.73355436 0.51433958 0.47413586
0.80347001 0.55050658 0.48844471
0.31520142 0.58010626 0.42670035
0.31472921 0.57747132 0.42976354
0.33451069 0.57564051 0.43431100
0.39336578 0.57532584 0.44074352
0.48041246 0.57749075 0.44936555
0.57449892 0.58315115 0.46170989
0.66179860 0.59398746 0.47963730
0.73811416 0.61082422 0.50012104
0.80321293 0.63266532 0.52306081
0.42355711 0.69395122 0.34556246
0.42045024 0.68890877 0.37254388
0.43010487 0.68524946 0.39916577
0.46721941 0.68392417 0.42511428
0.53209516 0.68558457 0.45040567
0.60995656 0.69034915 0.47677770
0.68770675 0.69857482 0.50601210
0.75790590 0.71076385 0.53811553
0.81747787 0.72675082 0.57240195
0.51708158 0.79325851 0.00000073
0.51250633 0.78647339 0.00000073
0.51947291 0.78250850 0.14087692
0.54720100 0.78132475 0.37335620
0.59812287 0.78288418 0.44665924
0.66328823 0.78725960 0.50102091
0.73123724 0.79465888 0.54967271
0.79406936 0.80522013 0.59708231
0.84170056 0.81727729 0.66638392
0.60251460 0.88108075 0.00000073
0.59857565 0.87448302 0.00000073
0.60515535 0.87059626 0.00000073
0.62922467 0.86938568 0.00000073
0.67299231 0.87069789 0.45325893
0.72977000 0.87436592 0.55358750
0.79166074 0.87805479 0.64078146
0.84714194 0.87989745 0.74339017
0.88085984 0.88662061 0.82045182
0.00000073 0.00000073 0.28950500
0.00000073 0.00000073 0.28483873
0.13198770 0.00000073 0.29265482
0.28419189 0.00000073 0.30752263
0.41448733 0.00000073 0.32354648
0.53994780 0.21370328 0.34044088
0.65965245 0.33779251 0.35832439
0.77072540 0.44213186 0.37796224
0.87032479 0.53751794 0.40051152
0.00000073 0.00000073 0.32861061
0.00000073 0.00000073 0.34507153
0.00000073 0.00000073 0.36218577
0.27728583 0.00000073 0.37954943
0.41580175 0.00000073 0.39661259
0.54008949 0.00000073 0.41343049
0.65329674 0.29838177 0.43007614
0.75582322 0.41503432 0.44627093
0.84682928 0.50847235 0.46235463
0.00000073 0.00000073 0.40013298
0.00000073 0.00000073 0.41876490
0.00000073 0.00000073 0.43684635
0.26626137 0.00000073 0.45360340
0.41791807 0.00000073 0.46818338
0.54056954 0.00000073 0.48085979
0.64856419 0.23061686 0.49225480
0.74311463 0.38720145 0.50252147
0.82301731 0.47898613 0.51173446
0.00000073 0.11073394 0.47245423
0.00000073 0.00000073 0.48839496
0.00000073 0.00000073 0.50227224
0.25811112 0.00000073 0.51380034
0.42379142 0.00000073 0.52265012
0.54387625 0.00000073 0.52904364
0.64434638 0.30559745 0.53426315
0.72927739 0.40276812 0.53941190
0.80168630 0.47591821 0.54562974
0.00000073 0.41588463 0.52710812
0.00000073 0.40963096 0.53610336
0.00000073 0.40502746 0.54313456
0.29050903 0.40399148 0.54892224
0.43781291 0.40935743 0.55374938
0.55129771 0.42720278 0.55629073
0.64482588 0.45654941 0.55963605
0.72426897 0.49308599 0.56537934
0.79160949 0.53317843 0.57356106
0.22280327 0.56529901 0.55224820
0.21772402 0.56155604 0.55567457
0.27118198 0.55942289 0.55857323
0.36915020 0.55967604 0.56165597
0.47249503 0.56347508 0.56588499
0.57122965 0.57122965 0.57122966
0.65925026 0.58447747 0.57922642
0.73315399 0.60351452 0.59100070
0.79522665 0.62678732 0.60586644
0.39337087 0.68385733 0.54808582
0.39134525 0.67913530 0.55193360
0.40829384 0.67634286 0.55794324
0.45724547 0.67645267 0.56638177
0.53008902 0.67960787 0.57711857
0.61033654 0.68596609 0.59000304
0.68827821 0.69545879 0.60638629
0.75672798 0.70873546 0.62777920
0.81316764 0.72582337 0.65214410
0.50013324 0.78439752 0.51594540
0.49734834 0.77887396 0.53583673
0.50887236 0.77618129 0.55595861
0.54351279 0.77622637 0.57705629
0.60009821 0.77901421 0.59969176
0.66749490 0.78464055 0.62438784
0.73514681 0.79327151 0.65198109
0.79561345 0.80399335 0.68963196
0.83499734 0.81668365 0.74648542
0.59003981 0.87288128 0.41370489
0.58814399 0.86751874 0.50050916
0.59887053 0.86479821 0.55474026
0.62897200 0.86468946 0.59893500
0.67803846 0.86700974 0.63942376
0.73824437 0.87089085 0.68159629
0.80496281 0.87134066 0.74704489
0.85485186 0.87542828 0.81237701
0.88410059 0.88719402 0.85629809
0.00000073 0.00000073 0.31403530
0.00000073 0.00000073 0.31319636
0.08607163 0.00000073 0.32616644
0.27500942 0.00000073 0.34234836
0.40828933 0.00000073 0.35935956
0.53269915 0.13701811 0.37667449
0.64925475 0.31389573 0.39437871
0.75534124 0.42173739 0.41278868
0.85075012 0.51549442 0.43289233
0.00000073 0.00000073 0.36446278
0.00000073 0.00000073 0.38209299
0.00000073 0.00000073 0.40032103
0.26068468 0.00000073 0.41832499
0.40647894 0.00000073 0.43580404
0.52981877 0.00000073 0.45266830
0.64037392 0.21319092 0.46929440
0.73956813 0.37952958 0.48617987
0.82620509 0.47842302 0.50345192
0.00000073 0.00000073 0.44089919
0.00000073 0.00000073 0.46004230
0.00000073 0.00000073 0.47835206
0.22840645 0.00000073 0.49554955
0.40458238 0.00000073 0.51163931
0.52921829 0.00000073 0.52720762
0.63555489 0.00000073 0.54186684
0.72653888 0.29736670 0.55422196
0.80257971 0.43132511 0.56447865
0.00000073 0.00000073 0.51865999
0.00000073 0.00000073 0.53634206
0.00000073 0.00000073 0.55266097
0.11008040 0.00000073 0.56742293
0.40442338 0.00000073 0.57938784
0.53127613 0.00000073 0.58852393
0.63141209 0.00000073 0.59535011
0.71497520 0.28501352 0.60132302
0.78532142 0.42142811 0.60724629
0.00000073 0.36227414 0.58861431
0.00000073 0.33234055 0.60054862
0.00000073 0.29965947 0.61019519
0.00000073 0.27480177 0.61775437
0.41572461 0.28345457 0.62331680
0.53953683 0.33090586 0.62735129
0.63512308 0.39089954 0.63098861
0.71388008 0.44903307 0.63538908
0.77917559 0.50194400 0.64113716
0.00000073 0.54122395 0.63319021
0.00000073 0.53409996 0.63842723
0.00000073 0.52992645 0.64231854
0.29964724 0.52994966 0.64565465
0.45573949 0.53502512 0.64981921
0.56399052 0.54554653 0.65494369
0.65364778 0.56342305 0.65968108
0.72695749 0.58742494 0.66599835
0.78666448 0.61477422 0.67497129
0.29644747 0.66858032 0.65359660
0.29395445 0.66330810 0.65598517
0.34305221 0.66123952 0.65921013
0.42910700 0.66257275 0.66375184
0.52141120 0.66734600 0.66986856
0.60811920 0.67569733 0.67781466
0.68744197 0.68744197 0.68744198
0.75516677 0.70320830 0.69998093
0.80436425 0.72329686 0.71739292
0.46375105 0.77275914 0.65790568
0.46408918 0.76843892 0.66361973
0.48511785 0.76704504 0.67110009
0.53292246 0.76843552 0.68096706
0.59921233 0.77264205 0.69344384
0.67064013 0.77984130 0.70861869
0.73896556 0.78989882 0.72728732
0.79715928 0.80132553 0.75771096
0.83083012 0.81764803 0.79506956
0.56987964 0.86364342 0.65336097
0.57078344 0.85941279 0.67028148
0.58784737 0.85780745 0.68891251
0.62664501 0.85876609 0.70959565
0.68269637 0.86212707 0.73248141
0.75359705 0.86271584 0.76669765
0.82065503 0.86449197 0.81099007
0.86249519 0.87488088 0.84820081
0.88851345 0.88968351 0.87892200
0.00000073 0.00000073 0.33531221
0.00000073 0.00000073 0.33969576
0.00000073 0.00000073 0.35579455
0.26391041 0.00000073 0.37306782
0.40069986 0.00000073 0.39065416
0.52378978 0.00000073 0.40828591
0.63660052 0.27525125 0.42587659
0.73865533 0.39598864 0.44380828
0.82984292 0.49018417 0.46262805
0.00000073 0.00000073 0.39621289
0.00000073 0.00000073 0.41489386
0.00000073 0.00000073 0.43371427
0.23629233 0.00000073 0.45207609
0.39509618 0.00000073 0.46972121
0.51823850 0.00000073 0.48662021
0.62662623 0.00000073 0.50328191
0.72224843 0.32129155 0.51974395
0.80416998 0.43969069 0.53598392
0.00000073 0.00000073 0.47670141
0.00000073 0.00000073 0.49600467
0.00000073 0.00000073 0.51429282
0.12780772 0.00000073 0.53130381
0.38847593 0.00000073 0.54746261
0.51681149 0.00000073 0.56289419
0.62145920 0.00000073 0.57753136
0.70884014 0.00000073 0.59108183
0.78250639 0.34665577 0.60360425
0.00000073 0.00000073 0.55724467
0.00000073 0.00000073 0.57448025
0.00000073 0.00000073 0.59043539
0.00000073 0.00000073 0.60522880
0.38013336 0.00000073 0.61848022
0.51701519 0.00000073 0.63013206
0.61788462 0.00000073 0.63946527
0.70041002 0.00000073 0.64722747
0.76880935 0.26290247 0.65392231
0.00000073 0.22553995 0.63013116
0.00000073 0.00000073 0.64368553
0.00000073 0.00000073 0.65585155
0.00000073 0.00000073 0.66556027
0.38092779 0.00000073 0.67282098
0.52533787 0.00000073 0.67866171
0.62412939 0.00000073 0.68349152
0.70264770 0.33444721 0.68795959
0.76618174 0.44471889 0.69259839
0.00000073 0.50475717 0.68796320
0.00000073 0.48819203 0.69530374
0.00000073 0.47726338 0.70056339
0.00000073 0.47498429 0.70507804
0.42548739 0.48267363 0.70950474
0.55365473 0.50058436 0.71389691
0.64616891 0.52791692 0.71807543
0.71944969 0.56141178 0.72249487
0.77733798 0.59684590 0.72808140
0.00000073 0.64694002 0.72332370
0.00000073 0.64062422 0.72619487
0.00000073 0.63868009 0.72935605
0.36079680 0.64105487 0.73307671
0.50457798 0.64774895 0.73763254
0.60411808 0.65874583 0.74334119
0.68532194 0.67396795 0.75031117
0.75157713 0.69443563 0.75718529
0.79080816 0.72317559 0.76265408
0.36650584 0.75801741 0.74393032
0.37557477 0.75427512 0.74721090
0.42947014 0.75378305 0.75158952
0.50999052 0.75649177 0.75735081
0.59439125 0.76244468 0.76479080
0.67288326 0.77179957 0.77428746
0.74619873 0.78358054 0.78500124
0.80034314 0.80034316 0.80034318
0.83159175 0.82164210 0.82114166
0.53042924 0.85210519 0.75799199
0.53716282 0.84890231 0.76517972
0.56731316 0.84849844 0.77435211
0.62113300 0.85075380 0.78574383
0.69305000 0.85275948 0.80023193
0.77611435 0.85314488 0.82098284
0.83553407 0.86167824 0.84561411
0.87054955 0.87703539 0.86940049
0.89394846 0.89416337 0.89225844
0.00000073 0.00000073 0.35431513
0.00000073 0.00000073 0.36475046
0.00000073 0.00000073 0.38204850
0.24970663 0.00000073 0.39995753
0.39160552 0.00000073 0.41795510
0.51318122 0.00000073 0.43579976
0.62243881 0.19409720 0.45343375
0.72100114 0.36190426 0.47130461
0.80768399 0.46027265 0.48941279
0.00000073 0.00000073 0.42438144
0.00000073 0.00000073 0.44374526
0.00000073 0.00000073 0.46286091
0.19615946 0.00000073 0.48138810
0.38141376 0.00000073 0.49904705
0.50587379 0.00000073 0.51618972
0.61213792 0.00000073 0.53286915
0.70401049 0.00000073 0.54896643
0.78123497 0.38255260 0.56440622
0.00000073 0.00000073 0.50793927
0.00000073 0.00000073 0.52722196
0.00000073 0.00000073 0.54529499
0.00000073 0.00000073 0.56227873
0.36823013 0.00000073 0.57843777
0.50320454 0.00000073 0.59362325
0.60648306 0.00000073 0.60755250
0.69152437 0.00000073 0.62045819
0.76292643 0.00000073 0.63306118
0.00000073 0.00000073 0.59042616
0.00000073 0.00000073 0.60722216
0.00000073 0.00000073 0.62294119
0.00000073 0.00000073 0.63712353
0.34672699 0.00000073 0.64958982
0.50187131 0.00000073 0.66074092
0.60436716 0.00000073 0.67161429
0.68588365 0.00000073 0.68148399
0.75232097 0.00000073 0.68941314
0.00000073 0.00000073 0.66453533
0.00000073 0.00000073 0.67740730
0.00000073 0.00000073 0.68881145
0.00000073 0.00000073 0.69894025
0.32493608 0.00000073 0.70852721
0.50899827 0.00000073 0.71642214
0.61247716 0.00000073 0.72267789
0.69101840 0.00000073 0.72770227
0.75287560 0.27373248 0.73184990
0.00000073 0.45160247 0.72508226
0.00000073 0.40504636 0.73431118
0.00000073 0.35578809 0.74182577
0.00000073 0.32539268 0.74811347
0.37193545 0.34466073 0.75343798
0.54022882 0.40072794 0.75791200
0.63814681 0.46362320 0.76160464
0.71151351 0.52218026 0.76475349
0.76611143 0.57630391 0.76664109
0.00000073 0.61766544 0.77174466
0.00000073 0.60821821 0.77621294
0.00000073 0.60514029 0.78013962
0.00000073 0.60877536 0.78378048
0.47840084 0.61907546 0.78735787
0.59850783 0.63559095 0.79107068
0.68331403 0.65759168 0.79500751
0.74627766 0.69102404 0.79126633
0.77914328 0.73072576 0.78434531
0.00000073 0.73924484 0.80346556
0.00000073 0.73571659 0.80613330
0.00000073 0.73622160 0.80909237
0.47058014 0.74073220 0.81260905
0.58776600 0.74924985 0.81695944
0.68123285 0.76180791 0.81922878
0.75883988 0.78049133 0.81648321
0.80611138 0.80399572 0.82151623
0.83475396 0.82817392 0.83581274
0.43911649 0.83835443 0.82692627
0.46723955 0.83600506 0.83066319
0.53287726 0.83681253 0.83562498
0.61619968 0.83984787 0.84124687
0.71838403 0.84045835 0.84301383
0.80125409 0.84767805 0.84933824
0.84830489 0.86334518 0.86400131
0.87896731 0.88146516 0.88158300
0.89999998 0.90000000 0.90000003
