resources/flame/Syncolor/Shared/transforms/camera_manufacturer_luts/arri/ARRI_Alexa_LUTs/ARRI_LogC3_v1-2_LUT_Package/LUTs/ARRI_LogC3-to-St2084_2K_P3-D65_DW100_v2_33.cube
LUT_3D_SIZE 5
0.00000073 0.00000073 0.00000073
0.22368216 0.00000073 0.02017679
0.45712647 0.00000073 0.07370505
0.70640435 0.00000073 0.17712684
0.82742464 0.00000073 0.33921828
0.00000073 0.18894730 0.00000073
0.18282944 0.19006888 0.00000073
0.46237200 0.17339835 0.00000073
0.71582111 0.00000073 0.17392219
0.82742464 0.00000073 0.32116383
0.00000073 0.46602199 0.00000073
0.00000073 0.47130111 0.00000073
0.45935758 0.47126626 0.00000073
0.70162980 0.46592349 0.00000073
0.82742464 0.42957821 0.14804871
0.00000073 0.72063789 0.00000073
0.00000073 0.70950380 0.00000073
0.00000073 0.70045496 0.00000073
0.68357887 0.69681444 0.00000073
0.82742464 0.69979651 0.00000073
0.00000073 0.82742464 0.00000073
0.00000073 0.82742464 0.00000073
0.00000073 0.82742464 0.00000073
0.65716168 0.82742464 0.00000073
0.82742464 0.82742464 0.00000073
0.00000073 0.00000073 0.18283388
0.20299573 0.00000073 0.15381753
0.45488822 0.00000073 0.16295826
0.70675458 0.00000073 0.21442564
0.82742464 0.00000073 0.34066568
0.00000073 0.17717366 0.17239884
0.17772259 0.17772259 0.17772259
0.46513030 0.15573773 0.18733844
0.70718366 0.00000073 0.23029017
0.82742464 0.00000073 0.32408055
0.00000073 0.46761436 0.00000073
0.00000073 0.47093812 0.00000073
0.45924381 0.47057561 0.00000073
0.69092159 0.46906295 0.06051097
0.82742464 0.45515851 0.29115699
0.00000073 0.71271440 0.00000073
0.00000073 0.70210562 0.00000073
0.23776619 0.69541790 0.00000073
0.68337073 0.69617493 0.00000073
0.82742464 0.70388662 0.00000073
0.00000073 0.82742464 0.00000073
0.00000073 0.82742464 0.00000073
0.00000073 0.82742464 0.00000073
0.68392514 0.82742464 0.00000073
0.82742464 0.82742464 0.54762003
0.00000073 0.00000073 0.26252844
0.16971777 0.00000073 0.25638646
0.44657450 0.00000073 0.28511921
0.69860349 0.00000073 0.32438713
0.82742464 0.00000073 0.38883189
0.00000073 0.00000073 0.35258108
0.00000073 0.00000073 0.38298370
0.45491830 0.00000073 0.40619777
0.69057214 0.00000073 0.42548968
0.82742464 0.00000073 0.45101818
0.00000073 0.45013572 0.43467962
0.00000073 0.44968759 0.44482618
0.45076100 0.45076100 0.45076100
0.67876813 0.45432690 0.46394757
0.82742464 0.45352603 0.49167828
0.00000073 0.70136231 0.26569940
0.00000073 0.69193487 0.36541814
0.32115292 0.68919590 0.43013802
0.68338647 0.69365138 0.49000681
0.82590086 0.70529862 0.55549175
0.00000073 0.82742464 0.00000073
0.00000073 0.82742464 0.00000073
0.00000073 0.82742464 0.00000073
0.71274951 0.82742464 0.58355037
0.82443319 0.82742464 0.76131046
0.00000073 0.00000073 0.31569934
0.09260278 0.00000073 0.32787828
0.43483644 0.00000073 0.36143329
0.67993844 0.00000073 0.39837400
0.82742464 0.00000073 0.44384591
0.00000073 0.00000073 0.44274669
0.00000073 0.00000073 0.48029776
0.42866192 0.00000073 0.51372010
0.66578304 0.00000073 0.54439112
0.82742464 0.00000073 0.56830154
0.00000073 0.36258788 0.59014792
0.00000073 0.28909556 0.61186679
0.39514609 0.21381376 0.62506857
0.65988641 0.26043739 0.63288495
0.80770514 0.32321401 0.64285976
0.00000073 0.67532383 0.65290962
0.00000073 0.66669258 0.65776539
0.00000073 0.66875168 0.66595954
0.67906977 0.67906978 0.67906979
0.80709288 0.69973353 0.70214509
0.00000073 0.82742464 0.62939137
0.00000073 0.82742464 0.66169836
0.00000073 0.82742464 0.69645463
0.75864156 0.82102193 0.76341963
0.82501890 0.82614247 0.81500294
0.00000073 0.00000073 0.35608601
0.00000073 0.00000073 0.38389178
0.41757382 0.00000073 0.42001034
0.65287831 0.00000073 0.45636141
0.82742464 0.00000073 0.49510279
0.00000073 0.00000073 0.50992251
0.00000073 0.00000073 0.54734950
0.38817750 0.00000073 0.58057135
0.63605664 0.00000073 0.60988322
0.79380000 0.00000073 0.63586259
0.00000073 0.00000073 0.66638718
0.00000073 0.00000073 0.69075166
0.00000073 0.00000073 0.71052165
0.63384786 0.00000073 0.72466506
0.77966355 0.00000073 0.73293796
0.00000073 0.62192882 0.77276160
0.00000073 0.60683791 0.77972785
0.00000073 0.61503967 0.78369259
0.66728675 0.64226856 0.78584969
0.77069040 0.70725516 0.76648235
0.00000073 0.82742464 0.81328693
0.00000073 0.82070606 0.81269838
0.54934896 0.80924711 0.80698112
0.79058512 0.81226812 0.81199015
0.82742464 0.82742464 0.82742464
