resources/flame/Syncolor/Shared/transforms/camera_manufacturer_luts/arri/ARRI_Alexa_LUTs/ARRI_LogC3_v1-2_LUT_Package/LUTs/ARRI_LogC3-to-St2084_2K_Rec2100-D65_DW200_v2_33.cube
LUT_3D_SIZE 5
0.00000073 0.00000073 0.00000073
0.20523733 0.06829599 0.01294967
0.43010518 0.19150739 0.05130229
0.67950674 0.37359992 0.13435456
0.82742464 0.60460291 0.27920753
0.07660623 0.19146709 0.00000073
0.19647053 0.20455117 0.00000073
0.46124262 0.26215964 0.00000073
0.72088135 0.41848834 0.13431203
0.82742464 0.61958026 0.28402338
0.27382022 0.49936318 0.00000073
0.32002321 0.51358388 0.00000073
0.51196617 0.52514694 0.00000073
0.73337434 0.55767284 0.00000073
0.82742464 0.63844218 0.00000073
0.50307895 0.77357225 0.00000073
0.50272002 0.76274886 0.00000073
0.57592742 0.74959817 0.00000073
0.72826921 0.74243619 0.00000073
0.82742464 0.75160158 0.00000073
0.67701226 0.82742464 0.00000073
0.64735985 0.82742464 0.00000073
0.66607957 0.82742464 0.00000073
0.75234845 0.82742464 0.00000073
0.82742464 0.82742464 0.00000073
0.00000073 0.00000073 0.18486859
0.18079279 0.00000073 0.14312576
0.42412265 0.18255188 0.14175637
0.67804687 0.37163058 0.17905284
0.82742464 0.59473860 0.28625301
0.02920548 0.18177347 0.18386712
0.19607037 0.19607037 0.19607037
0.46752346 0.25966780 0.21331755
0.71568582 0.41368170 0.24910590
0.82742464 0.59606273 0.32164298
0.27453713 0.50394183 0.00000073
0.32137681 0.51552559 0.00000073
0.51367340 0.52604437 0.00000073
0.72406567 0.55759400 0.21595989
0.82742464 0.62643681 0.33047273
0.49577067 0.76615584 0.00000073
0.49744887 0.75422085 0.00000073
0.57894552 0.74212866 0.00000073
0.72507797 0.73873334 0.00000073
0.82742464 0.75023847 0.00000073
0.65519886 0.82742464 0.00000073
0.63357171 0.82742464 0.00000073
0.66696971 0.82742464 0.00000073
0.75590305 0.82742464 0.00000073
0.82742464 0.82742464 0.57567239
0.00000073 0.00000073 0.27064225
0.13295203 0.00000073 0.24443409
0.40402251 0.11142180 0.25555660
0.65946065 0.35056379 0.28064879
0.82742464 0.56063815 0.33458529
0.00000073 0.00000073 0.38176035
0.00000073 0.00000073 0.40647417
0.45675052 0.00000073 0.42805035
0.69868939 0.37095566 0.44979497
0.82742464 0.55811026 0.47740038
0.14488424 0.48679539 0.48912064
0.26987070 0.49616979 0.49996042
0.50897895 0.50897896 0.50897896
0.71318019 0.54478546 0.52377927
0.82742464 0.60971434 0.54772016
0.47702936 0.75492781 0.41241148
0.48367141 0.74238178 0.45843310
0.57965984 0.73331964 0.49881991
0.72262314 0.73349166 0.54109235
0.82742464 0.74762422 0.59328757
0.63182911 0.82742464 0.00000073
0.62092024 0.82742464 0.00000073
0.66955243 0.82742464 0.44980885
0.76304432 0.82742464 0.61240505
0.82631864 0.82742464 0.76592377
0.00000073 0.00000073 0.33012607
0.00000073 0.00000073 0.32061800
0.37799530 0.00000073 0.33649355
0.62900672 0.30583687 0.36065935
0.82742464 0.51191552 0.39772146
0.00000073 0.00000073 0.48603608
0.00000073 0.00000073 0.51328652
0.42260059 0.00000073 0.53829627
0.66763639 0.00000073 0.56375251
0.82742464 0.48546851 0.58933897
0.00000073 0.28601061 0.67044100
0.00000073 0.27902032 0.67987488
0.47021198 0.35260459 0.68476323
0.69395186 0.46382740 0.68765663
0.82742464 0.56385177 0.69261626
0.29679790 0.72499181 0.72663703
0.38853598 0.71423322 0.71796561
0.56478805 0.71071847 0.71431679
0.71761719 0.71761720 0.71761721
0.82053830 0.73947690 0.73356654
0.59428675 0.82742464 0.67820102
0.59810746 0.82742464 0.69914168
0.67108030 0.82742464 0.72094262
0.78306372 0.82692221 0.77341766
0.82588398 0.82705516 0.81629266
0.00000073 0.00000073 0.37741095
0.00000073 0.00000073 0.38287774
0.34446378 0.00000073 0.40171305
0.59131979 0.17202204 0.42696167
0.79331729 0.45173894 0.46060216
0.00000073 0.00000073 0.56427449
0.00000073 0.00000073 0.58947853
0.36425395 0.00000073 0.61300934
0.63089129 0.00000073 0.63589068
0.80023395 0.26133702 0.65906675
0.00000073 0.00000073 0.75988747
0.00000073 0.00000073 0.76859828
0.33330781 0.00000073 0.77457731
0.66543827 0.00000073 0.77848281
0.80325003 0.42317992 0.77813635
0.00000073 0.63017226 0.82742464
0.00000073 0.63486909 0.82742464
0.50753724 0.65231523 0.82742464
0.70750590 0.68277919 0.82093071
0.78972999 0.74161366 0.79476069
0.41922573 0.82742464 0.82742464
0.53133868 0.82742464 0.82742464
0.69804843 0.82007332 0.82338633
0.80184746 0.81688514 0.81755348
0.82742464 0.82742464 0.82742464
