resources/flame/Syncolor/Shared/transforms/camera_manufacturer_luts/arri/ARRI_Alexa_LUTs/ARRI_LogC3_v1-2_LUT_Package/LUTs/ARRI_LogC3-to-St2084_4K_Rec2100-D65_DW100_v1_33.cube
LUT_3D_SIZE 5
0.006302 0.006302 0.006302
0.205234 0.068299 0.012955
0.429923 0.191394 0.051255
0.675532 0.370352 0.132631
0.902571 0.593225 0.271092
0.073213 0.184863 0.006302
0.181262 0.188922 0.006302
0.435904 0.237903 0.006302
0.684993 0.386145 0.123461
0.902571 0.574670 0.253666
0.244266 0.459327 0.006302
0.275013 0.464775 0.006302
0.456748 0.469398 0.006302
0.673930 0.497810 0.006302
0.853346 0.576776 0.006302
0.448692 0.713130 0.006302
0.446006 0.702113 0.006302
0.521386 0.694820 0.006302
0.684337 0.698421 0.006302
0.836927 0.721065 0.006302
0.637812 0.902571 0.006302
0.622065 0.893919 0.006302
0.655375 0.883528 0.006302
0.763470 0.884688 0.006302
0.882734 0.896544 0.006302
0.006302 0.006302 0.181643
0.185733 0.006302 0.152575
0.427741 0.182879 0.158282
0.675883 0.369558 0.190188
0.902571 0.583551 0.281849
0.031144 0.173617 0.172580
0.177722 0.177722 0.177722
0.438605 0.233051 0.184558
0.676432 0.378698 0.211658
0.875715 0.549172 0.277913
0.243412 0.460929 0.006302
0.274434 0.464454 0.006302
0.456764 0.468803 0.006302
0.663737 0.497108 0.124498
0.827268 0.565591 0.268681
0.441337 0.705226 0.006302
0.441917 0.694942 0.006302
0.527642 0.690623 0.006302
0.685542 0.699168 0.006302
0.826413 0.724559 0.006302
0.620920 0.897597 0.006302
0.613107 0.881498 0.006302
0.662898 0.876738 0.006302
0.775631 0.882521 0.006302
0.880781 0.892699 0.621195
0.006302 0.006302 0.261021
0.154772 0.006302 0.254871
0.419669 0.084154 0.282826
0.667781 0.353521 0.317266
0.888350 0.556939 0.363668
0.006302 0.006302 0.351019
0.006302 0.006302 0.381277
0.428977 0.006302 0.404196
0.659983 0.331044 0.421897
0.842603 0.510918 0.441459
0.146899 0.444099 0.435126
0.219791 0.444022 0.445060
0.450767 0.450767 0.450767
0.652354 0.484199 0.462959
0.803464 0.550500 0.488441
0.423560 0.693950 0.345556
0.430106 0.685252 0.399161
0.532097 0.685588 0.450401
0.687709 0.698573 0.506020
0.817472 0.726757 0.572396
0.602518 0.881086 0.006302
0.605158 0.870603 0.006302
0.672999 0.870695 0.453254
0.791653 0.878050 0.640787
0.880858 0.886625 0.820447
0.006302 0.006302 0.314031
0.086076 0.006302 0.326162
0.408286 0.006302 0.359365
0.649256 0.313893 0.394385
0.850752 0.515496 0.432898
0.006302 0.006302 0.440894
0.006302 0.006302 0.478355
0.404578 0.006302 0.511635
0.635554 0.006302 0.541863
0.802579 0.431327 0.564477
0.006302 0.362280 0.588617
0.006302 0.299657 0.610193
0.415732 0.283452 0.623316
0.635126 0.390906 0.630991
0.779171 0.501946 0.641138
0.296452 0.668574 0.653590
0.343053 0.661234 0.659205
0.521416 0.667353 0.669871
0.687449 0.687449 0.687449
0.804364 0.723293 0.717388
0.569879 0.863645 0.653361
0.587854 0.857801 0.688914
0.682704 0.862119 0.732479
0.820661 0.864485 0.810986
0.888518 0.889677 0.878920
0.006302 0.006302 0.354314
0.006302 0.006302 0.382055
0.391608 0.006302 0.417960
0.622446 0.194095 0.453437
0.807691 0.460273 0.489418
0.006302 0.006302 0.507942
0.006302 0.006302 0.545296
0.368231 0.006302 0.578439
0.606485 0.006302 0.607553
0.762921 0.006302 0.633066
0.006302 0.006302 0.664530
0.006302 0.006302 0.688808
0.324941 0.006302 0.708522
0.612482 0.006302 0.722683
0.752880 0.273732 0.731853
0.006302 0.617670 0.771740
0.006302 0.605142 0.780133
0.478401 0.619074 0.787350
0.683314 0.657588 0.795010
0.779141 0.730724 0.784344
0.439124 0.838361 0.826932
0.532876 0.836820 0.835630
0.718379 0.840452 0.843015
0.848310 0.863340 0.863996
0.899992 0.899992 0.899992
