resources/flame/Syncolor/Shared/transforms/camera_manufacturer_luts/arri/ARRI_Alexa_LUTs/ARRI_LogC3_v1-2_LUT_Package/LUTs/ARRI_LogC3-to-HLG_1K_P3-D65_DW100_v2_33.cube
LUT_3D_SIZE 5
0.00000000 0.00000000 0.00000000
0.18380690 0.00000000 0.00921009
0.58418158 0.00000000 0.02996017
0.97701774 0.00000000 0.08151954
1.00000000 0.00000000 0.24662071
0.00000000 0.13499088 0.00000000
0.12486134 0.13275038 0.00000000
0.59196777 0.09544594 0.00000000
0.99029164 0.00000000 0.07868026
1.00000000 0.00000000 0.22122803
0.00000000 0.56581172 0.00000000
0.00000000 0.57627325 0.00000000
0.53836890 0.56678469 0.00000000
0.96506961 0.50721220 0.00000000
1.00000000 0.40538619 0.05954666
0.00000000 0.96979278 0.00000000
0.00000000 0.95060563 0.00000000
0.00000000 0.93113689 0.00000000
0.88436391 0.90720085 0.00000000
1.00000000 0.89026692 0.00000000
0.00000000 1.00000000 0.00000000
0.00000000 1.00000000 0.00000000
0.00000000 1.00000000 0.00000000
0.75929157 1.00000000 0.00000000
1.00000000 1.00000000 0.00000000
0.00000000 0.00000000 0.15838888
0.15957907 0.00000000 0.10378098
0.57968788 0.00000000 0.08780058
0.97749757 0.00000000 0.11070166
1.00000000 0.00000000 0.24874572
0.00000000 0.12331081 0.11821790
0.12063476 0.12063475 0.12063475
0.59761362 0.08100931 0.10752883
0.97809471 0.00000000 0.12476472
1.00000000 0.00000000 0.22531685
0.00000000 0.56891621 0.00000000
0.00000000 0.57605064 0.00000000
0.53887772 0.56592311 0.00000000
0.94869837 0.51748597 0.02164254
1.00000000 0.45973559 0.17993089
0.00000000 0.95788028 0.00000000
0.00000000 0.93818282 0.00000000
0.10942395 0.92096688 0.00000000
0.88016807 0.90231046 0.00000000
1.00000000 0.89122325 0.00000000
0.00000000 1.00000000 0.00000000
0.00000000 1.00000000 0.00000000
0.00000000 1.00000000 0.00000000
0.80002694 1.00000000 0.00000000
1.00000000 1.00000000 0.58609183
0.00000000 0.00000000 0.26241218
0.12060261 0.00000000 0.23776683
0.56220871 0.00000000 0.22439520
0.96585334 0.00000000 0.23496880
1.00000000 0.00000000 0.32774277
0.00000000 0.00000000 0.42033208
0.00000000 0.00000000 0.48569598
0.57519942 0.00000000 0.45243446
0.95409949 0.00000000 0.41897340
1.00000000 0.00000000 0.45829126
0.00000000 0.53107677 0.49133325
0.00000000 0.53121765 0.51899392
0.52268803 0.52268803 0.52268804
0.93029345 0.48309446 0.50761027
1.00000000 0.45230237 0.54610559
0.00000000 0.94054243 0.14859452
0.00000000 0.92133269 0.27162795
0.19918911 0.90841442 0.37863780
0.87610317 0.89391877 0.48611674
1.00000000 0.88720033 0.60453772
0.00000000 1.00000000 0.00000000
0.00000000 1.00000000 0.00000000
0.00000000 1.00000000 0.00000000
0.84709919 1.00000000 0.61195347
0.99921758 1.00000000 0.94629544
0.00000000 0.00000000 0.34968305
0.05059824 0.00000000 0.36956352
0.53586069 0.00000000 0.35938333
0.93904765 0.00000000 0.36485205
1.00000000 0.00000000 0.44068748
0.00000000 0.00000000 0.61129548
0.00000000 0.00000000 0.67932070
0.50915030 0.00000000 0.70068908
0.91706734 0.00000000 0.69553252
1.00000000 0.00000000 0.71774176
0.00000000 0.34135243 0.83161334
0.00000000 0.22403257 0.87872703
0.41147762 0.13092391 0.89472607
0.90466521 0.15776067 0.85742543
1.00000000 0.21532276 0.84407598
0.00000000 0.89956872 0.86052042
0.00000000 0.88006172 0.86445658
0.00000000 0.87314167 0.86825759
0.86561299 0.86561301 0.86561303
1.00000000 0.87180712 0.87584500
0.00000000 1.00000000 0.75363352
0.00000000 1.00000000 0.79109815
0.00000000 1.00000000 0.83188319
0.93174757 1.00000000 0.93716693
0.99709908 0.99764450 0.99241170
0.00000000 0.00000000 0.42752398
0.00000000 0.00000000 0.48775524
0.49384950 0.00000000 0.50035626
0.89956196 0.00000000 0.50663268
1.00000000 0.00000000 0.56482900
0.00000000 0.00000000 0.72936541
0.00000000 0.00000000 0.78936441
0.40578537 0.00000000 0.82508257
0.87117316 0.00000000 0.82462212
1.00000000 0.00000000 0.84149768
0.00000000 0.00000000 0.96645347
0.00000000 0.00000000 1.00000000
0.00000000 0.00000000 1.00000000
0.85790266 0.00000000 1.00000000
1.00000000 0.00000000 0.99423144
0.00000000 0.81311597 1.00000000
0.00000000 0.78060741 1.00000000
0.00000000 0.78185137 1.00000000
0.84438617 0.79966984 1.00000000
0.96890989 0.89102734 0.96397304
0.00000000 1.00000000 1.00000000
0.00000000 1.00000000 1.00000000
0.63322776 1.00000000 1.00000000
0.97746327 0.99038345 0.99021332
0.99884164 0.99884168 0.99884171
