resources/flame/Syncolor/Shared/transforms/camera_manufacturer_luts/arri/ARRI_Alexa_LUTs/ARRI_LogC3_v1-2_LUT_Package/LUTs/ARRI_LogC3-to-St2084_2K_Rec2100-D65_DW100_v1_33.cube
LUT_3D_SIZE 5
0.006302 0.006302 0.006302
0.205234 0.068299 0.012955
0.429923 0.191394 0.051255
0.675532 0.370352 0.132631
0.827420 0.593225 0.271092
0.073213 0.184863 0.006302
0.181262 0.188922 0.006302
0.435904 0.237903 0.006302
0.684993 0.386145 0.123461
0.827420 0.574670 0.253666
0.244266 0.459327 0.006302
0.275013 0.464775 0.006302
0.456748 0.469398 0.006302
0.673930 0.497810 0.006302
0.827420 0.576776 0.006302
0.448692 0.713130 0.006302
0.445945 0.702052 0.006302
0.520317 0.693736 0.006302
0.680674 0.694743 0.006302
0.827420 0.712764 0.006302
0.632776 0.827420 0.006302
0.611612 0.827420 0.006302
0.636500 0.827420 0.006302
0.732662 0.827420 0.006302
0.827420 0.827420 0.006302
0.006302 0.006302 0.181643
0.185733 0.006302 0.152575
0.427741 0.182879 0.158282
0.675883 0.369558 0.190188
0.827420 0.583551 0.281849
0.031144 0.173617 0.172580
0.177722 0.177722 0.177722
0.438605 0.233051 0.184558
0.676432 0.378698 0.211658
0.827420 0.549172 0.277913
0.243412 0.460929 0.006302
0.274434 0.464454 0.006302
0.456764 0.468803 0.006302
0.663737 0.497108 0.124498
0.827207 0.565545 0.268620
0.441337 0.705226 0.006302
0.441672 0.694682 0.006302
0.525902 0.688853 0.006302
0.680568 0.694179 0.006302
0.816037 0.714168 0.006302
0.614389 0.827420 0.006302
0.600259 0.827420 0.006302
0.640391 0.827420 0.006302
0.739986 0.827420 0.006302
0.827420 0.827420 0.570016
0.006302 0.006302 0.261021
0.154772 0.006302 0.254871
0.419669 0.084154 0.282826
0.667781 0.353521 0.317266
0.827420 0.556939 0.363668
0.006302 0.006302 0.351019
0.006302 0.006302 0.381277
0.428977 0.006302 0.404196
0.659983 0.331044 0.421897
0.827420 0.510918 0.441459
0.146899 0.444099 0.435126
0.219791 0.444022 0.445060
0.450767 0.450767 0.450767
0.652354 0.484199 0.462959
0.803220 0.550256 0.488197
0.423560 0.693950 0.345556
0.429541 0.684642 0.398535
0.529473 0.682948 0.447715
0.681163 0.692027 0.499428
0.804715 0.713970 0.559609
0.594232 0.827420 0.006302
0.589593 0.827420 0.006302
0.646372 0.827420 0.426078
0.750866 0.827420 0.600290
0.823270 0.827420 0.762875
0.006302 0.006302 0.314031
0.086076 0.006302 0.326162
0.408286 0.006302 0.359365
0.649256 0.313893 0.394385
0.827420 0.515496 0.432898
0.006302 0.006302 0.440894
0.006302 0.006302 0.478355
0.404578 0.006302 0.511635
0.635554 0.006302 0.541863
0.802579 0.431327 0.564477
0.006302 0.362280 0.588617
0.006302 0.299657 0.610193
0.415732 0.283452 0.623316
0.635126 0.390906 0.630991
0.778592 0.501366 0.640558
0.296391 0.668498 0.653529
0.341985 0.660121 0.658091
0.517693 0.663615 0.666148
0.679072 0.679072 0.679072
0.788861 0.707790 0.701884
0.559609 0.827420 0.642771
0.569039 0.827420 0.670054
0.651575 0.827420 0.701534
0.774395 0.818265 0.764752
0.824781 0.825956 0.815198
0.006302 0.006302 0.354314
0.006302 0.006302 0.382055
0.391608 0.006302 0.417960
0.622446 0.194095 0.453437
0.807691 0.460273 0.489418
0.006302 0.006302 0.507942
0.006302 0.006302 0.545296
0.368231 0.006302 0.578439
0.606485 0.006302 0.607553
0.762921 0.006302 0.633066
0.006302 0.006302 0.664530
0.006302 0.006302 0.688808
0.324941 0.006302 0.708522
0.612406 0.006302 0.722606
0.751812 0.271962 0.730785
0.006302 0.617380 0.771466
0.006302 0.603342 0.778332
0.473259 0.614038 0.782300
0.672831 0.647135 0.784512
0.760464 0.712047 0.765667
0.426902 0.825238 0.813825
0.510323 0.814191 0.813016
0.682506 0.804578 0.807141
0.796323 0.811368 0.812024
0.827420 0.827420 0.827420
