resources/flame/Syncolor/Shared/transforms/camera_manufacturer_luts/arri/ARRI_Alexa_LUTs/ARRI_LogC3_v1-2_LUT_Package/LUTs/ARRI_LogC3-to-St2084_4K_Rec2100-D65_DW200_v2_33.cube
LUT_3D_SIZE 33
0.00000073 0.00000073 0.00000073
0.02791784 0.00556370 0.00072140
0.05367364 0.01215183 0.00166668
0.07898963 0.01963176 0.00286187
0.10417733 0.02791900 0.00431493
0.12933013 0.03695232 0.00603512
0.15452100 0.04670090 0.00803605
0.17980881 0.05715075 0.01033456
0.20523733 0.06829599 0.01294967
0.23086285 0.08014676 0.01590506
0.25688221 0.09279239 0.01924737
0.28350814 0.10635130 0.02303786
0.31095223 0.12096256 0.02735248
0.33942528 0.13678562 0.03228408
0.36913609 0.15399979 0.03794489
0.39954929 0.17234793 0.04430719
0.43010518 0.19150739 0.05130229
0.46080225 0.21147337 0.05896399
0.49163983 0.23224276 0.06732750
0.52261632 0.25381269 0.07642907
0.55372981 0.27618084 0.08630605
0.58497812 0.29934523 0.09699693
0.61635883 0.32330417 0.10854131
0.64786930 0.34805619 0.12097992
0.67950674 0.37359992 0.13435456
0.71126817 0.39993410 0.14870815
0.74315046 0.42705747 0.16408470
0.77515036 0.45496877 0.18052926
0.80726450 0.48366669 0.19808797
0.83948369 0.51314457 0.21680462
0.87160489 0.54321174 0.23660022
0.90257239 0.57372261 0.25741008
0.90257239 0.60460291 0.27920753
0.00262578 0.01106067 0.00000073
0.00285857 0.00308364 0.00000073
0.03003518 0.00606061 0.00078872
0.05631957 0.01289027 0.00177927
0.08230692 0.02067720 0.00303808
0.10825686 0.02933442 0.00457544
0.13436216 0.03884506 0.00641227
0.16087308 0.04926470 0.00858569
0.18802236 0.06068226 0.01114540
0.21603349 0.07321440 0.01415492
0.24512494 0.08700313 0.01769363
0.27540045 0.10215744 0.02184311
0.30602212 0.11829100 0.02654617
0.33677246 0.13528328 0.03180452
0.36764994 0.15312192 0.03764891
0.39865229 0.17179640 0.04411109
0.42977675 0.19129764 0.05122380
0.46102043 0.21161783 0.05902078
0.49238272 0.23275181 0.06753746
0.52386262 0.25469521 0.07681035
0.55545849 0.27744408 0.08687701
0.58716837 0.30099491 0.09777603
0.61899007 0.32534456 0.10954708
0.65092112 0.35049010 0.12223086
0.68295889 0.37642881 0.13586908
0.71510055 0.40315806 0.15050448
0.74734309 0.43067531 0.16618081
0.77968338 0.45897799 0.18294278
0.81201674 0.48797152 0.20077840
0.84414584 0.51746665 0.21960651
0.87601541 0.54739288 0.23940906
0.90257239 0.57767530 0.26015897
0.90257239 0.60823251 0.28181794
0.00567109 0.02215866 0.00000073
0.00372321 0.01521060 0.00000073
0.00783463 0.00841811 0.00000073
0.03524301 0.00762891 0.00083970
0.06299907 0.01480091 0.00207628
0.09114240 0.02353102 0.00352975
0.12003352 0.03352938 0.00536748
0.14996668 0.04488848 0.00765325
0.18079318 0.05757050 0.01043005
0.21172965 0.07124060 0.01366756
0.24275713 0.08585214 0.01738944
0.27388302 0.10137882 0.02162347
0.30511112 0.11779957 0.02639869
0.33644291 0.13509705 0.03174524
0.36787831 0.15325671 0.03769430
0.39941615 0.17226603 0.04427805
0.43105444 0.19211409 0.05152956
0.46279062 0.21279116 0.05948282
0.49462271 0.23428917 0.06817295
0.52655056 0.25660241 0.07763670
0.55857292 0.27972537 0.08791165
0.59068811 0.30365308 0.09903635
0.62289419 0.32838092 0.11105034
0.65518894 0.35390460 0.12399414
0.68756988 0.38022003 0.13790918
0.72003437 0.40732328 0.15283782
0.75254547 0.43518089 0.16880605
0.78490278 0.46361126 0.18574794
0.81703166 0.49253076 0.20364323
0.84887929 0.52187004 0.22247477
0.88039012 0.55155354 0.24221535
0.90257239 0.58149935 0.26282671
0.90257239 0.61161900 0.28425866
0.00979877 0.03569783 0.00000073
0.00818262 0.03055118 0.00000073
0.00685613 0.02618593 0.00000073
0.02186532 0.02333154 0.00000073
0.05268640 0.02420044 0.00000073
0.08433360 0.02899001 0.00000073
0.11593359 0.03685636 0.00114605
0.14749636 0.04703730 0.00538114
0.17906114 0.05895084 0.00885882
0.21065825 0.07224922 0.01251563
0.24230768 0.08673257 0.01653453
0.27402194 0.10228238 0.02100434
0.30580853 0.11882452 0.02598427
0.33767162 0.13630985 0.03152141
0.36961305 0.15470387 0.03765717
0.40163308 0.17398108 0.04443023
0.43373081 0.19412168 0.05187800
0.46590448 0.21510962 0.06003737
0.49815182 0.23693151 0.06894517
0.53047227 0.25957729 0.07863916
0.56286532 0.28303869 0.08915781
0.59532967 0.30730823 0.10054009
0.62786365 0.33237916 0.11282571
0.66046528 0.35824528 0.12605507
0.69312815 0.38489732 0.14026746
0.72570088 0.41220318 0.15543239
0.75807369 0.44005412 0.17152271
0.79019671 0.46838595 0.18852973
0.82201731 0.49712856 0.20643588
0.85348014 0.52620576 0.22521375
0.88452712 0.55553505 0.24482521
0.90257239 0.58502756 0.26522052
0.90257239 0.61458790 0.28633751
0.01709028 0.05720417 0.00000073
0.01666927 0.05602322 0.00000073
0.01633922 0.05509296 0.00000073
0.02345867 0.05434736 0.00000073
0.05143452 0.05444610 0.00000073
0.08281479 0.05598766 0.00000073
0.11478841 0.05949639 0.00000073
0.14689575 0.06528872 0.00000073
0.17904066 0.07341459 0.00000073
0.21121005 0.08371861 0.00000073
0.24341000 0.09595373 0.00636319
0.27564916 0.10986973 0.01437720
0.30793456 0.12525427 0.02115982
0.34027101 0.14194150 0.02791495
0.37266129 0.15980641 0.03497176
0.40510658 0.17875575 0.04248990
0.43760678 0.19871968 0.05056975
0.47016085 0.21964519 0.05928522
0.50276696 0.24149129 0.06869669
0.53542354 0.26422616 0.07885721
0.56813069 0.28782580 0.08981622
0.60088743 0.31227045 0.10162045
0.63369239 0.33754371 0.11431513
0.66647095 0.36357343 0.12791278
0.69907679 0.39022334 0.14238394
0.73146149 0.41742839 0.15773003
0.76357546 0.44512014 0.17394467
0.79536634 0.47322507 0.19101225
0.82677902 0.50166426 0.20890716
0.85775566 0.53035308 0.22759304
0.88823566 0.55920096 0.24702193
0.90257239 0.58811125 0.26713357
0.90257239 0.61698108 0.28785468
0.02894821 0.08835040 0.00000073
0.02880383 0.08799149 0.00000073
0.02869740 0.08772666 0.00000073
0.03250223 0.08758647 0.00000073
0.05480559 0.08786144 0.00000073
0.08439983 0.08884652 0.00000073
0.11598830 0.09087916 0.00000073
0.14822935 0.09430473 0.00000073
0.18071251 0.09942488 0.00000073
0.21329734 0.10645225 0.00000073
0.24593509 0.11548401 0.00000073
0.27861003 0.12650542 0.00000073
0.31131816 0.13941898 0.00000073
0.34405930 0.15408243 0.01016535
0.37683407 0.17034102 0.02416594
0.40964278 0.18804791 0.03490620
0.44248511 0.20707394 0.04508881
0.47536009 0.22731025 0.05535598
0.50826609 0.24866715 0.06599378
0.54120110 0.27107159 0.07716821
0.57416470 0.29446551 0.08899330
0.60713301 0.31878505 0.10154649
0.63996589 0.34388398 0.11483718
0.67260326 0.36967080 0.12888991
0.70499866 0.39606557 0.14372235
0.73710282 0.42298708 0.15933994
0.76886368 0.45035165 0.17573634
0.80022643 0.47807229 0.19289348
0.83113346 0.50605800 0.21078127
0.86152443 0.53421318 0.22935722
0.89133623 0.56243727 0.24856593
0.90257239 0.59062438 0.26833869
0.90257239 0.61866312 0.28859297
0.04289964 0.12131544 0.00000073
0.04299261 0.12152527 0.00000073
0.04312610 0.12182632 0.00000073
0.04587427 0.12223138 0.00000073
0.06302672 0.12289005 0.00000073
0.08955991 0.12395582 0.00000073
0.11985667 0.12562455 0.00000073
0.15166303 0.12812953 0.00000073
0.18412288 0.13172382 0.00000073
0.21688378 0.13665966 0.00000073
0.24979169 0.14316420 0.00000073
0.28277705 0.15141436 0.00000073
0.31580779 0.16151774 0.00000073
0.34886880 0.17350667 0.00000073
0.38195268 0.18734647 0.00000073
0.41505537 0.20295339 0.00000073
0.44817417 0.22021524 0.02593429
0.48130681 0.23900919 0.04324129
0.51445103 0.25921436 0.05767259
0.54760167 0.28071748 0.07139463
0.58065901 0.30335513 0.08506128
0.61354388 0.32697629 0.09897587
0.64621281 0.35145984 0.11331539
0.67861960 0.37669112 0.12818398
0.71071523 0.40256011 0.14364277
0.74244791 0.42895960 0.15972362
0.77376310 0.45578356 0.17643594
0.80460345 0.48292563 0.19377029
0.83490888 0.51027799 0.21170030
0.86461653 0.53773035 0.23018357
0.89366077 0.56516918 0.24916220
0.90257239 0.59247712 0.26856299
0.90257239 0.61953259 0.28829756
0.05881008 0.15575195 0.00000073
0.05914679 0.15645232 0.00000073
0.05952381 0.15723530 0.00000073
0.06205132 0.15810826 0.00000073
0.07548680 0.15915549 0.00000073
0.09843275 0.16046105 0.00000073
0.12662295 0.16214014 0.00000073
0.15736208 0.16434127 0.00000073
0.18935060 0.16724193 0.00000073
0.22197223 0.17104199 0.00000073
0.25492394 0.17595475 0.00000073
0.28805148 0.18219393 0.00000073
0.32127416 0.18995643 0.00000073
0.35454870 0.19940343 0.00000073
0.38785113 0.21064465 0.00000073
0.42116759 0.22373041 0.00000073
0.45448952 0.23865322 0.00000073
0.48781108 0.25535767 0.00000073
0.52108377 0.27373305 0.02925011
0.55420938 0.29361157 0.05509432
0.58714400 0.31483191 0.07418001
0.61984415 0.33723105 0.09140145
0.65226342 0.36064890 0.10799686
0.68435278 0.38493145 0.12448450
0.71606048 0.40993151 0.14112610
0.74733212 0.43550813 0.15806304
0.77811053 0.46152539 0.17536892
0.80833583 0.48785084 0.19307327
0.83794537 0.51435404 0.21117351
0.86687376 0.54090515 0.22964136
0.89505285 0.56737379 0.24842658
0.90257239 0.59362804 0.26745924
0.90257239 0.61965915 0.28675197
0.07660623 0.19146709 0.00000073
0.07718339 0.19258522 0.00000073
0.07779838 0.19377414 0.00000073
0.08041906 0.19503957 0.00000073
0.09133101 0.19643078 0.00000073
0.11082330 0.19799559 0.00000073
0.13636406 0.19980355 0.00000073
0.16543956 0.20194889 0.00000073
0.19647053 0.20455117 0.00000073
0.22858290 0.20775441 0.00000073
0.26130021 0.21172519 0.00000073
0.29435863 0.21664888 0.00000073
0.32760906 0.22272266 0.00000073
0.36096547 0.23014434 0.00000073
0.39437716 0.23909731 0.00000073
0.42781344 0.24973423 0.00000073
0.46124262 0.26215964 0.00000073
0.49457235 0.27639959 0.00000073
0.52774797 0.29241821 0.00000073
0.56072282 0.31012387 0.00000073
0.59344922 0.32938108 0.03840280
0.62587932 0.35002644 0.07154618
0.65796331 0.37188151 0.09478397
0.68964889 0.39476278 0.11514336
0.72088135 0.41848834 0.13431203
0.75160343 0.44288139 0.15297277
0.78175523 0.46777158 0.17145672
0.81127419 0.49299484 0.18993242
0.84009506 0.51839256 0.20847831
0.86814985 0.54381023 0.22711552
0.89541640 0.56914087 0.24587224
0.90257239 0.59442313 0.26484809
0.90257239 0.61958026 0.28402338
0.09620574 0.22826365 0.00000073
0.09701209 0.22973005 0.00000073
0.09785183 0.23125354 0.00000073
0.10067693 0.23283938 0.00000073
0.10985095 0.23451592 0.00000073
0.12633469 0.23631108 0.00000073
0.14900231 0.23826772 0.00000073
0.17593541 0.24044613 0.00000073
0.20553257 0.24292613 0.00000073
0.23673633 0.24580845 0.00000073
0.26890150 0.24921555 0.00000073
0.30164112 0.25329189 0.00000073
0.33472195 0.25820292 0.00000073
0.36800170 0.26413153 0.00000073
0.40139112 0.27127074 0.00000073
0.43478846 0.27980613 0.00000073
0.46810780 0.28989829 0.00000073
0.50128771 0.30166541 0.00000073
0.53427182 0.31516779 0.00000073
0.56700593 0.33040108 0.00000073
0.59943631 0.34729801 0.00000073
0.63150981 0.36573812 0.00000073
0.66317232 0.38556100 0.05500389
0.69436780 0.40658019 0.09248867
0.72503811 0.42859573 0.11888512
0.75512285 0.45140356 0.14165730
0.78455917 0.47480168 0.16272307
0.81328170 0.49859352 0.18286381
0.84123194 0.52259712 0.20248156
0.86849679 0.54676739 0.22186766
0.89508181 0.57101165 0.24115340
0.90257239 0.59522131 0.26038900
0.90257239 0.61929620 0.27959142
0.11751269 0.26594249 0.00000073
0.11852993 0.26768991 0.00000073
0.11957436 0.26947954 0.00000073
0.12262155 0.27131652 0.00000073
0.13054016 0.27321566 0.00000073
0.14451345 0.27519358 0.00000073
0.16433858 0.27727690 0.00000073
0.18881314 0.27950447 0.00000073
0.21655344 0.28192953 0.00000073
0.24644527 0.28462177 0.00000073
0.27771437 0.28766908 0.00000073
0.30985353 0.29117929 0.00000073
0.34253665 0.29528163 0.00000073
0.37553967 0.30012531 0.00000073
0.40868379 0.30587850 0.00000073
0.44184488 0.31272268 0.00000073
0.47492636 0.32083645 0.00000073
0.50784838 0.33037986 0.00000073
0.54054099 0.34147737 0.00000073
0.57293979 0.35420253 0.00000073
0.60498317 0.36856797 0.00000073
0.63661142 0.38452315 0.00000073
0.66776509 0.40195950 0.00000073
0.69838357 0.42072090 0.00000073
0.72840479 0.44061717 0.07661516
0.75776478 0.46143727 0.11619602
0.78638944 0.48295267 0.14467688
0.81429352 0.50500273 0.16908259
0.84154023 0.52748753 0.19147957
0.86810484 0.55025929 0.21270786
0.89396189 0.57318053 0.23319463
0.90257239 0.59612381 0.25317314
0.90257239 0.61897084 0.27277120
0.14041557 0.30430380 0.00000073
0.14161902 0.30626655 0.00000073
0.14289982 0.30825625 0.00000073
0.14607853 0.31027680 0.00000073
0.15303413 0.31233497 0.00000073
0.16493448 0.31444033 0.00000073
0.18210012 0.31660930 0.00000073
0.20396602 0.31886685 0.00000073
0.22951329 0.32124849 0.00000073
0.25771146 0.32380213 0.00000073
0.28772849 0.32659011 0.00000073
0.31895894 0.32968980 0.00000073
0.35096606 0.33319323 0.00000073
0.38343485 0.33722198 0.00000073
0.41613879 0.34191740 0.00000073
0.44891037 0.34743618 0.00000073
0.48162083 0.35394405 0.00000073
0.51416653 0.36160567 0.00000073
0.54645985 0.37057096 0.00000073
0.57842307 0.38095954 0.00000073
0.60998437 0.39284573 0.00000073
0.64107586 0.40624761 0.00000073
0.67163053 0.42112123 0.00000073
0.70157009 0.43735242 0.00000073
0.73082836 0.45478844 0.00000073
0.75937520 0.47326159 0.00000073
0.78728123 0.49265070 0.10017093
0.81453122 0.51278957 0.14114822
0.84109983 0.53350660 0.17121076
0.86696134 0.55463531 0.19684509
0.89208951 0.57601762 0.22008386
0.90257239 0.59750541 0.24182480
0.90257239 0.61896091 0.26252813
0.16478647 0.34314761 0.00000073
0.16614555 0.34526124 0.00000073
0.16767115 0.34738622 0.00000073
0.17087956 0.34952451 0.00000073
0.17705020 0.35167828 0.00000073
0.18722696 0.35385250 0.00000073
0.20198273 0.35605690 0.00000073
0.22122931 0.35830733 0.00000073
0.24435332 0.36062725 0.00000073
0.27052281 0.36304903 0.00000073
0.29893950 0.36560563 0.00000073
0.32893024 0.36835429 0.00000073
0.35997030 0.37137399 0.00000073
0.39166749 0.37475986 0.00000073
0.42373089 0.37862374 0.00000073
0.45594235 0.38309351 0.00000073
0.48813438 0.38831028 0.00000073
0.52017403 0.39442277 0.00000073
0.55195148 0.40157836 0.00000073
0.58336801 0.40990684 0.00000073
0.61432803 0.41950400 0.00000073
0.64475813 0.43043995 0.00000073
0.67458963 0.44273382 0.00000073
0.70376129 0.45634911 0.00000073
0.73230831 0.47123496 0.00000073
0.76023101 0.48729733 0.00000073
0.78750234 0.50440154 0.00000073
0.81409555 0.52239095 0.00000073
0.83998398 0.54109665 0.12558643
0.86514075 0.56034568 0.16675068
0.88953865 0.57996738 0.19744991
0.90257239 0.59979756 0.22349616
0.90257239 0.61968100 0.24686455
0.19048090 0.38227415 0.00000073
0.19195948 0.38447512 0.00000073
0.19369341 0.38667147 0.00000073
0.19685339 0.38886312 0.00000073
0.20234824 0.39104956 0.00000073
0.21106961 0.39323266 0.00000073
0.22367742 0.39541770 0.00000073
0.24039456 0.39761433 0.00000073
0.26098021 0.39982803 0.00000073
0.28487337 0.40206910 0.00000073
0.31137325 0.40437529 0.00000073
0.33980187 0.40679504 0.00000073
0.36958140 0.40938857 0.00000073
0.40025109 0.41222918 0.00000073
0.43145455 0.41540421 0.00000073
0.46291813 0.41901525 0.00000073
0.49442018 0.42316752 0.00000073
0.52578846 0.42798190 0.00000073
0.55689205 0.43359484 0.00000073
0.58762143 0.44013951 0.00000073
0.61788166 0.44773529 0.00000073
0.64758789 0.45647548 0.00000073
0.67671225 0.46642717 0.00000073
0.70526185 0.47762890 0.00000073
0.73320280 0.49007040 0.00000073
0.76050371 0.50369889 0.00000073
0.78713473 0.51842246 0.00000073
0.81306697 0.53411668 0.00000073
0.83827200 0.55063306 0.00000073
0.86272151 0.56780803 0.06301581
0.88638710 0.58547107 0.14950964
0.90257239 0.60345132 0.19039732
0.90257239 0.62158243 0.22111526
0.21733793 0.42148406 0.00000073
0.21889469 0.42370952 0.00000073
0.22077678 0.42591407 0.00000073
0.22382174 0.42809576 0.00000073
0.22870752 0.43025248 0.00000073
0.23617643 0.43238399 0.00000073
0.24688276 0.43448752 0.00000073
0.26123507 0.43654473 0.00000073
0.27928614 0.43856784 0.00000073
0.30073527 0.44057899 0.00000073
0.32504994 0.44260728 0.00000073
0.35161417 0.44468990 0.00000073
0.37983656 0.44687180 0.00000073
0.40919516 0.44919720 0.00000073
0.43927604 0.45173617 0.00000073
0.46975457 0.45457458 0.00000073
0.50037572 0.45780997 0.00000073
0.53093763 0.46154999 0.00000073
0.56127778 0.46590963 0.00000073
0.59126188 0.47100577 0.00000073
0.62079124 0.47695169 0.00000073
0.64983804 0.48385542 0.00000073
0.67835326 0.49180305 0.00000073
0.70629155 0.50085501 0.00000073
0.73361316 0.51103938 0.00000073
0.76028214 0.52234709 0.00000073
0.78626514 0.53473049 0.00000073
0.81153049 0.54810531 0.00000073
0.83604754 0.56235584 0.00000073
0.85978621 0.57734201 0.00000073
0.88271661 0.59290729 0.00000073
0.90257239 0.60888635 0.08686618
0.90257239 0.62511149 0.16827218
0.24518147 0.46057947 0.00000073
0.24677173 0.46276647 0.00000073
0.24872605 0.46491634 0.00000073
0.25159694 0.46702549 0.00000073
0.25591285 0.46908974 0.00000073
0.26227454 0.47107973 0.00000073
0.27129982 0.47298677 0.00000073
0.28348600 0.47481990 0.00000073
0.29907730 0.47659201 0.00000073
0.31800333 0.47831516 0.00000073
0.33991898 0.48000242 0.00000073
0.36432806 0.48168824 0.00000073
0.39068160 0.48341493 0.00000073
0.41845737 0.48523292 0.00000073
0.44720020 0.48720160 0.00000073
0.47653263 0.48938979 0.00000073
0.50614940 0.49187602 0.00000073
0.53580519 0.49474773 0.00000073
0.56530365 0.49809978 0.00000073
0.59452366 0.50203666 0.00000073
0.62337197 0.50665830 0.00000073
0.65176790 0.51205999 0.00000073
0.67964582 0.51832881 0.00000073
0.70695097 0.52553662 0.00000073
0.73363631 0.53373292 0.00000073
0.75966028 0.54293862 0.00000073
0.78498512 0.55314174 0.00000073
0.80957571 0.56429578 0.00000073
0.83339865 0.57632107 0.00000073
0.85642163 0.58910871 0.00000073
0.87861298 0.60252656 0.00000073
0.89994128 0.61642598 0.00000073
0.90257239 0.63064872 0.00000073
0.27382022 0.49936318 0.00000073
0.27540930 0.50144946 0.00000073
0.27733846 0.50348188 0.00000073
0.27996898 0.50543689 0.00000073
0.28370468 0.50728229 0.00000073
0.28906178 0.50902017 0.00000073
0.29658722 0.51064453 0.00000073
0.30678746 0.51216027 0.00000073
0.32002321 0.51358388 0.00000073
0.33641793 0.51493549 0.00000073
0.35583579 0.51623953 0.00000073
0.37792979 0.51752544 0.00000073
0.40223009 0.51882825 0.00000073
0.42823186 0.52018945 0.00000073
0.45545715 0.52165763 0.00000073
0.48348620 0.52328888 0.00000073
0.51196617 0.52514694 0.00000073
0.54061890 0.52730926 0.00000073
0.56924176 0.52985688 0.00000073
0.59767447 0.53286747 0.00000073
0.62579158 0.53642288 0.00000073
0.65349366 0.54060610 0.00000073
0.68070050 0.54549696 0.00000073
0.70734601 0.55116687 0.00000073
0.73337434 0.55767284 0.00000073
0.75873705 0.56505159 0.00000073
0.78339101 0.57331433 0.00000073
0.80729685 0.58244326 0.00000073
0.83041781 0.59239012 0.00000073
0.85271888 0.60307725 0.00000073
0.87416619 0.61440087 0.00000073
0.89472650 0.62623598 0.00000073
0.90257239 0.63844223 0.00000073
0.30304812 0.53763808 0.00000073
0.30457698 0.53955339 0.00000073
0.30635041 0.54134453 0.00000073
0.30862832 0.54299238 0.00000073
0.31175483 0.54450100 0.00000073
0.31615863 0.54587881 0.00000073
0.32232685 0.54713607 0.00000073
0.33075068 0.54828522 0.00000073
0.34184387 0.54934125 0.00000073
0.35585645 0.55032214 0.00000073
0.37281856 0.55124929 0.00000073
0.39253980 0.55214814 0.00000073
0.41466063 0.55304870 0.00000073
0.43872901 0.55398604 0.00000073
0.46427173 0.55500081 0.00000073
0.49084335 0.55614405 0.00000073
0.51806202 0.55748137 0.00000073
0.54562343 0.55906587 0.00000073
0.57328456 0.56095503 0.00000073
0.60085313 0.56321187 0.00000073
0.62817723 0.56590366 0.00000073
0.65513610 0.56910004 0.00000073
0.68163261 0.57287005 0.00000073
0.70758736 0.57727831 0.00000073
0.73293403 0.58238055 0.00000073
0.75761599 0.58821856 0.00000073
0.78158366 0.59481541 0.00000073
0.80479255 0.60217131 0.00000073
0.82720184 0.61026094 0.00000073
0.84877702 0.61903625 0.00000073
0.86951685 0.62845561 0.00000073
0.88943726 0.63844435 0.00000073
0.90257239 0.64895870 0.00000073
0.33258447 0.57513130 0.00000073
0.33389080 0.57669047 0.00000073
0.33536996 0.57809973 0.00000073
0.33723436 0.57936499 0.00000073
0.33976422 0.58049335 0.00000073
0.34331394 0.58149331 0.00000073
0.34830222 0.58237497 0.00000073
0.35517973 0.58315026 0.00000073
0.36437132 0.58383329 0.00000073
0.37620142 0.58444062 0.00000073
0.39082596 0.58499170 0.00000073
0.40819822 0.58550922 0.00000073
0.42808270 0.58601956 0.00000073
0.45010717 0.58655463 0.00000073
0.47382266 0.58716972 0.00000073
0.49879129 0.58790519 0.00000073
0.52462035 0.58879775 0.00000073
0.55097364 0.58988898 0.00000073
0.57757343 0.59122532 0.00000073
0.60419499 0.59285780 0.00000073
0.63065823 0.59484125 0.00000073
0.65681891 0.59723300 0.00000073
0.68256086 0.60009087 0.00000073
0.70778939 0.60347048 0.00000073
0.73242606 0.60742177 0.00000073
0.75640465 0.61198523 0.00000073
0.77968179 0.61720164 0.00000073
0.80223926 0.62311301 0.00000073
0.82403165 0.62970869 0.00000073
0.84502453 0.63695651 0.00000073
0.86530293 0.64483557 0.00000073
0.88489715 0.65330481 0.00000073
0.90257239 0.66230450 0.00000073
0.36202278 0.61144112 0.00000073
0.36304855 0.61260225 0.00000073
0.36419818 0.61361525 0.00000073
0.36564076 0.61448649 0.00000073
0.36760548 0.61522342 0.00000073
0.37038696 0.61583478 0.00000073
0.37434327 0.61633074 0.00000073
0.37987829 0.61672304 0.00000073
0.38740271 0.61702532 0.00000073
0.39727518 0.61725329 0.00000073
0.40973621 0.61742507 0.00000073
0.42485679 0.61756150 0.00000073
0.44251388 0.61770464 0.00000073
0.46242064 0.61789765 0.00000073
0.48420279 0.61816370 0.00000073
0.50745213 0.61852932 0.00000073
0.53177200 0.61902472 0.00000073
0.55680469 0.61968392 0.00000073
0.58224318 0.62054480 0.00000073
0.60783208 0.62164894 0.00000073
0.63336277 0.62304105 0.00000073
0.65866619 0.62476807 0.00000073
0.68360573 0.62687808 0.00000073
0.70809884 0.62944695 0.00000073
0.73207095 0.63253519 0.00000073
0.75544366 0.63617771 0.00000073
0.77814984 0.64039947 0.00000073
0.80013082 0.64521226 0.00000073
0.82140136 0.65062365 0.00000073
0.84200560 0.65663364 0.00000073
0.86193598 0.66322238 0.00000073
0.88118690 0.67035832 0.00000073
0.89975397 0.67799870 0.00000073
0.39121493 0.64650625 0.00000073
0.39192603 0.64725648 0.00000073
0.39271779 0.64786046 0.00000073
0.39373018 0.64832505 0.00000073
0.39515314 0.64865820 0.00000073
0.39723370 0.64886897 0.00000073
0.40027841 0.64896774 0.00000073
0.40464487 0.64896629 0.00000073
0.41071671 0.64887807 0.00000073
0.41885961 0.64871830 0.00000073
0.42936290 0.64851407 0.00000073
0.44237197 0.64831742 0.00000073
0.45786207 0.64814688 0.00000073
0.47565574 0.64801974 0.00000073
0.49545816 0.64795572 0.00000073
0.51690690 0.64797722 0.00000073
0.53962003 0.64810954 0.00000073
0.56323211 0.64838097 0.00000073
0.58741526 0.64882285 0.00000073
0.61189338 0.64947518 0.00000073
0.63646653 0.65041062 0.00000073
0.66094581 0.65167299 0.00000073
0.68517120 0.65330040 0.00000073
0.70901142 0.65533017 0.00000073
0.73235805 0.65779698 0.00000073
0.75512041 0.66073050 0.00000073
0.77724311 0.66415638 0.00000073
0.79874697 0.66809952 0.00000073
0.81961518 0.67256744 0.00000073
0.83983172 0.67755870 0.00000073
0.85938450 0.68306279 0.00000073
0.87826417 0.68905950 0.00000073
0.89646315 0.69551882 0.00000073
0.42004072 0.68029308 0.00000073
0.42040198 0.68061841 0.00000073
0.42080996 0.68079947 0.00000073
0.42138237 0.68084370 0.00000073
0.42227897 0.68075954 0.00000073
0.42370933 0.68055648 0.00000073
0.42593750 0.68024522 0.00000073
0.42927917 0.67983772 0.00000073
0.43408729 0.67935007 0.00000073
0.44072545 0.67883664 0.00000073
0.44948601 0.67832256 0.00000073
0.46056057 0.67781978 0.00000073
0.47401068 0.67734175 0.00000073
0.48975460 0.67690370 0.00000073
0.50758220 0.67652279 0.00000073
0.52719111 0.67621832 0.00000073
0.54824840 0.67602935 0.00000073
0.57042522 0.67600948 0.00000073
0.59338287 0.67618448 0.00000073
0.61681837 0.67658180 0.00000073
0.64047098 0.67723084 0.00000073
0.66412148 0.67816237 0.00000073
0.68758794 0.67940772 0.00000073
0.71072001 0.68099763 0.00000073
0.73339652 0.68296173 0.00000073
0.75556809 0.68533652 0.00000073
0.77719462 0.68814286 0.00000073
0.79823781 0.69139349 0.00000073
0.81866872 0.69509626 0.00000073
0.83846525 0.69925299 0.00000073
0.85761028 0.70385848 0.00000073
0.87609025 0.70889975 0.00000073
0.89389409 0.71435562 0.00000073
