resources/flame/Syncolor/Shared/transforms/camera_manufacturer_luts/arri/ARRI_Alexa_LUTs/ARRI_LogC3_v1-2_LUT_Package/LUTs/ARRI_LogC3-to-HLG_1K_Rec2100-D65_DW200_v1_33.cube
LUT_3D_SIZE 9
0.005478 0.005478 0.005478
0.070588 0.015320 0.003708
0.161654 0.035065 0.006088
0.298543 0.064775 0.011231
0.525124 0.114183 0.019806
0.747387 0.192142 0.033341
0.935317 0.315221 0.054688
1.000000 0.531487 0.092531
1.000000 0.769467 0.162585
0.009873 0.035355 0.003906
0.030884 0.032975 0.003861
0.133867 0.039414 0.003235
0.293523 0.068116 0.008682
0.540703 0.120302 0.019348
0.770001 0.204990 0.034668
0.963134 0.340795 0.058549
1.000000 0.572305 0.100618
1.000000 0.790570 0.171344
0.038254 0.137041 0.002976
0.047364 0.141650 0.002960
0.137255 0.146502 0.002869
0.315053 0.156008 0.002655
0.583719 0.187076 0.002396
0.807874 0.259693 0.012497
0.993515 0.390646 0.052903
1.000000 0.607950 0.099977
1.000000 0.794965 0.166979
0.091234 0.326833 0.002502
0.100969 0.340642 0.002487
0.169177 0.354162 0.002457
0.343236 0.366369 0.002380
0.618723 0.381827 0.002258
0.834119 0.420035 0.002090
1.000000 0.508385 0.001938
1.000000 0.655161 0.046372
1.000000 0.797269 0.130388
0.184054 0.626886 0.002182
0.195163 0.640864 0.002167
0.244083 0.651530 0.002152
0.389090 0.659037 0.002121
0.636988 0.664317 0.002090
0.839704 0.671794 0.001999
1.000000 0.691676 0.001892
1.000000 0.750149 0.001862
1.000000 0.826307 0.001831
0.333028 0.861769 0.001938
0.340444 0.865583 0.001938
0.370993 0.866163 0.001923
0.475395 0.864286 0.001923
0.658381 0.861112 0.001923
0.832593 0.857252 0.001892
0.983001 0.854871 0.001846
1.000000 0.867994 0.001816
1.000000 0.894499 0.001801
0.548760 1.000000 0.001785
0.539437 1.000000 0.001785
0.542855 1.000000 0.001785
0.587869 1.000000 0.001785
0.690898 0.999542 0.001785
0.822431 0.986297 0.001785
0.950332 0.974304 0.001770
1.000000 0.968429 0.001755
1.000000 0.970993 0.001755
0.737575 1.000000 0.001770
0.712612 1.000000 0.001770
0.693538 1.000000 0.001785
0.697826 1.000000 0.001785
0.745663 1.000000 0.001770
0.831098 1.000000 0.001770
0.928985 1.000000 0.001755
1.000000 1.000000 0.001740
1.000000 1.000000 0.001740
0.855085 1.000000 0.001770
0.816907 1.000000 0.001770
0.784100 1.000000 0.001770
0.770321 1.000000 0.001770
0.789639 1.000000 0.001770
0.843519 1.000000 0.001770
0.915785 1.000000 0.001755
0.988144 1.000000 0.001740
1.000000 1.000000 0.001740
0.004181 0.004181 0.085588
0.060197 0.003815 0.054566
0.151949 0.029938 0.030610
0.291981 0.062730 0.022065
0.523049 0.113436 0.025757
0.747570 0.192111 0.036835
0.936767 0.316381 0.057084
1.000000 0.534066 0.094530
1.000000 0.766018 0.162280
0.003983 0.031281 0.031907
0.029618 0.029618 0.029618
0.135897 0.037888 0.024903
0.297230 0.068132 0.025147
0.546532 0.121416 0.030411
0.774945 0.207385 0.042405
0.965347 0.342748 0.063966
1.000000 0.568200 0.103624
1.000000 0.777859 0.169116
0.038071 0.138262 0.002976
0.047379 0.143587 0.002945
0.139391 0.148425 0.002853
0.321431 0.157839 0.002640
0.590890 0.189532 0.012955
0.810697 0.262074 0.038041
0.991302 0.389456 0.065309
1.000000 0.596124 0.107088
1.000000 0.776425 0.167819
0.092195 0.331548 0.002502
0.102174 0.345846 0.002472
0.171023 0.359380 0.002441
0.347677 0.370779 0.002380
0.622522 0.385855 0.002258
0.833280 0.423621 0.002090
1.000000 0.508186 0.001938
1.000000 0.645884 0.079637
1.000000 0.779263 0.145480
0.186038 0.632151 0.002167
0.196887 0.644938 0.002152
0.246387 0.654459 0.002152
0.393011 0.661082 0.002121
0.638987 0.666026 0.002075
0.837659 0.673716 0.001999
0.997711 0.693050 0.001907
1.000000 0.746197 0.001862
1.000000 0.815229 0.001846
0.333577 0.862654 0.001938
0.340047 0.864958 0.001938
0.371710 0.864393 0.001938
0.479271 0.862272 0.001923
0.660945 0.859098 0.001923
0.830961 0.855451 0.001892
0.975830 0.853605 0.001846
1.000000 0.865476 0.001816
1.000000 0.889693 0.001801
0.541039 1.000000 0.001785
0.530587 1.000000 0.001785
0.535897 1.000000 0.001785
0.586893 1.000000 0.001785
0.693309 0.992950 0.001801
0.822629 0.980591 0.001785
0.945937 0.969711 0.001785
1.000000 0.964218 0.001770
1.000000 0.966812 0.001770
0.723217 1.000000 0.001770
0.697780 1.000000 0.001785
0.680430 1.000000 0.001785
0.690394 1.000000 0.001785
0.744167 1.000000 0.001770
0.830915 1.000000 0.001770
0.926329 1.000000 0.001755
1.000000 1.000000 0.001740
1.000000 1.000000 0.001740
0.834043 1.000000 0.001770
0.795941 1.000000 0.001770
0.766812 1.000000 0.001770
0.759228 1.000000 0.001770
0.785504 1.000000 0.001770
0.843336 1.000000 0.001770
0.915282 1.000000 0.001755
0.984497 1.000000 0.001740
1.000000 1.000000 0.001740
0.003693 0.003693 0.160586
0.031174 0.003754 0.133623
0.136660 0.003250 0.096162
0.281697 0.049668 0.078340
0.512428 0.106477 0.072786
0.741924 0.187060 0.073823
0.933242 0.312093 0.083925
1.000000 0.524819 0.112306
1.000000 0.752346 0.170764
0.003799 0.003799 0.140383
0.003769 0.003769 0.143557
0.130297 0.003250 0.126833
0.296880 0.046311 0.113283
0.548638 0.112779 0.107256
0.776547 0.203479 0.107271
0.963729 0.338537 0.115251
1.000000 0.556329 0.142046
1.000000 0.758602 0.193408
0.013001 0.127337 0.129656
0.030106 0.132586 0.135393
0.137285 0.137285 0.137285
0.327321 0.147982 0.133471
0.596094 0.183078 0.130571
0.811261 0.257771 0.131838
0.986191 0.382147 0.140490
1.000000 0.579889 0.167575
1.000000 0.754818 0.213413
0.086458 0.331579 0.096391
0.096910 0.346136 0.101671
0.168673 0.359686 0.105837
0.350484 0.370138 0.111589
0.625742 0.384649 0.122332
0.831525 0.422553 0.134722
0.995590 0.504189 0.151171
1.000000 0.634043 0.182910
1.000000 0.759197 0.228077
0.184253 0.635065 0.002167
0.194858 0.646616 0.002152
0.246006 0.655314 0.002152
0.395422 0.661418 0.002121
0.640681 0.666239 0.002075
0.835645 0.674083 0.036027
0.990402 0.693065 0.107836
1.000000 0.741360 0.164172
1.000000 0.804669 0.221485
0.331075 0.861952 0.001938
0.336843 0.862867 0.001938
0.370657 0.861830 0.001938
0.482216 0.859678 0.001923
0.663325 0.856580 0.001923
0.829435 0.853162 0.001892
0.969268 0.851926 0.001846
1.000000 0.862699 0.001816
1.000000 0.884962 0.161379
0.530480 1.000000 0.001785
0.519722 1.000000 0.001785
0.527810 1.000000 0.001785
0.586557 0.998779 0.001801
0.696025 0.986404 0.001801
0.823026 0.975067 0.001801
0.942000 0.965164 0.001785
1.000000 0.959991 0.001770
1.000000 0.962631 0.001770
0.707500 1.000000 0.001785
0.681865 1.000000 0.001785
0.667185 1.000000 0.001785
0.684016 1.000000 0.001785
0.743465 1.000000 0.001770
0.831266 1.000000 0.001770
0.924163 1.000000 0.001755
1.000000 1.000000 0.001740
1.000000 1.000000 0.001740
0.811948 1.000000 0.001770
0.775509 1.000000 0.001770
0.750576 1.000000 0.001770
0.749630 1.000000 0.001770
0.782864 1.000000 0.001770
0.844221 1.000000 0.001770
0.915557 1.000000 0.001755
0.981781 1.000000 0.001740
1.000000 1.000000 0.624994
0.003464 0.003464 0.222507
0.003540 0.003540 0.197040
0.114473 0.003281 0.163348
0.266117 0.002869 0.142855
0.493660 0.088792 0.131823
0.730602 0.175174 0.127825
0.923156 0.300038 0.131151
1.000000 0.501549 0.149950
1.000000 0.727230 0.196063
0.003403 0.003403 0.241657
0.003388 0.003388 0.249424
0.105486 0.003204 0.246616
0.284215 0.002808 0.228000
0.541024 0.072023 0.214740
0.769848 0.183108 0.207370
0.954223 0.320592 0.207019
1.000000 0.528038 0.224109
1.000000 0.730068 0.262470
0.003159 0.047318 0.314687
0.003143 0.041749 0.333730
0.116152 0.042924 0.342473
0.322271 0.077760 0.321324
0.594278 0.139391 0.302113
0.807080 0.230076 0.290517
0.977401 0.358877 0.286397
1.000000 0.552773 0.303105
1.000000 0.727092 0.336416
0.032181 0.310124 0.314855
0.049760 0.323186 0.329473
0.148119 0.335485 0.341573
0.345510 0.345510 0.345510
0.626993 0.362051 0.341360
0.828626 0.403937 0.337270
0.987686 0.486458 0.337041
1.000000 0.614527 0.357763
1.000000 0.734691 0.392935
0.166888 0.630503 0.271977
0.177630 0.640894 0.283070
0.234424 0.649042 0.294789
0.390677 0.655650 0.305882
0.640482 0.660487 0.318532
0.833356 0.668605 0.337148
0.982498 0.688212 0.356664
1.000000 0.733227 0.389334
1.000000 0.792386 0.431647
0.319814 0.858473 0.002899
0.325322 0.858350 0.096361
0.362799 0.857191 0.144869
0.480644 0.855161 0.188785
0.664088 0.852216 0.233951
0.827619 0.849042 0.283040
0.963134 0.848341 0.330846
1.000000 0.858198 0.381659
1.000000 0.878981 0.439200
0.514351 1.000000 0.001785
0.503258 1.000000 0.001785
0.517571 1.000000 0.001785
0.584588 0.990906 0.001801
0.697749 0.979522 0.001801
0.823117 0.969055 0.113085
0.938247 0.959930 0.247807
1.000000 0.954971 0.343999
1.000000 0.957671 0.436194
0.689158 1.000000 0.001785
0.663478 1.000000 0.001785
0.653086 1.000000 0.001785
0.677455 1.000000 0.001785
0.742748 1.000000 0.001770
0.831662 1.000000 0.001770
0.922194 1.000000 0.132677
1.000000 1.000000 0.333791
1.000000 1.000000 0.499153
0.788937 1.000000 0.001770
0.754940 1.000000 0.001770
0.734554 1.000000 0.001770
0.740826 1.000000 0.001770
0.781201 1.000000 0.001770
0.845869 1.000000 0.001770
0.916396 1.000000 0.175128
0.981567 1.000000 0.611200
1.000000 1.000000 0.856947
0.003326 0.003326 0.274662
0.003388 0.003388 0.248447
0.087205 0.003281 0.226429
0.244663 0.002884 0.204898
0.470024 0.053117 0.190509
0.714412 0.156344 0.182635
0.906676 0.280568 0.182132
1.000000 0.465660 0.194629
1.000000 0.690776 0.232853
0.003204 0.003204 0.331426
0.003174 0.003174 0.344961
0.056031 0.003113 0.358755
0.259800 0.002792 0.343664
0.520745 0.002502 0.328450
0.755489 0.137392 0.317174
0.937316 0.286366 0.312642
1.000000 0.480858 0.325017
1.000000 0.691341 0.360128
0.002960 0.002960 0.482902
0.002930 0.002930 0.510964
0.002899 0.002899 0.538338
0.289220 0.002670 0.529229
0.577707 0.002411 0.506813
0.794675 0.147585 0.484230
0.962676 0.306050 0.469551
1.000000 0.500771 0.479454
1.000000 0.686366 0.509636
0.002579 0.229587 0.588968
0.002548 0.234562 0.611887
0.023590 0.241489 0.631586
0.318090 0.249912 0.635508
0.616556 0.277836 0.620584
0.821088 0.337346 0.601205
0.976730 0.433494 0.586252
1.000000 0.573861 0.592142
1.000000 0.700587 0.611688
0.065858 0.601923 0.607050
0.084947 0.611276 0.618540
0.179187 0.619364 0.627527
0.365621 0.627115 0.633799
0.633753 0.633753 0.633753
0.829755 0.645441 0.629297
0.973922 0.669703 0.626505
1.000000 0.715450 0.635889
1.000000 0.773922 0.654673
0.280522 0.848127 0.544701
0.287251 0.847578 0.557259
0.333211 0.846326 0.570199
0.465156 0.844602 0.583139
0.659648 0.842451 0.594797
0.824491 0.839963 0.606561
0.957183 0.839902 0.622095
1.000000 0.849531 0.641382
1.000000 0.869780 0.667048
0.482277 1.000000 0.343633
0.473350 1.000000 0.387930
0.495308 0.992508 0.434485
0.576181 0.981079 0.480339
0.696300 0.970687 0.522454
0.821744 0.961105 0.559518
0.934203 0.952712 0.595285
1.000000 0.948013 0.631830
1.000000 0.951019 0.672541
0.664637 1.000000 0.001785
0.639536 1.000000 0.001785
0.634867 1.000000 0.106477
0.668299 1.000000 0.300816
0.740612 1.000000 0.411231
0.831266 1.000000 0.502251
0.919814 1.000000 0.577173
0.994751 1.000000 0.638972
1.000000 1.000000 0.755688
0.764004 1.000000 0.001770
0.732326 1.000000 0.001770
0.717098 1.000000 0.001770
0.731670 1.000000 0.001770
0.779751 1.000000 0.315602
0.847761 1.000000 0.491402
0.922774 1.000000 0.658808
0.983474 1.000000 0.840162
1.000000 1.000000 0.950042
0.003204 0.003204 0.326085
0.003265 0.003265 0.300633
0.046098 0.003235 0.293904
0.220584 0.002899 0.272786
0.444114 0.002579 0.255558
0.694804 0.126558 0.243931
0.886320 0.254414 0.239826
1.000000 0.422568 0.246021
1.000000 0.646036 0.279759
0.003052 0.003052 0.415061
0.003037 0.003037 0.433219
0.003006 0.003006 0.455604
0.227115 0.002792 0.452293
0.488411 0.002502 0.436072
0.735134 0.002258 0.423957
0.914534 0.234958 0.416480
1.000000 0.421180 0.425147
1.000000 0.641306 0.464866
0.002808 0.002808 0.605447
0.002777 0.002777 0.631464
0.002747 0.002747 0.656168
0.233143 0.002640 0.665873
0.541650 0.002411 0.655360
0.774380 0.002213 0.642344
0.943114 0.202609 0.630518
1.000000 0.415534 0.632547
1.000000 0.626474 0.653666
0.002609 0.002609 0.763088
0.002579 0.002579 0.782284
0.002564 0.002564 0.798734
0.244144 0.002487 0.805203
0.589151 0.002335 0.792584
0.806226 0.149477 0.773068
0.960372 0.317342 0.754742
1.000000 0.487358 0.750607
1.000000 0.646555 0.760861
0.002228 0.508400 0.823545
0.002213 0.515587 0.832776
0.002213 0.525383 0.839963
0.290791 0.536767 0.843290
0.611109 0.550500 0.839536
0.818280 0.577920 0.825864
0.962646 0.619348 0.810803
1.000000 0.676005 0.805386
1.000000 0.741650 0.810315
0.115785 0.820493 0.823896
0.137835 0.819806 0.825376
0.230823 0.818952 0.825803
0.412726 0.818143 0.825086
0.644114 0.817792 0.822889
0.817533 0.817533 0.817533
0.950469 0.820401 0.810986
1.000000 0.832166 0.809827
1.000000 0.854170 0.817029
0.409964 0.999420 0.763409
0.405905 0.988113 0.766064
0.441871 0.976608 0.769604
0.550774 0.966247 0.773587
0.688319 0.957015 0.777462
0.817380 0.948867 0.780652
0.929351 0.941604 0.785504
1.000000 0.937484 0.795926
1.000000 0.941573 0.813336
0.623728 1.000000 0.662577
0.600473 1.000000 0.683604
0.604410 1.000000 0.701564
0.651957 1.000000 0.718074
0.735012 1.000000 0.734249
0.829206 1.000000 0.751049
0.916640 1.000000 0.769833
0.987015 1.000000 0.808896
1.000000 0.990768 0.892744
0.732921 1.000000 0.353109
0.703426 1.000000 0.515160
0.694743 1.000000 0.604654
0.719997 1.000000 0.661769
0.777554 1.000000 0.706020
0.851972 1.000000 0.751827
0.938109 1.000000 0.851148
0.986801 1.000000 0.943664
0.997848 0.999893 0.981064
0.003113 0.003113 0.376226
0.003159 0.003159 0.354360
0.003143 0.003143 0.358556
0.192844 0.002914 0.345312
0.414603 0.002594 0.326070
0.672175 0.070771 0.312367
0.862715 0.219471 0.304952
1.000000 0.376196 0.306584
1.000000 0.594186 0.337514
0.002945 0.002945 0.502205
0.002914 0.002914 0.524483
0.002884 0.002884 0.549142
0.183459 0.002762 0.559594
0.449897 0.002518 0.547234
0.708553 0.002289 0.534722
0.889845 0.152163 0.526696
1.000000 0.350362 0.526375
1.000000 0.576959 0.563256
0.002701 0.002701 0.689220
0.002670 0.002670 0.712734
0.002640 0.002640 0.734890
0.149828 0.002594 0.751720
0.490883 0.002411 0.747127
0.746914 0.002228 0.738720
0.919356 0.002045 0.732158
1.000000 0.292302 0.731106
1.000000 0.535561 0.751400
0.002487 0.002487 0.849729
0.002472 0.002472 0.868437
0.002441 0.002441 0.884642
0.002426 0.002426 0.898787
0.526329 0.002304 0.894011
0.779202 0.002152 0.881819
0.939635 0.002014 0.867903
1.000000 0.322362 0.858976
1.000000 0.550973 0.866407
0.002304 0.210636 0.966201
0.002289 0.195361 0.975341
0.002289 0.201831 0.981659
0.002274 0.239292 0.984726
0.565209 0.303334 0.973342
0.799466 0.390906 0.955428
0.946975 0.494606 0.936233
1.000000 0.597040 0.922820
1.000000 0.687526 0.921172
0.001999 0.757504 0.993957
0.001999 0.757046 0.992447
0.001999 0.758495 0.988876
0.273701 0.761852 0.983093
0.607843 0.765728 0.974868
0.803433 0.771099 0.963989
0.938720 0.782040 0.948150
1.000000 0.800595 0.934218
1.000000 0.828824 0.929961
0.177081 0.969802 0.972580
0.203967 0.958724 0.963699
0.301518 0.948775 0.955123
0.477379 0.940215 0.947021
0.667445 0.932937 0.939086
0.808927 0.927077 0.931090
0.922469 0.922469 0.922469
1.000000 0.921065 0.915541
1.000000 0.929564 0.919844
0.532815 1.000000 0.917464
0.515084 1.000000 0.908858
0.541848 1.000000 0.901884
0.620310 1.000000 0.896559
0.723461 1.000000 0.893004
0.824781 1.000000 0.891341
0.913878 0.999771 0.893965
0.980652 0.987045 0.921096
0.996979 0.983505 0.960266
0.685130 1.000000 0.839567
0.659113 1.000000 0.844266
0.661662 1.000000 0.849470
0.703685 1.000000 0.855695
0.774304 1.000000 0.863691
0.872602 1.000000 0.895506
0.958465 1.000000 0.947295
0.990082 0.999115 0.979965
0.997589 0.998154 0.993088
0.003037 0.003037 0.424949
0.003067 0.003067 0.410803
0.003052 0.003052 0.421698
0.159411 0.002899 0.420539
0.382086 0.002625 0.401083
0.644999 0.002365 0.385977
0.836057 0.170169 0.376699
0.993210 0.327276 0.376516
1.000000 0.531640 0.403403
0.002853 0.002853 0.579782
0.002823 0.002823 0.601038
0.002792 0.002792 0.623514
0.119112 0.002731 0.641672
0.405692 0.002518 0.635248
0.678202 0.002304 0.625772
0.863539 0.002121 0.620157
1.000000 0.262760 0.618326
1.000000 0.486503 0.643427
0.002609 0.002609 0.757885
0.002579 0.002579 0.779400
0.002564 0.002564 0.799542
0.002533 0.002533 0.818265
0.427543 0.002396 0.819562
0.715038 0.002228 0.813611
0.891691 0.002075 0.807568
1.000000 0.001938 0.804562
1.000000 0.391928 0.822766
0.002411 0.002411 0.914870
0.002380 0.002380 0.931167
0.002365 0.002365 0.945663
0.002350 0.002350 0.959060
0.434745 0.002274 0.962432
0.744076 0.002152 0.955612
0.913100 0.002029 0.946166
1.000000 0.001923 0.937285
1.000000 0.352926 0.945342
0.002243 0.002243 1.000000
0.002228 0.002228 1.000000
0.002228 0.002228 1.000000
0.002213 0.002213 1.000000
0.454398 0.002182 1.000000
0.770565 0.002090 1.000000
0.928878 0.116732 1.000000
1.000000 0.406943 1.000000
1.000000 0.590768 1.000000
0.002075 0.595148 1.000000
0.002060 0.597848 1.000000
0.002060 0.612879 1.000000
0.002045 0.635966 1.000000
0.531777 0.660349 1.000000
0.783078 0.686854 1.000000
0.923323 0.718013 1.000000
1.000000 0.752346 1.000000
1.000000 0.794171 1.000000
0.001862 0.919432 1.000000
0.001862 0.910353 1.000000
0.001862 0.903624 1.000000
0.307271 0.898772 1.000000
0.626078 0.895216 1.000000
0.796765 0.893553 1.000000
0.913207 0.894240 1.000000
0.996262 0.900465 1.000000
1.000000 0.923903 0.983032
0.242420 1.000000 1.000000
0.279179 1.000000 1.000000
0.385672 1.000000 1.000000
0.554818 1.000000 1.000000
0.703944 1.000000 1.000000
0.820508 0.990982 0.996002
0.920821 0.980499 0.982895
0.977478 0.977478 0.977478
0.989975 0.982849 0.982498
0.590570 1.000000 1.000000
0.575616 1.000000 0.998383
0.606485 1.000000 0.985779
0.680461 1.000000 0.975341
0.785626 1.000000 0.968658
0.909422 1.000000 0.972763
0.975937 0.998077 0.984573
0.993103 0.996490 0.992508
0.998123 0.998245 0.997177
0.002976 0.002976 0.473167
0.002976 0.002976 0.470497
0.002960 0.002960 0.485435
0.115602 0.002884 0.496300
0.346349 0.002640 0.479179
0.612619 0.002396 0.463355
0.807553 0.084810 0.454673
0.962341 0.269505 0.453330
1.000000 0.454047 0.475410
0.002762 0.002762 0.642390
0.002747 0.002747 0.662837
0.002716 0.002716 0.683757
0.002686 0.002686 0.704814
0.355062 0.002518 0.704829
0.644053 0.002319 0.698711
0.834592 0.002136 0.694514
0.981140 0.103441 0.694362
1.000000 0.368399 0.710185
0.002533 0.002533 0.815579
0.002518 0.002518 0.835401
0.002487 0.002487 0.853788
0.002457 0.002457 0.871351
0.350912 0.002380 0.879377
0.677699 0.002228 0.875959
0.862028 0.002090 0.870832
0.997665 0.001968 0.867918
1.000000 0.150210 0.881285
0.002335 0.002335 0.970001
0.002319 0.002319 0.984283
0.002304 0.002304 0.997375
0.002289 0.002289 1.000000
0.314351 0.002243 1.000000
0.702632 0.002152 1.000000
0.884749 0.002029 1.000000
1.000000 0.001923 0.998047
1.000000 0.001907 1.000000
0.002197 0.002197 1.000000
0.002197 0.002197 1.000000
0.002197 0.002197 1.000000
0.002197 0.002197 1.000000
0.270573 0.002182 1.000000
0.729686 0.002090 1.000000
0.904433 0.001999 1.000000
1.000000 0.001923 1.000000
1.000000 0.375341 1.000000
0.002197 0.002197 1.000000
0.002197 0.002197 1.000000
0.002197 0.002197 1.000000
0.002197 0.002197 1.000000
0.374548 0.260426 1.000000
0.760372 0.462196 1.000000
0.909270 0.597772 1.000000
1.000000 0.683528 1.000000
1.000000 0.756970 1.000000
0.001923 0.826566 1.000000
0.001938 0.824552 1.000000
0.001923 0.826978 1.000000
0.001923 0.833204 1.000000
0.554482 0.840620 1.000000
0.782086 0.849790 1.000000
0.904692 0.861845 1.000000
0.978897 0.892485 1.000000
0.992248 0.933989 0.999283
0.001770 1.000000 1.000000
0.001785 1.000000 1.000000
0.001785 0.992340 1.000000
0.431586 0.981765 1.000000
0.682597 0.973342 1.000000
0.831998 0.967178 1.000000
0.938064 0.968078 1.000000
0.978500 0.976776 0.991592
0.988159 0.984756 0.988739
0.304463 1.000000 1.000000
0.367239 1.000000 1.000000
0.501961 1.000000 1.000000
0.658244 1.000000 1.000000
0.833143 1.000000 1.000000
0.949615 0.997116 0.999084
0.985306 0.994385 0.994812
0.995224 0.996399 0.996445
0.998840 0.998840 0.998840
