resources/flame/Syncolor/Shared/transforms/camera_manufacturer_luts/arri/ARRI_Alexa_LUTs/ARRI_LogC3_v1-2_LUT_Package/LUTs/ARRI_LogC3-to-St2084_108_P3-D65_DW34_v2_33.cube
LUT_3D_SIZE 5
1e-06 1e-06 1e-06
0.04127 1e-06 8.7e-05
0.192486 1e-06 0.002318
0.356335 1e-06 0.03414
0.462937 1e-06 0.101428
1e-06 0.10286 1e-06
0.13488 0.143808 1e-06
0.311758 0.160693 0.00356
0.442769 0.167697 0.072159
0.515822 0.187593 0.133098
1e-06 0.331314 1e-06
0.126737 0.361677 1e-06
0.365585 0.376819 1e-06
0.47357 0.386828 1e-06
0.515822 0.397924 0.133213
1e-06 0.476292 1e-06
1e-06 0.486268 1e-06
0.379303 0.491467 1e-06
0.483551 0.494828 0.028356
0.515822 0.497145 0.255553
1e-06 0.515822 1e-06
0.167231 0.515822 1e-06
0.409638 0.515822 0.201649
0.485723 0.515822 0.301909
0.515822 0.515822 0.381017
1e-06 1e-06 0.012528
0.081418 1e-06 0.073955
0.247895 1e-06 0.118703
0.398133 1e-06 0.151056
0.485615 1e-06 0.178677
1e-06 0.109803 0.107575
0.135538 0.135538 0.135538
0.329349 0.144422 0.158406
0.450147 0.152521 0.1951
0.515822 0.168689 0.236579
1e-06 0.343868 0.166923
0.083345 0.364996 0.182468
0.367814 0.376934 0.209438
0.47244 0.386005 0.253382
0.515822 0.397378 0.298217
1e-06 0.47982 0.180249
1e-06 0.486007 0.215026
0.385265 0.489443 0.276386
0.482911 0.492184 0.327485
0.515822 0.494305 0.370551
1e-06 0.515822 0.297598
0.131093 0.515822 0.318724
0.409514 0.515822 0.35155
0.48554 0.515822 0.394257
0.515822 0.515822 0.454778
1e-06 1e-06 0.108077
0.093339 1e-06 0.208484
0.281666 1e-06 0.271585
0.416484 1e-06 0.299693
0.488878 1e-06 0.30299
1e-06 1e-06 0.254124
0.064407 1e-06 0.299846
0.330177 1e-06 0.321073
0.450386 1e-06 0.338871
0.515822 1e-06 0.355183
1e-06 0.337493 0.334584
1e-06 0.35319 0.350841
0.363854 0.363854 0.363854
0.468665 0.375063 0.378801
0.515822 0.390414 0.397358
1e-06 0.475476 0.367177
1e-06 0.479523 0.381806
0.388417 0.483169 0.401867
0.480943 0.486421 0.420415
0.515822 0.489254 0.442371
1e-06 0.515822 0.408286
0.160535 0.515822 0.4174
0.417429 0.515822 0.434538
0.488781 0.515822 0.460736
0.515301 0.515822 0.500166
1e-06 1e-06 0.244321
1e-06 1e-06 0.343341
0.283621 1e-06 0.391374
0.412278 1e-06 0.401308
0.477868 1e-06 0.391013
1e-06 1e-06 0.381621
1e-06 1e-06 0.41346
0.316032 1e-06 0.426553
0.444422 1e-06 0.434
0.511584 1e-06 0.434834
1e-06 0.290665 0.43915
1e-06 0.309401 0.447617
0.352511 0.327777 0.452691
0.460806 0.351977 0.454672
0.515822 0.377661 0.460803
1e-06 0.462261 0.459214
1e-06 0.467429 0.464905
0.388092 0.473225 0.47183
0.478154 0.478154 0.478154
0.515822 0.484801 0.48574
1e-06 0.515822 0.474867
0.230541 0.515822 0.478753
0.430758 0.515822 0.485206
0.498873 0.515822 0.500532
0.514735 0.514931 0.513148
1e-06 1e-06 0.35968
1e-06 1e-06 0.437335
0.233625 1e-06 0.464049
0.387366 1e-06 0.460446
0.4564 1e-06 0.445219
1e-06 1e-06 0.469205
1e-06 1e-06 0.492515
0.277415 1e-06 0.498431
0.429697 1e-06 0.494789
0.494784 1e-06 0.484356
1e-06 1e-06 0.507872
1e-06 0.026999 0.512988
0.3363 0.24445 0.508243
0.45264 0.312676 0.504457
0.508786 0.364842 0.50168
1e-06 0.440078 0.515501
1e-06 0.451052 0.515822
0.392353 0.460549 0.515822
0.476316 0.470656 0.51291
0.505167 0.487424 0.503687
1e-06 0.515822 0.514307
0.304982 0.515822 0.514637
0.460428 0.513637 0.51263
0.507705 0.512248 0.51214
0.515822 0.515822 0.515822
