resources/flame/Syncolor/Shared/transforms/camera_manufacturer_luts/arri/ARRI_Alexa_LUTs/ARRI_LogC3_v1-2_LUT_Package/LUTs/ARRI_LogC3-to-HLG_1K_Rec2100-D65_DW100_v1_33.cube
LUT_3D_SIZE 5
0.005478 0.005478 0.005478
0.161654 0.035065 0.006088
0.524743 0.114092 0.019791
0.929641 0.310430 0.053864
1.000000 0.749722 0.154574
0.036530 0.130831 0.003006
0.123400 0.131716 0.002930
0.533562 0.161425 0.002457
0.942840 0.336538 0.048310
1.000000 0.716625 0.137911
0.155322 0.551415 0.002258
0.190951 0.561975 0.002243
0.532799 0.563226 0.002182
0.920897 0.586801 0.001984
1.000000 0.720455 0.001877
0.431601 0.958282 0.001831
0.424903 0.939040 0.001862
0.592935 0.919326 0.001862
0.879973 0.904311 0.001846
1.000000 0.910460 0.001801
0.775509 1.000000 0.001770
0.719097 1.000000 0.001770
0.742718 1.000000 0.001770
0.890425 1.000000 0.001755
1.000000 1.000000 0.001740
0.003708 0.003708 0.156924
0.141421 0.003235 0.104768
0.520363 0.106447 0.085328
0.930159 0.308949 0.092439
1.000000 0.732601 0.166461
0.014069 0.120043 0.118929
0.120638 0.120638 0.120638
0.539620 0.155581 0.106126
0.930587 0.324926 0.109758
1.000000 0.669352 0.163714
0.154177 0.554650 0.002243
0.190524 0.561822 0.002243
0.533608 0.562524 0.002182
0.905043 0.587243 0.049775
1.000000 0.697856 0.152026
0.416999 0.946349 0.001846
0.415518 0.926604 0.001862
0.602777 0.909194 0.001877
0.875929 0.899504 0.001846
1.000000 0.907240 0.001801
0.736828 1.000000 0.001770
0.690486 1.000000 0.001785
0.742473 1.000000 0.001770
0.896025 1.000000 0.001755
1.000000 1.000000 0.617792
0.003357 0.003357 0.260121
0.106264 0.003204 0.238209
0.504784 0.036332 0.225956
0.918746 0.283650 0.228412
1.000000 0.683818 0.276295
0.003052 0.003052 0.417105
0.002960 0.002960 0.481834
0.520912 0.002472 0.456550
0.907591 0.249928 0.417762
1.000000 0.592630 0.427588
0.069749 0.517967 0.494621
0.131167 0.518242 0.520867
0.522683 0.522683 0.522683
0.887388 0.560327 0.508782
1.000000 0.666194 0.530495
0.381552 0.929091 0.246586
0.390036 0.909865 0.328679
0.607843 0.896971 0.415335
0.872709 0.891600 0.510658
1.000000 0.900740 0.611734
0.693141 1.000000 0.001785
0.661814 1.000000 0.001785
0.746090 1.000000 0.281743
0.908675 1.000000 0.642054
0.998154 1.000000 0.947463
0.003174 0.003174 0.346670
0.046204 0.003113 0.366720
0.477012 0.002533 0.362814
0.892439 0.227237 0.363104
1.000000 0.601633 0.407675
0.002808 0.002808 0.607767
0.002716 0.002716 0.675929
0.453712 0.002457 0.702205
0.872602 0.002106 0.699413
1.000000 0.409186 0.706813
0.002335 0.340978 0.829114
0.002365 0.239033 0.874922
0.453819 0.209354 0.886458
0.863203 0.351934 0.855894
1.000000 0.560494 0.834821
0.184588 0.889342 0.863203
0.239551 0.869932 0.866361
0.581048 0.862898 0.867323
0.865614 0.865614 0.865614
1.000000 0.884108 0.874235
0.616587 1.000000 0.776532
0.610300 1.000000 0.804562
0.747234 1.000000 0.837980
0.949248 1.000000 0.938064
0.997009 0.997574 0.992508
0.003052 0.003052 0.423850
0.002960 0.002960 0.483558
0.436851 0.002533 0.504341
0.854170 0.099992 0.509743
1.000000 0.473976 0.546044
0.002655 0.002655 0.726085
0.002579 0.002579 0.786145
0.365545 0.002426 0.824170
0.825971 0.002136 0.827893
1.000000 0.001923 0.836576
0.002350 0.002350 0.963806
0.002304 0.002304 0.999527
0.265171 0.002243 1.000000
0.823957 0.002075 1.000000
1.000000 0.149538 0.991638
0.001938 0.805982 1.000000
0.001968 0.774975 1.000000
0.477546 0.778027 1.000000
0.852918 0.807172 1.000000
0.955871 0.896742 0.963119
0.320089 1.000000 1.000000
0.461204 1.000000 1.000000
0.813962 1.000000 1.000000
0.980652 0.989746 0.990158
0.998840 0.998840 0.998840
