resources/flame/Syncolor/Shared/transforms/camera_manufacturer_luts/arri/ARRI_Alexa_LUTs/ARRI_LogC3_v1-2_LUT_Package/LUTs/ARRI_LogC3-to-HLG_1K_Rec2100-D65_DW200_v1_33.cube
LUT_3D_SIZE 33
0.005478 0.005478 0.005478
0.019699 0.004776 0.004776
0.035721 0.007752 0.004257
0.052476 0.011383 0.003937
0.070588 0.015320 0.003708
0.090318 0.019593 0.003540
0.111910 0.024277 0.004211
0.135607 0.029419 0.005097
0.161654 0.035065 0.006088
0.190372 0.041306 0.007172
0.222278 0.048219 0.008362
0.258061 0.055985 0.009720
0.298543 0.064775 0.011231
0.344808 0.074815 0.012985
0.398154 0.086381 0.014984
0.458717 0.099519 0.017273
0.525124 0.114183 0.019806
0.586999 0.130541 0.022644
0.643687 0.148821 0.025818
0.696803 0.169268 0.029374
0.747387 0.192142 0.033341
0.796094 0.217792 0.037781
0.843427 0.246555 0.042771
0.889738 0.278859 0.048386
0.935317 0.315221 0.054688
0.980377 0.356207 0.061799
1.000000 0.402487 0.069825
1.000000 0.462028 0.080156
1.000000 0.531487 0.092531
1.000000 0.596979 0.106767
1.000000 0.657694 0.123064
1.000000 0.714916 0.141573
1.000000 0.769467 0.162585
0.005127 0.008560 0.005127
0.005478 0.005478 0.005478
0.021012 0.004715 0.004715
0.037415 0.008118 0.004211
0.054780 0.011887 0.003906
0.073671 0.015976 0.003677
0.094469 0.020493 0.003555
0.117662 0.025528 0.004425
0.143755 0.031189 0.005417
0.173434 0.037629 0.006531
0.207507 0.045014 0.007813
0.246815 0.053544 0.009293
0.290990 0.063127 0.010956
0.340307 0.073838 0.012802
0.395361 0.085771 0.014878
0.456840 0.099107 0.017197
0.524422 0.114015 0.019776
0.587411 0.130663 0.022675
0.644999 0.149294 0.025895
0.698878 0.170138 0.029511
0.750118 0.193500 0.033570
0.799435 0.219684 0.038117
0.847333 0.249104 0.043214
0.894163 0.282200 0.048951
0.940246 0.319448 0.055421
0.985779 0.361486 0.062715
1.000000 0.408988 0.070954
1.000000 0.471504 0.081804
1.000000 0.541527 0.094514
1.000000 0.606027 0.108995
1.000000 0.665766 0.125475
1.000000 0.722072 0.144137
1.000000 0.775708 0.165209
0.004623 0.015091 0.004623
0.004898 0.011063 0.004898
0.006409 0.006836 0.005264
0.024201 0.005447 0.004593
0.041749 0.009064 0.004120
0.061021 0.013245 0.003815
0.082826 0.017975 0.003601
0.107851 0.023407 0.004059
0.136568 0.029633 0.005142
0.168688 0.036591 0.006348
0.204593 0.044388 0.007706
0.244739 0.053101 0.009216
0.289601 0.062837 0.010895
0.339742 0.073716 0.012787
0.395789 0.085863 0.014893
0.458442 0.099458 0.017258
0.527138 0.114656 0.019898
0.590799 0.131670 0.022843
0.648951 0.150698 0.026139
0.703349 0.172030 0.029847
0.755047 0.195941 0.033997
0.804807 0.222782 0.038651
0.853117 0.252949 0.043885
0.900359 0.286915 0.049775
0.946807 0.325185 0.056413
0.992721 0.368383 0.063920
1.000000 0.417411 0.072419
1.000000 0.482643 0.083742
1.000000 0.551949 0.096635
1.000000 0.615122 0.111299
1.000000 0.673732 0.127916
1.000000 0.728939 0.146639
1.000000 0.781476 0.167681
0.006363 0.022797 0.004273
0.005554 0.019867 0.004379
0.004852 0.017395 0.004501
0.014450 0.015427 0.004486
0.034287 0.014862 0.004166
0.055772 0.016541 0.003861
0.079347 0.019974 0.003616
0.105531 0.024720 0.003418
0.134768 0.030518 0.004425
0.167437 0.037263 0.005844
0.203998 0.044984 0.007340
0.244877 0.053712 0.008942
0.290623 0.063523 0.010712
0.341787 0.074556 0.012680
0.399039 0.086931 0.014862
0.463081 0.100786 0.017288
0.532769 0.116304 0.020005
0.596689 0.133684 0.023026
0.655116 0.153170 0.026429
0.709804 0.175021 0.030228
0.761807 0.199557 0.034485
0.811856 0.227115 0.039277
0.860456 0.258106 0.044663
0.907973 0.293019 0.050721
0.954711 0.332387 0.057557
1.000000 0.376623 0.065248
1.000000 0.428061 0.074174
1.000000 0.494347 0.085679
1.000000 0.562280 0.098741
1.000000 0.623972 0.113527
1.000000 0.681270 0.130205
1.000000 0.735225 0.148913
1.000000 0.786526 0.169802
0.009873 0.035355 0.003906
0.009674 0.034638 0.003922
0.009522 0.034089 0.003937
0.013596 0.033555 0.003937
0.030884 0.032975 0.003861
0.052537 0.032761 0.003723
0.076844 0.033570 0.003540
0.103838 0.035752 0.003388
0.133867 0.039414 0.003235
0.167376 0.044526 0.003113
0.204822 0.051026 0.003021
0.246693 0.058885 0.006165
0.293523 0.068116 0.008682
0.345937 0.078767 0.011124
0.404593 0.090929 0.013672
0.470253 0.104723 0.016388
0.540703 0.120302 0.019348
0.604562 0.137881 0.022599
0.663066 0.157671 0.026200
0.717861 0.179934 0.030198
0.770001 0.204990 0.034668
0.820218 0.233188 0.039658
0.869001 0.264973 0.045258
0.916609 0.300725 0.051530
0.963134 0.340795 0.058549
1.000000 0.385687 0.066392
1.000000 0.439368 0.075746
1.000000 0.506371 0.087419
1.000000 0.572305 0.100618
1.000000 0.632349 0.115465
1.000000 0.688151 0.132128
1.000000 0.740703 0.150729
1.000000 0.790570 0.171344
0.015335 0.054932 0.003586
0.015274 0.054704 0.003586
0.015213 0.054520 0.003586
0.017334 0.054383 0.003586
0.030610 0.054215 0.003555
0.050645 0.054063 0.003494
0.074861 0.054200 0.003403
0.102495 0.055009 0.003296
0.133455 0.056870 0.003174
0.168017 0.060044 0.003067
0.206592 0.064698 0.002960
0.249668 0.070924 0.002869
0.297841 0.078767 0.002762
0.351720 0.088304 0.004135
0.412009 0.099611 0.009262
0.479515 0.112795 0.013169
0.550347 0.127977 0.016922
0.613947 0.145357 0.020768
0.672328 0.165103 0.024842
0.727108 0.187503 0.029252
0.779294 0.212863 0.034089
0.829541 0.241520 0.039414
0.878126 0.273732 0.045304
0.925368 0.309865 0.051835
0.971481 0.350347 0.059068
1.000000 0.395621 0.067109
1.000000 0.451286 0.076921
1.000000 0.518181 0.088731
1.000000 0.581857 0.102022
1.000000 0.640040 0.116899
1.000000 0.694194 0.133486
1.000000 0.745144 0.151843
1.000000 0.793408 0.172076
0.021775 0.078019 0.003342
0.021820 0.078172 0.003342
0.021881 0.078401 0.003342
0.023407 0.078676 0.003326
0.033600 0.078935 0.003311
0.051331 0.079179 0.003281
0.074464 0.079484 0.003235
0.101991 0.080018 0.003174
0.133547 0.081086 0.003098
0.169116 0.083024 0.003006
0.208911 0.086137 0.002914
0.253407 0.090654 0.002823
0.303105 0.096803 0.002747
0.358663 0.104738 0.002655
0.420798 0.114626 0.002579
0.490318 0.126589 0.002502
0.561089 0.140795 0.009323
0.624323 0.157412 0.015610
0.682506 0.176654 0.021057
0.737163 0.198749 0.026444
0.789136 0.223957 0.031998
0.838987 0.252506 0.037903
0.887129 0.284688 0.044266
0.933898 0.320867 0.051194
0.979492 0.361410 0.058762
1.000000 0.406699 0.067063
1.000000 0.463935 0.077348
1.000000 0.529747 0.089326
1.000000 0.590906 0.102693
1.000000 0.646998 0.117540
1.000000 0.699245 0.133944
1.000000 0.748394 0.151995
1.000000 0.794873 0.171695
0.029358 0.105165 0.003143
0.029526 0.105760 0.003143
0.029709 0.106416 0.003143
0.031144 0.107134 0.003128
0.039322 0.107851 0.003128
0.054780 0.108568 0.003098
0.076310 0.109270 0.003082
0.103090 0.110033 0.003037
0.134630 0.111025 0.002976
0.170825 0.112474 0.002914
0.211704 0.114672 0.002853
0.257588 0.117937 0.002777
0.308919 0.122591 0.002701
0.366293 0.128878 0.002625
0.430442 0.137072 0.002548
0.502159 0.147402 0.002487
0.572396 0.160128 0.002411
0.635218 0.175433 0.002350
0.693065 0.193576 0.009918
0.747280 0.214725 0.019318
0.798764 0.239139 0.026825
0.848112 0.267033 0.033997
0.895750 0.298711 0.041276
0.941939 0.334447 0.048890
0.986908 0.374563 0.057023
1.000000 0.419394 0.065766
1.000000 0.477607 0.076570
1.000000 0.541238 0.088746
1.000000 0.599527 0.102190
1.000000 0.653208 0.116991
1.000000 0.703319 0.133181
1.000000 0.750408 0.150805
1.000000 0.795087 0.169970
0.038254 0.137041 0.002976
0.038544 0.138109 0.002976
0.038865 0.139239 0.002976
0.040421 0.140429 0.002960
0.047364 0.141650 0.002960
0.060868 0.142855 0.002945
0.080659 0.144045 0.002930
0.106249 0.145251 0.002899
0.137255 0.146502 0.002869
0.173541 0.147982 0.002823
0.215122 0.149859 0.002777
0.262165 0.152422 0.002716
0.315053 0.156008 0.002655
0.374258 0.160922 0.002594
0.440482 0.167529 0.002518
0.514153 0.176135 0.002457
0.583719 0.187076 0.002396
0.645975 0.200626 0.002335
0.703243 0.217090 0.002274
0.756909 0.236698 0.002213
0.807874 0.259693 0.012497
0.856672 0.286336 0.024872
0.903716 0.316869 0.034562
0.949264 0.351553 0.043702
0.993515 0.390646 0.052903
1.000000 0.434409 0.062409
1.000000 0.492836 0.073899
1.000000 0.553002 0.086397
1.000000 0.607950 0.099977
1.000000 0.658869 0.114733
1.000000 0.706554 0.130739
1.000000 0.751812 0.148135
1.000000 0.794965 0.166979
0.048661 0.174334 0.002838
0.049104 0.175937 0.002838
0.049577 0.177584 0.002838
0.051362 0.179294 0.002823
0.057527 0.181033 0.002823
0.069459 0.182788 0.002808
0.087556 0.184512 0.002792
0.111727 0.186221 0.002777
0.141802 0.187915 0.002747
0.177707 0.189685 0.002716
0.219486 0.191638 0.002686
0.267292 0.193973 0.002640
0.321416 0.196963 0.002594
0.382300 0.200931 0.002533
0.450523 0.206226 0.002487
0.525536 0.213230 0.002426
0.594293 0.222354 0.002365
0.655924 0.233936 0.002304
0.712642 0.248356 0.002258
0.765789 0.265934 0.002197
0.816190 0.286961 0.002152
0.864408 0.311711 0.002090
0.910796 0.340429 0.017685
0.955642 0.373358 0.032532
0.999100 0.410727 0.044419
1.000000 0.453727 0.055726
1.000000 0.510246 0.068193
1.000000 0.565545 0.081300
1.000000 0.616632 0.095262
1.000000 0.664576 0.110231
1.000000 0.710048 0.126360
1.000000 0.753353 0.143694
1.000000 0.794736 0.162310
0.060807 0.217838 0.002716
0.061418 0.220005 0.002716
0.062028 0.222232 0.002701
0.064088 0.224491 0.002701
0.069780 0.226795 0.002701
0.080476 0.229099 0.002686
0.097002 0.231388 0.002670
0.119661 0.233631 0.002655
0.148516 0.235859 0.002640
0.183642 0.238056 0.002625
0.225132 0.240314 0.002594
0.273213 0.242741 0.002564
0.328130 0.245518 0.002518
0.390280 0.248920 0.002487
0.460090 0.253269 0.002441
0.535729 0.258976 0.002380
0.603738 0.266438 0.002335
0.664805 0.276081 0.002289
0.721019 0.288319 0.002228
0.773648 0.303578 0.002182
0.823484 0.322179 0.002136
0.871077 0.344488 0.002090
0.916777 0.370748 0.002029
0.960845 0.401221 0.001984
1.000000 0.436103 0.024979
1.000000 0.477409 0.042130
1.000000 0.529854 0.057221
1.000000 0.579690 0.071962
1.000000 0.626780 0.087022
1.000000 0.671611 0.102754
1.000000 0.714427 0.119310
1.000000 0.755428 0.136828
1.000000 0.794766 0.155367
0.074922 0.268376 0.002609
0.075685 0.271138 0.002594
0.076524 0.273976 0.002594
0.078843 0.276829 0.002594
0.084215 0.279713 0.002579
0.093935 0.282597 0.002579
0.109056 0.285451 0.002564
0.130159 0.288258 0.002564
0.157595 0.291020 0.002548
0.191592 0.293721 0.002533
0.232364 0.296376 0.002502
0.280171 0.299062 0.002487
0.335332 0.301869 0.002457
0.398138 0.305028 0.002426
0.469001 0.308782 0.002380
0.544640 0.313497 0.002350
0.611902 0.319570 0.002304
0.672419 0.327443 0.002258
0.728145 0.337560 0.002213
0.780255 0.350393 0.002167
0.829526 0.366339 0.002121
0.876463 0.385779 0.002075
0.921431 0.409064 0.002029
0.964675 0.436454 0.001984
1.000000 0.468147 0.001938
1.000000 0.506783 0.001907
1.000000 0.552697 0.034379
1.000000 0.596872 0.054994
1.000000 0.639460 0.073060
1.000000 0.680568 0.090578
1.000000 0.720241 0.108263
1.000000 0.758541 0.126421
1.000000 0.795438 0.145220
0.091234 0.326833 0.002502
0.092180 0.330236 0.002502
0.093278 0.333684 0.002502
0.095811 0.337163 0.002487
0.100969 0.340642 0.002487
0.109911 0.344106 0.002472
0.123751 0.347524 0.002472
0.143313 0.350881 0.002457
0.169177 0.354162 0.002457
0.201755 0.357351 0.002441
0.241398 0.360418 0.002426
0.288457 0.363409 0.002411
0.343236 0.366369 0.002380
0.406088 0.369451 0.002365
0.477379 0.372854 0.002335
0.552346 0.376867 0.002304
0.618723 0.381827 0.002258
0.678630 0.388174 0.002228
0.733837 0.396338 0.002182
0.785428 0.406806 0.002136
0.834119 0.420035 0.002090
0.880430 0.436469 0.002060
0.924681 0.456489 0.002014
0.967117 0.480400 0.001968
1.000000 0.508385 0.001938
1.000000 0.541009 0.001907
1.000000 0.579507 0.001907
1.000000 0.617609 0.001892
1.000000 0.655161 0.046372
1.000000 0.692042 0.069871
1.000000 0.728084 0.090639
1.000000 0.763195 0.110582
1.000000 0.797269 0.130388
0.110033 0.394156 0.002411
0.111162 0.398215 0.002411
0.112535 0.402304 0.002411
0.115251 0.406378 0.002396
0.120241 0.410437 0.002396
0.128527 0.414466 0.002396
0.141207 0.418418 0.002380
0.159243 0.422278 0.002380
0.183429 0.426017 0.002365
0.214359 0.429587 0.002365
0.252522 0.432975 0.002350
0.298329 0.436210 0.002335
0.352193 0.439307 0.002319
0.414450 0.442374 0.002304
0.485481 0.445548 0.002274
0.559045 0.449042 0.002243
0.624277 0.453132 0.002213
0.683436 0.458213 0.002182
0.738079 0.464698 0.002152
0.789136 0.473045 0.002121
0.837293 0.483726 0.002075
0.882963 0.497200 0.002045
0.926574 0.513573 0.001999
0.968444 0.532296 0.001968
1.000000 0.553185 0.001923
1.000000 0.578607 0.001907
1.000000 0.610040 0.001892
1.000000 0.642008 0.001892
1.000000 0.674250 0.001877
1.000000 0.706493 0.018814
1.000000 0.738460 0.059052
1.000000 0.769970 0.085069
1.000000 0.800824 0.108003
0.131579 0.471351 0.002335
0.132891 0.476051 0.002319
0.134539 0.480735 0.002319
0.137407 0.485389 0.002319
0.142229 0.489982 0.002304
0.149935 0.494514 0.002304
0.161563 0.498924 0.002304
0.178119 0.503120 0.002289
0.200565 0.507057 0.002289
0.229648 0.510735 0.002289
0.265995 0.514137 0.002274
0.310140 0.517296 0.002258
0.362524 0.520226 0.002258
0.423560 0.523003 0.002243
0.493660 0.525719 0.002213
0.565103 0.528527 0.002197
0.628901 0.531609 0.002182
0.687114 0.535210 0.002152
0.741054 0.539666 0.002121
0.791516 0.545251 0.002090
0.839094 0.552316 0.002060
0.884276 0.561105 0.002014
0.927428 0.571817 0.001984
0.968765 0.584573 0.001953
1.000000 0.599390 0.001923
1.000000 0.618631 0.001892
1.000000 0.643687 0.001892
1.000000 0.669810 0.001877
1.000000 0.696727 0.001877
1.000000 0.724132 0.001877
1.000000 0.751766 0.001862
1.000000 0.779339 0.027970
1.000000 0.806622 0.069718
0.156161 0.553933 0.002243
0.157641 0.558282 0.002243
0.159533 0.562509 0.002243
0.162493 0.566613 0.002243
0.167147 0.570581 0.002228
0.174304 0.574350 0.002228
0.184939 0.577874 0.002228
0.200076 0.581170 0.002228
0.220737 0.584222 0.002213
0.247807 0.587045 0.002213
0.282078 0.589654 0.002197
0.324178 0.592050 0.002197
0.374655 0.594263 0.002182
0.433982 0.596307 0.002182
0.502541 0.598245 0.002167
0.571069 0.600153 0.002152
0.632990 0.602136 0.002136
0.689967 0.604379 0.002106
0.742992 0.607065 0.002090
0.792782 0.610452 0.002060
0.839857 0.614755 0.002029
0.884565 0.620264 0.001999
0.927214 0.627176 0.001968
0.968017 0.635676 0.001938
1.000000 0.645869 0.001907
1.000000 0.660014 0.001892
1.000000 0.679561 0.001877
1.000000 0.700374 0.001877
1.000000 0.722240 0.001877
1.000000 0.744915 0.001862
1.000000 0.768109 0.001862
1.000000 0.791592 0.001846
1.000000 0.815061 0.001846
0.184054 0.626886 0.002182
0.185702 0.630610 0.002167
0.187762 0.634211 0.002167
0.190738 0.637644 0.002167
0.195163 0.640864 0.002167
0.201755 0.643839 0.002167
0.211444 0.646616 0.002152
0.225193 0.649165 0.002152
0.244083 0.651530 0.002152
0.269093 0.653681 0.002152
0.301106 0.655650 0.002136
0.340887 0.657420 0.002136
0.389090 0.659037 0.002121
0.446204 0.660487 0.002121
0.512413 0.661814 0.002106
0.577386 0.663066 0.002090
0.636988 0.664317 0.002090
0.692378 0.665660 0.002060
0.744305 0.667262 0.002045
0.793286 0.669230 0.002029
0.839704 0.671794 0.001999
0.883848 0.675120 0.001984
0.925933 0.679423 0.001953
0.966155 0.684901 0.001923
1.000000 0.691676 0.001892
1.000000 0.701671 0.001877
1.000000 0.716625 0.001877
1.000000 0.732830 0.001862
1.000000 0.750149 0.001862
1.000000 0.768368 0.001862
1.000000 0.787304 0.001846
1.000000 0.806699 0.001846
1.000000 0.826307 0.001831
0.215534 0.692592 0.002106
0.217273 0.695750 0.002106
0.219394 0.698695 0.002106
0.222263 0.701442 0.002106
0.226383 0.703960 0.002090
0.232425 0.706279 0.002090
0.241184 0.708400 0.002090
0.253620 0.710323 0.002090
0.270771 0.712062 0.002090
0.293675 0.713619 0.002090
0.323339 0.714992 0.002075
0.360586 0.716197 0.002075
0.406180 0.717235 0.002075
0.460685 0.718135 0.002060
0.523598 0.718914 0.002060
0.584482 0.719600 0.002045
0.641306 0.720272 0.002045
0.694743 0.720974 0.002029
0.745266 0.721782 0.002014
0.793194 0.722805 0.001999
0.838773 0.724147 0.001968
0.882185 0.725994 0.001953
0.923598 0.728466 0.001938
0.963165 0.731762 0.001907
1.000000 0.736019 0.001877
1.000000 0.742687 0.001862
1.000000 0.753887 0.001862
1.000000 0.766217 0.001862
1.000000 0.779568 0.001846
1.000000 0.793820 0.001846
1.000000 0.808789 0.001846
1.000000 0.824338 0.001831
1.000000 0.840360 0.001831
0.250782 0.752972 0.002045
0.252491 0.755505 0.002045
0.254520 0.757824 0.002045
0.257206 0.759930 0.002045
0.260960 0.761822 0.002045
0.266407 0.763516 0.002029
0.274266 0.765026 0.002029
0.285420 0.766339 0.002029
0.300862 0.767468 0.002029
0.321691 0.768414 0.002029
0.348898 0.769207 0.002029
0.383474 0.769833 0.002029
0.426215 0.770321 0.002014
0.477806 0.770672 0.002014
0.536278 0.770932 0.002014
0.592630 0.771130 0.001999
0.646220 0.771283 0.001999
0.697322 0.771420 0.001984
0.746090 0.771603 0.001968
0.792676 0.771878 0.001968
0.837171 0.772320 0.001953
0.879683 0.773068 0.001923
0.920287 0.774228 0.001907
0.959075 0.775921 0.001892
0.996124 0.778302 0.001877
1.000000 0.782284 0.001846
1.000000 0.790463 0.001846
1.000000 0.799542 0.001846
1.000000 0.809522 0.001846
1.000000 0.820294 0.001831
1.000000 0.831846 0.001831
1.000000 0.844068 0.001831
1.000000 0.856870 0.001816
0.289906 0.809125 0.001984
0.291478 0.811032 0.001984
0.293309 0.812726 0.001984
0.295674 0.814221 0.001984
0.298985 0.815488 0.001984
0.303761 0.816571 0.001984
0.310674 0.817441 0.001984
0.320546 0.818143 0.001984
0.334325 0.818662 0.001984
0.353063 0.818997 0.001984
0.377829 0.819181 0.001968
0.409628 0.819211 0.001968
0.449332 0.819135 0.001968
0.497658 0.818967 0.001968
0.550408 0.818738 0.001968
0.601892 0.818433 0.001953
0.651896 0.818082 0.001953
0.700282 0.817685 0.001953
0.746960 0.817273 0.001938
0.791897 0.816907 0.001923
0.835065 0.816617 0.001923
0.876463 0.816510 0.001907
0.916091 0.816632 0.001892
0.953964 0.817105 0.001877
0.990112 0.818021 0.001862
1.000000 0.819806 0.001831
1.000000 0.825483 0.001831
1.000000 0.831937 0.001831
1.000000 0.839155 0.001831
1.000000 0.847135 0.001831
1.000000 0.855848 0.001816
1.000000 0.865202 0.001816
1.000000 0.875151 0.001816
0.333028 0.861769 0.001938
0.334310 0.863050 0.001938
0.335790 0.864103 0.001938
0.337713 0.864942 0.001938
0.340444 0.865583 0.001938
0.344442 0.866011 0.001923
0.350347 0.866239 0.001923
0.358892 0.866300 0.001923
0.370993 0.866163 0.001923
0.387655 0.865858 0.001923
0.409964 0.865415 0.001923
0.438895 0.864881 0.001923
0.475395 0.864286 0.001923
0.519524 0.863600 0.001923
0.565789 0.862837 0.001923
0.612253 0.861997 0.001923
0.658381 0.861112 0.001923
0.703731 0.860166 0.001907
0.748013 0.859190 0.001907
0.791012 0.858213 0.001892
0.832593 0.857252 0.001892
0.872618 0.856352 0.001877
0.911055 0.855604 0.001862
0.947845 0.855085 0.001846
0.983001 0.854871 0.001846
1.000000 0.855070 0.001831
1.000000 0.858579 0.001816
1.000000 0.862959 0.001816
1.000000 0.867994 0.001816
1.000000 0.873701 0.001816
1.000000 0.880049 0.001816
1.000000 0.886992 0.001801
1.000000 0.894499 0.001801
0.380194 0.911299 0.001877
0.380987 0.911925 0.001877
0.381918 0.912306 0.001877
0.383200 0.912490 0.001877
0.385168 0.912444 0.001877
0.388266 0.912184 0.001877
0.393027 0.911742 0.001877
0.400183 0.911101 0.001877
0.410575 0.910292 0.001877
0.425162 0.909361 0.001877
0.444968 0.908354 0.001892
0.471000 0.907256 0.001892
0.504143 0.906081 0.001892
0.542046 0.904829 0.001877
0.582147 0.903502 0.001877
0.623590 0.902113 0.001877
0.665644 0.900649 0.001877
0.707683 0.899107 0.001877
0.749279 0.897505 0.001877
0.790066 0.895888 0.001862
0.829801 0.894270 0.001862
0.868299 0.892699 0.001846
0.905394 0.891234 0.001846
0.941009 0.889906 0.001831
0.975097 0.888823 0.001816
1.000000 0.888029 0.001816
1.000000 0.889586 0.001801
1.000000 0.892302 0.001801
1.000000 0.895598 0.001801
1.000000 0.899443 0.001801
1.000000 0.903853 0.001801
1.000000 0.908797 0.001801
1.000000 0.914244 0.001801
0.431266 0.957977 0.001831
0.431357 0.957885 0.001831
0.431495 0.957565 0.001831
0.431922 0.957015 0.001831
0.432914 0.956252 0.001831
0.434897 0.955261 0.001846
0.438361 0.954086 0.001846
0.444022 0.952743 0.001846
0.452674 0.951324 0.001846
0.465171 0.949798 0.001846
0.482460 0.948196 0.001846
0.505470 0.946487 0.001846
0.533272 0.944717 0.001846
0.564721 0.942840 0.001846
0.599084 0.940887 0.001846
0.635599 0.938842 0.001846
0.673503 0.936751 0.001846
0.712093 0.934585 0.001846
0.750835 0.932403 0.001846
0.789273 0.930175 0.001846
0.827024 0.927962 0.001831
0.863828 0.925795 0.001831
0.899458 0.923690 0.001816
0.933822 0.921721 0.001816
0.966842 0.919951 0.001801
0.998505 0.918410 0.001801
1.000000 0.918379 0.001785
1.000000 0.919768 0.001785
1.000000 0.921630 0.001785
1.000000 0.923980 0.001785
1.000000 0.926818 0.001785
1.000000 0.930114 0.001785
1.000000 0.933852 0.001785
0.486000 1.000000 0.001801
0.485084 1.000000 0.001801
0.484154 0.999939 0.001801
0.483436 0.998611 0.001801
0.483207 0.997055 0.001801
0.483848 0.995315 0.001801
0.485939 0.993454 0.001801
0.490028 0.991485 0.001801
0.496834 0.989425 0.001801
0.507057 0.987259 0.001801
0.521035 0.984985 0.001816
0.539025 0.982620 0.001816
0.561089 0.980163 0.001816
0.586969 0.977630 0.001816
0.616175 0.975021 0.001816
0.648066 0.972351 0.001816
0.681926 0.969635 0.001816
0.717082 0.966888 0.001816
0.752895 0.964111 0.001816
0.788846 0.961334 0.001816
0.824491 0.958572 0.001816
0.859495 0.955840 0.001801
0.893599 0.953231 0.001801
0.926650 0.950744 0.001801
0.958541 0.948409 0.001785
0.989197 0.946258 0.001785
1.000000 0.944945 0.001770
1.000000 0.945235 0.001770
1.000000 0.945937 0.001770
1.000000 0.947066 0.001770
1.000000 0.948592 0.001770
1.000000 0.950546 0.001770
1.000000 0.952880 0.001770
0.548760 1.000000 0.001785
0.546395 1.000000 0.001785
0.543908 1.000000 0.001785
0.541466 1.000000 0.001785
0.539437 1.000000 0.001785
0.538155 1.000000 0.001785
0.537972 1.000000 0.001785
0.539361 1.000000 0.001785
0.542855 1.000000 0.001785
0.548974 1.000000 0.001785
0.558282 1.000000 0.001785
0.571176 1.000000 0.001785
0.587869 1.000000 0.001785
0.608576 1.000000 0.001785
0.633219 1.000000 0.001785
0.660853 1.000000 0.001785
0.690898 0.999542 0.001785
0.722667 0.996216 0.001785
0.755566 0.992874 0.001785
0.788983 0.989548 0.001785
0.822431 0.986297 0.001785
0.855543 0.983139 0.001785
0.888014 0.980072 0.001785
0.919661 0.977127 0.001785
0.950332 0.974304 0.001770
0.979919 0.971649 0.001770
1.000000 0.969299 0.001755
1.000000 0.968673 0.001755
1.000000 0.968429 0.001755
1.000000 0.968536 0.001755
1.000000 0.968994 0.001755
1.000000 0.969818 0.001755
1.000000 0.970993 0.001755
0.605264 1.000000 0.001785
0.601770 1.000000 0.001785
0.598169 1.000000 0.001785
0.594705 1.000000 0.001785
0.591547 1.000000 0.001785
0.588922 1.000000 0.001785
0.587167 1.000000 0.001785
0.586648 1.000000 0.001785
0.587839 1.000000 0.001785
0.591226 1.000000 0.001785
0.597314 1.000000 0.001785
0.606531 1.000000 0.001785
0.619211 1.000000 0.001785
0.635462 1.000000 0.001785
0.655207 1.000000 0.001785
0.678126 1.000000 0.001785
0.703746 1.000000 0.001785
0.731502 1.000000 0.001770
0.760769 1.000000 0.001770
0.790936 1.000000 0.001770
0.821530 1.000000 0.001770
0.852155 1.000000 0.001770
0.882811 1.000000 0.001770
0.912978 1.000000 0.001755
0.942367 0.997803 0.001755
0.970809 0.994690 0.001755
0.998215 0.991745 0.001755
1.000000 0.990112 0.001755
1.000000 0.989044 0.001755
1.000000 0.988312 0.001755
1.000000 0.987884 0.001755
1.000000 0.987778 0.001755
1.000000 0.987991 0.001755
0.654734 1.000000 0.001785
0.650233 1.000000 0.001785
0.645686 1.000000 0.001785
0.641230 1.000000 0.001785
0.637003 1.000000 0.001785
0.633219 1.000000 0.001785
0.630137 1.000000 0.001785
0.628092 1.000000 0.001785
0.627451 1.000000 0.001785
0.628672 1.000000 0.001785
0.632212 1.000000 0.001785
0.638514 1.000000 0.001785
0.647944 1.000000 0.001785
0.660700 1.000000 0.001785
0.676844 1.000000 0.001785
0.696178 1.000000 0.001785
0.718349 1.000000 0.001770
0.742824 1.000000 0.001770
0.769039 1.000000 0.001770
0.796460 1.000000 0.001770
0.824598 1.000000 0.001770
0.853040 1.000000 0.001770
0.881422 1.000000 0.001770
0.909468 1.000000 0.001755
0.936965 1.000000 0.001755
0.963760 1.000000 0.001755
0.989700 1.000000 0.001740
1.000000 1.000000 0.001740
1.000000 1.000000 0.001740
1.000000 1.000000 0.001740
