resources/flame/Syncolor/Shared/transforms/camera_manufacturer_luts/arri/ARRI_Alexa_LUTs/ARRI_LogC3_v1-2_LUT_Package/LUTs/ARRI_LogC3-to-St2084_1K_Rec2100-D65_DW200_v1_33.cube
LUT_3D_SIZE 5
0.006302 0.006302 0.006302
0.205234 0.068299 0.012955
0.430106 0.191501 0.051301
0.679500 0.373602 0.134356
0.751827 0.604608 0.279210
0.076600 0.191470 0.006302
0.196475 0.204547 0.006302
0.461250 0.262165 0.006302
0.720882 0.418494 0.134310
0.751827 0.619577 0.284031
0.273823 0.499367 0.006302
0.320134 0.513695 0.006302
0.512963 0.526146 0.006302
0.734829 0.559136 0.006302
0.751827 0.638437 0.006302
0.504204 0.751827 0.006302
0.501656 0.751827 0.006302
0.570977 0.744640 0.006302
0.717281 0.731441 0.006302
0.751827 0.731075 0.006302
0.662959 0.751827 0.006302
0.622339 0.751827 0.006302
0.625437 0.751827 0.006302
0.699001 0.751827 0.006302
0.751827 0.751827 0.006302
0.006302 0.006302 0.184863
0.180789 0.006302 0.143130
0.424125 0.182559 0.141756
0.678050 0.371633 0.179049
0.751827 0.594736 0.286259
0.029206 0.181781 0.183871
0.196063 0.196063 0.196063
0.467521 0.259663 0.213321
0.715679 0.413687 0.249104
0.751827 0.596170 0.321736
0.274540 0.503944 0.006302
0.321721 0.515892 0.006302
0.514946 0.527321 0.006302
0.725307 0.558846 0.217563
0.751827 0.625391 0.329412
0.496422 0.751827 0.006302
0.495308 0.751827 0.006302
0.572259 0.735439 0.006302
0.711330 0.724971 0.006302
0.751827 0.725505 0.006302
0.638056 0.751827 0.006302
0.603815 0.751827 0.006302
0.621637 0.751827 0.006302
0.698863 0.751827 0.006302
0.751827 0.751827 0.543954
0.006302 0.006302 0.270649
0.132952 0.006302 0.244434
0.404028 0.111421 0.255558
0.659464 0.350561 0.280644
0.751827 0.560632 0.334585
0.006302 0.006302 0.381765
0.006302 0.006302 0.406470
0.456748 0.006302 0.428046
0.698695 0.370962 0.449790
0.751827 0.558434 0.477745
0.144884 0.486793 0.489128
0.270542 0.496849 0.500633
0.510414 0.510414 0.510414
0.713939 0.545541 0.524544
0.751827 0.607538 0.545556
0.476905 0.751827 0.412268
0.480308 0.738842 0.454795
0.570947 0.724590 0.489998
0.705669 0.716533 0.524056
0.751827 0.718090 0.563729
0.611170 0.751827 0.006302
0.585794 0.751827 0.006302
0.619959 0.751827 0.397864
0.703426 0.751827 0.558694
0.751827 0.751827 0.721981
0.006302 0.006302 0.330129
0.006302 0.006302 0.320623
0.377996 0.006302 0.336492
0.629007 0.305837 0.360662
0.751827 0.511910 0.397726
0.006302 0.006302 0.486030
0.006302 0.006302 0.513283
0.422599 0.006302 0.538293
0.667643 0.006302 0.563760
0.751827 0.486076 0.589990
0.006302 0.286198 0.670573
0.006302 0.280537 0.680873
0.471672 0.354314 0.686213
0.693889 0.463752 0.687587
0.751827 0.560388 0.689174
0.295888 0.723812 0.725460
0.383597 0.709194 0.712917
0.553674 0.699596 0.703197
0.696941 0.696941 0.696941
0.751827 0.704738 0.699062
0.569650 0.751827 0.653117
0.557733 0.751827 0.658640
0.617517 0.751827 0.667582
0.725872 0.751827 0.719280
0.750118 0.750454 0.747448
0.006302 0.006302 0.377417
0.006302 0.006302 0.382879
0.344457 0.006302 0.401709
0.591318 0.172015 0.426963
0.751827 0.451743 0.460609
0.006302 0.006302 0.564279
0.006302 0.006302 0.589471
0.364248 0.006302 0.613016
0.631006 0.006302 0.636011
0.751827 0.262470 0.660044
0.006302 0.006302 0.751827
0.006302 0.006302 0.751827
0.334829 0.006302 0.751827
0.664347 0.006302 0.751827
0.751827 0.417868 0.751827
0.006302 0.627909 0.751827
0.006302 0.628168 0.751827
0.493568 0.638514 0.751827
0.682582 0.657923 0.751827
0.741924 0.707530 0.746105
0.391119 0.751827 0.751827
0.486107 0.751827 0.751827
0.651545 0.751827 0.751827
0.742153 0.747539 0.747799
0.751003 0.751003 0.751003
