resources/flame/Syncolor/Shared/transforms/camera_manufacturer_luts/arri/ARRI_Alexa_LUTs/ARRI_LogC3_v1-2_LUT_Package/LUTs/ARRI_LogC3-to-HLG_1K_P3-D65_DW100_v2_33.cube
LUT_3D_SIZE 33
0.00000000 0.00000000 0.00000000
0.02246312 0.00000000 0.00112557
0.04062083 0.00000000 0.00203540
0.05967542 0.00000000 0.00299018
0.08026141 0.00000000 0.00402169
0.10269162 0.00000000 0.00514561
0.12723984 0.00000000 0.00637566
0.15418189 0.00000000 0.00772566
0.18380690 0.00000000 0.00921009
0.21645825 0.00000000 0.01084616
0.25273800 0.00000000 0.01266405
0.29341766 0.00000000 0.01470240
0.33945735 0.00000000 0.01700933
0.39205678 0.00000000 0.01964495
0.45272031 0.00000000 0.02268464
0.52068008 0.00000000 0.02612914
0.58418158 0.00000000 0.02996017
0.64185285 0.00000000 0.03422287
0.69551758 0.00000000 0.03896869
0.74630423 0.00000000 0.04425607
0.79496289 0.00000000 0.05015167
0.84202012 0.00000000 0.05673169
0.88786236 0.00000000 0.06408351
0.93278419 0.00000000 0.07230754
0.97701774 0.00000000 0.08151954
1.00000000 0.00000000 0.09185336
1.00000000 0.00000000 0.10480466
1.00000000 0.00000000 0.12088207
1.00000000 0.00000000 0.13944776
1.00000000 0.00000000 0.16092731
1.00000000 0.00000000 0.18566347
1.00000000 0.00000000 0.21405771
1.00000000 0.00000000 0.24662071
0.00000000 0.00892206 0.00000000
0.00310697 0.00330327 0.00000000
0.02393078 0.00000000 0.00119911
0.04254556 0.00000000 0.00213185
0.06228751 0.00000000 0.00312107
0.08376649 0.00000000 0.00419732
0.10742218 0.00000000 0.00538265
0.13378281 0.00000000 0.00670351
0.16346273 0.00000000 0.00819069
0.19720705 0.00000000 0.00988154
0.23593699 0.00000000 0.01182219
0.28061937 0.00000000 0.01406111
0.33071246 0.00000000 0.01657115
0.38645500 0.00000000 0.01936426
0.44847965 0.00000000 0.02247216
0.51697300 0.00000000 0.02593050
0.58147733 0.00000000 0.02977956
0.63989815 0.00000000 0.03406487
0.69416061 0.00000000 0.03883852
0.74544675 0.00000000 0.04415978
0.79453696 0.00000000 0.05009622
0.84197638 0.00000000 0.05672514
0.88816355 0.00000000 0.06413515
0.93340125 0.00000000 0.07242813
0.97792740 0.00000000 0.08172156
1.00000000 0.00000000 0.09215130
1.00000000 0.00000000 0.10530409
1.00000000 0.00000000 0.12155852
1.00000000 0.00000000 0.14027368
1.00000000 0.00000000 0.16171234
1.00000000 0.00000000 0.18624574
1.00000000 0.00000000 0.21428690
1.00000000 0.00000000 0.24628957
0.00000000 0.01559385 0.00000000
0.00000000 0.01146682 0.00000000
0.00650422 0.00691517 0.00000000
0.02754078 0.00000000 0.00130197
0.04746946 0.00000000 0.00237857
0.06938780 0.00000000 0.00347684
0.09416972 0.00000000 0.00471860
0.12263829 0.00000000 0.00614509
0.15525064 0.00000000 0.00777921
0.19163428 0.00000000 0.00960230
0.23217794 0.00000000 0.01163384
0.27734455 0.00000000 0.01389702
0.32764720 0.00000000 0.01641755
0.38365870 0.00000000 0.01922415
0.44602150 0.00000000 0.02234898
0.51504638 0.00000000 0.02582829
0.58032273 0.00000000 0.02970294
0.63933029 0.00000000 0.03401916
0.69406644 0.00000000 0.03882951
0.74575334 0.00000000 0.04419418
0.79519364 0.00000000 0.05018173
0.84294610 0.00000000 0.05687060
0.88941804 0.00000000 0.06435072
0.93491824 0.00000000 0.07272551
0.97968887 0.00000000 0.08211426
1.00000000 0.00000000 0.09265492
1.00000000 0.00000000 0.10605747
1.00000000 0.00000000 0.12236601
1.00000000 0.00000000 0.14099879
1.00000000 0.00000000 0.16226130
1.00000000 0.00000000 0.18648937
1.00000000 0.00000000 0.21404828
1.00000000 0.00000000 0.24533014
0.00000000 0.02353187 0.00000000
0.00000000 0.02051062 0.00000000
0.00000000 0.01795540 0.00000000
0.01463535 0.01556004 0.00000000
0.03862818 0.01258125 0.00000000
0.06333525 0.00941672 0.00000000
0.09016116 0.00398973 0.00324706
0.11967818 0.00000000 0.00527853
0.15249675 0.00000000 0.00717979
0.18907109 0.00000000 0.00915647
0.22983770 0.00000000 0.01128781
0.27527047 0.00000000 0.01362216
0.32589263 0.00000000 0.01619811
0.38228719 0.00000000 0.01905164
0.44510738 0.00000000 0.02221949
0.51469489 0.00000000 0.02574093
0.58052853 0.00000000 0.02965906
0.63997067 0.00000000 0.03402191
0.69506694 0.00000000 0.03888344
0.74706375 0.00000000 0.04430508
0.79677904 0.00000000 0.05035683
0.84478048 0.00000000 0.05711853
0.89148120 0.00000000 0.06468166
0.93719389 0.00000000 0.07315137
0.98215760 0.00000000 0.08264753
1.00000000 0.00000000 0.09325640
1.00000000 0.00000000 0.10677151
1.00000000 0.00000000 0.12300790
1.00000000 0.00000000 0.14148826
1.00000000 0.00000000 0.16248708
1.00000000 0.00000000 0.18630005
1.00000000 0.00000000 0.21324105
1.00000000 0.00000000 0.24363699
0.00000000 0.03647382 0.00000000
0.00000000 0.03573782 0.00000000
0.00000000 0.03510857 0.00000000
0.00000000 0.03446351 0.00000000
0.03094718 0.03290250 0.00000000
0.05746811 0.03051949 0.00000000
0.08555270 0.02773777 0.00000000
0.11608866 0.02457955 0.00000000
0.14970927 0.02068489 0.00000000
0.18695427 0.01508134 0.00552047
0.22832736 0.00000000 0.00884879
0.27414278 0.00000000 0.01183237
0.32519735 0.00000000 0.01483337
0.38208682 0.00000000 0.01799182
0.44547696 0.00000000 0.02139248
0.51566841 0.00000000 0.02510092
0.58187740 0.00000000 0.02917623
0.64162400 0.00000000 0.03367695
0.69698193 0.00000000 0.03866446
0.74920958 0.00000000 0.04420542
0.79913364 0.00000000 0.05037415
0.84732689 0.00000000 0.05725406
0.89420572 0.00000000 0.06493976
0.93998030 0.00000000 0.07351816
0.98469745 0.00000000 0.08305901
1.00000000 0.00000000 0.09366229
1.00000000 0.00000000 0.10723348
1.00000000 0.00000000 0.12334898
1.00000000 0.00000000 0.14161116
1.00000000 0.00000000 0.16226094
1.00000000 0.00000000 0.18555116
1.00000000 0.00000000 0.21174170
1.00000000 0.00000000 0.24109219
0.00000000 0.05642759 0.00000000
0.00000000 0.05598144 0.00000000
0.00000000 0.05554486 0.00000000
0.00000000 0.05510806 0.00000000
0.01988839 0.05439715 0.00000000
0.04961895 0.05275400 0.00000000
0.07918363 0.05047606 0.00000000
0.11100715 0.04774042 0.00000000
0.14573785 0.04463619 0.00000000
0.18393395 0.04107747 0.00000000
0.22615581 0.03678601 0.00000000
0.27297382 0.03119033 0.00440219
0.32498363 0.02290405 0.01035804
0.38282056 0.00000000 0.01478335
0.44688498 0.00000000 0.01896182
0.51771194 0.00000000 0.02321863
0.58415031 0.00000000 0.02771033
0.64409522 0.00000000 0.03254432
0.69963193 0.00000000 0.03781021
0.75202361 0.00000000 0.04359252
0.80209918 0.00000000 0.04997775
0.85039885 0.00000000 0.05705267
0.89713946 0.00000000 0.06487972
0.94256578 0.00000000 0.07354057
0.98687198 0.00000000 0.08312468
1.00000000 0.00000000 0.09372565
1.00000000 0.00000000 0.10730682
1.00000000 0.00000000 0.12325849
1.00000000 0.00000000 0.14124141
1.00000000 0.00000000 0.16146107
1.00000000 0.00000000 0.18412574
1.00000000 0.00000000 0.20943990
1.00000000 0.00000000 0.23759544
0.00000000 0.07922218 0.00000000
0.00000000 0.07896031 0.00000000
0.00000000 0.07871444 0.00000000
0.00000000 0.07847638 0.00000000
0.00000000 0.07821600 0.00000000
0.03933134 0.07729234 0.00000000
0.07115591 0.07565171 0.00000000
0.10436401 0.07341261 0.00000000
0.14039351 0.07066763 0.00000000
0.17982904 0.06749192 0.00000000
0.22320447 0.06386910 0.00000000
0.27109647 0.05966096 0.00000000
0.32412856 0.05457751 0.00000000
0.38297385 0.04808418 0.00101382
0.44835889 0.03907876 0.01244258
0.52033969 0.02415770 0.01863716
0.58712448 0.00000000 0.02427388
0.64718745 0.00000000 0.02989668
0.70283785 0.00000000 0.03575872
0.75533456 0.00000000 0.04201716
0.80535377 0.00000000 0.04877552
0.85336735 0.00000000 0.05612530
0.89974727 0.00000000 0.06415917
0.94475645 0.00000000 0.07296712
0.98858211 0.00000000 0.08263841
1.00000000 0.00000000 0.09326231
1.00000000 0.00000000 0.10681601
1.00000000 0.00000000 0.12257224
1.00000000 0.00000000 0.14022479
1.00000000 0.00000000 0.15994286
1.00000000 0.00000000 0.18188952
1.00000000 0.00000000 0.20621402
1.00000000 0.00000000 0.23304177
0.00000000 0.10525179 0.00000000
0.00000000 0.10518790 0.00000000
0.00000000 0.10514341 0.00000000
0.00000000 0.10511102 0.00000000
0.00000000 0.10506826 0.00000000
0.02170710 0.10485362 0.00000000
0.06087160 0.10379273 0.00000000
0.09607931 0.10214983 0.00000000
0.13350803 0.09990765 0.00000000
0.17429059 0.09711141 0.00000000
0.21901481 0.09381313 0.00000000
0.26822962 0.09001557 0.00000000
0.32254276 0.08563659 0.00000000
0.38263354 0.08048332 0.00000000
0.44925431 0.07420923 0.00000000
0.52232341 0.06620609 0.00000000
0.58978704 0.05528034 0.01603289
0.65043239 0.03823191 0.02413598
0.70634576 0.00000000 0.03144470
0.75862460 0.00000000 0.03865693
0.80832403 0.00000000 0.04609926
0.85597247 0.00000000 0.05395900
0.90193413 0.00000000 0.06237322
0.94646472 0.00000000 0.07145499
0.98974457 0.00000000 0.08130438
1.00000000 0.00000000 0.09201314
1.00000000 0.00000000 0.10552277
1.00000000 0.00000000 0.12107227
1.00000000 0.00000000 0.13836118
1.00000000 0.00000000 0.15752304
1.00000000 0.00000000 0.17867665
1.00000000 0.00000000 0.20191772
1.00000000 0.00000000 0.22744600
0.00000000 0.13499088 0.00000000
0.00000000 0.13514202 0.00000000
0.00000000 0.13531384 0.00000000
0.00000000 0.13549950 0.00000000
0.00000000 0.13568117 0.00000000
0.00000000 0.13584450 0.00000000
0.04573685 0.13548604 0.00000000
0.08549189 0.13441201 0.00000000
0.12486134 0.13275038 0.00000000
0.16711226 0.13046640 0.00000000
0.21326323 0.12757430 0.00000000
0.26393741 0.12410428 0.00000000
0.31972547 0.12006031 0.00000000
0.38128388 0.11538498 0.00000000
0.44935820 0.10993204 0.00000000
0.52375327 0.10343387 0.00000000
0.59196777 0.09544594 0.00000000
0.65292503 0.08524229 0.00698501
0.70891749 0.07139023 0.02191705
0.76130517 0.05012432 0.03180485
0.81089461 0.00000000 0.04082175
0.85813163 0.00000000 0.04972235
0.90362332 0.00000000 0.05887149
0.94761874 0.00000000 0.06847542
0.99029164 0.00000000 0.07868026
1.00000000 0.00000000 0.08960002
1.00000000 0.00000000 0.10309082
1.00000000 0.00000000 0.11845693
1.00000000 0.00000000 0.13537848
1.00000000 0.00000000 0.15395628
1.00000000 0.00000000 0.17430876
1.00000000 0.00000000 0.19668182
1.00000000 0.00000000 0.22122803
0.00000000 0.16893061 0.00000000
0.00000000 0.16931453 0.00000000
0.00000000 0.16971857 0.00000000
0.00000000 0.17013607 0.00000000
0.00000000 0.17055221 0.00000000
0.00000000 0.17095476 0.00000000
0.00726468 0.17132120 0.00000000
0.07066301 0.17074969 0.00000000
0.11374563 0.16965491 0.00000000
0.15796625 0.16794694 0.00000000
0.20568342 0.16557676 0.00000000
0.25788354 0.16253558 0.00000000
0.31524477 0.15883409 0.00000000
0.37841886 0.15447006 0.00000000
0.44812534 0.14939602 0.00000000
0.52401237 0.14350716 0.00000000
0.59308100 0.13660762 0.00000000
0.65445665 0.12836232 0.00000000
0.71060745 0.11822552 0.00000000
0.76296374 0.10526663 0.01488424
0.81241969 0.08767459 0.03009258
0.85956670 0.06059412 0.04169888
0.90475327 0.00000000 0.05247723
0.94816175 0.00000000 0.06314182
0.99017066 0.00000000 0.07406201
1.00000000 0.00000000 0.08544284
1.00000000 0.00000000 0.09902326
1.00000000 0.00000000 0.11429013
1.00000000 0.00000000 0.13089617
1.00000000 0.00000000 0.14903964
1.00000000 0.00000000 0.16887632
1.00000000 0.00000000 0.19052749
1.00000000 0.00000000 0.21410316
0.00000000 0.20759613 0.00000000
0.00000000 0.20822957 0.00000000
0.00000000 0.20888071 0.00000000
0.00000000 0.20954288 0.00000000
0.00000000 0.21020324 0.00000000
0.00000000 0.21085103 0.00000000
0.00000000 0.21147503 0.00000000
0.04559475 0.21174800 0.00000000
0.09848929 0.21116826 0.00000000
0.14609708 0.21002771 0.00000000
0.19585755 0.20823230 0.00000000
0.24973516 0.20572003 0.00000000
0.30872933 0.20246312 0.00000000
0.37355686 0.19845639 0.00000000
0.44483335 0.19370315 0.00000000
0.52231328 0.18818173 0.00000000
0.59267996 0.18181451 0.00000000
0.65476608 0.17444294 0.00000000
0.71126009 0.16579815 0.00000000
0.76370629 0.15545338 0.00000000
0.81306214 0.14272976 0.00000000
0.85994984 0.12647498 0.02432023
0.90479242 0.10442741 0.04039380
0.94787788 0.07030848 0.05368544
0.98934326 0.00000000 0.06619939
1.00000000 0.00000000 0.07857763
1.00000000 0.00000000 0.09253452
1.00000000 0.00000000 0.10795416
1.00000000 0.00000000 0.12457123
1.00000000 0.00000000 0.14253364
1.00000000 0.00000000 0.16196845
1.00000000 0.00000000 0.18298419
1.00000000 0.00000000 0.20567007
0.00000000 0.25155520 0.00000000
0.00000000 0.25245228 0.00000000
0.00000000 0.25336259 0.00000000
0.00000000 0.25427928 0.00000000
0.00000000 0.25519084 0.00000000
0.00000000 0.25608745 0.00000000
0.00000000 0.25695876 0.00000000
0.00000000 0.25779326 0.00000000
0.07499863 0.25788328 0.00000000
0.12994627 0.25726376 0.00000000
0.18297634 0.25603386 0.00000000
0.23899078 0.25409080 0.00000000
0.29973346 0.25135552 0.00000000
0.36615997 0.24780000 0.00000000
0.43897674 0.24342508 0.00000000
0.51822292 0.23823829 0.00000000
0.59043501 0.23222821 0.00000000
0.65358382 0.22533919 0.00000000
0.71065850 0.21744844 0.00000000
0.76335321 0.20834269 0.00000000
0.81271025 0.19768665 0.00000000
0.85940600 0.18496837 0.00000000
0.90389215 0.16938963 0.00000000
0.94645901 0.14960168 0.03503153
0.98731538 0.12298352 0.05224808
1.00000000 0.08212065 0.06712812
1.00000000 0.00000000 0.08237896
1.00000000 0.00000000 0.09860051
1.00000000 0.00000000 0.11563649
1.00000000 0.00000000 0.13370290
1.00000000 0.00000000 0.15295605
1.00000000 0.00000000 0.17351186
1.00000000 0.00000000 0.19545935
0.00000000 0.30142306 0.00000000
0.00000000 0.30259354 0.00000000
0.00000000 0.30377036 0.00000000
0.00000000 0.30494637 0.00000000
0.00000000 0.30611092 0.00000000
0.00000000 0.30725471 0.00000000
0.00000000 0.30836791 0.00000000
0.00000000 0.30943979 0.00000000
0.01961553 0.31041800 0.00000000
0.10615599 0.31025763 0.00000000
0.16553678 0.30952543 0.00000000
0.22480207 0.30810346 0.00000000
0.28772125 0.30590018 0.00000000
0.35589234 0.30285183 0.00000000
0.43026669 0.29892839 0.00000000
0.51132425 0.29412820 0.00000000
0.58602814 0.28846166 0.00000000
0.65064665 0.28192881 0.00000000
0.70858074 0.27449623 0.00000000
0.76171542 0.26607244 0.00000000
0.81118830 0.25648537 0.00000000
0.85774323 0.24548308 0.00000000
0.90187679 0.23269162 0.00000000
0.94393321 0.21755606 0.00000000
0.98428465 0.19912057 0.01924880
1.00000000 0.17582942 0.04637560
1.00000000 0.14629939 0.06581091
1.00000000 0.10046423 0.08427934
1.00000000 0.00000000 0.10264395
1.00000000 0.00000000 0.12139481
1.00000000 0.00000000 0.14089047
1.00000000 0.00000000 0.16132828
1.00000000 0.00000000 0.18281632
0.00000000 0.35786530 0.00000000
0.00000000 0.35931234 0.00000000
0.00000000 0.36075600 0.00000000
0.00000000 0.36218865 0.00000000
0.00000000 0.36360015 0.00000000
0.00000000 0.36498140 0.00000000
0.00000000 0.36632279 0.00000000
0.00000000 0.36761400 0.00000000
0.00000000 0.36882592 0.00000000
0.06421012 0.36956466 0.00000000
0.14070631 0.36921213 0.00000000
0.20582145 0.36822729 0.00000000
0.27196693 0.36650501 0.00000000
0.34232594 0.36395493 0.00000000
0.41840759 0.36051376 0.00000000
0.50114296 0.35615165 0.00000000
0.57913282 0.35085738 0.00000000
0.64566225 0.34463960 0.00000000
0.70472634 0.33751554 0.00000000
0.75847738 0.32947944 0.00000000
0.80820401 0.32048461 0.00000000
0.85473066 0.31042892 0.00000000
0.89868315 0.29910398 0.00000000
0.94054819 0.28616926 0.00000000
0.98062166 0.27117355 0.00000000
1.00000000 0.25346613 0.00000000
1.00000000 0.23410557 0.03202786
1.00000000 0.21117009 0.06006641
1.00000000 0.17848284 0.08241700
1.00000000 0.12700643 0.10340897
1.00000000 0.00000000 0.12420272
1.00000000 0.00000000 0.14517380
1.00000000 0.00000000 0.16667855
0.00000000 0.42159885 0.00000000
0.00000000 0.42331631 0.00000000
0.00000000 0.42501732 0.00000000
0.00000000 0.42669356 0.00000000
0.00000000 0.42833508 0.00000000
0.00000000 0.42993272 0.00000000
0.00000000 0.43146688 0.00000000
0.00000000 0.43287942 0.00000000
0.00000000 0.43416356 0.00000000
0.00000000 0.43532065 0.00000000
0.10128079 0.43559813 0.00000000
0.17955449 0.43493001 0.00000000
0.25121763 0.43358038 0.00000000
0.32474552 0.43142891 0.00000000
0.40292874 0.42838677 0.00000000
0.48718321 0.42439761 0.00000000
0.56922629 0.41943942 0.00000000
0.63824118 0.41352254 0.00000000
0.69881127 0.40667887 0.00000000
0.75345549 0.39894515 0.00000000
0.80366813 0.39033762 0.00000000
0.85048798 0.38080383 0.00000000
0.89457590 0.37024462 0.00000000
0.93639000 0.35849930 0.00000000
0.97625880 0.34533085 0.00000000
1.00000000 0.33040723 0.00000000
1.00000000 0.31524686 0.00000000
1.00000000 0.30054676 0.00000000
1.00000000 0.28119229 0.04455761
1.00000000 0.25539808 0.07453269
1.00000000 0.22001121 0.09928671
1.00000000 0.16787471 0.12245897
1.00000000 0.06434697 0.14517021
0.00000000 0.49339354 0.00000000
0.00000000 0.49536109 0.00000000
0.00000000 0.49729591 0.00000000
0.00000000 0.49918861 0.00000000
0.00000000 0.50102483 0.00000000
0.00000000 0.50272542 0.00000000
0.00000000 0.50426165 0.00000000
0.00000000 0.50563943 0.00000000
0.00000000 0.50686540 0.00000000
0.00000000 0.50793848 0.00000000
0.00000000 0.50884743 0.00000000
0.14036622 0.50840406 0.00000000
0.22314118 0.50722864 0.00000000
0.30185720 0.50532209 0.00000000
0.38305798 0.50257693 0.00000000
0.46924630 0.49889443 0.00000000
0.55584638 0.49424328 0.00000000
0.62817331 0.48862467 0.00000000
0.69072648 0.48206276 0.00000000
0.74665909 0.47459820 0.00000000
0.79775604 0.46625448 0.00000000
0.84511867 0.45703858 0.00000000
0.88948104 0.44692948 0.00000000
0.93135454 0.43586658 0.00000000
0.97110538 0.42374094 0.00000000
1.00000000 0.41038658 0.00000000
1.00000000 0.39705773 0.00000000
1.00000000 0.38701166 0.00000000
1.00000000 0.37419384 0.00000000
1.00000000 0.35789696 0.00000000
1.00000000 0.33716593 0.05502162
1.00000000 0.31064240 0.08728182
1.00000000 0.27617018 0.11399282
0.00000000 0.56581172 0.00000000
0.00000000 0.56753933 0.00000000
0.00000000 0.56921450 0.00000000
0.00000000 0.57079274 0.00000000
0.00000000 0.57221164 0.00000000
0.00000000 0.57347434 0.00000000
0.00000000 0.57457126 0.00000000
0.00000000 0.57550101 0.00000000
0.00000000 0.57627325 0.00000000
0.00000000 0.57689829 0.00000000
0.00000000 0.57738671 0.00000000
0.06498467 0.57757248 0.00000000
0.18320437 0.57660858 0.00000000
0.27173961 0.57512521 0.00000000
0.35785346 0.57304371 0.00000000
0.44689406 0.57028640 0.00000000
0.53836890 0.56678469 0.00000000
0.61522987 0.56249790 0.00000000
0.68049347 0.55739194 0.00000000
0.73817148 0.55142718 0.00000000
0.79041205 0.54457180 0.00000000
0.83850522 0.53679105 0.00000000
0.88328968 0.52803391 0.00000000
0.92534125 0.51821764 0.00000000
0.96506961 0.50721220 0.00000000
1.00000000 0.49487132 0.00000000
1.00000000 0.48199128 0.00000000
1.00000000 0.47493422 0.00000000
1.00000000 0.46610973 0.00000000
1.00000000 0.45517505 0.00000000
1.00000000 0.44173375 0.00000000
1.00000000 0.42532310 0.00000000
1.00000000 0.40538619 0.05954666
0.00000000 0.63019993 0.00000000
0.00000000 0.63167907 0.00000000
0.00000000 0.63300579 0.00000000
0.00000000 0.63415419 0.00000000
0.00000000 0.63512669 0.00000000
0.00000000 0.63593016 0.00000000
0.00000000 0.63657262 0.00000000
0.00000000 0.63706316 0.00000000
0.00000000 0.63741190 0.00000000
0.00000000 0.63762981 0.00000000
0.00000000 0.63772849 0.00000000
0.00000000 0.63771979 0.00000000
0.11813468 0.63719950 0.00000000
0.23079264 0.63585379 0.00000000
0.32573421 0.63406835 0.00000000
0.41936551 0.63179298 0.00000000
0.51574184 0.62899705 0.00000000
0.59905252 0.62562122 0.00000000
0.66791957 0.62161459 0.00000000
0.72782575 0.61694075 0.00000000
0.78151122 0.61157730 0.00000000
0.83054373 0.60551178 0.00000000
0.87590710 0.59873463 0.00000000
0.91826072 0.59123186 0.00000000
0.95806695 0.58297598 0.00000000
0.99565930 0.57391833 0.00000000
1.00000000 0.56398237 0.00000000
1.00000000 0.55928010 0.00000000
1.00000000 0.55418415 0.00000000
1.00000000 0.54789619 0.00000000
1.00000000 0.54021552 0.00000000
1.00000000 0.53082931 0.00000000
1.00000000 0.51914948 0.00000000
0.00000000 0.68899543 0.00000000
0.00000000 0.69004033 0.00000000
0.00000000 0.69090593 0.00000000
0.00000000 0.69159726 0.00000000
0.00000000 0.69212052 0.00000000
0.00000000 0.69248313 0.00000000
0.00000000 0.69269362 0.00000000
0.00000000 0.69276165 0.00000000
0.00000000 0.69269792 0.00000000
0.00000000 0.69251407 0.00000000
0.00000000 0.69222259 0.00000000
0.00000000 0.69183651 0.00000000
0.00000000 0.69136920 0.00000000
0.17018987 0.69019685 0.00000000
0.28374587 0.68852186 0.00000000
0.38520821 0.68651550 0.00000000
0.48623127 0.68412088 0.00000000
0.57877294 0.68128352 0.00000000
0.65257997 0.67795593 0.00000000
0.71539575 0.67410163 0.00000000
0.77091780 0.66969728 0.00000000
0.82113873 0.66473341 0.00000000
0.86725458 0.65921170 0.00000000
0.91004053 0.65314055 0.00000000
0.95002747 0.64652982 0.00000000
0.98759294 0.63938588 0.00000000
1.00000000 0.63171675 0.00000000
1.00000000 0.62773344 0.00000000
1.00000000 0.62486856 0.00000000
1.00000000 0.62149243 0.00000000
1.00000000 0.61745436 0.00000000
1.00000000 0.61259545 0.00000000
1.00000000 0.60675072 0.00000000
0.00000000 0.74331321 0.00000000
0.00000000 0.74390201 0.00000000
0.00000000 0.74431433 0.00000000
0.00000000 0.74455589 0.00000000
0.00000000 0.74463358 0.00000000
0.00000000 0.74455544 0.00000000
0.00000000 0.74433065 0.00000000
0.00000000 0.74396944 0.00000000
0.00000000 0.74348315 0.00000000
0.00000000 0.74288413 0.00000000
0.00000000 0.74218563 0.00000000
0.00000000 0.74140168 0.00000000
0.00000000 0.74057632 0.00000000
0.01778811 0.73974552 0.00000000
0.22516831 0.73807526 0.00000000
0.34179989 0.73615798 0.00000000
0.44987853 0.73394816 0.00000000
0.55292863 0.73140009 0.00000000
0.63382458 0.72847122 0.00000000
0.70056001 0.72512647 0.00000000
0.75846133 0.72134153 0.00000000
0.81019131 0.71710483 0.00000000
0.85726576 0.71241810 0.00000000
0.90064291 0.70731202 0.00000000
0.94095775 0.70182021 0.00000000
0.97864515 0.69597077 0.00000000
1.00000000 0.68979412 0.00000000
1.00000000 0.68593764 0.00000000
1.00000000 0.68419749 0.00000000
1.00000000 0.68219045 0.00000000
1.00000000 0.67985146 0.00000000
1.00000000 0.67711267 0.00000000
1.00000000 0.67390388 0.00000000
0.00000000 0.79405173 0.00000000
0.00000000 0.79417730 0.00000000
0.00000000 0.79412685 0.00000000
0.00000000 0.79390682 0.00000000
0.00000000 0.79352483 0.00000000
0.00000000 0.79298961 0.00000000
0.00000000 0.79231097 0.00000000
0.00000000 0.79149984 0.00000000
0.00000000 0.79056821 0.00000000
0.00000000 0.78952911 0.00000000
0.00000000 0.78841163 0.00000000
0.00000000 0.78728118 0.00000000
0.00000000 0.78614847 0.00000000
0.00000000 0.78501872 0.00000000
0.12694044 0.78368431 0.00000000
0.28412919 0.78172506 0.00000000
0.40499812 0.77954472 0.00000000
0.51896807 0.77710604 0.00000000
0.61063532 0.77437301 0.00000000
0.68284967 0.77131718 0.00000000
0.74393926 0.76793531 0.00000000
0.79766631 0.76421823 0.00000000
0.84603765 0.76016553 0.00000000
0.89024427 0.75578941 0.00000000
0.93104778 0.75111367 0.00000000
0.96896268 0.74617180 0.00000000
1.00000000 0.74099990 0.00000000
1.00000000 0.73697847 0.00000000
1.00000000 0.73576741 0.00000000
1.00000000 0.73444157 0.00000000
1.00000000 0.73296389 0.00000000
1.00000000 0.73129840 0.00000000
1.00000000 0.72941122 0.00000000
0.00000000 0.84178506 0.00000000
0.00000000 0.84142636 0.00000000
0.00000000 0.84089051 0.00000000
0.00000000 0.84018473 0.00000000
0.00000000 0.83931738 0.00000000
0.00000000 0.83829790 0.00000000
0.00000000 0.83713681 0.00000000
0.00000000 0.83584572 0.00000000
0.00000000 0.83444124 0.00000000
0.00000000 0.83299611 0.00000000
0.00000000 0.83153798 0.00000000
0.00000000 0.83007284 0.00000000
0.00000000 0.82860666 0.00000000
0.00000000 0.82714529 0.00000000
0.00000000 0.82569420 0.00000000
0.19914631 0.82384232 0.00000000
0.34785374 0.82158365 0.00000000
0.47339798 0.81915469 0.00000000
0.58150014 0.81652685 0.00000000
0.66177973 0.81367368 0.00000000
0.72727140 0.81057397 0.00000000
0.78363544 0.80721459 0.00000000
0.83365825 0.80359280 0.00000000
0.87890401 0.79971760 0.00000000
0.92033717 0.79561081 0.00000000
0.95867564 0.79130601 0.00000000
0.99441955 0.78681952 0.00000000
1.00000000 0.78256607 0.00000000
1.00000000 0.78158190 0.00000000
1.00000000 0.78057046 0.00000000
1.00000000 0.77950917 0.00000000
1.00000000 0.77837751 0.00000000
1.00000000 0.77715798 0.00000000
