resources/flame/Syncolor/Shared/transforms/camera_manufacturer_luts/arri/ARRI_Alexa_LUTs/ARRI_LogC3_v1-2_LUT_Package/LUTs/ARRI_LogC3-to-HLG_1K_Rec2100-D65_DW200_v2_33.cube
LUT_3D_SIZE 5
0.00000000 0.00000000 0.00000000
0.16165506 0.03507227 0.00608472
0.52512187 0.11418067 0.01980931
0.93531425 0.31522748 0.05468911
1.00000000 0.76947152 0.16257658
0.03825487 0.13703912 0.00000000
0.13725825 0.14650894 0.00000000
0.58372610 0.18707019 0.00000000
0.99351965 0.39064063 0.05289613
1.00000000 0.79496128 0.16698298
0.18406160 0.62689299 0.00000000
0.24408059 0.65152431 0.00000000
0.63699054 0.66431658 0.00000000
1.00000000 0.69167995 0.00000000
1.00000000 0.82631084 0.00000000
0.54876253 1.00000000 0.00000000
0.54284862 1.00000000 0.00000000
0.69089243 0.99954037 0.00000000
0.95033219 0.97430694 0.00000000
1.00000000 0.97099473 0.00000000
0.85508385 1.00000000 0.00000000
0.78409366 1.00000000 0.00000000
0.78963623 1.00000000 0.00000000
0.91579055 1.00000000 0.00000000
1.00000000 1.00000000 0.00000000
0.00000000 0.00000000 0.16069936
0.13666789 0.00000000 0.09617634
0.51243463 0.10647381 0.07278162
0.93324501 0.31209472 0.08393111
1.00000000 0.75235171 0.17076739
0.01300265 0.12734230 0.12964853
0.13727906 0.13727906 0.13727906
0.59608914 0.18307728 0.13057867
0.98618827 0.38215039 0.14049205
1.00000000 0.75482242 0.21341796
0.18425458 0.63506537 0.00000000
0.24600918 0.65530722 0.00000000
0.64068011 0.66624004 0.00000000
0.99040353 0.69307118 0.10784242
1.00000000 0.80467174 0.22148468
0.53048674 1.00000000 0.00000000
0.52781588 1.00000000 0.00000000
0.69602074 0.98640865 0.00000000
0.94199567 0.96516483 0.00000000
1.00000000 0.96263170 0.00000000
0.81194898 1.00000000 0.00000000
0.75057284 1.00000000 0.00000000
0.78285977 1.00000000 0.00000000
0.91555519 1.00000000 0.00000000
1.00000000 1.00000000 0.62499071
0.00000000 0.00000000 0.27471445
0.08721159 0.00000000 0.22646002
0.47001738 0.05311819 0.19050823
0.90667767 0.28056258 0.18212534
1.00000000 0.69078276 0.23285630
0.00000000 0.00000000 0.48293190
0.00000000 0.00000000 0.53835297
0.57770723 0.00000000 0.50682230
0.96267583 0.30604307 0.46954338
1.00000000 0.68636146 0.50963404
0.06586155 0.60191729 0.60705261
0.17917957 0.61936883 0.62752630
0.63375090 0.63375090 0.63375091
0.97392516 0.66970948 0.62650225
1.00000000 0.77392697 0.65466726
0.48228290 1.00000000 0.34363777
0.49530753 0.99250376 0.43449146
0.69630634 0.97068002 0.52245302
0.93420808 0.95271224 0.59528887
1.00000000 0.95102181 0.67253901
0.76400067 1.00000000 0.00000000
0.71709720 1.00000000 0.00000000
0.77975861 1.00000000 0.31559856
0.92277670 1.00000000 0.65881202
1.00000000 1.00000000 0.95004484
0.00000000 0.00000000 0.37625603
0.00000000 0.00000000 0.35859496
0.41460741 0.00000000 0.32606615
0.86270850 0.21947749 0.30495610
1.00000000 0.59419050 0.33751978
0.00000000 0.00000000 0.68922728
0.00000000 0.00000000 0.73489037
0.49088621 0.00000000 0.74712866
0.91935091 0.00000000 0.73215477
1.00000000 0.53555754 0.75139621
0.00000000 0.21064102 0.96619411
0.00000000 0.20182974 0.98165441
0.56520895 0.30332682 0.97334938
0.94698171 0.49460436 0.93622582
1.00000000 0.68752579 0.92117156
0.17707693 0.96980271 0.97258443
0.30152355 0.94878164 0.95512291
0.66743950 0.93294127 0.93908388
0.92247302 0.92247303 0.92247305
1.00000000 0.92956829 0.91984608
0.68513106 1.00000000 0.83956156
0.66166103 1.00000000 0.84946337
0.77429858 1.00000000 0.86369151
0.95845996 1.00000000 0.94729088
0.99758271 0.99815042 0.99309515
0.00000000 0.00000000 0.47319831
0.00000000 0.00000000 0.48545611
0.34635610 0.00000000 0.47917578
0.80754893 0.08481341 0.45467066
1.00000000 0.45405053 0.47540295
0.00000000 0.00000000 0.81558378
0.00000000 0.00000000 0.85379377
0.35090597 0.00000000 0.87938089
0.86202373 0.00000000 0.87083701
1.00000000 0.15021735 0.88128501
0.00000000 0.00000000 1.00000000
0.00000000 0.00000000 1.00000000
0.27057287 0.00000000 1.00000000
0.90443682 0.00000000 1.00000000
1.00000000 0.37533456 1.00000000
0.00000000 0.82655885 1.00000000
0.00000000 0.82697547 1.00000000
0.55448687 0.84061774 1.00000000
0.90469905 0.86184895 1.00000000
0.99224888 0.93398307 0.99928352
0.30446202 1.00000000 1.00000000
0.50195346 1.00000000 1.00000000
0.83314540 1.00000000 1.00000000
0.98530413 0.99438271 0.99480584
0.99884165 0.99884167 0.99884171
