resources/flame/Syncolor/Shared/transforms/camera_manufacturer_luts/arri/ARRI_Alexa_LUTs/ARRI_LogC3_v1-2_LUT_Package/LUTs/ARRI_LogC3-to-St2084_2K_Rec2100-D65_DW200_v1_33.cube
LUT_3D_SIZE 5
0.006302 0.006302 0.006302
0.205234 0.068299 0.012955
0.430106 0.191501 0.051301
0.679500 0.373602 0.134356
0.827420 0.604608 0.279210
0.076600 0.191470 0.006302
0.196475 0.204547 0.006302
0.461250 0.262165 0.006302
0.720882 0.418494 0.134310
0.827420 0.619577 0.284031
0.273823 0.499367 0.006302
0.320027 0.513588 0.006302
0.511971 0.525154 0.006302
0.733379 0.557671 0.006302
0.827420 0.638437 0.006302
0.503075 0.773571 0.006302
0.502724 0.762753 0.006302
0.575921 0.749599 0.006302
0.728267 0.742443 0.006302
0.827420 0.751598 0.006302
0.677012 0.827420 0.006302
0.647364 0.827420 0.006302
0.666087 0.827420 0.006302
0.752346 0.827420 0.006302
0.827420 0.827420 0.006302
0.006302 0.006302 0.184863
0.180789 0.006302 0.143130
0.424125 0.182559 0.141756
0.678050 0.371633 0.179049
0.827420 0.594736 0.286259
0.029206 0.181781 0.183871
0.196063 0.196063 0.196063
0.467521 0.259663 0.213321
0.715679 0.413687 0.249104
0.827420 0.596063 0.321645
0.274540 0.503944 0.006302
0.321370 0.515526 0.006302
0.513680 0.526040 0.006302
0.724071 0.557595 0.215961
0.827420 0.626444 0.330480
0.495766 0.766155 0.006302
0.497444 0.754223 0.006302
0.578943 0.742123 0.006302
0.725078 0.738735 0.006302
0.827420 0.750240 0.006302
0.655192 0.827420 0.006302
0.633570 0.827420 0.006302
0.666972 0.827420 0.006302
0.755901 0.827420 0.006302
0.827420 0.827420 0.575677
0.006302 0.006302 0.270649
0.132952 0.006302 0.244434
0.404028 0.111421 0.255558
0.659464 0.350561 0.280644
0.827420 0.560632 0.334585
0.006302 0.006302 0.381765
0.006302 0.006302 0.406470
0.456748 0.006302 0.428046
0.698695 0.370962 0.449790
0.827420 0.558114 0.477394
0.144884 0.486793 0.489128
0.269871 0.496162 0.499962
0.508980 0.508980 0.508980
0.713176 0.544793 0.523781
0.827420 0.609720 0.547723
0.477028 0.754925 0.412406
0.483665 0.742382 0.458427
0.579660 0.733318 0.498817
0.722621 0.733486 0.541085
0.827420 0.747631 0.593286
0.631830 0.827420 0.006302
0.620920 0.827420 0.006302
0.669551 0.827420 0.449805
0.763043 0.827420 0.612406
0.826322 0.827420 0.765927
0.006302 0.006302 0.330129
0.006302 0.006302 0.320623
0.377996 0.006302 0.336492
0.629007 0.305837 0.360662
0.827420 0.511910 0.397726
0.006302 0.006302 0.486030
0.006302 0.006302 0.513283
0.422599 0.006302 0.538293
0.667643 0.006302 0.563760
0.827420 0.485466 0.589334
0.006302 0.286015 0.670436
0.006302 0.279026 0.679881
0.470207 0.352605 0.684764
0.693950 0.463828 0.687663
0.827420 0.563851 0.692622
0.296803 0.724987 0.726635
0.388540 0.714229 0.717967
0.564782 0.710719 0.714321
0.717617 0.717617 0.717617
0.820539 0.739483 0.733562
0.594293 0.827420 0.678202
0.598108 0.827420 0.699138
0.671077 0.827420 0.720943
0.783062 0.826917 0.773419
0.825879 0.827054 0.816297
0.006302 0.006302 0.377417
0.006302 0.006302 0.382879
0.344457 0.006302 0.401709
0.591318 0.172015 0.426963
0.793317 0.451743 0.460609
0.006302 0.006302 0.564279
0.006302 0.006302 0.589471
0.364248 0.006302 0.613016
0.630884 0.006302 0.635889
0.800229 0.261341 0.659068
0.006302 0.006302 0.759884
0.006302 0.006302 0.768597
0.333303 0.006302 0.774578
0.665431 0.006302 0.778485
0.803250 0.423178 0.778134
0.006302 0.630167 0.827420
0.006302 0.634867 0.827420
0.507530 0.652308 0.827420
0.707500 0.682780 0.820935
0.789731 0.741619 0.794766
0.419226 0.827420 0.827420
0.531334 0.827420 0.827420
0.698054 0.820081 0.823392
0.801846 0.816892 0.817548
0.827420 0.827420 0.827420
