resources/flame/Syncolor/Shared/transforms/camera_manufacturer_luts/arri/ARRI_Alexa_LUTs/ARRI_LogC3_v1-2_LUT_Package/LUTs/ARRI_LogC3-to-HLG_1K_Rec2100-D65_DW200_v2_33.cube
LUT_3D_SIZE 33
0.00000000 0.00000000 0.00000000
0.01975593 0.00428620 0.00074362
0.03572533 0.00775088 0.00134471
0.05248353 0.01138669 0.00197549
0.07058855 0.01531471 0.00265696
0.09031554 0.01959463 0.00339949
0.11190528 0.02427869 0.00421213
0.13560036 0.02941951 0.00510402
0.16165506 0.03507227 0.00608472
0.19037137 0.04130249 0.00716561
0.22227880 0.04822505 0.00836661
0.25805587 0.05598715 0.00971326
0.29854700 0.06477200 0.01123736
0.34480731 0.07480853 0.01297860
0.39816004 0.08638380 0.01498681
0.45871801 0.09952231 0.01726622
0.52512187 0.11418067 0.01980931
0.58699608 0.13054444 0.02264828
0.64368775 0.14882596 0.02581996
0.69681042 0.16926774 0.02936642
0.74738222 0.19214778 0.03333590
0.79608963 0.21778565 0.03778384
0.84342025 0.24654968 0.04277414
0.88973567 0.27886570 0.04838067
0.93531425 0.31522748 0.05468911
0.98037760 0.35620941 0.06179911
1.00000000 0.40248196 0.06982698
1.00000000 0.46202318 0.08015684
1.00000000 0.53149346 0.09252725
1.00000000 0.59697365 0.10676947
1.00000000 0.65769992 0.12305687
1.00000000 0.71491577 0.14158015
1.00000000 0.76947152 0.16257658
0.00241395 0.00864741 0.00000000
0.00307071 0.00327766 0.00000000
0.02104672 0.00456624 0.00079220
0.03741810 0.00811814 0.00140842
0.05478081 0.01188511 0.00206196
0.07367121 0.01598352 0.00277300
0.09447599 0.02049727 0.00355609
0.11765972 0.02552716 0.00442873
0.14376271 0.03119039 0.00541125
0.17344027 0.03762916 0.00652832
0.20750259 0.04501924 0.00781043
0.24681016 0.05354731 0.00928997
0.29098771 0.06313196 0.01095282
0.34030325 0.07383134 0.01280907
0.39535992 0.08577629 0.01488141
0.45683989 0.09911483 0.01719553
0.52442169 0.11401478 0.01978053
0.58741393 0.13066706 0.02266955
0.64500145 0.14929090 0.02590062
0.69888413 0.17013721 0.02951727
0.75012581 0.19349360 0.03356939
0.79943957 0.21969092 0.03811439
0.84732961 0.24911074 0.04321846
0.89416846 0.28219446 0.04895818
0.94024209 0.31945422 0.05542242
0.98577761 0.36148622 0.06271459
1.00000000 0.40898683 0.07095551
1.00000000 0.47150298 0.08180150
1.00000000 0.54152076 0.09450665
1.00000000 0.60602686 0.10899745
1.00000000 0.66577203 0.12547220
1.00000000 0.72206803 0.14413694
1.00000000 0.77570094 0.16520331
0.00421907 0.01511381 0.00000000
0.00310246 0.01111383 0.00000000
0.00642831 0.00686155 0.00000000
0.02421243 0.00545326 0.00081177
0.04174858 0.00905767 0.00157142
0.06102540 0.01323992 0.00229701
0.08282068 0.01796857 0.00311738
0.10785830 0.02340067 0.00405980
0.13656618 0.02962905 0.00514037
0.16868864 0.03659826 0.00634947
0.20459920 0.04438933 0.00770115
0.24474026 0.05309823 0.00921206
0.28960491 0.06283195 0.01090077
0.33974659 0.07371056 0.01278812
0.39578928 0.08586945 0.01489757
0.45843888 0.09946175 0.01725571
0.52714040 0.11466118 0.01989268
0.59079425 0.13166533 0.02284274
0.64894951 0.15070007 0.02614510
0.70334172 0.17202533 0.02984484
0.75505306 0.19593899 0.03399364
0.80480723 0.22278383 0.03865098
0.85311506 0.25295541 0.04388547
0.90035357 0.28691152 0.04977655
0.94681185 0.32518364 0.05641642
0.99271938 0.36839077 0.06391246
1.00000000 0.41740616 0.07241619
1.00000000 0.48264885 0.08373517
1.00000000 0.55194994 0.09663918
1.00000000 0.61512903 0.11130437
1.00000000 0.67372629 0.12791146
1.00000000 0.72893713 0.14664297
1.00000000 0.78148182 0.16768106
0.00636677 0.02280747 0.00000000
0.00554935 0.01987923 0.00000000
0.00485801 0.01740266 0.00000000
0.01446454 0.01543939 0.00000000
0.03428600 0.01486316 0.00000000
0.05577858 0.01654288 0.00000000
0.07934995 0.01997899 0.00083127
0.10553493 0.02471978 0.00297130
0.13476191 0.03051203 0.00443091
0.16743859 0.03726487 0.00584761
0.20399079 0.04497882 0.00733488
0.24488145 0.05370556 0.00894578
0.29062366 0.06352927 0.01071621
0.34179178 0.07455877 0.01267653
0.39903265 0.08692479 0.01485614
0.46307766 0.10077997 0.01728559
0.53276994 0.11630039 0.01999807
0.59668343 0.13368816 0.02303037
0.65511943 0.15317502 0.02642387
0.70980081 0.17502830 0.03022578
0.76180457 0.19955584 0.03449010
0.81185109 0.22711218 0.03927877
0.86044921 0.25810685 0.04466313
0.90797475 0.29301420 0.05072572
0.95471020 0.33237993 0.05756137
1.00000000 0.37662978 0.06524374
1.00000000 0.42806606 0.07417184
1.00000000 0.49435186 0.08567411
1.00000000 0.56228149 0.09874003
1.00000000 0.62397785 0.11352883
1.00000000 0.68126789 0.13019964
1.00000000 0.73523234 0.14890802
1.00000000 0.78652568 0.16980308
0.00986834 0.03535103 0.00000000
0.00967118 0.03464475 0.00000000
0.00951634 0.03409005 0.00000000
0.01360237 0.03355695 0.00000000
0.03089252 0.03297456 0.00000000
0.05253208 0.03276700 0.00000000
0.07684860 0.03357041 0.00000000
0.10384213 0.03575535 0.00000000
0.13387517 0.03941744 0.00000000
0.16738166 0.04452561 0.00000000
0.20482189 0.05102442 0.00301523
0.24669010 0.05888311 0.00616146
0.29352891 0.06811178 0.00867971
0.34593960 0.07876176 0.01113064
0.40459622 0.09092258 0.01367341
0.47025900 0.10471881 0.01639330
0.54070234 0.12030843 0.01935228
0.60456854 0.13788303 0.02260456
0.66306046 0.15766956 0.02620311
0.71785466 0.17993420 0.03020337
0.77000550 0.20498844 0.03466593
0.82022002 0.23319384 0.03965824
0.86899887 0.26497029 0.04525661
0.91660774 0.30072229 0.05153317
0.96313192 0.34079864 0.05854948
1.00000000 0.38568027 0.06639071
1.00000000 0.43937256 0.07574938
1.00000000 0.50636786 0.08741734
1.00000000 0.57230232 0.10061143
1.00000000 0.63234206 0.11547158
1.00000000 0.68815341 0.13213266
1.00000000 0.74070205 0.15072047
1.00000000 0.79057542 0.17134816
0.01533552 0.05493591 0.00000000
0.01526930 0.05469870 0.00000000
0.01522050 0.05452386 0.00000000
0.01733264 0.05439126 0.00000000
0.03061495 0.05421952 0.00000000
0.05065252 0.05406631 0.00000000
0.07486955 0.05419726 0.00000000
0.10249545 0.05501052 0.00000000
0.13345610 0.05687529 0.00000000
0.16801365 0.06005215 0.00000000
0.20658644 0.06470121 0.00000000
0.24967545 0.07091754 0.00000000
0.29784479 0.07876573 0.00000000
0.35172283 0.08830666 0.00413940
0.41201254 0.09961614 0.00925956
0.47950767 0.11279696 0.01317584
0.55034011 0.12798422 0.01692300
0.61394783 0.14534990 0.02076641
0.67233210 0.16510615 0.02484410
0.72710592 0.18750897 0.02925516
0.77928918 0.21286434 0.03408617
0.82953493 0.24151267 0.03941763
0.87813121 0.27372797 0.04530917
0.92536991 0.30987093 0.05183473
0.97147709 0.35035135 0.05907430
1.00000000 0.39561427 0.06711193
1.00000000 0.45129322 0.07691453
1.00000000 0.51818126 0.08873593
1.00000000 0.58185739 0.10202630
1.00000000 0.64004326 0.11690436
1.00000000 0.69418731 0.13347864
1.00000000 0.74513807 0.15184305
1.00000000 0.79341347 0.17207277
0.02178014 0.07802224 0.00000000
0.02182358 0.07817785 0.00000000
0.02188596 0.07840133 0.00000000
0.02341522 0.07867618 0.00000000
0.03360488 0.07894174 0.00000000
0.05133189 0.07918570 0.00000000
0.07446178 0.07948022 0.00000000
0.10199785 0.08001820 0.00000000
0.13355148 0.08109299 0.00000000
0.16910901 0.08303136 0.00000000
0.20891852 0.08613512 0.00000000
0.25340288 0.09065732 0.00000000
0.30310425 0.09680328 0.00000000
0.35865886 0.10474228 0.00000000
0.42079196 0.11462278 0.00000000
0.49032402 0.12658835 0.00000000
0.56109586 0.14079163 0.00932451
0.62432628 0.15740854 0.01561150
0.68250029 0.17664729 0.02106287
0.73715785 0.19875498 0.02643807
0.78912952 0.22395495 0.03200072
0.83897919 0.25249902 0.03790388
0.88713618 0.28469275 0.04426571
0.93390064 0.32087376 0.05118636
0.97948474 0.36141013 0.05875823
1.00000000 0.40669742 0.06707049
1.00000000 0.46393850 0.07734212
1.00000000 0.52974984 0.08932112
1.00000000 0.59090189 0.10268697
1.00000000 0.64699305 0.11753643
1.00000000 0.69924928 0.13395073
1.00000000 0.74839641 0.15199095
1.00000000 0.79487811 0.17169353
0.02935820 0.10516888 0.00000000
0.02952210 0.10575600 0.00000000
0.02970581 0.10641409 0.00000000
0.03114669 0.10712781 0.00000000
0.03932919 0.10785139 0.00000000
0.05477422 0.10856115 0.00000000
0.07631607 0.10926494 0.00000000
0.10308511 0.11003266 0.00000000
0.13463783 0.11102068 0.00000000
0.17081900 0.11246932 0.00000000
0.21170794 0.11467320 0.00000000
0.25758950 0.11794393 0.00000000
0.30892016 0.12258361 0.00000000
0.36629665 0.12887275 0.00000000
0.43043665 0.13706855 0.00000000
0.50216437 0.14740934 0.00000000
0.57240404 0.16012303 0.00000000
0.63522328 0.17543822 0.00000000
0.69306722 0.19357508 0.00992359
0.74727604 0.21473157 0.01932253
0.79875759 0.23913630 0.02682365
0.84811156 0.26703830 0.03398958
0.89574634 0.29870942 0.04127043
0.94194597 0.33444499 0.04889669
0.98690936 0.37456215 0.05702247
1.00000000 0.41939586 0.06576796
1.00000000 0.47760769 0.07656844
1.00000000 0.54124420 0.08874543
1.00000000 0.59952126 0.10219271
1.00000000 0.65321362 0.11698700
1.00000000 0.70331402 0.13318343
1.00000000 0.75041583 0.15081115
1.00000000 0.79509184 0.16997314
0.03825487 0.13703912 0.00000000
0.03855188 0.13810309 0.00000000
0.03886898 0.13923902 0.00000000
0.04042822 0.14043151 0.00000000
0.04736959 0.14164480 0.00000000
0.06086087 0.14285524 0.00000000
0.08066424 0.14405040 0.00000000
0.10624729 0.14524613 0.00000000
0.13725825 0.14650894 0.00000000
0.17354487 0.14797533 0.00000000
0.21512272 0.14985709 0.00000000
0.26217285 0.15242933 0.00000000
0.31504616 0.15600789 0.00000000
0.37425854 0.16092713 0.00000000
0.44047949 0.16752441 0.00000000
0.51415784 0.17613162 0.00000000
0.58372610 0.18707019 0.00000000
0.64596937 0.20063156 0.00000000
0.70323827 0.21708647 0.00000000
0.75691538 0.23669077 0.00000000
0.80786765 0.25969057 0.01249744
0.85666916 0.28633139 0.02487720
0.90371213 0.31686413 0.03456364
0.94926663 0.35154582 0.04370720
0.99351965 0.39064063 0.05289613
1.00000000 0.43441653 0.06241576
1.00000000 0.49283752 0.07389768
1.00000000 0.55300479 0.08639140
1.00000000 0.60795427 0.09998328
1.00000000 0.65886365 0.11473899
1.00000000 0.70655970 0.13073622
1.00000000 0.75180934 0.14812955
1.00000000 0.79496128 0.16698298
0.04866781 0.17434104 0.00000000
0.04911122 0.17592942 0.00000000
0.04957429 0.17758829 0.00000000
0.05135491 0.17930136 0.00000000
0.05752886 0.18104006 0.00000000
0.06945362 0.18278243 0.00000000
0.08755594 0.18450979 0.00000000
0.11172925 0.18621564 0.00000000
0.14180387 0.18791966 0.00000000
0.17770891 0.18968582 0.00000000
0.21948692 0.19163967 0.00000000
0.26729485 0.19397794 0.00000000
0.32141943 0.19696625 0.00000000
0.38229637 0.20092665 0.00000000
0.45051967 0.20622103 0.00000000
0.52553815 0.21323336 0.00000000
0.59429845 0.22234945 0.00000000
0.65592183 0.23394239 0.00000000
0.71264586 0.24836344 0.00000000
0.76579118 0.26593724 0.00000000
0.81619237 0.28696104 0.00000000
0.86440266 0.31170780 0.00000000
0.91079758 0.34042931 0.01768435
0.95563630 0.37336156 0.03253901
0.99909696 0.41072626 0.04442126
1.00000000 0.45372633 0.05572180
1.00000000 0.51024664 0.06818634
1.00000000 0.56554239 0.08130350
1.00000000 0.61662656 0.09525704
1.00000000 0.66458330 0.11023324
1.00000000 0.71004071 0.12635567
1.00000000 0.75334805 0.14369836
1.00000000 0.79473824 0.16231484
0.06081121 0.21784190 0.00000000
0.06141387 0.22000079 0.00000000
0.06203489 0.22222546 0.00000000
0.06409201 0.22449819 0.00000000
0.06978160 0.22679577 0.00000000
0.08047853 0.22909750 0.00000000
0.09700645 0.23138292 0.00000000
0.11966421 0.23363625 0.00000000
0.14852348 0.23585425 0.00000000
0.18364193 0.23805851 0.00000000
0.22513803 0.24031149 0.00000000
0.27320704 0.24273324 0.00000000
0.32813336 0.24551374 0.00000000
0.39028374 0.24891583 0.00000000
0.46008400 0.25327310 0.00000000
0.53572440 0.25897321 0.00000000
0.60374095 0.26643281 0.00000000
0.66480572 0.27607785 0.00000000
0.72102175 0.28832632 0.00000000
0.77364775 0.30357405 0.00000000
0.82348697 0.32218405 0.00000000
0.87107463 0.34448036 0.00000000
0.91677550 0.37074525 0.00000000
0.96083930 0.40121862 0.00000000
1.00000000 0.43609674 0.02497996
1.00000000 0.47740419 0.04212989
1.00000000 0.52984925 0.05722819
1.00000000 0.57968368 0.07195857
1.00000000 0.62678641 0.08702553
1.00000000 0.67160349 0.10274641
1.00000000 0.71442318 0.11930683
1.00000000 0.75543428 0.13682297
1.00000000 0.79476175 0.15536640
0.07491712 0.26837300 0.00000000
0.07569033 0.27114287 0.00000000
0.07652412 0.27396918 0.00000000
0.07883876 0.27683326 0.00000000
0.08421117 0.27971506 0.00000000
0.09394092 0.28259459 0.00000000
0.10904898 0.28545088 0.00000000
0.13015575 0.28826412 0.00000000
0.15759492 0.29101984 0.00000000
0.19158907 0.29371635 0.00000000
0.23236112 0.29637619 0.00000000
0.28017623 0.29905906 0.00000000
0.33532732 0.30187598 0.00000000
0.39813867 0.30502527 0.00000000
0.46899454 0.30878335 0.00000000
0.54463420 0.31349725 0.00000000
0.61189541 0.31957018 0.00000000
0.67241530 0.32744159 0.00000000
0.72814031 0.33756545 0.00000000
0.78025495 0.35038921 0.00000000
0.82952556 0.36633483 0.00000000
0.87646769 0.38578306 0.00000000
0.92143500 0.40906203 0.00000000
0.96467766 0.43644855 0.00000000
1.00000000 0.46815090 0.00000000
1.00000000 0.50678340 0.00000000
1.00000000 0.55270036 0.03437606
1.00000000 0.59686770 0.05499620
1.00000000 0.63945482 0.07305474
1.00000000 0.68056273 0.09057806
1.00000000 0.72024777 0.10825653
1.00000000 0.75853724 0.12641427
1.00000000 0.79544011 0.14522113
0.09123510 0.32682835 0.00000000
0.09218714 0.33023880 0.00000000
0.09328266 0.33369034 0.00000000
0.09581539 0.33716378 0.00000000
0.10096641 0.34064037 0.00000000
0.10991531 0.34410024 0.00000000
0.12375039 0.34752206 0.00000000
0.14331097 0.35088394 0.00000000
0.16917420 0.35416569 0.00000000
0.20175077 0.35735227 0.00000000
0.24139825 0.36042294 0.00000000
0.28844902 0.36340139 0.00000000
0.34323191 0.36636446 0.00000000
0.40608762 0.36944621 0.00000000
0.47737847 0.37285136 0.00000000
0.55234447 0.37686140 0.00000000
0.61871641 0.38183079 0.00000000
0.67862752 0.38817343 0.00000000
0.73383329 0.39634218 0.00000000
0.78542402 0.40680799 0.00000000
0.83412514 0.42004210 0.00000000
0.88042887 0.43647642 0.00000000
0.92467653 0.45648979 0.00000000
0.96711273 0.48039615 0.00000000
1.00000000 0.50837927 0.00000000
1.00000000 0.54100831 0.00000000
1.00000000 0.57950412 0.00000000
1.00000000 0.61761102 0.00000000
1.00000000 0.65516852 0.04636777
1.00000000 0.69203625 0.06987454
1.00000000 0.72808476 0.09063146
1.00000000 0.76319843 0.11057404
1.00000000 0.79727508 0.13038957
0.11003016 0.39415727 0.00000000
0.11116437 0.39822030 0.00000000
0.11254032 0.40230140 0.00000000
0.11525602 0.40638093 0.00000000
0.12023473 0.41044009 0.00000000
0.12852751 0.41445849 0.00000000
0.14121131 0.41841412 0.00000000
0.15924968 0.42228369 0.00000000
0.18342531 0.42602430 0.00000000
0.21435501 0.42958983 0.00000000
0.25252020 0.43297842 0.00000000
0.29833557 0.43620468 0.00000000
0.35218706 0.43931046 0.00000000
0.41444704 0.44237922 0.00000000
0.48547993 0.44555157 0.00000000
0.55904411 0.44903819 0.00000000
0.62427531 0.45313462 0.00000000
0.68344210 0.45821201 0.00000000
0.73807513 0.46469436 0.00000000
0.78914073 0.47304217 0.00000000
0.83728734 0.48372702 0.00000000
0.88296666 0.49720407 0.00000000
0.92657285 0.51356646 0.00000000
0.96844468 0.53229204 0.00000000
1.00000000 0.55318079 0.00000000
1.00000000 0.57860950 0.00000000
1.00000000 0.61003612 0.00000000
1.00000000 0.64201344 0.00000000
1.00000000 0.67425359 0.00000000
1.00000000 0.70648718 0.01880841
1.00000000 0.73846608 0.05905436
1.00000000 0.76997523 0.08506714
1.00000000 0.80082247 0.10799667
0.13157878 0.47135014 0.00000000
0.13289114 0.47605135 0.00000000
0.13454295 0.48073801 0.00000000
0.13740174 0.48538969 0.00000000
0.14222378 0.48998649 0.00000000
0.14993571 0.49450692 0.00000000
0.16155927 0.49891679 0.00000000
0.17812334 0.50312033 0.00000000
0.20056031 0.50705828 0.00000000
0.22964364 0.51072868 0.00000000
0.26599743 0.51413579 0.00000000
0.31013900 0.51729209 0.00000000
0.36252123 0.52022637 0.00000000
0.42356710 0.52300425 0.00000000
0.49366715 0.52572231 0.00000000
0.56510738 0.52852242 0.00000000
0.62889348 0.53160239 0.00000000
0.68711688 0.53521558 0.00000000
0.74105170 0.53966060 0.00000000
0.79151507 0.54525759 0.00000000
0.83908919 0.55231639 0.00000000
0.88427855 0.56110571 0.00000000
0.92742097 0.57182340 0.00000000
0.96876842 0.58457964 0.00000000
1.00000000 0.59938628 0.00000000
1.00000000 0.61863649 0.00000000
1.00000000 0.64368444 0.00000000
1.00000000 0.66980847 0.00000000
1.00000000 0.69672387 0.00000000
1.00000000 0.72413940 0.00000000
1.00000000 0.75177011 0.00000000
1.00000000 0.77934584 0.02797042
1.00000000 0.80661633 0.06972348
0.15616316 0.55393274 0.00000000
0.15764097 0.55827459 0.00000000
0.15953894 0.56250605 0.00000000
0.16249200 0.56661375 0.00000000
0.16714576 0.57058300 0.00000000
0.17430668 0.57434731 0.00000000
0.18493778 0.57787670 0.00000000
0.20007635 0.58116987 0.00000000
0.22073181 0.58422593 0.00000000
0.24780948 0.58704903 0.00000000
0.28208096 0.58965354 0.00000000
0.32418463 0.59205032 0.00000000
0.37466023 0.59425707 0.00000000
0.43397721 0.59630409 0.00000000
0.50253801 0.59824168 0.00000000
0.57106573 0.60014881 0.00000000
0.63299198 0.60214218 0.00000000
0.68996837 0.60438137 0.00000000
0.74299359 0.60706900 0.00000000
0.79278429 0.61044637 0.00000000
0.83985121 0.61476184 0.00000000
0.88456503 0.62026157 0.00000000
0.92721211 0.62717042 0.00000000
0.96801707 0.63566904 0.00000000
1.00000000 0.64587469 0.00000000
1.00000000 0.66000900 0.00000000
1.00000000 0.67955477 0.00000000
1.00000000 0.70037145 0.00000000
1.00000000 0.72223997 0.00000000
1.00000000 0.74491041 0.00000000
1.00000000 0.76811609 0.00000000
1.00000000 0.79158657 0.00000000
1.00000000 0.81505819 0.00000000
0.18406160 0.62689299 0.00000000
0.18569630 0.63061025 0.00000000
0.18776817 0.63420923 0.00000000
0.19074136 0.63764494 0.00000000
0.19516075 0.64085668 0.00000000
0.20176133 0.64384255 0.00000000
0.21143762 0.64661056 0.00000000
0.22519650 0.64916947 0.00000000
0.24408059 0.65152431 0.00000000
0.26908733 0.65368059 0.00000000
0.30110624 0.65564474 0.00000000
0.34089415 0.65742500 0.00000000
0.38908298 0.65903311 0.00000000
0.44620169 0.66048754 0.00000000
0.51241426 0.66181787 0.00000000
0.57738839 0.66307076 0.00000000
0.63699054 0.66431658 0.00000000
0.69237568 0.66566598 0.00000000
0.74430395 0.66725528 0.00000000
0.79329008 0.66923731 0.00000000
0.83970822 0.67179332 0.00000000
0.88384556 0.67512259 0.00000000
0.92593097 0.67942739 0.00000000
0.96615033 0.68489508 0.00000000
1.00000000 0.69167995 0.00000000
1.00000000 0.70167037 0.00000000
1.00000000 0.71662674 0.00000000
1.00000000 0.73283202 0.00000000
1.00000000 0.75014263 0.00000000
1.00000000 0.76837281 0.00000000
1.00000000 0.78730469 0.00000000
1.00000000 0.80669989 0.00000000
1.00000000 0.82631084 0.00000000
0.21553513 0.69258577 0.00000000
0.21727970 0.69575057 0.00000000
0.21939176 0.69870211 0.00000000
0.22225839 0.70143860 0.00000000
0.22638210 0.70396494 0.00000000
0.23241855 0.70628531 0.00000000
0.24118145 0.70840452 0.00000000
0.25362118 0.71032793 0.00000000
0.27077289 0.71206144 0.00000000
0.29368243 0.71361142 0.00000000
0.32333151 0.71498485 0.00000000
0.36058545 0.71618986 0.00000000
0.40617296 0.71723655 0.00000000
0.46069122 0.71813864 0.00000000
0.52359827 0.71891613 0.00000000
0.58448742 0.71960650 0.00000000
0.64130876 0.72027580 0.00000000
0.69475006 0.72097768 0.00000000
0.74527075 0.72178647 0.00000000
0.79319558 0.72280286 0.00000000
0.83876852 0.72415389 0.00000000
0.88218366 0.72598881 0.00000000
0.92360232 0.72847065 0.00000000
0.96316171 0.73176423 0.00000000
1.00000000 0.73602187 0.00000000
1.00000000 0.74268674 0.00000000
1.00000000 0.75389484 0.00000000
1.00000000 0.76621574 0.00000000
1.00000000 0.77956595 0.00000000
1.00000000 0.79381798 0.00000000
1.00000000 0.80879634 0.00000000
1.00000000 0.82434015 0.00000000
1.00000000 0.84036496 0.00000000
0.25077754 0.75297692 0.00000000
0.25248983 0.75550501 0.00000000
0.25452172 0.75781974 0.00000000
0.25719951 0.75992435 0.00000000
0.26096635 0.76182293 0.00000000
0.26640699 0.76352032 0.00000000
0.27426032 0.76502209 0.00000000
0.28541318 0.76633446 0.00000000
0.30086804 0.76746429 0.00000000
0.32168346 0.76841902 0.00000000
0.34889985 0.76920667 0.00000000
0.38347050 0.76983605 0.00000000
0.42621604 0.77031719 0.00000000
0.47780461 0.77066454 0.00000000
0.53628297 0.77092657 0.00000000
0.59262523 0.77112664 0.00000000
0.64622652 0.77128295 0.00000000
0.69732528 0.77142546 0.00000000
0.74609655 0.77159979 0.00000000
0.79267509 0.77187077 0.00000000
0.83717105 0.77232433 0.00000000
0.87968025 0.77306696 0.00000000
0.92029005 0.77422181 0.00000000
0.95908181 0.77592159 0.00000000
0.99613089 0.77829857 0.00000000
1.00000000 0.78228913 0.00000000
1.00000000 0.79045634 0.00000000
1.00000000 0.79954411 0.00000000
1.00000000 0.80951528 0.00000000
1.00000000 0.82029964 0.00000000
1.00000000 0.83184635 0.00000000
1.00000000 0.84407269 0.00000000
1.00000000 0.85686835 0.00000000
0.28990233 0.80913163 0.00000000
0.29147269 0.81103954 0.00000000
0.29330273 0.81273257 0.00000000
0.29567702 0.81421462 0.00000000
0.29899024 0.81549044 0.00000000
0.30376692 0.81656563 0.00000000
0.31067838 0.81744656 0.00000000
0.32054668 0.81814039 0.00000000
0.33432698 0.81865493 0.00000000
0.35306371 0.81899865 0.00000000
0.37782412 0.81918064 0.00000000
0.40962354 0.81921069 0.00000000
0.44933524 0.81912726 0.00000000
0.49766019 0.81896732 0.00000000
0.55040226 0.81873434 0.00000000
0.60188867 0.81843448 0.00000000
0.65189236 0.81807854 0.00000000
0.70027797 0.81768451 0.00000000
0.74696309 0.81728060 0.00000000
0.79190052 0.81690823 0.00000000
0.83506769 0.81662450 0.00000000
0.87646056 0.81650317 0.00000000
0.91608935 0.81663347 0.00000000
0.95396609 0.81710668 0.00000000
0.99011833 0.81802806 0.00000000
1.00000000 0.81980954 0.00000000
1.00000000 0.82548901 0.00000000
1.00000000 0.83193658 0.00000000
1.00000000 0.83915655 0.00000000
1.00000000 0.84713942 0.00000000
1.00000000 0.85584261 0.00000000
1.00000000 0.86520479 0.00000000
1.00000000 0.87514765 0.00000000
0.33302909 0.86176860 0.00000000
0.33431165 0.86304552 0.00000000
0.33578609 0.86410318 0.00000000
0.33770963 0.86494618 0.00000000
0.34043762 0.86558004 0.00000000
0.34444423 0.86601112 0.00000000
0.35034171 0.86624663 0.00000000
0.35889050 0.86629459 0.00000000
0.37099253 0.86616377 0.00000000
0.38766081 0.86586365 0.00000000
0.40995933 0.86541876 0.00000000
0.43889853 0.86488810 0.00000000
0.47539084 0.86427865 0.00000000
0.51952540 0.86359259 0.00000000
0.56578412 0.86283283 0.00000000
0.61225514 0.86200370 0.00000000
0.65837388 0.86111227 0.00000000
0.70372598 0.86016995 0.00000000
0.74801286 0.85919469 0.00000000
0.79101990 0.85821124 0.00000000
0.83258737 0.85724686 0.00000000
0.87261752 0.85635590 0.00000000
0.91104969 0.85560817 0.00000000
0.94784937 0.85508473 0.00000000
0.98300154 0.85487421 0.00000000
1.00000000 0.85506708 0.00000000
1.00000000 0.85858538 0.00000000
1.00000000 0.86295678 0.00000000
1.00000000 0.86799801 0.00000000
1.00000000 0.87370230 0.00000000
1.00000000 0.88004745 0.00000000
1.00000000 0.88699539 0.00000000
1.00000000 0.89449257 0.00000000
0.38018618 0.91130608 0.00000000
0.38098859 0.91192231 0.00000000
0.38191586 0.91231295 0.00000000
0.38320323 0.91248337 0.00000000
0.38517447 0.91243986 0.00000000
0.38826263 0.91218957 0.00000000
0.39302994 0.91174056 0.00000000
0.40018163 0.91110173 0.00000000
0.41056786 0.91028654 0.00000000
0.42516492 0.90936223 0.00000000
0.44497367 0.90835238 0.00000000
0.47099360 0.90725957 0.00000000
0.50413999 0.90608633 0.00000000
0.54204583 0.90483524 0.00000000
0.58214943 0.90350920 0.00000000
0.62359433 0.90211193 0.00000000
0.66564037 0.90064283 0.00000000
0.70768740 0.89910323 0.00000000
0.74928028 0.89751130 0.00000000
0.79007319 0.89589128 0.00000000
0.82980780 0.89427513 0.00000000
0.86829412 0.89270397 0.00000000
0.90539494 0.89122891 0.00000000
0.94101368 0.88991053 0.00000000
0.97508998 0.88881813 0.00000000
1.00000000 0.88803540 0.00000000
1.00000000 0.88958274 0.00000000
1.00000000 0.89230391 0.00000000
1.00000000 0.89559082 0.00000000
1.00000000 0.89944509 0.00000000
1.00000000 0.90385645 0.00000000
1.00000000 0.90880184 0.00000000
1.00000000 0.91424513 0.00000000
