resources/flame/Syncolor/Shared/transforms/camera_manufacturer_luts/arri/ARRI_Alexa_LUTs/ARRI_LogC3_v1-2_LUT_Package/LUTs/ARRI_LogC3-to-St2084_108_P3-D65_DW34_v2_33.cube
LUT_3D_SIZE 9
1e-06 1e-06 1e-06
0.003769 1e-06 1.2e-05
0.04127 1e-06 8.7e-05
0.110376 1e-06 0.000427
0.192486 1e-06 0.002318
0.278415 1e-06 0.01073
0.356335 1e-06 0.03414
0.418187 1e-06 0.070749
0.462937 1e-06 0.101428
1e-06 0.017229 0.000383
0.025557 0.029822 1e-06
0.096343 0.033934 1e-06
0.174453 0.032985 0.000569
0.261383 0.021391 0.006352
0.341834 0.000927 0.026263
0.409688 1e-06 0.06405
0.461612 1e-06 0.099687
0.498348 1e-06 0.125902
1e-06 0.10286 1e-06
0.037184 0.126848 1e-06
0.13488 0.143808 1e-06
0.227653 0.154356 1e-06
0.311758 0.160693 0.00356
0.383745 0.164646 0.029219
0.442769 0.167697 0.072159
0.488751 0.173345 0.108212
0.515822 0.187593 0.133098
1e-06 0.21817 1e-06
1e-06 0.241852 1e-06
0.153207 0.26046 1e-06
0.264154 0.274606 1e-06
0.347144 0.285445 1e-06
0.412191 0.294006 1e-06
0.463266 0.301286 0.027748
0.503686 0.308416 0.079123
0.515822 0.31696 0.129133
1e-06 0.331314 1e-06
1e-06 0.349159 1e-06
0.126737 0.361677 1e-06
0.281635 0.370414 1e-06
0.365585 0.376819 1e-06
0.426384 0.382111 1e-06
0.47357 0.386828 1e-06
0.510369 0.391771 0.040297
0.515822 0.397924 0.133213
1e-06 0.417802 1e-06
1e-06 0.427584 1e-06
1e-06 0.433929 1e-06
0.280721 0.438324 1e-06
0.372934 0.44193 1e-06
0.433652 0.445117 1e-06
0.47872 0.448378 1e-06
0.512801 0.452242 0.07762
0.515822 0.4571 0.186002
1e-06 0.476292 1e-06
1e-06 0.482257 1e-06
1e-06 0.486268 1e-06
0.274249 0.489163 1e-06
0.379303 0.491467 1e-06
0.440958 0.493373 1e-06
0.483551 0.494828 0.028356
0.514635 0.496005 0.189488
0.515822 0.497145 0.255553
1e-06 0.515822 1e-06
1e-06 0.515822 1e-06
1e-06 0.515822 1e-06
0.293401 0.515822 1e-06
0.391222 0.515822 1e-06
0.446404 0.515822 0.071445
0.484475 0.515822 0.207675
0.511987 0.515822 0.271646
0.515822 0.515822 0.319556
1e-06 0.515822 1e-06
1e-06 0.515822 1e-06
0.167231 0.515822 1e-06
0.342013 0.515822 0.117526
0.409638 0.515822 0.201649
0.453864 0.515822 0.256605
0.485723 0.515822 0.301909
0.508846 0.515822 0.342726
0.515822 0.515822 0.381017
1e-06 1e-06 0.000825
0.010516 1e-06 0.008908
0.065309 1e-06 0.019226
0.13717 1e-06 0.028712
0.222528 1e-06 0.036064
0.30633 1e-06 0.044816
0.380332 1e-06 0.064235
0.437106 1e-06 0.091452
0.476911 1e-06 0.118171
1e-06 0.018576 0.017794
0.024103 0.024103 0.024103
0.116243 0.020652 0.023811
0.195127 0.017741 0.028166
0.28016 0.005439 0.034644
0.35762 1e-06 0.051924
0.421325 1e-06 0.081536
0.471101 1e-06 0.115246
0.505822 1e-06 0.145857
1e-06 0.10974 0.036951
0.007386 0.134627 0.023587
0.140213 0.148392 0.006383
0.241786 0.153764 0.017381
0.321086 0.159879 0.041021
0.391053 0.163757 0.072303
0.447671 0.167186 0.108849
0.49216 0.17284 0.142516
0.515822 0.184123 0.172327
1e-06 0.227744 0.040498
1e-06 0.249171 0.02323
0.145653 0.26624 0.007447
0.268288 0.278155 0.013009
0.351156 0.287562 0.047192
0.414643 0.295535 0.089373
0.464655 0.302403 0.127833
0.50459 0.309027 0.162027
0.515822 0.316929 0.194235
1e-06 0.339282 1e-06
1e-06 0.354231 1e-06
0.113422 0.364568 1e-06
0.282973 0.371978 1e-06
0.367071 0.377718 0.029043
0.427262 0.38271 0.093878
0.473574 0.387376 0.144174
0.509467 0.392346 0.186972
0.515822 0.398308 0.226356
1e-06 0.422239 1e-06
1e-06 0.429901 1e-06
1e-06 0.434928 1e-06
0.282137 0.438846 1e-06
0.37431 0.442124 0.006272
0.434253 0.445113 0.119325
0.47825 0.448369 0.186597
0.512022 0.452396 0.234343
0.515822 0.457112 0.273002
1e-06 0.479053 1e-06
1e-06 0.483837 1e-06
1e-06 0.486919 1e-06
0.278015 0.489171 1e-06
0.382331 0.491056 0.105873
0.442133 0.492677 0.196682
0.483487 0.493998 0.247528
0.513919 0.495081 0.286218
0.515822 0.496125 0.31923
1e-06 0.515822 1e-06
1e-06 0.515822 1e-06
1e-06 0.515822 1e-06
0.294671 0.515822 0.132856
0.392152 0.515822 0.210507
0.446776 0.515822 0.259711
0.484245 0.515822 0.298353
0.511211 0.515822 0.332391
0.515822 0.515822 0.364419
1e-06 0.515822 0.186774
1e-06 0.515822 0.209178
0.144793 0.515822 0.235483
0.339304 0.515822 0.26298
0.408681 0.515822 0.29172
0.45347 0.515822 0.32131
0.485349 0.515822 0.35147
0.508085 0.515822 0.382172
0.515822 0.515822 0.418205
1e-06 1e-06 0.012528
0.015093 1e-06 0.043576
0.081418 1e-06 0.073955
0.161125 1e-06 0.098394
0.247895 1e-06 0.118703
0.328924 1e-06 0.135267
0.398133 1e-06 0.151056
0.449862 1e-06 0.165502
0.485615 1e-06 0.178677
1e-06 0.011162 0.065612
0.014208 0.003873 0.097224
0.121724 1e-06 0.11475
0.210273 1e-06 0.124165
0.294559 1e-06 0.137667
0.368869 1e-06 0.151929
0.42905 1e-06 0.167141
0.476461 1e-06 0.184997
0.509544 1e-06 0.203824
1e-06 0.109803 0.107575
1e-06 0.128896 0.126883
0.135538 0.135538 0.135538
0.256684 0.135981 0.142142
0.329349 0.144422 0.158406
0.395487 0.148903 0.175676
0.450147 0.152521 0.1951
0.493601 0.158155 0.215821
0.515822 0.168689 0.236579
1e-06 0.233293 0.142768
1e-06 0.252588 0.149846
0.111974 0.27034 0.145563
0.271368 0.279349 0.148594
0.357482 0.285133 0.181073
0.415776 0.292856 0.207348
0.464953 0.299518 0.225845
0.503811 0.306282 0.245181
0.515822 0.314487 0.265638
1e-06 0.343868 0.166923
1e-06 0.356146 0.173455
0.083345 0.364996 0.182468
0.280507 0.372068 0.191341
0.367814 0.376934 0.209438
0.427215 0.381312 0.232638
0.47244 0.386005 0.253382
0.507059 0.39124 0.275868
0.515822 0.397378 0.298217
1e-06 0.424123 0.172683
1e-06 0.430115 0.181545
1e-06 0.434408 0.196571
0.282564 0.437808 0.215818
0.375124 0.440776 0.237975
0.434176 0.443695 0.263269
0.477268 0.447199 0.288737
0.510437 0.451523 0.313312
0.515822 0.456161 0.336222
1e-06 0.47982 0.180249
1e-06 0.483605 0.1919
1e-06 0.486007 0.215026
0.283594 0.48777 0.24477
0.385265 0.489443 0.276386
0.442915 0.490953 0.303512
0.482911 0.492184 0.327485
0.512272 0.493238 0.349549
0.515822 0.494305 0.370551
1e-06 0.515822 0.224236
1e-06 0.515822 0.236547
1e-06 0.515822 0.261416
0.300789 0.515822 0.288783
0.394872 0.515822 0.313989
0.447829 0.515822 0.337381
0.484027 0.515822 0.359731
0.509845 0.515822 0.381839
0.515822 0.515822 0.404326
1e-06 0.515822 0.297598
1e-06 0.515822 0.307023
0.131093 0.515822 0.318724
0.339252 0.515822 0.333566
0.409514 0.515822 0.35155
0.454252 0.515822 0.372021
0.48554 0.515822 0.394257
0.507344 0.515822 0.41914
0.515822 0.515822 0.454778
1e-06 1e-06 0.052205
0.017359 1e-06 0.096832
0.092751 1e-06 0.137386
0.180519 1e-06 0.171471
0.26795 1e-06 0.197577
0.346026 1e-06 0.21682
0.410096 1e-06 0.23046
0.457232 1e-06 0.238762
0.489502 1e-06 0.244034
1e-06 1e-06 0.121133
0.000642 1e-06 0.158102
0.11266 1e-06 0.187572
0.21675 1e-06 0.207582
0.30418 1e-06 0.22412
0.376004 1e-06 0.23694
0.433482 1e-06 0.247712
0.478415 1e-06 0.258716
0.510746 1e-06 0.269861
1e-06 0.089103 0.181168
1e-06 0.089294 0.210873
0.112354 0.064514 0.23808
0.253654 0.054167 0.246253
0.332993 0.079844 0.250144
0.397596 0.086858 0.261417
0.450941 0.090388 0.274351
0.49356 0.098912 0.287612
0.515822 0.118544 0.300691
1e-06 0.230395 0.227735
1e-06 0.245876 0.243343
0.033735 0.260675 0.258679
0.267006 0.267006 0.267006
0.364759 0.271794 0.275572
0.417271 0.282413 0.289375
0.463858 0.290281 0.301481
0.501627 0.298042 0.313637
0.515822 0.307938 0.326767
1e-06 0.343828 0.262982
1e-06 0.353922 0.272639
1e-06 0.362231 0.280568
0.264865 0.371163 0.281181
0.368187 0.374806 0.286118
0.429368 0.377069 0.307471
0.4703 0.382147 0.325512
0.504187 0.387965 0.339331
0.515822 0.394755 0.353657
1e-06 0.423144 0.282913
1e-06 0.428042 0.290654
1e-06 0.431792 0.299644
0.279685 0.435078 0.309686
0.373774 0.438469 0.319519
0.433781 0.441214 0.335163
0.475919 0.444805 0.35301
0.508337 0.449532 0.368932
0.515822 0.454278 0.384274
1e-06 0.478672 0.297588
1e-06 0.481686 0.305795
1e-06 0.483559 0.318158
0.288888 0.48505 0.334145
0.387488 0.48673 0.351089
0.443312 0.488218 0.366721
0.481956 0.489502 0.381562
0.510159 0.490684 0.396008
0.515822 0.49192 0.410813
1e-06 0.515822 0.322704
1e-06 0.515822 0.332145
1e-06 0.515822 0.345838
0.308023 0.515822 0.360405
0.397935 0.515822 0.375025
0.449014 0.515822 0.389662
0.483783 0.515822 0.404697
0.508209 0.515201 0.420532
0.515822 0.513714 0.43822
1e-06 0.515822 0.361493
1e-06 0.515822 0.367075
0.136207 0.515822 0.374549
0.34274 0.515822 0.384877
0.412695 0.515822 0.398121
0.456422 0.515822 0.413288
0.486453 0.515822 0.430189
0.507045 0.515822 0.454848
0.515822 0.515822 0.483073
1e-06 1e-06 0.108077
0.008483 1e-06 0.162238
0.093339 1e-06 0.208484
0.192249 1e-06 0.244941
0.281666 1e-06 0.271585
0.35702 1e-06 0.289472
0.416484 1e-06 0.299693
0.4596 1e-06 0.303286
0.488878 1e-06 0.30299
1e-06 1e-06 0.18951
1e-06 1e-06 0.228492
0.088898 1e-06 0.259562
0.217029 1e-06 0.282518
0.308596 1e-06 0.298324
0.379174 1e-06 0.308571
0.434786 1e-06 0.316245
0.477925 1e-06 0.322827
0.509557 1e-06 0.328678
1e-06 1e-06 0.254124
1e-06 1e-06 0.279649
0.064407 1e-06 0.299846
0.238673 1e-06 0.313299
0.330177 1e-06 0.321073
0.397388 1e-06 0.329814
0.450386 1e-06 0.338871
0.492025 1e-06 0.347454
0.515822 1e-06 0.355183
1e-06 0.210684 0.300831
1e-06 0.222238 0.31595
1e-06 0.230592 0.332604
0.25453 0.231328 0.34934
0.358826 0.240756 0.352523
0.416113 0.259429 0.353691
0.461644 0.271115 0.36033
0.498075 0.282218 0.367915
0.515822 0.295516 0.375923
1e-06 0.337493 0.334584
1e-06 0.346029 0.34324
1e-06 0.35319 0.350841
0.246369 0.36109 0.35946
0.363854 0.363854 0.363854
0.432517 0.36686 0.369111
0.468665 0.375063 0.378801
0.500828 0.382443 0.387867
0.515822 0.390414 0.397358
1e-06 0.418913 0.353901
1e-06 0.423348 0.359871
1e-06 0.426782 0.366048
0.270122 0.430566 0.372129
0.365906 0.435891 0.374749
0.433637 0.438568 0.381122
0.476601 0.441302 0.397397
0.50587 0.446483 0.411237
0.515822 0.451699 0.421734
1e-06 0.475476 0.367177
1e-06 0.47798 0.373462
1e-06 0.479523 0.381806
0.292657 0.481191 0.391915
0.388417 0.483169 0.401867
0.442565 0.485222 0.410178
0.480943 0.486421 0.420415
0.507738 0.487609 0.431791
0.515822 0.489254 0.442371
1e-06 0.515822 0.385239
1e-06 0.515822 0.392301
1e-06 0.515822 0.400689
0.314883 0.515822 0.409625
0.400964 0.515782 0.418865
0.450396 0.514367 0.428764
0.483644 0.512962 0.43926
0.506516 0.511691 0.450712
0.515822 0.510171 0.467145
1e-06 0.515822 0.408286
1e-06 0.515822 0.412143
0.160535 0.515822 0.4174
0.349751 0.515822 0.425004
0.417429 0.515822 0.434538
0.459529 0.515822 0.445711
0.488781 0.515822 0.460736
0.50771 0.515822 0.482107
0.515301 0.515822 0.500166
1e-06 1e-06 0.174864
1e-06 1e-06 0.232538
0.064794 1e-06 0.278803
0.192805 1e-06 0.313448
0.287629 1e-06 0.336917
0.361533 1e-06 0.350859
0.417224 1e-06 0.356488
0.457176 1e-06 0.35583
0.484718 1e-06 0.35171
1e-06 1e-06 0.259718
1e-06 1e-06 0.298776
1e-06 1e-06 0.328093
0.205479 1e-06 0.347882
0.306716 1e-06 0.360347
0.378465 1e-06 0.367691
0.433063 1e-06 0.372183
0.475331 1e-06 0.375541
0.505826 1e-06 0.377239
1e-06 1e-06 0.321813
1e-06 1e-06 0.344966
1e-06 1e-06 0.360029
0.220809 1e-06 0.370823
0.325151 1e-06 0.378648
0.395356 1e-06 0.385352
0.448285 1e-06 0.391251
0.488856 1e-06 0.396127
0.515822 1e-06 0.399441
1e-06 0.139709 0.363267
1e-06 0.148345 0.376437
1e-06 0.162847 0.385754
0.242499 0.174581 0.394665
0.346904 0.190276 0.400587
0.411163 0.214305 0.403294
0.458162 0.234137 0.407128
0.493657 0.254633 0.411091
0.515822 0.275185 0.415567
1e-06 0.321942 0.392108
1e-06 0.329962 0.398843
1e-06 0.33697 0.403999
0.245431 0.342506 0.412185
0.356634 0.34442 0.421436
0.426311 0.35163 0.421476
0.465696 0.364582 0.421447
0.497288 0.374586 0.426238
0.515822 0.384552 0.432428
1e-06 0.411071 0.408043
1e-06 0.41535 0.412461
1e-06 0.418868 0.416341
0.263543 0.422589 0.420674
0.359597 0.427889 0.426688
0.430867 0.430867 0.430867
0.478355 0.435026 0.436338
0.503897 0.442358 0.444409
0.515822 0.448738 0.451497
1e-06 0.470072 0.418777
1e-06 0.472364 0.423247
1e-06 0.474086 0.428485
0.294096 0.476287 0.4347
0.387118 0.478963 0.44042
0.438302 0.482512 0.443216
0.480278 0.483663 0.447824
0.506686 0.484375 0.458039
0.515822 0.486698 0.466904
1e-06 0.511836 0.431695
1e-06 0.51329 0.436457
1e-06 0.513126 0.441516
0.321449 0.512331 0.44686
0.40446 0.511225 0.452623
0.451782 0.51015 0.458716
0.483309 0.509382 0.464847
0.504915 0.508138 0.474321
0.514763 0.507291 0.487959
1e-06 0.515822 0.445156
1e-06 0.515822 0.44792
0.194457 0.515822 0.451483
0.3589 0.515822 0.456581
0.423419 0.515822 0.463047
0.464022 0.515822 0.471284
0.49337 0.515822 0.484929
0.509021 0.515822 0.499325
0.514666 0.515362 0.508887
1e-06 1e-06 0.244321
1e-06 1e-06 0.300562
1e-06 1e-06 0.343341
0.173553 1e-06 0.373325
0.283621 1e-06 0.391374
0.35846 1e-06 0.400057
0.412278 1e-06 0.401308
0.450332 1e-06 0.397085
0.477868 1e-06 0.391013
1e-06 1e-06 0.326109
1e-06 1e-06 0.362226
1e-06 1e-06 0.387225
0.169926 1e-06 0.40295
0.297634 1e-06 0.411869
0.373456 1e-06 0.415871
0.42879 1e-06 0.417778
0.470062 1e-06 0.417835
0.499366 1e-06 0.415949
1e-06 1e-06 0.381621
1e-06 1e-06 0.401009
1e-06 1e-06 0.41346
0.183908 1e-06 0.42143
0.316032 1e-06 0.426553
0.390811 1e-06 0.43085
0.444422 1e-06 0.434
0.483811 1e-06 0.435314
0.511584 1e-06 0.434834
1e-06 1e-06 0.416235
1e-06 1e-06 0.426881
1e-06 1e-06 0.433453
0.215209 1e-06 0.438052
0.337679 1e-06 0.441458
0.405967 0.007738 0.443591
0.453493 0.142554 0.444734
0.488861 0.201967 0.446002
0.515822 0.242863 0.447806
1e-06 0.290665 0.43915
1e-06 0.30013 0.44423
1e-06 0.309401 0.447617
0.234481 0.318912 0.449877
0.352511 0.327777 0.452691
0.417377 0.33856 0.454099
0.460806 0.351977 0.454672
0.493524 0.364459 0.457275
0.515822 0.377661 0.460803
1e-06 0.398585 0.451596
1e-06 0.403234 0.454582
1e-06 0.407536 0.456337
0.258405 0.412135 0.457748
0.364393 0.417025 0.462678
0.427464 0.42074 0.469398
0.474085 0.427745 0.470683
0.500934 0.437694 0.471568
0.515822 0.445837 0.474993
1e-06 0.462261 0.459214
1e-06 0.464851 0.461977
1e-06 0.467429 0.464905
0.294096 0.470319 0.468312
0.388092 0.473225 0.47183
0.435892 0.47668 0.475865
0.478154 0.478154 0.478154
0.506235 0.480222 0.480942
0.515822 0.484801 0.48574
1e-06 0.505911 0.467632
1e-06 0.507573 0.470837
1e-06 0.507632 0.473501
0.328604 0.507087 0.476152
0.408394 0.5063 0.479055
0.452881 0.505945 0.482075
0.481919 0.506363 0.484393
0.503886 0.505416 0.490647
0.511488 0.505979 0.499908
1e-06 0.515822 0.474867
1e-06 0.515822 0.476759
0.230541 0.515822 0.478753
0.370027 0.515822 0.481497
0.430758 0.515822 0.485206
0.472568 0.515822 0.491651
0.498873 0.515822 0.500532
0.510473 0.51438 0.507947
0.514735 0.514931 0.513148
1e-06 1e-06 0.306936
1e-06 1e-06 0.359102
1e-06 1e-06 0.396761
0.102051 1e-06 0.420629
0.266614 1e-06 0.433313
0.347709 1e-06 0.437624
0.401918 1e-06 0.435275
0.440345 1e-06 0.429236
0.468373 1e-06 0.421873
1e-06 1e-06 0.383411
1e-06 1e-06 0.415906
1e-06 1e-06 0.436412
0.021141 1e-06 0.448151
0.27873 1e-06 0.453332
0.363747 1e-06 0.454311
0.420874 1e-06 0.453558
0.461793 1e-06 0.450684
0.490091 1e-06 0.445637
1e-06 1e-06 0.431599
1e-06 1e-06 0.448032
1e-06 1e-06 0.457648
0.06607 1e-06 0.462751
0.300879 1e-06 0.466221
0.383622 1e-06 0.468319
0.438393 1e-06 0.468458
0.476718 1e-06 0.466177
0.503821 1e-06 0.462861
1e-06 1e-06 0.460031
1e-06 1e-06 0.468468
1e-06 1e-06 0.473269
0.151702 1e-06 0.476249
0.325783 1e-06 0.477351
0.399414 1e-06 0.476544
0.44798 1e-06 0.475248
0.483639 1e-06 0.474522
0.510367 0.187254 0.473989
1e-06 0.220009 0.477646
1e-06 0.237077 0.48193
1e-06 0.256467 0.483657
0.198104 0.277104 0.483574
0.345545 0.298323 0.482299
0.412086 0.31718 0.481792
0.456699 0.334864 0.481902
0.489555 0.352317 0.482618
0.51392 0.370611 0.483655
1e-06 0.38 0.486863
1e-06 0.385949 0.488738
1e-06 0.392339 0.488357
0.244624 0.399321 0.488039
0.366118 0.406999 0.488512
0.426726 0.414836 0.490729
0.468464 0.42382 0.492272
0.496741 0.433906 0.492441
0.515822 0.443629 0.493203
1e-06 0.452044 0.490957
1e-06 0.455767 0.492888
1e-06 0.459582 0.494253
0.293643 0.46337 0.495454
0.390715 0.46691 0.496308
0.440283 0.470194 0.498695
0.476231 0.472607 0.501381
0.502057 0.477032 0.500037
0.511227 0.484866 0.498288
1e-06 0.498914 0.495957
1e-06 0.500944 0.498191
1e-06 0.501478 0.49906
0.337305 0.501413 0.49945
0.413239 0.501243 0.499815
0.456142 0.50144 0.500552
0.483796 0.502151 0.501743
0.50317 0.50317 0.50317
0.509852 0.50597 0.506066
1e-06 0.515822 0.498789
1e-06 0.515822 0.499886
0.266595 0.515822 0.500397
0.38327 0.515822 0.500896
0.442846 0.515822 0.502045
0.483447 0.514955 0.504877
0.503791 0.513179 0.508646
0.511867 0.513769 0.512041
0.515203 0.51523 0.514989
1e-06 1e-06 0.35968
1e-06 1e-06 0.405855
1e-06 1e-06 0.437335
1e-06 1e-06 0.455548
0.233625 1e-06 0.464049
0.329772 1e-06 0.464944
0.387366 1e-06 0.460446
0.427557 1e-06 0.453596
0.4564 1e-06 0.445219
1e-06 1e-06 0.427971
1e-06 1e-06 0.455973
1e-06 1e-06 0.47302
1e-06 1e-06 0.481567
0.245741 1e-06 0.483602
0.348592 1e-06 0.483001
0.409283 1e-06 0.480235
0.450614 1e-06 0.474944
0.478362 1e-06 0.467293
1e-06 1e-06 0.469205
1e-06 1e-06 0.48446
1e-06 1e-06 0.492515
1e-06 1e-06 0.496488
0.277415 1e-06 0.498431
0.373204 1e-06 0.498092
0.429697 1e-06 0.494789
0.46785 1e-06 0.489729
0.494784 1e-06 0.484356
1e-06 1e-06 0.493373
1e-06 1e-06 0.501899
1e-06 1e-06 0.506188
1e-06 1e-06 0.507468
0.309807 1e-06 0.506117
0.391401 1e-06 0.50301
0.441894 1e-06 0.500224
0.477812 1e-06 0.497606
0.503932 0.029311 0.494789
1e-06 1e-06 0.507872
1e-06 1e-06 0.512631
1e-06 0.026999 0.512988
0.131461 0.186613 0.510686
0.3363 0.24445 0.508243
0.40712 0.282363 0.506219
0.45264 0.312676 0.504457
0.485204 0.339538 0.502966
0.508786 0.364842 0.50168
1e-06 0.354002 0.514259
1e-06 0.362516 0.515822
1e-06 0.37273 0.514465
0.227197 0.383455 0.512964
0.362884 0.394695 0.511824
0.425324 0.406727 0.510966
0.465715 0.418765 0.510069
0.493244 0.430674 0.508619
0.510836 0.443248 0.506301
1e-06 0.440078 0.515501
1e-06 0.445524 0.515822
1e-06 0.451052 0.515822
0.295799 0.455759 0.515822
0.392353 0.460549 0.515822
0.443478 0.465556 0.514334
0.476316 0.470656 0.51291
0.497288 0.477906 0.508708
0.505167 0.487424 0.503687
1e-06 0.491992 0.515462
1e-06 0.494966 0.51543
0.048316 0.496067 0.515538
0.349449 0.496231 0.515742
0.41941 0.496398 0.515771
0.462682 0.497533 0.512945
0.489856 0.499687 0.50986
0.503648 0.503047 0.508352
0.508906 0.50697 0.508732
1e-06 0.515822 0.514307
1e-06 0.515822 0.514444
0.304982 0.515822 0.514637
0.40035 0.515822 0.514895
0.460428 0.513637 0.51263
0.493759 0.511722 0.511322
0.507705 0.512248 0.51214
0.513325 0.513906 0.513892
0.515822 0.515822 0.515822
