resources/flame/Syncolor/Shared/transforms/camera_manufacturer_luts/arri/ARRI_Alexa_LUTs/ARRI_LogC3_v1-2_LUT_Package/LUTs/ARRI_LogC3-to-St2084_4K_Rec2100-D65_DW100_v1_33.cube
LUT_3D_SIZE 33
0.006302 0.006302 0.006302
0.027924 0.006302 0.006302
0.053681 0.012146 0.006302
0.078996 0.019638 0.006302
0.104173 0.027924 0.006302
0.129335 0.036957 0.006302
0.154528 0.046708 0.008042
0.179812 0.057145 0.010330
0.205234 0.068299 0.012955
0.230869 0.080140 0.015900
0.256886 0.092790 0.019242
0.283513 0.106355 0.023041
0.310948 0.120958 0.027359
0.339422 0.136782 0.032288
0.369131 0.153994 0.037949
0.399496 0.172320 0.044297
0.429923 0.191394 0.051255
0.460410 0.211215 0.058854
0.490944 0.231769 0.067140
0.521553 0.253056 0.076112
0.552224 0.275074 0.085817
0.582956 0.297826 0.096284
0.613748 0.321279 0.107546
0.644602 0.345464 0.119646
0.675532 0.370352 0.132631
0.706523 0.395956 0.146502
0.737575 0.422263 0.161334
0.768704 0.449287 0.177127
0.799878 0.477012 0.193957
0.831128 0.505425 0.211841
0.862226 0.534356 0.230701
0.893034 0.563653 0.250462
0.902571 0.593225 0.271092
0.006302 0.011063 0.006302
0.006302 0.006302 0.006302
0.030030 0.006302 0.006302
0.056321 0.012894 0.006302
0.082307 0.020676 0.006302
0.108263 0.029328 0.006302
0.134356 0.038849 0.006409
0.160876 0.049271 0.008591
0.188022 0.060685 0.011139
0.216037 0.073213 0.014160
0.245121 0.087007 0.017700
0.275395 0.102159 0.021836
0.305928 0.118242 0.026535
0.336522 0.135149 0.031754
0.367147 0.152834 0.037552
0.397833 0.171298 0.043931
0.428565 0.190524 0.050935
0.459327 0.210498 0.058579
0.490150 0.231220 0.066911
0.521019 0.252689 0.075944
0.551949 0.274876 0.085725
0.582925 0.297795 0.096269
0.613947 0.321447 0.107622
0.645029 0.345800 0.119829
0.676173 0.370871 0.132906
0.707362 0.396658 0.146899
0.738613 0.423163 0.161837
0.769909 0.450355 0.177768
0.801175 0.478172 0.194675
0.832181 0.506401 0.212467
0.862898 0.534997 0.231128
0.893263 0.563867 0.250614
0.902571 0.592950 0.270893
0.006302 0.022156 0.006302
0.006302 0.015213 0.006302
0.007828 0.008423 0.006302
0.035248 0.007630 0.006302
0.063005 0.014801 0.006302
0.091142 0.023529 0.006302
0.120027 0.033524 0.006302
0.149966 0.044892 0.007660
0.180774 0.057557 0.010422
0.211597 0.071183 0.013657
0.242420 0.085695 0.017350
0.273274 0.101076 0.021530
0.304158 0.117281 0.026246
0.335058 0.134325 0.031495
0.366003 0.152148 0.037324
0.396979 0.170764 0.043748
0.427985 0.190158 0.050797
0.459022 0.210300 0.058503
0.490089 0.231189 0.066896
0.521218 0.252827 0.076005
0.552361 0.275181 0.085863
0.583566 0.298283 0.096498
0.614801 0.322103 0.107958
0.646082 0.346639 0.120256
0.677409 0.371893 0.133440
0.708782 0.397848 0.147555
0.740169 0.424491 0.162600
0.771359 0.451621 0.178531
0.802289 0.479179 0.195300
0.832914 0.507088 0.212894
0.863188 0.535256 0.231296
0.893034 0.563638 0.250446
0.902571 0.592126 0.270314
0.009796 0.035691 0.006302
0.008179 0.030549 0.006302
0.006851 0.026184 0.006302
0.021866 0.023331 0.006302
0.052689 0.024201 0.006302
0.084276 0.028931 0.006302
0.115740 0.036698 0.006302
0.147082 0.046738 0.006302
0.178332 0.058488 0.008896
0.209552 0.071580 0.012512
0.240757 0.085801 0.016464
0.271946 0.101045 0.020844
0.303136 0.117220 0.025696
0.334356 0.134279 0.031067
0.365576 0.152178 0.036988
0.396811 0.170886 0.043519
0.428077 0.190387 0.050660
0.459373 0.210651 0.058457
0.490684 0.231693 0.066941
0.522026 0.253483 0.076158
0.553384 0.276005 0.086107
0.584787 0.299260 0.096864
0.616205 0.323232 0.108431
0.647669 0.347936 0.120851
0.679164 0.373342 0.134157
0.710521 0.399329 0.148318
0.741665 0.425803 0.163317
0.772534 0.452674 0.179110
0.803082 0.479896 0.195712
0.833249 0.507393 0.213062
0.862974 0.535088 0.231144
0.892226 0.562875 0.249912
0.902571 0.590692 0.269276
0.017090 0.057206 0.006302
0.016663 0.056016 0.006302
0.016297 0.054994 0.006302
0.023209 0.054063 0.006302
0.050904 0.053880 0.006302
0.081941 0.055070 0.006302
0.113512 0.058198 0.006302
0.145144 0.063584 0.006302
0.176745 0.071336 0.006302
0.208301 0.081254 0.006302
0.239826 0.093095 0.008057
0.271336 0.106600 0.015152
0.302815 0.121508 0.021485
0.334310 0.137667 0.027848
0.365789 0.154925 0.034501
0.397284 0.173205 0.041581
0.428794 0.192416 0.049180
0.460304 0.212512 0.057359
0.491829 0.233448 0.066163
0.523354 0.255192 0.075654
0.554910 0.277729 0.085878
0.586481 0.301015 0.096849
0.618067 0.325063 0.108629
0.649607 0.349783 0.121218
0.680949 0.375051 0.134600
0.712047 0.400809 0.148745
0.742870 0.426993 0.163668
0.773342 0.453513 0.179339
0.803433 0.480323 0.195743
0.833066 0.507317 0.212818
0.862211 0.534432 0.230549
0.890791 0.561563 0.248859
0.902571 0.588602 0.267674
0.028794 0.087984 0.006302
0.028534 0.087327 0.006302
0.028275 0.086687 0.006302
0.031373 0.086076 0.006302
0.052857 0.085801 0.006302
0.081834 0.086183 0.006302
0.112795 0.087541 0.006302
0.144335 0.090288 0.006302
0.176074 0.094728 0.006302
0.207843 0.101122 0.006302
0.239628 0.109560 0.006302
0.271382 0.120012 0.006302
0.303120 0.132372 0.006302
0.334859 0.146456 0.015381
0.366583 0.162081 0.026108
0.398291 0.179095 0.035431
0.429999 0.197345 0.044541
0.461707 0.216709 0.053834
0.493416 0.237125 0.063508
0.525139 0.258473 0.073686
0.556847 0.280735 0.084474
0.588540 0.303838 0.095918
0.620081 0.327626 0.108049
0.651423 0.352026 0.120851
0.682490 0.376959 0.134356
0.713268 0.402350 0.148547
0.743694 0.428107 0.163439
0.773709 0.454170 0.179004
0.803281 0.480461 0.195209
0.832334 0.506859 0.212009
0.860807 0.533288 0.229358
0.888640 0.559655 0.247181
0.902571 0.585840 0.265415
0.042161 0.119646 0.006302
0.042008 0.119295 0.006302
0.041871 0.118975 0.006302
0.043503 0.118669 0.006302
0.059083 0.118563 0.006302
0.084581 0.118791 0.006302
0.114000 0.119570 0.006302
0.144930 0.121141 0.006302
0.176471 0.123812 0.006302
0.208255 0.127840 0.006302
0.240162 0.133486 0.006302
0.272084 0.140948 0.006302
0.304021 0.150317 0.006302
0.335943 0.161608 0.006302
0.367849 0.174777 0.006302
0.399756 0.189670 0.012833
0.431647 0.206180 0.031510
0.463523 0.224155 0.044785
0.495384 0.243442 0.056901
0.527245 0.263920 0.068772
0.558999 0.285451 0.080781
0.590555 0.307851 0.093111
0.621897 0.331014 0.105882
0.652964 0.354849 0.119158
0.683726 0.379232 0.132982
0.714107 0.404074 0.147372
0.744091 0.429267 0.162341
0.773587 0.454734 0.177859
0.802579 0.480354 0.193912
0.830961 0.506035 0.210437
0.858717 0.531685 0.227405
0.885740 0.557168 0.244739
0.902571 0.582391 0.262348
0.056992 0.151949 0.006302
0.056962 0.151888 0.006302
0.056931 0.151827 0.006302
0.058030 0.151797 0.006302
0.069230 0.151888 0.006302
0.090578 0.152163 0.006302
0.117556 0.152773 0.006302
0.147204 0.153872 0.006302
0.178134 0.155657 0.006302
0.209659 0.158343 0.006302
0.241474 0.162158 0.006302
0.273442 0.167376 0.006302
0.305470 0.174182 0.006302
0.337514 0.182757 0.006302
0.369574 0.193194 0.006302
0.401602 0.205509 0.006302
0.433631 0.219669 0.006302
0.465644 0.235584 0.008957
0.497597 0.253101 0.039689
0.529397 0.272053 0.057221
0.560998 0.292241 0.072404
0.592355 0.313497 0.086778
0.623438 0.335668 0.100969
0.654185 0.358602 0.115236
0.684565 0.382162 0.129763
0.714519 0.406226 0.144625
0.743984 0.430655 0.159869
0.772915 0.455329 0.175494
0.801251 0.480156 0.191485
0.828931 0.504982 0.207828
0.855879 0.529702 0.224460
0.882033 0.554192 0.241306
0.902571 0.578470 0.258396
0.073213 0.184863 0.006302
0.073304 0.185016 0.006302
0.073396 0.185199 0.006302
0.074296 0.185397 0.006302
0.082551 0.185672 0.006302
0.099825 0.186069 0.006302
0.123720 0.186679 0.006302
0.151461 0.187579 0.006302
0.181262 0.188922 0.006302
0.212161 0.190875 0.006302
0.243671 0.193591 0.006302
0.275486 0.197314 0.006302
0.307485 0.202243 0.006302
0.339559 0.208591 0.006302
0.371679 0.216571 0.006302
0.403799 0.226322 0.006302
0.435904 0.237903 0.006302
0.467903 0.251347 0.006302
0.499748 0.266545 0.006302
0.531395 0.283406 0.013336
0.562783 0.301732 0.051728
0.593896 0.321355 0.072908
0.624674 0.342092 0.090776
0.655055 0.363745 0.107378
0.684993 0.386145 0.123461
0.714458 0.409140 0.139361
0.743359 0.432547 0.155276
0.771664 0.456214 0.171298
0.799298 0.480034 0.187457
0.826184 0.503822 0.203738
0.852323 0.527520 0.220172
0.877836 0.551156 0.236820
0.902571 0.574670 0.253666
0.090761 0.218265 0.006302
0.090959 0.218631 0.006302
0.091157 0.218997 0.006302
0.092012 0.219394 0.006302
0.098299 0.219837 0.006302
0.112093 0.220356 0.006302
0.132631 0.221012 0.006302
0.157900 0.221866 0.006302
0.186069 0.222995 0.006302
0.215961 0.224537 0.006302
0.246830 0.226596 0.006302
0.278294 0.229358 0.006302
0.310094 0.232990 0.006302
0.342061 0.237720 0.006302
0.374151 0.243732 0.006302
0.406241 0.251240 0.006302
0.438239 0.260395 0.006302
0.470100 0.271290 0.006302
0.501778 0.283970 0.006302
0.533211 0.298390 0.006302
0.564355 0.314458 0.006302
0.595148 0.331991 0.026993
0.625559 0.350851 0.067323
0.655528 0.370809 0.091310
0.684993 0.391669 0.111360
0.713893 0.413230 0.129717
0.742184 0.435309 0.147204
0.769787 0.457725 0.164218
0.796674 0.480308 0.180957
0.822889 0.503014 0.197620
0.848463 0.525765 0.214267
0.873350 0.548440 0.230961
0.897536 0.570977 0.247654
0.109545 0.252110 0.006302
0.109850 0.252628 0.006302
0.110155 0.253162 0.006302
0.111025 0.253712 0.006302
0.115984 0.254292 0.006302
0.126955 0.254932 0.006302
0.144228 0.255650 0.006302
0.166659 0.256504 0.006302
0.192737 0.257542 0.006302
0.221180 0.258839 0.006302
0.251102 0.260502 0.006302
0.281926 0.262638 0.006302
0.313313 0.265415 0.006302
0.345037 0.268971 0.006302
0.376898 0.273518 0.006302
0.408774 0.279240 0.006302
0.440574 0.286320 0.006302
0.472236 0.294911 0.006302
0.503670 0.305150 0.006302
0.534844 0.317067 0.006302
0.565667 0.330648 0.006302
0.596109 0.345815 0.006302
0.626093 0.362432 0.006302
0.655589 0.380301 0.044053
0.684520 0.399237 0.085069
0.712810 0.419028 0.111086
0.740414 0.439429 0.132677
0.767315 0.460288 0.152209
0.793591 0.481514 0.170657
0.819196 0.502968 0.188449
0.844129 0.524529 0.205814
0.868345 0.546090 0.222889
0.891844 0.567529 0.239750
0.129519 0.286290 0.006302
0.129900 0.286946 0.006302
0.130312 0.287617 0.006302
0.131228 0.288289 0.006302
0.135256 0.288975 0.006302
0.144030 0.289708 0.006302
0.158312 0.290486 0.006302
0.177798 0.291341 0.006302
0.201419 0.292332 0.006302
0.228000 0.293477 0.006302
0.256596 0.294881 0.006302
0.286488 0.296620 0.006302
0.317220 0.298787 0.006302
0.348440 0.301518 0.006302
0.379904 0.304982 0.006302
0.411460 0.309346 0.006302
0.442969 0.314778 0.006302
0.474327 0.321462 0.006302
0.505470 0.329534 0.006302
0.536294 0.339117 0.006302
0.566751 0.350256 0.006302
0.596765 0.362951 0.006302
0.626291 0.377111 0.006302
0.655207 0.392615 0.006302
0.683482 0.409247 0.006302
0.711055 0.426856 0.060304
0.738033 0.445304 0.102770
0.764355 0.464424 0.130541
0.790051 0.484047 0.153506
0.815045 0.504036 0.174075
0.839353 0.524224 0.193240
0.862928 0.544488 0.211460
0.885740 0.564691 0.229023
0.150576 0.320729 0.006302
0.151064 0.321492 0.006302
0.151537 0.322255 0.006302
0.152483 0.323018 0.006302
0.155840 0.323796 0.006302
0.162905 0.324590 0.006302
0.174640 0.325399 0.006302
0.191241 0.326268 0.006302
0.212177 0.327214 0.006302
0.236545 0.328283 0.006302
0.263447 0.329488 0.006302
0.292088 0.330922 0.006302
0.321874 0.332647 0.006302
0.352377 0.334783 0.006302
0.383276 0.337453 0.006302
0.414374 0.340795 0.006302
0.445457 0.344961 0.006302
0.476432 0.350118 0.006302
0.507179 0.356390 0.006302
0.537591 0.363928 0.006302
0.567559 0.372808 0.006302
0.597024 0.383047 0.006302
0.625910 0.394690 0.006302
0.654154 0.407645 0.006302
0.681804 0.421836 0.006302
0.708843 0.437171 0.006302
0.735271 0.453498 0.006302
0.761059 0.470634 0.075303
0.786160 0.488441 0.119890
0.810575 0.506737 0.149187
0.834257 0.525353 0.173144
0.857191 0.544137 0.194354
0.879347 0.562966 0.213840
0.172671 0.355337 0.006302
0.173220 0.356176 0.006302
0.173754 0.357015 0.006302
0.174746 0.357839 0.006302
0.177584 0.358663 0.006302
0.183322 0.359487 0.006302
0.192905 0.360327 0.006302
0.206821 0.361196 0.006302
0.225025 0.362097 0.006302
0.246952 0.363043 0.006302
0.271824 0.364080 0.006302
0.298878 0.365255 0.006302
0.327428 0.366659 0.006302
0.356985 0.368338 0.006302
0.387137 0.370413 0.006302
0.417594 0.372976 0.006302
0.448127 0.376150 0.006302
0.478538 0.380041 0.006302
0.508705 0.384802 0.006302
0.538506 0.390555 0.006302
0.567880 0.397421 0.006302
0.596704 0.405478 0.006302
0.624979 0.414801 0.006302
0.652705 0.425391 0.006302
0.679850 0.437232 0.006302
0.706386 0.450248 0.006302
0.732296 0.464332 0.006302
0.757534 0.479347 0.006302
0.782071 0.495155 0.006302
0.805890 0.511559 0.086793
0.828977 0.528420 0.134646
0.851270 0.545556 0.165515
0.872786 0.562844 0.190280
0.195712 0.390036 0.006302
0.196307 0.390921 0.006302
0.196887 0.391791 0.006302
0.197894 0.392645 0.006302
0.200320 0.393484 0.006302
0.205020 0.394324 0.006302
0.212818 0.395163 0.006302
0.224369 0.395972 0.006302
0.239933 0.396765 0.006302
0.259281 0.397589 0.006302
0.281880 0.398459 0.006302
0.307042 0.399420 0.006302
0.334081 0.400534 0.006302
0.362371 0.401816 0.006302
0.391485 0.403342 0.006302
0.421042 0.405203 0.006302
0.450767 0.407523 0.006302
0.480461 0.410376 0.006302
0.509972 0.413916 0.006302
0.539132 0.418250 0.006302
0.567864 0.423499 0.006302
0.596155 0.429770 0.006302
0.623926 0.437125 0.006302
0.651164 0.445624 0.006302
0.677806 0.455283 0.006302
0.703822 0.466087 0.006302
0.729198 0.477958 0.006302
0.753902 0.490806 0.006302
0.777890 0.504509 0.006302
0.801144 0.518914 0.006302
0.823621 0.533883 0.006302
0.845304 0.549233 0.090547
0.866178 0.564828 0.144732
0.219608 0.424720 0.006302
0.220233 0.425620 0.006302
0.220844 0.426490 0.006302
0.221836 0.427359 0.006302
0.223926 0.428199 0.006302
0.227771 0.428992 0.006302
0.234104 0.429725 0.006302
0.243610 0.430426 0.006302
0.256718 0.431098 0.006302
0.273503 0.431769 0.006302
0.293629 0.432410 0.006302
0.316579 0.433082 0.006302
0.341711 0.433829 0.006302
0.368444 0.434684 0.006302
0.396262 0.435721 0.006302
0.424735 0.437018 0.006302
0.453544 0.438666 0.006302
0.482444 0.440742 0.006302
0.511208 0.443336 0.006302
0.539727 0.446586 0.006302
0.567895 0.450568 0.006302
0.595651 0.455390 0.006302
0.622919 0.461143 0.006302
0.649638 0.467872 0.006302
0.675776 0.475624 0.006302
0.701289 0.484428 0.006302
0.726146 0.494240 0.006302
0.750317 0.505013 0.006302
0.773754 0.516655 0.006302
0.796429 0.529046 0.006302
0.818326 0.542061 0.006302
0.839414 0.555550 0.006302
0.859648 0.569360 0.006302
0.244266 0.459327 0.006302
0.244907 0.460197 0.006302
0.245533 0.461051 0.006302
0.246464 0.461875 0.006302
0.248219 0.462608 0.006302
0.251347 0.463279 0.006302
0.256458 0.463859 0.006302
0.264164 0.464347 0.006302
0.275013 0.464775 0.006302
0.289250 0.465156 0.006302
0.306813 0.465507 0.006302
0.327382 0.465873 0.006302
0.350423 0.466285 0.006302
0.375387 0.466789 0.006302
0.401740 0.467445 0.006302
0.428977 0.468284 0.006302
0.456748 0.469398 0.006302
0.484749 0.470863 0.006302
0.512749 0.472770 0.006302
0.540597 0.475181 0.006302
0.568170 0.478202 0.006302
0.595361 0.481895 0.006302
0.622095 0.486351 0.006302
0.648310 0.491646 0.006302
0.673930 0.497810 0.006302
0.698939 0.504906 0.006302
0.723278 0.512902 0.006302
0.746914 0.521798 0.006302
0.769802 0.531518 0.006302
0.791928 0.542000 0.006302
0.813245 0.553109 0.006302
0.833738 0.564752 0.006302
0.853346 0.576776 0.006302
0.269612 0.493736 0.006302
0.270222 0.494575 0.006302
0.270787 0.495308 0.006302
0.271565 0.495933 0.006302
0.272953 0.496437 0.006302
0.275380 0.496834 0.006302
0.279393 0.497139 0.006302
0.285542 0.497368 0.006302
0.294392 0.497520 0.006302
0.306294 0.497627 0.006302
0.321416 0.497704 0.006302
0.339590 0.497795 0.006302
0.360433 0.497917 0.006302
0.383474 0.498116 0.006302
0.408179 0.498421 0.006302
0.434043 0.498909 0.006302
0.460655 0.499626 0.006302
0.487663 0.500633 0.006302
0.514839 0.501991 0.006302
0.541955 0.503777 0.006302
0.568872 0.506050 0.006302
0.595468 0.508873 0.006302
0.621637 0.512337 0.006302
0.647318 0.516487 0.006302
0.672419 0.521386 0.006302
0.696895 0.527062 0.006302
0.720714 0.533532 0.006302
0.743816 0.540810 0.006302
0.766186 0.548852 0.006302
0.787747 0.557595 0.006302
0.808515 0.566979 0.006302
0.828458 0.576913 0.006302
0.847730 0.587350 0.006302
0.295430 0.527779 0.006302
0.295872 0.528359 0.006302
0.296223 0.528801 0.006302
0.296742 0.529122 0.006302
0.297749 0.529351 0.006302
0.299580 0.529458 0.006302
0.302663 0.529488 0.006302
0.307530 0.529442 0.006302
0.314672 0.529335 0.006302
0.324544 0.529183 0.006302
0.337392 0.529000 0.006302
0.353231 0.528832 0.006302
0.371878 0.528695 0.006302
0.392889 0.528618 0.006302
0.415824 0.528664 0.006302
0.440162 0.528862 0.006302
0.465476 0.529274 0.006302
0.491402 0.529931 0.006302
0.517647 0.530877 0.006302
0.543969 0.532174 0.006302
0.570184 0.533883 0.006302
0.596124 0.536049 0.006302
0.621714 0.538735 0.006302
0.646815 0.542000 0.006302
0.671382 0.545907 0.006302
0.695338 0.550454 0.006302
0.718639 0.555703 0.006302
0.741222 0.561654 0.006302
0.763058 0.568292 0.006302
0.784100 0.575570 0.006302
0.804456 0.583490 0.006302
0.824140 0.591974 0.006302
0.843153 0.600977 0.006302
0.321309 0.560952 0.006302
0.321523 0.561212 0.006302
0.321645 0.561364 0.006302
0.321920 0.561395 0.006302
0.322545 0.561318 0.006302
0.323857 0.561166 0.006302
0.326177 0.560922 0.006302
0.329961 0.560601 0.006302
0.335683 0.560235 0.006302
0.343786 0.559823 0.006302
0.354604 0.559411 0.006302
0.368292 0.558984 0.006302
0.384756 0.558618 0.006302
0.403723 0.558343 0.006302
0.424796 0.558175 0.006302
0.447501 0.558160 0.006302
0.471412 0.558328 0.006302
0.496147 0.558709 0.006302
0.521370 0.559335 0.006302
0.546822 0.560266 0.006302
0.572259 0.561547 0.006302
0.597528 0.563210 0.006302
0.622477 0.565316 0.006302
0.646998 0.567910 0.006302
0.671015 0.571054 0.006302
0.694453 0.574746 0.006302
0.717220 0.579049 0.006302
0.739300 0.583948 0.006302
0.760662 0.589456 0.006302
0.781384 0.595560 0.006302
0.801450 0.602258 0.006302
0.820859 0.609491 0.006302
0.839597 0.617227 0.006302
0.347127 0.593194 0.006302
0.347097 0.593149 0.006302
0.346990 0.592996 0.006302
0.346990 0.592737 0.006302
0.347295 0.592386 0.006302
0.348119 0.591943 0.006302
0.349798 0.591424 0.006302
0.352682 0.590860 0.006302
0.357214 0.590234 0.006302
0.363821 0.589578 0.006302
0.372885 0.588922 0.006302
0.384604 0.588312 0.006302
0.399023 0.587778 0.006302
0.415976 0.587335 0.006302
0.435157 0.586999 0.006302
0.456168 0.586816 0.006302
0.478599 0.586770 0.006302
0.502052 0.586938 0.006302
0.526177 0.587320 0.006302
0.550668 0.587976 0.006302
0.575280 0.588922 0.006302
0.599817 0.590219 0.006302
0.624125 0.591913 0.006302
0.648051 0.594018 0.006302
0.671504 0.596582 0.006302
0.694392 0.599619 0.006302
0.716640 0.603174 0.006302
0.738293 0.607263 0.006302
0.759335 0.611902 0.006302
0.779736 0.617060 0.006302
0.799496 0.622736 0.006302
0.818601 0.628931 0.006302
0.837064 0.635584 0.006302
0.372839 0.624537 0.006302
0.372549 0.624186 0.006302
0.372198 0.623728 0.006302
0.371923 0.623178 0.006302
0.371893 0.622538 0.006302
0.372305 0.621820 0.006302
0.373419 0.621027 0.006302
0.375555 0.620188 0.006302
0.379110 0.619318 0.006302
0.384482 0.618463 0.006302
0.392035 0.617655 0.006302
0.402014 0.616892 0.006302
0.414557 0.616220 0.006302
0.429603 0.615640 0.006302
0.446937 0.615167 0.006302
0.466239 0.614817 0.006302
0.487144 0.614618 0.006302
0.509270 0.614618 0.006302
0.532235 0.614832 0.006302
0.555718 0.615274 0.006302
0.579461 0.616007 0.006302
0.603220 0.617029 0.006302
0.626825 0.618387 0.006302
0.650111 0.620111 0.006302
0.672953 0.622232 0.006302
0.695308 0.624781 0.006302
0.717144 0.627787 0.006302
0.738415 0.631250 0.006302
0.759091 0.635187 0.006302
0.779156 0.639597 0.006302
0.798581 0.644465 0.006302
0.817380 0.649790 0.006302
0.835523 0.655543 0.006302
0.398367 0.654978 0.006302
0.397818 0.654322 0.006302
0.397208 0.653559 0.006302
0.396658 0.652705 0.006302
0.396323 0.651789 0.006302
0.396338 0.650782 0.006302
0.396963 0.649729 0.006302
0.398474 0.648646 0.006302
0.401236 0.647608 0.006302
0.405600 0.646601 0.006302
0.411887 0.645655 0.006302
0.420371 0.644770 0.006302
0.431235 0.643977 0.006302
0.444526 0.643275 0.006302
0.460121 0.642679 0.006302
0.477760 0.642222 0.006302
0.497154 0.641932 0.006302
0.517906 0.641794 0.006302
0.539651 0.641871 0.006302
0.562081 0.642145 0.006302
0.584894 0.642679 0.006302
0.607813 0.643488 0.006302
0.630671 0.644587 0.006302
0.653269 0.646021 0.006302
0.675547 0.647837 0.006302
0.697414 0.650019 0.006302
0.718791 0.652598 0.006302
0.739635 0.655589 0.006302
0.759930 0.658991 0.006302
0.779629 0.662806 0.006302
0.798718 0.667033 0.006302
0.817182 0.671672 0.006302
0.834989 0.676692 0.006302
0.423682 0.684504 0.006302
0.422843 0.683543 0.006302
0.421958 0.682475 0.006302
0.421134 0.681331 0.006302
0.420478 0.680110 0.006302
0.420157 0.678843 0.006302
0.420386 0.677592 0.006302
0.421439 0.676371 0.006302
0.423560 0.675181 0.006302
0.427070 0.674052 0.006302
0.432303 0.672999 0.006302
0.439521 0.672007 0.006302
0.448951 0.671107 0.006302
0.460670 0.670314 0.006302
0.474647 0.669627 0.006302
0.490715 0.669078 0.006302
0.508598 0.668666 0.006302
0.527962 0.668421 0.006302
0.548470 0.668376 0.006302
0.569802 0.668513 0.006302
0.591608 0.668894 0.006302
0.613657 0.669520 0.006302
0.635737 0.670451 0.006302
0.657664 0.671687 0.006302
0.679347 0.673259 0.006302
0.700664 0.675166 0.006302
0.721569 0.677440 0.006302
0.741970 0.680049 0.006302
0.761852 0.683040 0.006302
0.781155 0.686397 0.006302
0.799878 0.690120 0.006302
0.817990 0.694194 0.006302
0.835462 0.698619 0.006302
0.448692 0.713130 0.006302
0.447562 0.711849 0.006302
0.446387 0.710475 0.006302
0.445289 0.709026 0.006302
0.444373 0.707576 0.006302
0.443809 0.706157 0.006302
0.443748 0.704753 0.006302
0.444404 0.703410 0.006302
0.446006 0.702113 0.006302
0.448844 0.700877 0.006302
0.453193 0.699718 0.006302
0.459358 0.698634 0.006302
0.467536 0.697642 0.006302
0.477867 0.696757 0.006302
0.490364 0.695979 0.006302
0.504952 0.695323 0.006302
0.521386 0.694820 0.006302
0.539406 0.694469 0.006302
0.558679 0.694301 0.006302
0.578866 0.694316 0.006302
0.599664 0.694591 0.006302
0.620798 0.695125 0.006302
0.642069 0.695933 0.006302
0.663294 0.697032 0.006302
0.684337 0.698421 0.006302
0.705089 0.700130 0.006302
0.725460 0.702144 0.006302
0.745403 0.704479 0.006302
0.764843 0.707134 0.006302
0.783749 0.710140 0.006302
0.802075 0.713451 0.006302
0.819806 0.717098 0.006302
0.836927 0.721065 0.006302
0.473365 0.740841 0.006302
0.471916 0.739239 0.006302
0.470497 0.737591 0.006302
0.469200 0.735973 0.006302
0.468116 0.734371 0.006302
0.467353 0.732830 0.006302
0.467048 0.731319 0.006302
0.467369 0.729854 0.006302
0.468544 0.728450 0.006302
0.470802 0.727108 0.006302
0.474434 0.725841 0.006302
0.479683 0.724651 0.006302
0.486793 0.723552 0.006302
0.495903 0.722560 0.006302
0.507103 0.721691 0.006302
0.520333 0.720943 0.006302
0.535424 0.720333 0.006302
0.552132 0.719875 0.006302
0.570184 0.719631 0.006302
0.589227 0.719600 0.006302
0.608972 0.719829 0.006302
0.629191 0.720287 0.006302
0.649622 0.721019 0.006302
0.670115 0.721996 0.006302
0.690501 0.723262 0.006302
0.710658 0.724788 0.006302
0.730495 0.726619 0.006302
0.749935 0.728725 0.006302
0.768917 0.731136 0.006302
0.787381 0.733852 0.006302
0.805310 0.736858 0.006302
0.822644 0.740169 0.006302
0.839384 0.743755 0.006302
0.497642 0.767651 0.006302
0.495995 0.765835 0.006302
0.494423 0.764050 0.006302
0.492973 0.762295 0.006302
0.491737 0.760571 0.006302
0.490776 0.758892 0.006302
0.490242 0.757244 0.006302
0.490272 0.755673 0.006302
0.491066 0.754147 0.006302
0.492851 0.752682 0.006302
0.495872 0.751308 0.006302
0.500359 0.750011 0.006302
0.506554 0.748821 0.006302
0.514626 0.747723 0.006302
0.524666 0.746746 0.006302
0.536675 0.745892 0.006302
0.550530 0.745205 0.006302
0.566003 0.744717 0.006302
0.582849 0.744442 0.006302
0.600778 0.744396 0.006302
0.619501 0.744579 0.006302
0.638773 0.744991 0.006302
0.658366 0.745647 0.006302
0.678096 0.746548 0.006302
0.697795 0.747707 0.006302
0.717342 0.749111 0.006302
0.736614 0.750790 0.006302
0.755550 0.752728 0.006302
0.774044 0.754940 0.006302
0.792065 0.757427 0.006302
