resources/flame/Syncolor/Shared/transforms/camera_manufacturer_luts/arri/ARRI_Alexa_LUTs/ARRI_LogC3_v1-2_LUT_Package/LUTs/ARRI_LogC3-to-Gamma26_P3_D60-v1_33.cube
LUT_3D_SIZE 9
0.000000 0.000000 0.000000
0.010986 0.000000 0.000153
0.072724 0.000000 0.001007
0.167224 0.000000 0.003479
0.307378 0.000000 0.011795
0.479454 0.000000 0.033066
0.630381 0.000000 0.064912
0.758267 0.000000 0.095399
0.864820 0.000000 0.120790
0.000000 0.033097 0.001511
0.043931 0.049638 0.000000
0.141619 0.052323 0.000000
0.281468 0.036332 0.007095
0.457816 0.000000 0.028046
0.653864 0.000000 0.070207
0.831678 0.000000 0.112734
0.945220 0.000000 0.138842
1.000000 0.000000 0.158679
0.000000 0.143435 0.000000
0.024262 0.171954 0.000000
0.177676 0.189715 0.000000
0.363882 0.197681 0.000000
0.571054 0.196551 0.027939
0.776761 0.188540 0.082979
0.962295 0.181323 0.131395
1.000000 0.206531 0.158602
1.000000 0.263508 0.157229
0.000000 0.329152 0.000000
0.000000 0.376089 0.000000
0.162066 0.407965 0.000000
0.404654 0.426108 0.000000
0.630243 0.435813 0.000000
0.839780 0.443015 0.012284
1.000000 0.452079 0.089952
1.000000 0.475395 0.106828
1.000000 0.511818 0.111681
0.000000 0.574578 0.000000
0.000000 0.621118 0.000000
0.000000 0.651255 0.000000
0.399298 0.668284 0.000000
0.645823 0.677287 0.000000
0.859831 0.684154 0.000000
1.000000 0.692027 0.000000
1.000000 0.708873 0.000000
1.000000 0.733669 0.000000
0.000000 0.805982 0.000000
0.000000 0.851316 0.000000
0.000000 0.876539 0.000000
0.368170 0.890211 0.000000
0.644053 0.899733 0.000000
0.866606 0.907240 0.000000
1.000000 0.913481 0.000000
1.000000 0.920409 0.000000
1.000000 0.925078 0.000000
0.000000 0.994659 0.000000
0.000000 1.000000 0.000000
0.000000 1.000000 0.000000
0.373388 1.000000 0.000000
0.643290 1.000000 0.000000
0.849989 1.000000 0.000000
1.000000 1.000000 0.000000
1.000000 1.000000 0.000000
1.000000 1.000000 0.000000
0.000000 1.000000 0.000000
0.000000 1.000000 0.000000
0.154162 1.000000 0.000000
0.467933 1.000000 0.000000
0.658564 1.000000 0.000000
0.824537 1.000000 0.000000
0.967269 1.000000 0.000000
1.000000 1.000000 0.000000
1.000000 1.000000 0.338064
0.000000 1.000000 0.158618
0.000000 1.000000 0.000000
0.308812 1.000000 0.000000
0.505074 1.000000 0.000000
0.664622 1.000000 0.000000
0.806928 1.000000 0.000000
0.925582 1.000000 0.256855
1.000000 1.000000 0.435950
1.000000 1.000000 0.584054
0.000000 0.000000 0.004135
0.023026 0.000000 0.021073
0.101503 0.000000 0.040421
0.216220 0.000000 0.053880
0.374243 0.000000 0.065156
0.559060 0.000000 0.081544
0.716091 0.000000 0.102586
0.831067 0.000000 0.125170
0.922423 0.000000 0.149386
0.000000 0.034440 0.033310
0.041947 0.041947 0.041947
0.161105 0.035935 0.041123
0.325887 0.009781 0.034699
0.513146 0.000000 0.041276
0.712444 0.000000 0.084474
0.898207 0.000000 0.128740
1.000000 0.000000 0.162387
1.000000 0.000000 0.194995
0.000000 0.155856 0.037827
0.000000 0.180514 0.014862
0.182620 0.194690 0.000000
0.391608 0.196857 0.000000
0.608469 0.189761 0.037629
0.815808 0.178027 0.094545
1.000000 0.168170 0.142123
1.000000 0.188998 0.179812
1.000000 0.250217 0.208377
0.000000 0.354589 0.000000
0.000000 0.396994 0.000000
0.133150 0.422416 0.000000
0.411948 0.433707 0.000000
0.649577 0.438529 0.000000
0.862715 0.443381 0.021729
1.000000 0.450248 0.118135
1.000000 0.468101 0.151583
1.000000 0.501366 0.197238
0.000000 0.601663 0.000000
0.000000 0.641657 0.000000
0.000000 0.665843 0.000000
0.390967 0.677745 0.000000
0.651560 0.683253 0.000000
0.874495 0.687312 0.000000
1.000000 0.692454 0.000000
1.000000 0.705287 0.022858
1.000000 0.726543 0.145617
0.000000 0.836118 0.000000
0.000000 0.870970 0.000000
0.000000 0.888869 0.000000
0.343648 0.900496 0.000000
0.639170 0.908263 0.000000
0.872984 0.913542 0.000000
1.000000 0.916564 0.000000
1.000000 0.918166 0.000000
1.000000 0.917937 0.080491
0.000000 1.000000 0.000000
0.000000 1.000000 0.000000
0.000000 1.000000 0.000000
0.278370 1.000000 0.000000
0.612299 1.000000 0.000000
0.836896 1.000000 0.000000
1.000000 1.000000 0.000000
1.000000 1.000000 0.000000
1.000000 1.000000 0.224414
0.000000 1.000000 0.146517
0.000000 1.000000 0.000000
0.000000 1.000000 0.000000
0.374075 1.000000 0.000000
0.607141 1.000000 0.000000
0.797284 1.000000 0.000000
0.956008 1.000000 0.000000
1.000000 1.000000 0.264530
1.000000 1.000000 0.458595
0.000000 1.000000 0.325902
0.000000 1.000000 0.238788
0.142855 1.000000 0.110475
0.445518 1.000000 0.000000
0.633036 1.000000 0.025132
0.792294 1.000000 0.243748
0.917067 1.000000 0.398810
1.000000 1.000000 0.541146
1.000000 1.000000 0.673289
0.000000 0.000000 0.030762
0.033112 0.000000 0.077607
0.125475 0.000000 0.118547
0.259998 0.000000 0.153140
0.432151 0.000000 0.179782
0.623255 0.000000 0.200229
0.777584 0.000000 0.210391
0.880446 0.000000 0.217197
0.959991 0.000000 0.228885
0.000000 0.021546 0.101595
0.026093 0.006851 0.136965
0.172854 0.000000 0.165469
0.356725 0.000000 0.184497
0.553933 0.000000 0.195529
0.753964 0.000000 0.211093
0.938430 0.000000 0.234363
1.000000 0.000000 0.258213
1.000000 0.000000 0.281682
0.000000 0.153643 0.150729
0.000000 0.168963 0.166018
0.175006 0.175006 0.175006
0.402121 0.171725 0.183139
0.636027 0.155581 0.196277
0.840543 0.138643 0.222080
1.000000 0.122835 0.255314
1.000000 0.145953 0.282673
1.000000 0.213657 0.315785
0.000000 0.368185 0.170306
0.000000 0.404532 0.160464
0.094957 0.421775 0.153597
0.411658 0.429603 0.157763
0.662165 0.432166 0.174487
0.878889 0.434150 0.217258
1.000000 0.438392 0.262654
1.000000 0.454994 0.288518
1.000000 0.481270 0.324071
0.000000 0.617365 0.144839
0.000000 0.651575 0.102296
0.000000 0.671885 0.053391
0.376059 0.680949 0.045502
0.653880 0.683497 0.101457
0.886351 0.684352 0.174243
1.000000 0.687190 0.235889
1.000000 0.698238 0.269368
1.000000 0.715267 0.317830
0.000000 0.851240 0.054536
0.000000 0.878080 0.000000
0.000000 0.894911 0.000000
0.308797 0.906035 0.000000
0.630365 0.912306 0.000000
0.876066 0.914977 0.031067
1.000000 0.913787 0.166247
1.000000 0.910842 0.239246
1.000000 0.907240 0.325017
0.000000 1.000000 0.180911
0.000000 1.000000 0.000000
0.000000 1.000000 0.000000
0.192355 1.000000 0.000000
0.588296 1.000000 0.000000
0.825589 1.000000 0.000000
1.000000 1.000000 0.051865
1.000000 1.000000 0.257237
1.000000 1.000000 0.408057
0.000000 1.000000 0.372900
0.000000 1.000000 0.303929
0.000000 1.000000 0.179202
0.230503 1.000000 0.000000
0.560555 1.000000 0.000000
0.777020 1.000000 0.036942
0.945068 1.000000 0.276921
1.000000 1.000000 0.429145
1.000000 1.000000 0.567803
0.000000 1.000000 0.453437
0.000000 1.000000 0.391409
0.000000 1.000000 0.329091
0.381521 1.000000 0.291356
0.605264 1.000000 0.318151
0.778119 1.000000 0.404349
0.908415 1.000000 0.515328
0.994751 1.000000 0.636545
1.000000 1.000000 0.754162
0.000000 0.000000 0.086458
0.031510 0.000000 0.154589
0.138766 0.000000 0.222629
0.291936 0.000000 0.280156
0.475517 0.000000 0.322148
0.666102 0.000000 0.346990
0.807797 0.000000 0.345815
0.903731 0.000000 0.337835
0.975937 0.000000 0.336324
0.000000 0.000000 0.196246
0.000000 0.000000 0.265843
0.163027 0.000000 0.319768
0.366812 0.000000 0.352850
0.574792 0.000000 0.370443
0.775341 0.000000 0.381598
0.955627 0.000000 0.392752
1.000000 0.000000 0.397848
1.000000 0.000000 0.404425
0.000000 0.101884 0.288869
0.000000 0.075944 0.338231
0.132509 0.033921 0.367071
0.400397 0.000000 0.388159
0.642542 0.000000 0.401984
0.848310 0.000000 0.411093
1.000000 0.000000 0.426459
1.000000 0.000000 0.441459
1.000000 0.084886 0.459205
0.000000 0.357458 0.352300
0.000000 0.383429 0.377981
0.000000 0.394202 0.389731
0.398917 0.398917 0.398917
0.655940 0.400275 0.410346
0.889006 0.398367 0.425193
1.000000 0.402579 0.448310
1.000000 0.421042 0.464286
1.000000 0.445655 0.484871
0.000000 0.616190 0.381048
0.000000 0.644541 0.386374
0.000000 0.662043 0.386160
0.357290 0.666590 0.392966
0.647639 0.668467 0.404181
0.892836 0.668727 0.415579
1.000000 0.669963 0.442786
1.000000 0.680629 0.466957
1.000000 0.698344 0.502403
0.000000 0.850858 0.392111
0.000000 0.873884 0.388663
0.000000 0.891173 0.382254
0.247150 0.903151 0.374640
0.613001 0.909239 0.372519
0.874510 0.908537 0.388891
1.000000 0.902419 0.427344
1.000000 0.896086 0.466941
1.000000 0.892561 0.524361
0.000000 1.000000 0.436759
0.000000 1.000000 0.401587
0.000000 1.000000 0.387594
0.000000 1.000000 0.366644
0.559258 1.000000 0.349462
0.811612 1.000000 0.360159
1.000000 1.000000 0.415808
1.000000 1.000000 0.495003
1.000000 1.000000 0.586389
0.000000 1.000000 0.534920
0.000000 1.000000 0.485069
0.000000 1.000000 0.415625
0.000000 1.000000 0.373053
0.538094 1.000000 0.374075
0.768948 1.000000 0.421881
0.935958 1.000000 0.504067
1.000000 1.000000 0.598672
1.000000 1.000000 0.695521
0.000000 1.000000 0.576471
0.000000 1.000000 0.529992
0.000000 1.000000 0.486397
0.320211 1.000000 0.463600
0.587045 1.000000 0.486732
0.773342 1.000000 0.554452
0.905516 1.000000 0.643519
0.987976 1.000000 0.739361
1.000000 1.000000 0.831952
0.000000 0.000000 0.164599
0.000855 0.000000 0.260883
0.129091 0.000000 0.352544
0.305257 0.000000 0.428275
0.498833 0.000000 0.481025
0.679377 0.000000 0.500389
0.807462 0.000000 0.484871
0.901457 0.000000 0.465064
0.970779 0.000000 0.451301
0.000000 0.000000 0.317906
0.000000 0.000000 0.410040
0.091234 0.000000 0.483330
0.352148 0.000000 0.530480
0.573388 0.000000 0.553399
0.776562 0.000000 0.561822
0.950134 0.000000 0.561639
1.000000 0.000000 0.547082
1.000000 0.000000 0.538491
0.000000 0.000000 0.446799
0.000000 0.000000 0.518593
0.000000 0.000000 0.572366
0.373892 0.000000 0.599069
0.625986 0.000000 0.605783
0.837980 0.000000 0.605646
1.000000 0.000000 0.609430
1.000000 0.000000 0.614466
1.000000 0.000000 0.615808
0.000000 0.297871 0.537865
0.000000 0.304433 0.581735
0.000000 0.303105 0.610712
0.363714 0.305684 0.618570
0.642649 0.304494 0.627939
0.882628 0.299947 0.636957
1.000000 0.310460 0.643732
1.000000 0.339849 0.649256
1.000000 0.376074 0.658732
0.000000 0.590936 0.583215
0.000000 0.612467 0.604501
0.000000 0.625956 0.618448
0.312139 0.630014 0.624872
0.631846 0.631846 0.631846
0.882643 0.631556 0.640223
1.000000 0.631113 0.649653
1.000000 0.646174 0.663539
1.000000 0.669673 0.685344
0.000000 0.833906 0.603510
0.000000 0.856138 0.612604
0.000000 0.873136 0.617258
0.082139 0.885924 0.617136
0.593561 0.888090 0.622324
0.863584 0.885389 0.632074
1.000000 0.878202 0.641291
1.000000 0.871672 0.663905
1.000000 0.872053 0.701030
0.000000 1.000000 0.631189
0.000000 1.000000 0.625589
0.000000 1.000000 0.621653
0.000000 1.000000 0.608301
0.522850 1.000000 0.593362
0.793698 1.000000 0.592645
0.996536 1.000000 0.623331
1.000000 1.000000 0.675761
1.000000 0.985397 0.735042
0.000000 1.000000 0.686564
0.000000 1.000000 0.653254
0.000000 1.000000 0.613352
0.000000 1.000000 0.593698
0.524498 1.000000 0.594598
0.764111 1.000000 0.624109
0.926955 1.000000 0.673899
1.000000 1.000000 0.737743
1.000000 1.000000 0.807294
0.000000 1.000000 0.701061
0.000000 1.000000 0.667567
0.000000 1.000000 0.636805
0.291691 1.000000 0.624475
0.597513 1.000000 0.650690
0.784833 1.000000 0.702556
0.909651 1.000000 0.767147
0.983490 1.000000 0.837140
1.000000 1.000000 0.904234
0.000000 0.000000 0.268772
0.000000 0.000000 0.389868
0.052354 0.000000 0.499718
0.291905 0.000000 0.584894
0.491478 0.000000 0.632639
0.655863 0.000000 0.633463
0.782315 0.000000 0.610559
0.877577 0.000000 0.582712
0.951095 0.000000 0.561242
0.000000 0.000000 0.459586
0.000000 0.000000 0.568551
0.000000 0.000000 0.652995
0.304616 0.000000 0.704265
0.549813 0.000000 0.727794
0.757778 0.000000 0.732418
0.920241 0.000000 0.715862
1.000000 0.000000 0.686320
1.000000 0.000000 0.668589
0.000000 0.000000 0.613504
0.000000 0.000000 0.696727
0.000000 0.000000 0.753201
0.306752 0.000000 0.782925
0.591241 0.000000 0.790356
0.814542 0.000000 0.788540
1.000000 0.000000 0.787060
1.000000 0.000000 0.783993
1.000000 0.000000 0.769741
0.000000 0.009079 0.718654
0.000000 0.000000 0.771756
0.000000 0.000000 0.806470
0.284596 0.000000 0.828061
0.614847 0.000000 0.836423
0.859739 0.000000 0.836118
1.000000 0.000000 0.835355
1.000000 0.000000 0.832334
1.000000 0.211719 0.829679
0.000000 0.532845 0.770733
0.000000 0.546715 0.800214
0.000000 0.554559 0.823178
0.184665 0.556497 0.840955
0.602228 0.558419 0.844709
0.867277 0.556634 0.851698
1.000000 0.558968 0.855650
1.000000 0.587732 0.853056
1.000000 0.627008 0.855695
0.000000 0.799939 0.789914
0.000000 0.821134 0.810941
0.000000 0.836271 0.826429
0.000000 0.846952 0.838392
0.562005 0.848096 0.842756
0.845106 0.845106 0.845106
1.000000 0.838636 0.844800
1.000000 0.836881 0.843137
1.000000 0.847486 0.853254
0.000000 1.000000 0.807645
0.000000 1.000000 0.821744
0.000000 1.000000 0.825483
0.000000 1.000000 0.817792
0.480262 1.000000 0.804349
0.780850 1.000000 0.801801
0.977249 0.994415 0.811948
1.000000 0.975494 0.827146
1.000000 0.965362 0.856794
0.000000 1.000000 0.833204
0.000000 1.000000 0.818128
0.000000 1.000000 0.796139
0.000000 1.000000 0.781628
0.525154 1.000000 0.778210
0.762341 1.000000 0.787778
0.918715 1.000000 0.811200
1.000000 1.000000 0.848478
1.000000 1.000000 0.893416
0.000000 1.000000 0.824582
0.000000 1.000000 0.802396
0.000000 1.000000 0.781933
0.328176 1.000000 0.775158
0.627253 1.000000 0.792248
0.803113 1.000000 0.823255
0.917418 1.000000 0.864561
0.981765 1.000000 0.910842
1.000000 1.000000 0.954757
0.000000 0.000000 0.371756
0.000000 0.000000 0.511254
0.000000 0.000000 0.630091
0.232532 0.000000 0.710155
0.445914 0.000000 0.743786
0.610925 0.000000 0.740139
0.740047 0.000000 0.715206
0.838743 0.000000 0.683421
0.923613 0.000000 0.661677
0.000000 0.000000 0.601205
0.000000 0.000000 0.727459
0.000000 0.000000 0.815152
0.194110 0.000000 0.864714
0.504341 0.000000 0.882750
0.713649 0.000000 0.872190
0.866880 0.000000 0.838376
0.985595 0.000000 0.807324
1.000000 0.000000 0.786984
0.000000 0.000000 0.775616
0.000000 0.000000 0.863935
0.000000 0.000000 0.919051
0.161105 0.000000 0.946914
0.541939 0.000000 0.953155
0.780255 0.000000 0.953750
0.982498 0.000000 0.951537
1.000000 0.000000 0.937911
1.000000 0.000000 0.908568
0.000000 0.000000 0.885634
0.000000 0.000000 0.941329
0.000000 0.000000 0.975860
0.096315 0.000000 0.998581
0.566781 0.000000 1.000000
0.826246 0.000000 1.000000
1.000000 0.000000 1.000000
1.000000 0.000000 1.000000
1.000000 0.000000 0.984833
0.000000 0.425376 0.935637
0.000000 0.428351 0.974426
0.000000 0.425696 1.000000
0.000000 0.434302 1.000000
0.562814 0.440543 1.000000
0.845655 0.442817 1.000000
1.000000 0.458488 1.000000
1.000000 0.503883 1.000000
1.000000 0.576608 1.000000
0.000000 0.746731 0.953323
0.000000 0.765637 0.991836
0.000000 0.781476 1.000000
0.000000 0.795071 1.000000
0.522087 0.799405 1.000000
0.823392 0.795010 1.000000
1.000000 0.788037 1.000000
1.000000 0.797482 0.995392
1.000000 0.824048 0.975387
0.000000 0.978058 0.966125
0.000000 1.000000 0.993576
0.000000 1.000000 0.993835
0.000000 1.000000 0.994461
0.449012 0.999527 0.991272
0.770397 0.976364 0.972045
0.958053 0.958053 0.958053
1.000000 0.948562 0.950317
1.000000 0.948135 0.949905
0.000000 1.000000 0.971374
0.000000 1.000000 0.971969
0.000000 1.000000 0.960403
0.000000 1.000000 0.943114
0.541405 1.000000 0.928923
0.767620 1.000000 0.920912
0.916854 1.000000 0.924453
1.000000 1.000000 0.937011
1.000000 0.997070 0.954040
0.000000 1.000000 0.940948
0.000000 1.000000 0.926528
0.000000 1.000000 0.911101
0.402289 1.000000 0.901259
0.668696 1.000000 0.903868
0.828565 1.000000 0.915816
0.929290 1.000000 0.935668
0.983093 1.000000 0.960357
1.000000 1.000000 0.984390
0.000000 0.000000 0.469139
0.000000 0.000000 0.608957
0.000000 0.000000 0.723720
0.101244 0.000000 0.797635
0.383398 0.000000 0.827344
0.555825 0.000000 0.822782
0.687922 0.000000 0.797009
0.795483 0.000000 0.769009
0.891188 0.000000 0.750622
0.000000 0.000000 0.701366
0.000000 0.000000 0.832486
0.000000 0.000000 0.924346
0.000000 0.000000 0.971832
0.429526 0.000000 0.979034
0.644953 0.000000 0.958740
0.807187 0.000000 0.932616
0.938781 0.000000 0.908370
1.000000 0.000000 0.890013
0.000000 0.000000 0.884413
0.000000 0.000000 0.996872
0.000000 0.000000 1.000000
0.000000 0.000000 1.000000
0.507057 0.000000 1.000000
0.751522 0.000000 1.000000
0.948058 0.000000 1.000000
1.000000 0.000000 1.000000
1.000000 0.000000 1.000000
0.000000 0.000000 1.000000
0.000000 0.000000 1.000000
0.000000 0.000000 1.000000
0.072389 0.000000 1.000000
0.559777 0.000000 1.000000
0.814160 0.000000 1.000000
1.000000 0.000000 1.000000
1.000000 0.000000 1.000000
1.000000 0.000000 1.000000
0.000000 0.316701 1.000000
0.000000 0.384451 1.000000
0.000000 0.418326 1.000000
0.000000 0.438727 1.000000
0.568460 0.449989 1.000000
0.835889 0.460609 1.000000
1.000000 0.483894 1.000000
1.000000 0.536019 1.000000
1.000000 0.603693 1.000000
0.000000 0.715099 1.000000
0.000000 0.757733 1.000000
0.000000 0.779965 1.000000
0.000000 0.793133 1.000000
0.547692 0.797894 1.000000
0.823468 0.795102 1.000000
1.000000 0.792660 1.000000
1.000000 0.805081 1.000000
1.000000 0.829389 1.000000
0.000000 0.965103 0.995956
0.000000 1.000000 0.993622
0.000000 1.000000 0.993912
0.000000 1.000000 0.994659
0.514534 0.982940 0.997070
0.780468 0.960006 0.999969
0.949462 0.942550 1.000000
1.000000 0.936294 1.000000
1.000000 0.941070 1.000000
0.000000 1.000000 0.993668
0.000000 1.000000 0.993805
0.000000 1.000000 0.994141
0.080003 1.000000 0.994980
0.590600 1.000000 0.996231
0.789273 1.000000 0.997650
0.920470 1.000000 0.998993
0.992126 0.992126 0.992126
1.000000 0.989715 0.990066
0.000000 1.000000 0.993942
0.000000 1.000000 0.994293
0.000000 1.000000 0.994873
0.493553 1.000000 0.995773
0.720012 1.000000 0.984421
0.860395 1.000000 0.979248
0.945159 1.000000 0.981125
0.987716 1.000000 0.988769
0.999573 0.999847 0.997391
0.000000 0.000000 0.565499
0.000000 0.000000 0.699702
0.000000 0.000000 0.803769
0.000000 0.000000 0.866606
0.307958 0.000000 0.890440
0.495720 0.000000 0.883787
0.634043 0.000000 0.860868
0.751965 0.000000 0.841611
0.856535 0.000000 0.828290
0.000000 0.000000 0.786938
0.000000 0.000000 0.900374
0.000000 0.000000 0.977935
0.000000 0.000000 1.000000
0.347189 0.000000 1.000000
0.578897 0.000000 1.000000
0.750210 0.000000 1.000000
0.890898 0.000000 0.991241
1.000000 0.000000 0.977447
0.000000 0.000000 0.955001
0.000000 0.000000 1.000000
0.000000 0.000000 1.000000
0.000000 0.000000 1.000000
0.482673 0.000000 1.000000
0.716350 0.000000 1.000000
0.901183 0.000000 1.000000
1.000000 0.000000 1.000000
1.000000 0.000000 1.000000
0.000000 0.000000 1.000000
0.000000 0.000000 1.000000
0.000000 0.000000 1.000000
0.126726 0.000000 1.000000
0.557107 0.000000 1.000000
0.802533 0.000000 1.000000
1.000000 0.000000 1.000000
1.000000 0.000000 1.000000
1.000000 0.000000 1.000000
0.000000 0.302876 1.000000
0.000000 0.380545 1.000000
0.000000 0.422766 1.000000
0.079393 0.446342 1.000000
0.576471 0.463096 1.000000
0.828077 0.482612 1.000000
1.000000 0.516960 1.000000
1.000000 0.576425 1.000000
1.000000 0.644404 1.000000
0.000000 0.706554 1.000000
0.000000 0.750530 1.000000
0.000000 0.778286 1.000000
0.000000 0.791989 1.000000
0.579278 0.798337 1.000000
0.827344 0.799756 1.000000
0.995651 0.804929 1.000000
1.000000 0.822202 1.000000
1.000000 0.849744 1.000000
0.000000 0.957580 0.996429
0.000000 0.990539 0.994644
0.000000 1.000000 0.994293
0.000000 0.988663 0.995804
0.583017 0.969467 0.998138
0.806363 0.952102 1.000000
0.948333 0.941253 1.000000
1.000000 0.940734 1.000000
1.000000 0.950622 1.000000
0.000000 1.000000 0.993774
0.000000 1.000000 0.994003
0.000000 1.000000 0.994446
0.369116 1.000000 0.995377
0.661921 1.000000 0.996658
0.829252 1.000000 0.998016
0.934371 0.996567 0.999405
0.990036 0.988724 1.000000
1.000000 0.989395 1.000000
0.000000 1.000000 0.994171
0.000000 1.000000 0.994675
0.370565 1.000000 0.995377
0.608453 1.000000 0.996338
0.783856 1.000000 0.997604
0.898039 1.000000 0.998749
0.963912 1.000000 0.999527
0.993561 0.998962 0.998825
1.000000 1.000000 1.000000
