resources/flame/Syncolor/Shared/transforms/camera_manufacturer_luts/arri/ARRI_Alexa_LUTs/ARRI_LogC3_v1-2_LUT_Package/LUTs/ARRI_LogC3-to-St2084_4K_Rec2100-D65_DW200_v2_33.cube
LUT_3D_SIZE 9
0.00000073 0.00000073 0.00000073
0.10417733 0.02791900 0.00431493
0.20523733 0.06829599 0.01294967
0.31095223 0.12096256 0.02735248
0.43010518 0.19150739 0.05130229
0.55372981 0.27618084 0.08630605
0.67950674 0.37359992 0.13435456
0.80726450 0.48366669 0.19808797
0.90257239 0.60460291 0.27920753
0.01709028 0.05720417 0.00000073
0.05143452 0.05444610 0.00000073
0.17904066 0.07341459 0.00000073
0.30793456 0.12525427 0.02115982
0.43760678 0.19871968 0.05056975
0.56813069 0.28782580 0.08981622
0.69907679 0.39022334 0.14238394
0.82677902 0.50166426 0.20890716
0.90257239 0.61698108 0.28785468
0.07660623 0.19146709 0.00000073
0.09133101 0.19643078 0.00000073
0.19647053 0.20455117 0.00000073
0.32760906 0.22272266 0.00000073
0.46124262 0.26215964 0.00000073
0.59344922 0.32938108 0.03840280
0.72088135 0.41848834 0.13431203
0.84009506 0.51839256 0.20847831
0.90257239 0.61958026 0.28402338
0.16478647 0.34314761 0.00000073
0.17705020 0.35167828 0.00000073
0.24435332 0.36062725 0.00000073
0.35997030 0.37137399 0.00000073
0.48813438 0.38831028 0.00000073
0.61432803 0.41950400 0.00000073
0.73230831 0.47123496 0.00000073
0.83998398 0.54109665 0.12558643
0.90257239 0.61968100 0.24686455
0.27382022 0.49936318 0.00000073
0.28370468 0.50728229 0.00000073
0.32002321 0.51358388 0.00000073
0.40223009 0.51882825 0.00000073
0.51196617 0.52514694 0.00000073
0.62579158 0.53642288 0.00000073
0.73337434 0.55767284 0.00000073
0.83041781 0.59239012 0.00000073
0.90257239 0.63844223 0.00000073
0.39121493 0.64650625 0.00000073
0.39515314 0.64865820 0.00000073
0.41071671 0.64887807 0.00000073
0.45786207 0.64814688 0.00000073
0.53962003 0.64810954 0.00000073
0.63646653 0.65041062 0.00000073
0.73235805 0.65779698 0.00000073
0.81961518 0.67256744 0.00000073
0.89646315 0.69551882 0.00000073
0.50307895 0.77357225 0.00000073
0.49987179 0.76867443 0.00000073
0.50314478 0.76319553 0.00000073
0.52669668 0.75842317 0.00000073
0.58129702 0.75497599 0.00000073
0.65878869 0.75374852 0.00000073
0.74196553 0.75614460 0.00000073
0.82052503 0.76294743 0.00000073
0.89017454 0.77448827 0.00000073
0.60343358 0.87961385 0.00000073
0.59561733 0.87061145 0.00000073
0.59260055 0.86198266 0.00000073
0.60323900 0.85413057 0.00000073
0.63820448 0.84815058 0.00000073
0.69622134 0.84482624 0.00000073
0.76482373 0.84428847 0.00000073
0.83258991 0.84668149 0.00000073
0.89273486 0.85165408 0.00000073
0.69431627 0.90257239 0.00000073
0.68169791 0.90257239 0.00000073
0.67351081 0.90257239 0.00000073
0.67704339 0.90257239 0.00000073
0.69925683 0.90257239 0.00000073
0.74108558 0.90257239 0.00000073
0.79474096 0.90257239 0.00000073
0.84998689 0.90257239 0.00000073
0.89967906 0.90257239 0.00000073
0.00000073 0.00000073 0.11015490
0.09043145 0.00000073 0.08372053
0.19588934 0.05909899 0.06023424
0.30665116 0.11779542 0.05085954
0.42912543 0.19061324 0.06422753
0.55384938 0.27616326 0.09330004
0.68052165 0.37438546 0.13850892
0.80850277 0.48476666 0.20075888
0.90257239 0.60260048 0.27884050
0.00485882 0.05063550 0.05151512
0.04904836 0.04904836 0.04904836
0.18096852 0.07117707 0.04975399
0.31032220 0.12550016 0.05723096
0.44042808 0.20015134 0.07431813
0.57129962 0.29001403 0.10499552
0.70064377 0.39146894 0.15139218
0.82476211 0.49980081 0.21263900
0.90257239 0.60949394 0.28545226
0.07642198 0.19275076 0.00000073
0.09152982 0.19842742 0.00000073
0.19870302 0.20652973 0.00000073
0.33150133 0.22472520 0.00000073
0.46497134 0.26452872 0.03619352
0.59532387 0.33115349 0.09834138
0.71931908 0.41771144 0.15514188
0.83339631 0.51273979 0.21718305
0.90257239 0.60862820 0.28421762
0.16624632 0.34606618 0.00000073
0.17875272 0.35480441 0.00000073
0.24627693 0.36366497 0.00000073
0.36263559 0.37392123 0.00000073
0.49026691 0.39054433 0.00000073
0.61381407 0.42103587 0.00000073
0.72814707 0.47049961 0.00000073
0.83163880 0.53619820 0.18047015
0.90257239 0.60894228 0.26179883
0.27579502 0.50231152 0.00000073
0.28534195 0.50961359 0.00000073
0.32169606 0.51517380 0.00000073
0.40411054 0.51987929 0.00000073
0.51293841 0.52601340 0.00000073
0.62456944 0.53730541 0.00000073
0.72882245 0.55796901 0.00000073
0.82149759 0.59042022 0.00000073
0.90091020 0.63233431 0.00000073
0.39145409 0.64694295 0.00000073
0.39477488 0.64810085 0.00000073
0.41088469 0.64764669 0.00000073
0.45939728 0.64694875 0.00000073
0.54109294 0.64716494 0.00000073
0.63618374 0.65001897 0.00000073
0.72905702 0.65802500 0.00000073
0.81319269 0.67288825 0.00000073
0.88682008 0.69480623 0.00000073
0.49996432 0.77023746 0.00000073
0.49657263 0.76483022 0.00000073
0.50117776 0.75957901 0.00000073
0.52731820 0.75524347 0.00000073
0.58393407 0.75242920 0.00000073
0.66083943 0.75229339 0.00000073
0.74173470 0.75577712 0.00000073
0.81735461 0.76335711 0.00000073
0.88370522 0.77516520 0.00000073
0.59741287 0.87345130 0.00000073
0.58997259 0.86450151 0.00000073
0.58842084 0.85611789 0.00000073
0.60237856 0.84901166 0.00000073
0.64070858 0.84434944 0.00000073
0.69968459 0.84221649 0.00000073
0.76698225 0.84275355 0.00000073
0.83203814 0.84593409 0.00000073
0.88875817 0.85143344 0.00000073
0.68509865 0.90257239 0.00000073
0.67305947 0.90257239 0.00000073
0.66744876 0.90257239 0.00000073
0.67469366 0.90257239 0.00000073
0.70067892 0.90257239 0.00000073
0.74469994 0.90257239 0.00000073
0.79818269 0.90257239 0.00000073
0.85150375 0.90257239 0.00000073
0.89683055 0.90257239 0.00000073
0.00000073 0.00000073 0.18486859
0.05319241 0.00000073 0.16244200
0.18079279 0.00000073 0.14312576
0.29950627 0.09827276 0.13712526
0.42412265 0.18255188 0.14175637
0.55026746 0.27171689 0.15397744
0.67804687 0.37163058 0.17905284
0.80449691 0.48084802 0.22277135
0.90257239 0.59473860 0.28625301
0.00000073 0.00000073 0.16657845
0.00000073 0.00000073 0.16953395
0.17524202 0.00000073 0.17220478
0.30949242 0.09386629 0.17688670
0.44128664 0.19115102 0.18517481
0.57227638 0.28715610 0.19837570
0.69947249 0.38906429 0.22018698
0.81958950 0.49447902 0.25553441
0.90257239 0.59832622 0.30591931
0.02920548 0.18177347 0.18386712
0.06290239 0.18764262 0.19013066
0.19607037 0.19607037 0.19607037
0.33452996 0.21623166 0.20307630
0.46752346 0.25966780 0.21331755
0.59565627 0.32842035 0.22768315
0.71568582 0.41368170 0.24910590
0.82534796 0.50516128 0.28024527
0.90257239 0.59606273 0.32164298
0.15935484 0.34614308 0.17119992
0.17280173 0.35504233 0.17825440
0.24442876 0.36392755 0.18440901
0.36416599 0.37374662 0.19397066
0.49193884 0.39014714 0.21211142
0.61260543 0.42035707 0.23421641
0.72335433 0.46815756 0.26080718
0.82242373 0.53011793 0.29338356
0.90257239 0.59724284 0.33147390
0.27453713 0.50394183 0.00000073
0.28383637 0.51051520 0.00000073
0.32137681 0.51552559 0.00000073
0.40511542 0.51993978 0.00000073
0.51367340 0.52604437 0.00000073
0.62331716 0.53738007 0.09409364
0.72406567 0.55759400 0.21595989
0.81224947 0.58807059 0.27950508
0.88823149 0.62683063 0.33087038
0.38989315 0.64629938 0.00000073
0.39276707 0.64656958 0.00000073
0.41013029 0.64592425 0.00000073
0.46055624 0.64542779 0.00000073
0.54252806 0.64598147 0.00000073
0.63611125 0.64950561 0.00000073
0.72630593 0.65820939 0.00000073
0.80742907 0.67320472 0.00000073
0.87778174 0.69429226 0.30534917
0.49577067 0.76615584 0.00000073
0.49265786 0.76070276 0.00000073
0.49895129 0.75579935 0.00000073
0.52814675 0.75200175 0.00000073
0.58688072 0.75007696 0.00000073
0.66315952 0.75111078 0.00000073
0.74191020 0.75556915 0.00000073
0.81466481 0.76385096 0.00000073
0.87769463 0.77592845 0.16885055
0.59091820 0.86699310 0.00000073
0.58400619 0.85817942 0.00000073
0.58438288 0.85021503 0.00000073
0.60218795 0.84439181 0.00000073
0.64372725 0.84095625 0.00000073
0.70351322 0.83992556 0.00000073
0.76948868 0.84144104 0.00000073
0.83180000 0.84526297 0.00000073
0.88509797 0.85124713 0.17498956
0.67549272 0.90257239 0.00000073
0.66496496 0.90257239 0.00000073
0.66214684 0.90257239 0.00000073
0.67320025 0.90257239 0.00000073
0.70292864 0.90257239 0.00000073
0.74893885 0.90257239 0.00000073
0.80210150 0.90257239 0.00000073
0.85357007 0.90257239 0.00000073
0.89299678 0.90257239 0.63323671
0.00000073 0.00000073 0.23456533
0.00000073 0.00000073 0.21516064
0.16018726 0.00000073 0.20122373
0.28838804 0.00000073 0.20159696
0.41538363 0.16123067 0.20741965
0.54311832 0.26112711 0.21756795
0.67096947 0.36374497 0.23454085
0.79485944 0.47129522 0.26292267
0.90257239 0.58055865 0.30728897
0.00000073 0.00000073 0.24834496
0.00000073 0.00000073 0.25374349
0.15431545 0.00000073 0.26033133
0.30186078 0.00000073 0.26809753
0.43696870 0.14156880 0.27768789
0.56776980 0.27051645 0.28940342
0.69270412 0.37833576 0.30459378
0.80852498 0.48223766 0.32577193
0.90257239 0.58216522 0.35588195
0.00000073 0.08670722 0.29914588
0.00000073 0.07881854 0.30932124
0.17103080 0.08328665 0.32016747
0.32926618 0.14119342 0.32877740
0.46575900 0.22118240 0.33745750
0.59263222 0.30932525 0.34794156
0.70935871 0.40116922 0.36095608
0.81538291 0.49296197 0.37781667
0.90257239 0.58033541 0.39968864
0.07640152 0.33357034 0.33610880
0.10793964 0.34198135 0.34524940
0.22562921 0.35060243 0.35369350
0.36074830 0.36074830 0.36074830
0.49203383 0.37886695 0.36846704
0.61039060 0.41145163 0.37873140
0.71757991 0.46021469 0.39141898
0.81213260 0.52045039 0.40746894
0.89252464 0.58336319 0.42744500
0.25973769 0.50155772 0.33627396
0.26956518 0.50737105 0.34375675
0.31309142 0.51199921 0.35123305
0.40251121 0.51672361 0.35884926
0.51331423 0.52296786 0.36924269
0.62184147 0.53447903 0.38591546
0.71893153 0.55470653 0.40539757
0.80334187 0.58404141 0.42717231
0.87611055 0.62061730 0.45114146
0.38320724 0.64374915 0.00000073
0.38599360 0.64340659 0.19825693
0.40581701 0.64285502 0.25389117
0.45979949 0.64270081 0.29499306
0.54319421 0.64378556 0.33230478
0.63599307 0.64806961 0.37044198
0.72398391 0.65746347 0.40728858
0.80215725 0.67268711 0.44281810
0.86918656 0.69321770 0.47794818
0.48945247 0.76133861 0.00000073
0.48676965 0.75597595 0.00000073
0.49523692 0.75147749 0.00000073
0.52831528 0.74834410 0.00000073
0.58942713 0.74762688 0.00000073
0.66539456 0.74972764 0.27360977
0.74229432 0.75505107 0.39115413
0.81232396 0.76397324 0.45908723
0.87202398 0.77634742 0.51393845
0.58331393 0.86010939 0.00000073
0.57704610 0.85148765 0.00000073
0.58013825 0.84454249 0.00000073
0.60202840 0.83997541 0.00000073
0.64682446 0.83767291 0.00000073
0.70744229 0.83765724 0.00000073
0.77211867 0.83999656 0.35412778
0.83176859 0.84438274 0.49472229
0.88089075 0.85062372 0.57837127
0.66561474 0.90257239 0.00000073
0.65703368 0.90257239 0.00000073
0.65715081 0.90257239 0.00000073
0.67218430 0.90257239 0.00000073
0.70573353 0.90257239 0.00000073
0.75362931 0.90257239 0.00000073
0.80639491 0.90257239 0.42265750
0.85696705 0.90187029 0.63534776
0.88973553 0.89884441 0.76353610
0.00000073 0.00000073 0.27064225
0.00000073 0.00000073 0.25307169
0.13295203 0.00000073 0.24443409
0.27430909 0.00000073 0.24844923
0.40402251 0.11142180 0.25555660
0.53299508 0.24360145 0.26592990
0.65946065 0.35056379 0.28064879
0.78018689 0.45654501 0.30242628
0.89128470 0.56063815 0.33458529
0.00000073 0.00000073 0.30537568
0.00000073 0.00000073 0.31308036
0.09987816 0.00000073 0.32239683
0.28810538 0.00000073 0.33303617
0.42751247 0.00000073 0.34471260
0.55820172 0.22847982 0.35754415
0.68066537 0.35681886 0.37214073
0.79266564 0.46296021 0.38959059
0.89396951 0.56099892 0.41147893
0.00000073 0.00000073 0.38176035
0.00000073 0.00000073 0.39404018
0.00000073 0.00000073 0.40647417
0.31207503 0.00000073 0.41773571
0.45675052 0.00000073 0.42805035
0.58381247 0.24130215 0.43842308
0.69868939 0.37095566 0.44979497
0.80142119 0.47112917 0.46266188
0.89040609 0.55811026 0.47740038
0.00000073 0.28205041 0.44971225
0.00000073 0.28634376 0.46105671
0.05859601 0.29199057 0.47140441
0.34278745 0.30321013 0.48050002
0.48477137 0.33111740 0.48661194
0.60455972 0.37736403 0.49261929
0.70941867 0.43662498 0.50016857
0.79991217 0.50136461 0.50952260
0.87675236 0.56476438 0.52106024
0.14488424 0.48679539 0.48912064
0.17209786 0.49173131 0.49506584
0.26987070 0.49616979 0.49996042
0.38900554 0.50154651 0.50468758
0.50897895 0.50897896 0.50897896
0.61913541 0.52251312 0.51479898
0.71318019 0.54478546 0.52377927
0.79454116 0.57501085 0.53510075
0.86424626 0.61119482 0.54919540
0.35930376 0.63689245 0.48386677
0.36319307 0.63637377 0.48901070
0.38970361 0.63597461 0.49493447
0.45314407 0.63632948 0.50196543
0.54124387 0.63848714 0.51050818
0.63514097 0.64383331 0.52248054
0.72179789 0.65401834 0.53971865
0.79710604 0.66986059 0.55916532
0.86078816 0.69036982 0.58067078
0.47703618 0.75493540 0.41241957
0.47498861 0.74975363 0.43704340
0.48680848 0.74567631 0.46181206
0.52566908 0.74360073 0.48611802
0.59044486 0.74412189 0.50972661
0.66691121 0.74730165 0.53417087
0.74258479 0.75344734 0.56111077
0.81016032 0.76302460 0.59047541
0.86652925 0.77583361 0.62150018
0.57286790 0.85244013 0.00000073
0.56765136 0.84437271 0.00000073
0.57411447 0.83866884 0.28202994
0.60073735 0.83523684 0.43206491
0.64931935 0.83398515 0.49896888
0.71109142 0.83493399 0.54899731
0.77463571 0.83797905 0.59302450
0.83181107 0.84291638 0.63475038
0.87290830 0.84846255 0.69755550
0.65496151 0.90257239 0.00000073
0.64826051 0.90257239 0.00000073
0.65158455 0.90257239 0.00000073
0.67103376 0.90257239 0.00000073
0.70872473 0.90257239 0.48804858
0.75858099 0.90257239 0.58171264
0.81324387 0.89955903 0.66211176
0.86158787 0.89432034 0.75779905
0.88860416 0.89436094 0.82819383
0.00000073 0.00000073 0.30227783
0.00000073 0.00000073 0.28705778
0.08320095 0.00000073 0.28446240
0.25818510 0.00000073 0.29001965
0.39172385 0.00000073 0.29817053
0.52084621 0.21368299 0.30875475
0.64531178 0.33211302 0.32235028
0.76216371 0.43760328 0.34046422
0.86834813 0.53729522 0.36508678
0.00000073 0.00000073 0.34999740
0.00000073 0.00000073 0.35884685
0.00000073 0.00000073 0.36938979
0.26833122 0.00000073 0.38111420
0.41431352 0.00000073 0.39355236
0.54479969 0.00000073 0.40695015
0.66451891 0.32124691 0.42177682
0.77376694 0.43706722 0.43885163
0.87148385 0.53501934 0.45872639
0.00000073 0.00000073 0.43968808
0.00000073 0.00000073 0.45353251
0.00000073 0.00000073 0.46715367
0.28079080 0.00000073 0.48004281
0.44189813 0.00000073 0.49210770
0.57082590 0.00000073 0.50385672
0.68442493 0.29987809 0.51578926
0.78407113 0.43460099 0.52796128
0.86867389 0.52737597 0.54047996
0.00000073 0.00000073 0.53072268
0.00000073 0.00000073 0.54284082
0.00000073 0.00000073 0.55336198
0.29635339 0.00000073 0.56215308
0.46873875 0.00000073 0.56925067
0.59313687 0.24460857 0.57514219
0.69714793 0.37700310 0.58099727
0.78497805 0.46482970 0.58759407
0.85955743 0.53682230 0.59558359
0.00000073 0.44433598 0.59588618
0.00000073 0.44747371 0.60140792
0.00000073 0.45163702 0.60577535
0.34536249 0.45806087 0.60968269
0.49558749 0.46892361 0.61324762
0.61084994 0.48951920 0.61506680
0.70523473 0.51922142 0.61810935
0.78480156 0.55506873 0.62366047
0.85195422 0.59449161 0.63187502
0.22196629 0.61919650 0.62109042
0.24545139 0.61873400 0.62183289
0.32476379 0.61882439 0.62264816
0.42923805 0.62016312 0.62403395
0.53328520 0.62421758 0.62705891
0.63167233 0.63167233 0.63167234
0.71894296 0.64416394 0.63891893
0.79171562 0.66208365 0.64956033
0.85222317 0.68387118 0.66286063
0.44522382 0.74473992 0.60942285
0.44503397 0.73983606 0.61272053
0.46492584 0.73652157 0.61818725
0.51558206 0.73576130 0.62573262
0.58799066 0.73764101 0.63517486
0.66663600 0.74226162 0.64631198
0.74233158 0.74950533 0.66044347
0.80797135 0.75998338 0.67903011
0.86099852 0.77368252 0.69998332
0.55510696 0.84320526 0.57492047
0.55181482 0.83625047 0.59329559
0.56290463 0.83165354 0.61145629
0.59625676 0.82926817 0.63008884
0.65021665 0.82904534 0.64969828
0.71397134 0.83101879 0.67074232
0.77676224 0.83483281 0.69352971
0.83122895 0.83958362 0.72522287
0.86386365 0.84554317 0.77534988
0.64138124 0.90257239 0.46424539
0.63663968 0.90257239 0.54806353
0.64383893 0.90257239 0.59872003
0.66884355 0.90257239 0.63793901
0.71150152 0.90017055 0.67233890
0.76462920 0.89713618 0.70773079
0.82410075 0.89043956 0.76612929
0.86695904 0.88752836 0.82447923
0.88973269 0.89282529 0.86192998
0.00000073 0.00000073 0.33012607
0.00000073 0.00000073 0.31831377
0.00000073 0.00000073 0.32061800
0.23886814 0.00000073 0.32744989
0.37799530 0.00000073 0.33649355
0.50696800 0.14563715 0.34742426
0.62900672 0.30583687 0.36065935
0.74161605 0.41412800 0.37700910
0.84422566 0.51191552 0.39772146
0.00000073 0.00000073 0.39020208
0.00000073 0.00000073 0.40009944
0.00000073 0.00000073 0.41156405
0.23892187 0.00000073 0.42369644
0.39853456 0.00000073 0.43634088
0.52932628 0.00000073 0.44963338
0.64701562 0.25224227 0.46407419
0.75335347 0.40232523 0.48014112
0.84705141 0.50406479 0.49803796
0.00000073 0.00000073 0.48603608
0.00000073 0.00000073 0.49991190
0.00000073 0.00000073 0.51328652
0.22039374 0.00000073 0.52601074
0.42260059 0.00000073 0.53829627
0.55511013 0.00000073 0.55082439
0.66763639 0.00000073 0.56375251
0.76427237 0.36965061 0.57674965
0.84551538 0.48546851 0.58933897
0.00000073 0.00000073 0.58676903
0.00000073 0.00000073 0.59929399
0.00000073 0.00000073 0.61023892
0.00000073 0.00000073 0.61983148
0.44450563 0.00000073 0.62790047
0.57761860 0.00000073 0.63461019
0.68187487 0.00000073 0.64047969
0.76861973 0.38648370 0.64657874
0.84131942 0.49208811 0.65326799
0.00000073 0.28601061 0.67044100
0.00000073 0.27422843 0.67580434
0.00000073 0.27902032 0.67987488
0.00000073 0.30636491 0.68284515
0.47021198 0.35260459 0.68476323
0.59725711 0.40783548 0.68605320
0.69395361 0.46382919 0.68765838
0.77303901 0.51731694 0.69072748
0.83829775 0.56702062 0.69577165
0.00000073 0.58161037 0.71608696
0.00000073 0.58136441 0.71519392
0.00000073 0.58280937 0.71374924
0.35317999 0.58675831 0.71249908
0.51481461 0.59424293 0.71313200
0.62351869 0.60583906 0.71553622
0.71259596 0.62354146 0.71812671
0.78476969 0.64636561 0.72268301
0.84284027 0.67189109 0.72993689
0.29717951 0.72548330 0.72712877
0.32235695 0.72135752 0.72429275
0.39392990 0.71973323 0.72346717
0.48629180 0.72079224 0.72478847
0.57864418 0.72457791 0.72817575
0.66369242 0.73123944 0.73358694
0.74061168 0.74061169 0.74061170
0.80533341 0.75338019 0.75014697
0.85089512 0.76984775 0.76392242
0.51675582 0.83098289 0.71748290
0.51760070 0.82523843 0.72062276
0.53857029 0.82179698 0.72584301
0.58485363 0.82056431 0.73308478
0.64818209 0.82154948 0.74234126
0.71562770 0.82477573 0.75354853
0.77866359 0.82957375 0.76696460
0.83055853 0.83471887 0.79110832
0.85730489 0.84412261 0.82154517
0.62005358 0.90257239 0.70395481
0.61805338 0.90257239 0.71755951
0.63121790 0.90091657 0.73188013
0.66445712 0.89621579 0.74696032
0.71381273 0.89302590 0.76333537
0.77751711 0.88656897 0.79054042
0.83736681 0.88119257 0.82769193
0.87232350 0.88470771 0.85802836
0.89214005 0.89331002 0.88254859
0.00000073 0.00000073 0.35485319
0.00000073 0.00000073 0.34788683
0.00000073 0.00000073 0.35326507
0.21367108 0.00000073 0.36119592
0.36236674 0.00000073 0.37085756
0.49146521 0.00000073 0.38219083
0.61073233 0.26447214 0.39542571
0.72008410 0.38563226 0.41113971
0.81914636 0.48386173 0.42994830
0.00000073 0.00000073 0.42654051
0.00000073 0.00000073 0.43738841
0.00000073 0.00000073 0.44924924
0.18516552 0.00000073 0.46155552
0.37961732 0.00000073 0.47424357
0.51249743 0.00000073 0.48750018
0.62887086 0.00000073 0.50184614
0.73222402 0.34853649 0.51734256
0.82172392 0.46559925 0.53399840
0.00000073 0.00000073 0.52747522
0.00000073 0.00000073 0.54100255
0.00000073 0.00000073 0.55388135
0.00000073 0.00000073 0.56602499
0.39806573 0.00000073 0.57805366
0.53780405 0.00000073 0.59014037
0.64961119 0.00000073 0.60225856
0.74322571 0.00000073 0.61437087
0.82249245 0.42335040 0.62712615
0.00000073 0.00000073 0.63090115
0.00000073 0.00000073 0.64215741
0.00000073 0.00000073 0.65222233
0.00000073 0.00000073 0.66145806
0.41015797 0.00000073 0.66977697
0.55911909 0.00000073 0.67747731
0.66531884 0.00000073 0.68457315
0.75150903 0.00000073 0.69135933
0.82255049 0.40420426 0.69796107
0.00000073 0.00000073 0.72141588
0.00000073 0.00000073 0.72741483
0.00000073 0.00000073 0.73184700
0.00000073 0.00000073 0.73477331
0.42566422 0.00000073 0.73652831
0.57965526 0.00000073 0.73806466
0.68057789 0.22404832 0.73955376
0.75989399 0.43683516 0.74180839
0.82367464 0.52115478 0.74514926
0.00000073 0.49358768 0.78243287
0.00000073 0.49517077 0.78068923
0.00000073 0.50356633 0.77790529
0.00000073 0.51740812 0.77567783
0.47824977 0.53629662 0.77480923
0.61083347 0.56024668 0.77503455
0.70353715 0.58934265 0.77591575
0.77590758 0.62185081 0.77769068
0.83222954 0.65495792 0.78099112
0.00000073 0.69223549 0.80829323
0.00000073 0.69026540 0.80303056
0.00000073 0.69140948 0.79962093
0.40446532 0.69553945 0.79793614
0.55872681 0.70266688 0.79790968
0.65809947 0.71285316 0.79955591
0.73718662 0.72614908 0.80270140
0.80041805 0.74367951 0.80578604
0.83581691 0.76840132 0.80736846
0.37056884 0.81217921 0.81397464
0.40517151 0.80803425 0.81100439
0.47519214 0.80627323 0.80997315
0.55915308 0.80684048 0.81081934
0.64166522 0.80978139 0.81353670
0.71611519 0.81498629 0.81795873
0.78384363 0.82121492 0.82270486
0.83144530 0.83144531 0.83144533
0.85564055 0.84569104 0.84519043
0.57777852 0.90167212 0.80974088
0.58262203 0.89501936 0.81200107
0.60884607 0.88985038 0.81578301
0.65672666 0.88610552 0.82107386
0.72172159 0.88133430 0.82879434
0.79756101 0.87457737 0.84241218
0.84985486 0.87599760 0.85993335
0.87817622 0.88466192 0.87702707
0.89569248 0.89590739 0.89400246
0.00000073 0.00000073 0.37741095
0.00000073 0.00000073 0.37620064
0.00000073 0.00000073 0.38287774
0.17536689 0.00000073 0.39151781
0.34446378 0.00000073 0.40171305
0.47438917 0.00000073 0.41346295
0.59131979 0.17202204 0.42696167
0.69799869 0.34851162 0.44263915
0.79331729 0.45173894 0.46060216
0.00000073 0.00000073 0.45949884
0.00000073 0.00000073 0.47090053
0.00000073 0.00000073 0.48286581
0.00000073 0.00000073 0.49519619
0.35639269 0.00000073 0.50784085
0.49468828 0.00000073 0.52128525
0.61021682 0.00000073 0.53560872
0.71058471 0.20673510 0.55072183
0.79598853 0.41200247 0.56653854
0.00000073 0.00000073 0.56427449
0.00000073 0.00000073 0.57727234
0.00000073 0.00000073 0.58947853
0.00000073 0.00000073 0.60125900
0.36425395 0.00000073 0.61300934
0.51873146 0.00000073 0.62460734
0.63089129 0.00000073 0.63589068
0.72286902 0.00000073 0.64721519
0.80023395 0.26133702 0.65906675
0.00000073 0.00000073 0.66925921
0.00000073 0.00000073 0.67931501
0.00000073 0.00000073 0.68856021
0.00000073 0.00000073 0.69677245
0.35424914 0.00000073 0.70399979
0.53823117 0.00000073 0.71075465
0.64821570 0.00000073 0.71801760
0.73417734 0.00000073 0.72575958
0.80367507 0.00000073 0.73288981
0.00000073 0.00000073 0.75988747
0.00000073 0.00000073 0.76477497
0.00000073 0.00000073 0.76859828
0.00000073 0.00000073 0.77164043
0.33330781 0.00000073 0.77457731
0.55779961 0.00000073 0.77694315
0.66587085 0.00000073 0.77891547
0.74604272 0.00000073 0.78106426
0.80858309 0.42888752 0.78346219
0.00000073 0.00000073 0.82834114
0.00000073 0.00000073 0.82650456
0.00000073 0.00000073 0.82389792
0.00000073 0.00000073 0.82185857
0.40183110 0.33957186 0.82054551
0.59321658 0.45636783 0.81975642
0.69325228 0.52847085 0.81929327
0.76625154 0.58561424 0.81914525
0.81954136 0.63574305 0.81840331
0.00000073 0.63179135 0.86536737
0.00000073 0.63516453 0.85950776
0.00000073 0.64283445 0.85491448
0.00000073 0.65427168 0.85145854
0.52450731 0.66915760 0.84902501
0.64968138 0.68728405 0.84751241
0.73328969 0.70846567 0.84673600
0.79356152 0.73911784 0.83866026
0.82244903 0.77431357 0.82747144
0.00000073 0.78446818 0.88194974
0.00000073 0.78287161 0.87598843
0.00000073 0.78395148 0.87145464
0.50881170 0.78765117 0.86827459
0.63151296 0.79399713 0.86640966
0.72209998 0.80271652 0.86202961
0.79423376 0.81590881 0.85223579
0.83483799 0.83273902 0.85026926
0.85635944 0.84978445 0.85741430
0.44633266 0.88384911 0.88605029
0.49448866 0.87867288 0.88187080
0.56712793 0.87503318 0.87881208
0.64809525 0.87234373 0.87627241
0.74441885 0.86644977 0.86974464
0.82023891 0.86664673 0.86841450
0.86028427 0.87532258 0.87599012
0.88448569 0.88698348 0.88710164
0.89999998 0.90000000 0.90000003
