resources/flame/Syncolor/Shared/transforms/camera_manufacturer_luts/arri/ARRI_Alexa_LUTs/ARRI_LogC3_v1-2_LUT_Package/LUTs/ARRI_LogC3-to-St2084_108_P3-D65_DW34_v2_33.cube
LUT_3D_SIZE 33
1e-06 1e-06 1e-06
2.3e-05 5e-06 5e-06
0.00024 7e-06 1e-05
0.001217 1e-06 6e-06
0.003769 1e-06 1.2e-05
0.008651 1e-06 2.1e-05
0.016359 1e-06 3.4e-05
0.02717 1e-06 5.5e-05
0.04127 1e-06 8.7e-05
0.058426 1e-06 0.000132
0.075678 1e-06 0.000197
0.092412 1e-06 0.000287
0.110376 1e-06 0.000427
0.129722 1e-06 0.000648
0.15008 1e-06 0.000992
0.171075 1e-06 0.001521
0.192486 1e-06 0.002318
0.214148 1e-06 0.003495
0.235826 1e-06 0.005188
0.257308 1e-06 0.007547
0.278415 1e-06 0.01073
0.298988 1e-06 0.014884
0.318939 1e-06 0.02014
0.338148 1e-06 0.026579
0.356335 1e-06 0.03414
0.373445 1e-06 0.042743
0.38946 1e-06 0.052233
0.404374 1e-06 0.061715
0.418187 1e-06 0.070749
0.430904 1e-06 0.079261
0.442558 1e-06 0.08721
0.453213 1e-06 0.094595
0.462937 1e-06 0.101428
5.7e-05 0.000158 6.5e-05
0.000294 0.000333 5.7e-05
0.001339 0.000525 2.1e-05
0.004093 0.000661 1e-06
0.009377 0.000667 6e-06
0.017578 0.000563 1.9e-05
0.028763 0.000363 4.2e-05
0.042862 0.000118 7.7e-05
0.059316 1e-06 0.000133
0.075525 1e-06 0.000196
0.091578 1e-06 0.000282
0.10894 1e-06 0.000414
0.127786 1e-06 0.000622
0.147786 1e-06 0.000946
0.168587 1e-06 0.001447
0.189841 1e-06 0.002202
0.211235 1e-06 0.003311
0.23268 1e-06 0.004904
0.254022 1e-06 0.007134
0.275157 1e-06 0.010173
0.295921 1e-06 0.014189
0.316149 1e-06 0.019323
0.335699 1e-06 0.025675
0.354454 1e-06 0.033286
0.372208 1e-06 0.042068
0.388781 1e-06 0.051809
0.404174 1e-06 0.061586
0.418393 1e-06 0.070886
0.431458 1e-06 0.079635
0.44343 1e-06 0.08781
0.454379 1e-06 0.09541
0.464371 1e-06 0.102443
0.473467 1e-06 0.108923
0.000164 0.001648 0.000248
0.00077 0.002589 9e-05
0.002945 0.003542 1e-06
0.007765 0.004156 1e-06
0.015897 0.004533 1e-06
0.027284 0.00467 1e-06
0.041572 0.004574 1.2e-05
0.058026 0.004244 4e-05
0.074068 0.003659 8.7e-05
0.089546 0.002786 0.000162
0.106272 0.001609 0.00029
0.124695 0.000375 0.000509
0.144348 1e-06 0.000866
0.164784 1e-06 0.00134
0.185817 1e-06 0.002036
0.207188 1e-06 0.003068
0.228682 1e-06 0.004563
0.250071 1e-06 0.006664
0.2713 1e-06 0.009547
0.292183 1e-06 0.01338
0.312557 1e-06 0.018312
0.332283 1e-06 0.024456
0.351244 1e-06 0.031868
0.369341 1e-06 0.040538
0.386482 1e-06 0.050376
0.402431 1e-06 0.060463
0.417132 1e-06 0.070051
0.430634 1e-06 0.079078
0.443011 1e-06 0.087522
0.454333 1e-06 0.095378
0.464665 1e-06 0.102652
0.47407 1e-06 0.109355
0.482608 1e-06 0.115506
0.000124 0.006749 0.000395
0.001035 0.009152 1.7e-05
0.004146 0.011265 1e-06
0.010814 0.012819 1e-06
0.021574 0.013953 1e-06
0.035974 0.014696 1e-06
0.053175 0.015104 1e-06
0.070233 0.01521 1e-06
0.086043 0.015001 1.5e-05
0.102309 0.014383 6.9e-05
0.119945 0.013199 0.000181
0.139067 0.011284 0.000396
0.159332 0.008842 0.000773
0.180447 0.006081 0.001392
0.202073 0.00318 0.002362
0.223885 0.000666 0.003812
0.245584 1e-06 0.005886
0.266908 1e-06 0.008729
0.287818 1e-06 0.012485
0.308217 1e-06 0.01715
0.328008 1e-06 0.022997
0.347072 1e-06 0.030098
0.365312 1e-06 0.038462
0.382641 1e-06 0.048025
0.398989 1e-06 0.058257
0.414255 1e-06 0.068154
0.428293 1e-06 0.077499
0.441165 1e-06 0.086252
0.452942 1e-06 0.094406
0.463702 1e-06 0.10197
0.473565 1e-06 0.108993
0.482588 1e-06 0.115492
0.490822 1e-06 0.121481
1e-06 0.017229 0.000383
0.000855 0.021469 1e-06
0.004539 0.024848 1e-06
0.012624 0.027629 1e-06
0.025557 0.029822 1e-06
0.042624 0.031457 1e-06
0.061845 0.032633 1e-06
0.079447 0.033442 1e-06
0.096343 0.033934 1e-06
0.114231 0.034287 1e-06
0.133191 0.034399 4.4e-05
0.153357 0.034011 0.000212
0.174453 0.032985 0.000569
0.196082 0.031261 0.001218
0.217959 0.028769 0.002293
0.239811 0.025473 0.00395
0.261383 0.021391 0.006352
0.282447 0.016617 0.009651
0.302873 0.011303 0.013981
0.322703 0.005705 0.019492
0.341834 0.000927 0.026263
0.36017 1e-06 0.034307
0.377627 1e-06 0.043567
0.39414 1e-06 0.053838
0.409688 1e-06 0.06405
0.424263 1e-06 0.073847
0.437761 1e-06 0.083077
0.450191 1e-06 0.091688
0.461612 1e-06 0.099687
0.472084 1e-06 0.10709
0.481662 1e-06 0.113913
0.4904 1e-06 0.120177
0.498348 1e-06 0.125902
1e-06 0.033628 0.000205
0.000325 0.039526 1e-06
0.00417 0.044174 1e-06
0.013303 0.048242 1e-06
0.027954 0.051611 1e-06
0.047312 0.054317 1e-06
0.068191 0.056685 1e-06
0.087172 0.058828 1e-06
0.106488 0.060774 1e-06
0.126366 0.062509 1e-06
0.146772 0.06395 1e-06
0.167835 0.064933 2.5e-05
0.189464 0.065322 0.000298
0.211316 0.065069 0.000937
0.233174 0.064092 0.002097
0.254822 0.062316 0.003955
0.276054 0.059665 0.006686
0.296676 0.056066 0.01044
0.316528 0.051444 0.015316
0.335654 0.045632 0.021424
0.354018 0.038796 0.02881
0.371539 0.03106 0.037441
0.388177 0.022633 0.047232
0.403979 0.014113 0.05774
0.418946 0.006238 0.067953
0.43306 0.000578 0.077749
0.446266 1e-06 0.087044
0.458417 1e-06 0.095689
0.469557 1e-06 0.103687
0.479747 1e-06 0.111057
0.489043 1e-06 0.117821
0.497499 1e-06 0.123993
0.505166 1e-06 0.129597
1e-06 0.055472 1e-06
1e-06 0.061872 1e-06
0.003327 0.066991 1e-06
0.013743 0.071616 1e-06
0.030609 0.075693 1e-06
0.052584 0.079237 1e-06
0.074517 0.082319 1e-06
0.095428 0.085047 1e-06
0.116826 0.087518 1e-06
0.138371 0.089756 1e-06
0.159986 0.091734 1e-06
0.181775 0.09336 1e-06
0.203728 0.094534 3.9e-05
0.225608 0.095207 0.00055
0.247271 0.095325 0.001715
0.268559 0.094845 0.003715
0.28931 0.093741 0.006725
0.309368 0.092004 0.010878
0.328586 0.08965 0.016239
0.346968 0.086699 0.022849
0.364644 0.083262 0.030754
0.381574 0.079327 0.039921
0.397722 0.074878 0.050261
0.413062 0.069917 0.060941
0.427576 0.064485 0.071209
0.441252 0.058675 0.081007
0.45408 0.052673 0.090291
0.46593 0.047222 0.09893
0.47677 0.043236 0.106871
0.486662 0.041137 0.114142
0.495663 0.041315 0.120767
0.503827 0.044175 0.126772
0.511203 0.050121 0.132181
1e-06 0.078498 1e-06
1e-06 0.084715 1e-06
0.003305 0.090124 1e-06
0.015643 0.095266 1e-06
0.034626 0.100045 1e-06
0.058138 0.104406 1e-06
0.080653 0.108343 1e-06
0.103467 0.111868 1e-06
0.126499 0.115028 1e-06
0.149378 0.117866 1e-06
0.171988 0.120392 1e-06
0.194393 0.122568 1e-06
0.216567 0.124341 1e-06
0.238395 0.125677 3e-05
0.259793 0.126544 0.000847
0.280655 0.126925 0.002723
0.30093 0.126947 0.005787
0.320543 0.12675 0.010139
0.339355 0.126383 0.015817
0.357317 0.125882 0.022814
0.374531 0.125194 0.031153
0.39098 0.124339 0.04077
0.406641 0.123361 0.051536
0.421497 0.122319 0.062423
0.435538 0.121296 0.072811
0.448755 0.1204 0.082658
0.461146 0.119764 0.091939
0.47266 0.119627 0.100591
0.483182 0.120384 0.108499
0.492762 0.122195 0.115689
0.501456 0.125164 0.122193
0.509317 0.129335 0.128042
0.515822 0.134528 0.133336
1e-06 0.10286 1e-06
1e-06 0.109678 1e-06
0.002717 0.115729 1e-06
0.016516 0.12148 1e-06
0.037184 0.126848 1e-06
0.061663 0.13178 1e-06
0.085828 0.136244 1e-06
0.11042 0.140241 1e-06
0.13488 0.143808 1e-06
0.158897 0.146987 1e-06
0.18236 0.149806 1e-06
0.205288 0.152263 1e-06
0.227653 0.154356 1e-06
0.24954 0.15623 1e-06
0.270914 0.15791 1e-06
0.291686 0.159394 0.000953
0.311758 0.160693 0.00356
0.331046 0.161834 0.007738
0.349477 0.162854 0.013452
0.367009 0.163798 0.020624
0.383745 0.164646 0.029219
0.399698 0.165415 0.039134
0.414858 0.166145 0.050216
0.429216 0.166885 0.061498
0.442769 0.167697 0.072159
0.455513 0.168649 0.082181
0.467449 0.169821 0.091556
0.478569 0.17131 0.100273
0.488751 0.173345 0.108212
0.498002 0.176038 0.115372
0.506408 0.179383 0.121827
0.514137 0.183242 0.127724
0.515822 0.187593 0.133098
1e-06 0.130316 1e-06
1e-06 0.137408 1e-06
0.000228 0.143681 1e-06
0.013213 0.149586 1e-06
0.035238 0.155094 1e-06
0.0617 0.160183 1e-06
0.088844 0.164812 1e-06
0.115523 0.168974 1e-06
0.141484 0.172687 1e-06
0.166661 0.17604 1e-06
0.191133 0.179192 1e-06
0.214867 0.182154 1e-06
0.237849 0.18493 1e-06
0.260068 0.187519 1e-06
0.281505 0.189921 1e-06
0.30213 0.192145 1e-06
0.32192 0.194203 0.000513
0.340841 0.196118 0.003536
0.358859 0.197921 0.008674
0.375947 0.199653 0.015616
0.392199 0.201309 0.024182
0.40765 0.202903 0.034187
0.422302 0.204467 0.045413
0.436154 0.206037 0.057315
0.449209 0.207656 0.068534
0.46147 0.209373 0.078955
0.472939 0.211238 0.088605
0.48362 0.213306 0.097503
0.493445 0.215693 0.105594
0.502467 0.218414 0.112942
0.510764 0.221437 0.11963
0.515822 0.224778 0.125697
0.515822 0.228452 0.131179
1e-06 0.15942 1e-06
1e-06 0.166391 1e-06
1e-06 0.172603 1e-06
0.004232 0.178405 1e-06
0.02565 0.183789 1e-06
0.055784 0.188742 1e-06
0.087994 0.193362 1e-06
0.118146 0.197718 1e-06
0.146627 0.201809 1e-06
0.173679 0.205642 1e-06
0.19945 0.209234 1e-06
0.224039 0.2126 1e-06
0.247518 0.215754 1e-06
0.269941 0.218709 1e-06
0.291354 0.221478 1e-06
0.311794 0.224071 1e-06
0.33128 0.226504 1e-06
0.34982 0.228796 1e-06
0.367408 0.230974 0.002087
0.384041 0.23307 0.007638
0.399811 0.235088 0.015521
0.414761 0.237041 0.025221
0.428903 0.238953 0.036349
0.442246 0.240852 0.048564
0.454799 0.242769 0.060858
0.466569 0.24474 0.07209
0.477557 0.246794 0.082331
0.487835 0.248919 0.091731
0.497452 0.251136 0.100382
0.506316 0.253556 0.108205
0.514461 0.256214 0.115258
0.515822 0.259132 0.121597
0.515822 0.262324 0.127267
1e-06 0.188925 1e-06
1e-06 0.195509 1e-06
1e-06 0.201467 1e-06
1e-06 0.207143 1e-06
0.008371 0.212557 1e-06
0.041913 0.217694 1e-06
0.083391 0.222543 1e-06
0.119015 0.227103 1e-06
0.150813 0.231376 1e-06
0.179956 0.235371 1e-06
0.207053 0.239103 1e-06
0.232447 0.242591 1e-06
0.256357 0.245856 1e-06
0.278936 0.248916 1e-06
0.300304 0.251788 1e-06
0.320545 0.254486 1e-06
0.339723 0.257024 1e-06
0.357878 0.259421 1e-06
0.375033 0.261698 1e-06
0.39121 0.263882 1e-06
0.406504 0.265979 0.004136
0.420957 0.268002 0.012213
0.434592 0.269971 0.022578
0.447421 0.271895 0.034451
0.459458 0.273802 0.047299
0.470749 0.275718 0.060147
0.481403 0.277635 0.0718
0.491438 0.279581 0.082379
0.500849 0.281594 0.09198
0.50954 0.283768 0.100556
0.515822 0.286142 0.108186
0.515822 0.288715 0.115583
0.515822 0.291315 0.12784
1e-06 0.21817 1e-06
1e-06 0.224624 1e-06
1e-06 0.230683 1e-06
1e-06 0.236424 1e-06
1e-06 0.241852 1e-06
0.019235 0.246965 1e-06
0.072751 0.251766 1e-06
0.11694 0.256261 1e-06
0.153207 0.26046 1e-06
0.18492 0.264373 1e-06
0.213533 0.268021 1e-06
0.239796 0.271425 1e-06
0.264154 0.274606 1e-06
0.286895 0.277584 1e-06
0.308219 0.280373 1e-06
0.328267 0.282989 1e-06
0.347144 0.285445 1e-06
0.36492 0.287759 1e-06
0.381647 0.289949 1e-06
0.397375 0.292032 1e-06
0.412191 0.294006 1e-06
0.426143 0.295894 1.5e-05
0.439271 0.297723 0.005589
0.451609 0.29952 0.015585
0.463266 0.301286 0.027748
0.47429 0.303035 0.041184
0.484695 0.304788 0.05518
0.494493 0.306572 0.067893
0.503686 0.308416 0.079123
0.512194 0.310391 0.088951
0.515822 0.312418 0.103005
0.515822 0.314588 0.116927
0.515822 0.31696 0.129133
1e-06 0.247656 1e-06
1e-06 0.254007 1e-06
1e-06 0.25995 1e-06
1e-06 0.26553 1e-06
1e-06 0.27076 1e-06
1e-06 0.275648 1e-06
0.050157 0.280209 1e-06
0.110241 0.284453 1e-06
0.153054 0.288399 1e-06
0.188108 0.292067 1e-06
0.218562 0.295479 1e-06
0.245845 0.298657 1e-06
0.270726 0.301618 1e-06
0.293668 0.304378 1e-06
0.314974 0.306952 1e-06
0.334849 0.309355 1e-06
0.353435 0.311592 1e-06
0.370835 0.313675 1e-06
0.387135 0.315631 1e-06
0.402432 0.317485 1e-06
0.416811 0.319258 1e-06
0.430326 0.320973 1e-06
0.443067 0.322642 1e-06
0.455125 0.324271 1e-06
0.466533 0.325874 0.005435
0.477312 0.32747 0.016847
0.487478 0.329078 0.03043
0.497043 0.330721 0.044928
0.506008 0.332345 0.066124
0.514313 0.334041 0.085824
0.515822 0.335877 0.102344
0.515822 0.337877 0.116548
0.515822 0.340059 0.128965
1e-06 0.27673 1e-06
1e-06 0.282773 1e-06
1e-06 0.288409 1e-06
1e-06 0.293674 1e-06
1e-06 0.298565 1e-06
1e-06 0.303097 1e-06
0.011449 0.307288 1e-06
0.096324 0.311165 1e-06
0.149524 0.314754 1e-06
0.189082 0.318079 1e-06
0.221849 0.321159 1e-06
0.250377 0.324013 1e-06
0.275902 0.326656 1e-06
0.299104 0.329093 1e-06
0.32042 0.331341 1e-06
0.340144 0.333424 1e-06
0.358481 0.335363 1e-06
0.375576 0.337182 1e-06
0.391549 0.338903 1e-06
0.406508 0.340549 1e-06
0.420548 0.342138 1e-06
0.433794 0.343678 1e-06
0.446308 0.34518 1e-06
0.458137 0.346654 1e-06
0.469313 0.348114 1e-06
0.47986 0.349575 1e-06
0.489789 0.350979 0.011296
0.499119 0.352416 0.035468
0.507859 0.353905 0.061138
0.515822 0.355485 0.082293
0.515822 0.357192 0.099754
0.515822 0.359048 0.114608
0.515822 0.361063 0.127965
1e-06 0.304774 1e-06
1e-06 0.310375 1e-06
1e-06 0.315547 1e-06
1e-06 0.320343 1e-06
1e-06 0.324775 1e-06
1e-06 0.32886 1e-06
1e-06 0.332618 1e-06
0.06909 0.336073 1e-06
0.141445 0.33925 1e-06
0.187382 0.342168 1e-06
0.223108 0.34484 1e-06
0.253164 0.347289 1e-06
0.279485 0.349541 1e-06
0.303077 0.351619 1e-06
0.324536 0.353543 1e-06
0.344242 0.355334 1e-06
0.362451 0.357012 1e-06
0.379355 0.358598 1e-06
0.395101 0.360113 1e-06
0.409845 0.361575 1e-06
0.423704 0.362993 1e-06
0.43676 0.364376 1e-06
0.449073 0.36573 1e-06
0.460688 0.367038 1e-06
0.47164 0.368313 1e-06
0.481961 0.369594 1e-06
0.49167 0.370896 0.00295
0.500779 0.372234 0.025392
0.509297 0.373627 0.052491
0.515822 0.375106 0.076252
0.515822 0.376701 0.095541
0.515822 0.378418 0.112798
0.515822 0.380269 0.12881
1e-06 0.331314 1e-06
1e-06 0.336386 1e-06
1e-06 0.341013 1e-06
1e-06 0.345262 1e-06
1e-06 0.349159 1e-06
1e-06 0.35273 1e-06
1e-06 0.355992 1e-06
0.015217 0.358965 1e-06
0.126737 0.361677 1e-06
0.182422 0.364154 1e-06
0.222136 0.366421 1e-06
0.254212 0.3685 1e-06
0.281635 0.370414 1e-06
0.305827 0.372183 1e-06
0.327584 0.373827 1e-06
0.347394 0.375367 1e-06
0.365585 0.376819 1e-06
0.382402 0.378209 1e-06
0.398048 0.379552 1e-06
0.412672 0.380855 1e-06
0.426384 0.382111 1e-06
0.439267 0.383311 1e-06
0.451394 0.384491 1e-06
0.462816 0.385659 1e-06
0.47357 0.386828 1e-06
0.483685 0.38801 1e-06
0.493181 0.389217 1e-06
0.502073 0.390465 0.012763
0.510369 0.391771 0.040297
0.515822 0.393152 0.06933
0.515822 0.394629 0.093431
0.515822 0.396216 0.114322
0.515822 0.397924 0.133213
1e-06 0.356025 1e-06
1e-06 0.360507 1e-06
1e-06 0.36455 1e-06
1e-06 0.36822 1e-06
1e-06 0.371553 1e-06
1e-06 0.374583 1e-06
1e-06 0.377339 1e-06
1e-06 0.379849 1e-06
0.100496 0.382138 1e-06
0.173672 0.38423 1e-06
0.219067 0.386146 1e-06
0.253802 0.387906 1e-06
0.282644 0.389529 1e-06
0.307629 0.391034 1e-06
0.329817 0.392439 1e-06
0.349835 0.393765 1e-06
0.368099 0.395041 1e-06
0.384916 0.396265 1e-06
0.400503 0.397426 1e-06
0.415033 0.398553 1e-06
0.428626 0.399653 1e-06
0.441375 0.400732 1e-06
0.453347 0.401799 1e-06
0.464598 0.402863 1e-06
0.475167 0.403935 1e-06
0.485085 0.405024 1e-06
0.494375 0.406145 1e-06
0.503052 0.407304 0.002152
0.511123 0.408515 0.031599
0.515822 0.409798 0.067711
0.515822 0.411177 0.096891
0.515822 0.412662 0.121027
0.515822 0.414242 0.141765
1e-06 0.378677 1e-06
1e-06 0.382524 1e-06
1e-06 0.385998 1e-06
1e-06 0.389121 1e-06
1e-06 0.39195 1e-06
1e-06 0.394515 1e-06
1e-06 0.396843 1e-06
1e-06 0.39896 1e-06
0.046931 0.400888 1e-06
0.160267 0.402648 1e-06
0.213936 0.404259 1e-06
0.252129 0.405741 1e-06
0.282748 0.40711 1e-06
0.308717 0.408385 1e-06
0.331415 0.40959 1e-06
0.351686 0.410734 1e-06
0.370079 0.411835 1e-06
0.386947 0.412898 1e-06
0.402535 0.413928 1e-06
0.417019 0.414931 1e-06
0.430529 0.415913 1e-06
0.443165 0.416882 1e-06
0.455001 0.417846 1e-06
0.466095 0.418814 1e-06
0.47649 0.419794 1e-06
0.486219 0.420793 1e-06
0.495308 0.421824 1e-06
0.503781 0.422907 1e-06
0.511641 0.424053 0.032839
0.515822 0.425278 0.075851
0.515822 0.426582 0.107509
0.515822 0.427969 0.132669
0.515822 0.429448 0.153921
1e-06 0.399204 1e-06
1e-06 0.402504 1e-06
1e-06 0.40548 1e-06
1e-06 0.408164 1e-06
1e-06 0.410571 1e-06
1e-06 0.412744 1e-06
1e-06 0.414711 1e-06
1e-06 0.416493 1e-06
1e-06 0.418111 1e-06
0.140845 0.419585 1e-06
0.206949 0.420933 1e-06
0.249478 0.422157 1e-06
0.282117 0.423301 1e-06
0.309106 0.424395 1e-06
0.332399 0.425443 1e-06
0.353039 0.42645 1e-06
0.371648 0.427418 1e-06
0.388628 0.428355 1e-06
0.404253 0.429265 1e-06
0.41872 0.430154 1e-06
0.432171 0.431028 1e-06
0.444713 0.431896 1e-06
0.456427 0.432763 1e-06
0.46738 0.433641 1e-06
0.477623 0.434545 1e-06
0.48719 0.435482 1e-06
0.496109 0.436462 1e-06
0.504398 0.437496 0.002075
0.512114 0.438591 0.049444
0.515822 0.439754 0.092872
0.515822 0.440988 0.123719
0.515822 0.442298 0.148492
0.515822 0.44373 0.16866
1e-06 0.417802 1e-06
1e-06 0.420673 1e-06
1e-06 0.423232 1e-06
1e-06 0.425526 1e-06
1e-06 0.427584 1e-06
1e-06 0.429432 1e-06
1e-06 0.431091 1e-06
1e-06 0.432584 1e-06
1e-06 0.433929 1e-06
0.111939 0.435146 1e-06
0.198062 0.436261 1e-06
0.245809 0.437317 1e-06
0.280721 0.438324 1e-06
0.308945 0.439284 1e-06
0.33297 0.440202 1e-06
0.354056 0.441082 1e-06
0.372934 0.44193 1e-06
0.390065 0.442751 1e-06
0.405759 0.44355 1e-06
0.420233 0.444334 1e-06
0.433652 0.445117 1e-06
0.446133 0.445905 1e-06
0.457763 0.446707 1e-06
0.468608 0.447528 1e-06
0.47872 0.448378 1e-06
0.488136 0.449265 1e-06
0.49691 0.450199 1e-06
0.505126 0.451191 0.021442
0.512801 0.452242 0.07762
0.515822 0.453355 0.115621
0.515822 0.454535 0.144082
0.515822 0.455776 0.167514
0.515822 0.4571 0.186002
1e-06 0.434615 1e-06
1e-06 0.437152 1e-06
1e-06 0.439405 1e-06
1e-06 0.441398 1e-06
1e-06 0.443157 1e-06
1e-06 0.444722 1e-06
1e-06 0.446117 1e-06
1e-06 0.447364 1e-06
1e-06 0.448484 1e-06
0.062797 0.449526 1e-06
0.18685 0.45051 1e-06
0.241184 0.451442 1e-06
0.278806 0.452324 1e-06
0.308449 0.453163 1e-06
0.333301 0.453962 1e-06
0.354891 0.454728 1e-06
0.374083 0.455469 1e-06
0.391408 0.456195 1e-06
0.407215 0.456913 1e-06
0.421742 0.457628 1e-06
0.435163 0.458346 1e-06
0.447603 0.459074 1e-06
0.459158 0.459818 1e-06
0.4699 0.460586 1e-06
0.479888 0.461387 1e-06
0.489215 0.462239 1e-06
0.497945 0.463145 0.001557
0.506109 0.464105 0.06287
0.513718 0.465096 0.109212
0.515822 0.466071 0.141045
0.515822 0.467033 0.166114
0.515822 0.467987 0.187241
0.515822 0.469034 0.203845
1e-06 0.449852 1e-06
1e-06 0.4521 1e-06
1e-06 0.454092 1e-06
1e-06 0.45585 1e-06
1e-06 0.457394 1e-06
1e-06 0.458748 1e-06
1e-06 0.459931 1e-06
1e-06 0.460996 1e-06
1e-06 0.461991 1e-06
1e-06 0.462922 1e-06
0.173057 0.463794 1e-06
0.235952 0.464613 1e-06
0.276683 0.465385 1e-06
0.307891 0.466121 1e-06
0.333652 0.46683 1e-06
0.35581 0.467516 1e-06
0.375363 0.468185 1e-06
0.392911 0.468843 1e-06
0.408844 0.469495 1e-06
0.423427 0.470147 1e-06
0.436849 0.470805 1e-06
0.449249 0.471476 1e-06
0.460727 0.472166 1e-06
0.471384 0.472897 1e-06
0.481314 0.473679 1e-06
0.490545 0.474463 1e-06
0.499106 0.475224 0.049064
0.507046 0.475964 0.103877
0.514403 0.476686 0.13874
0.515822 0.477395 0.165303
0.515822 0.478094 0.18728
0.515822 0.478787 0.206338
0.515822 0.479582 0.221474
1e-06 0.463692 1e-06
1e-06 0.465688 1e-06
1e-06 0.467454 1e-06
1e-06 0.469007 1e-06
1e-06 0.470367 1e-06
1e-06 0.471564 1e-06
1e-06 0.472656 1e-06
1e-06 0.473655 1e-06
1e-06 0.47457 1e-06
1e-06 0.47541 1e-06
0.157005 0.476194 1e-06
0.230781 0.476933 1e-06
0.274921 0.477634 1e-06
0.307756 0.478302 1e-06
0.334427 0.478943 1e-06
0.357133 0.479563 1e-06
0.377024 0.480168 1e-06
0.394775 0.480763 1e-06
0.410817 0.481355 1e-06
0.425442 0.481949 1e-06
0.438854 0.482551 1e-06
0.45119 0.483167 1e-06
0.462525 0.483767 1e-06
0.472976 0.484346 1e-06
0.482639 0.484903 1e-06
0.491588 0.485438 0.036802
0.499883 0.485954 0.099722
0.507572 0.486454 0.137417
0.514692 0.486939 0.165285
0.515822 0.487413 0.187972
0.515822 0.48788 0.207447
0.515822 0.488354 0.224525
0.515822 0.488908 0.238722
1e-06 0.476292 1e-06
1e-06 0.478066 1e-06
1e-06 0.479633 1e-06
1e-06 0.48101 1e-06
1e-06 0.482257 1e-06
1e-06 0.483395 1e-06
1e-06 0.484436 1e-06
1e-06 0.485391 1e-06
1e-06 0.486268 1e-06
1e-06 0.487075 1e-06
0.141228 0.487821 1e-06
0.226954 0.488514 1e-06
0.274249 0.489163 1e-06
0.308518 0.489775 1e-06
0.335973 0.490358 1e-06
0.35914 0.49092 1e-06
0.379303 0.491467 1e-06
0.397206 0.492006 1e-06
0.413282 0.492513 1e-06
0.427795 0.492957 1e-06
0.440958 0.493373 1e-06
0.452974 0.493768 1e-06
0.464002 0.494141 1e-06
0.474163 0.494494 1e-06
0.483551 0.494828 0.028356
0.49224 0.495144 0.097507
0.500286 0.495444 0.137455
0.507739 0.495731 0.166298
0.514635 0.496005 0.189488
0.515822 0.496271 0.209243
0.515822 0.496532 0.226689
0.515822 0.496806 0.242193
0.515822 0.497145 0.255553
1e-06 0.487777 1e-06
1e-06 0.489357 1e-06
1e-06 0.490779 1e-06
1e-06 0.49209 1e-06
1e-06 0.493298 1e-06
1e-06 0.494407 1e-06
1e-06 0.495424 1e-06
1e-06 0.496355 1e-06
1e-06 0.497206 1e-06
1e-06 0.497986 1e-06
0.131433 0.498703 1e-06
0.22641 0.499363 1e-06
0.275758 0.499976 1e-06
0.310899 0.50055 1e-06
0.338798 0.501088 1e-06
0.362125 0.501552 1e-06
0.382243 0.501931 1e-06
0.399954 0.502231 1e-06
0.415707 0.502489 1e-06
0.429853 0.502724 1e-06
0.442673 0.502938 1e-06
0.454374 0.503131 1e-06
0.465109 0.503304 1e-06
0.474994 0.503459 0.025413
0.484121 0.503597 0.098238
0.492562 0.503719 0.139321
0.500373 0.503827 0.16862
0.5076 0.503924 0.192021
0.514282 0.50401 0.21187
0.515822 0.50409 0.229349
0.515822 0.504165 0.245136
0.515822 0.504255 0.259397
0.515822 0.504401 0.271996
1e-06 0.498286 1e-06
1e-06 0.499784 1e-06
1e-06 0.501173 1e-06
1e-06 0.502457 1e-06
1e-06 0.50364 1e-06
1e-06 0.504725 1e-06
1e-06 0.505719 1e-06
1e-06 0.506627 1e-06
1e-06 0.507456 1e-06
1e-06 0.508212 1e-06
0.133658 0.508902 1e-06
0.230449 0.509522 1e-06
0.279969 0.51003 1e-06
0.314953 0.510429 1e-06
0.342545 0.510729 1e-06
0.365545 0.510936 1e-06
0.385298 0.511074 1e-06
0.402545 0.511184 1e-06
0.417856 0.511268 1e-06
0.431616 0.511328 1e-06
0.444092 0.511367 1e-06
0.45548 0.511384 1e-06
0.465927 0.511382 0.030187
0.475544 0.511363 0.10293
0.484418 0.511327 0.143509
0.49262 0.511276 0.172554
0.500203 0.511213 0.195776
0.507213 0.511138 0.215481
0.513685 0.511055 0.232833
0.515822 0.510966 0.248507
0.515822 0.510873 0.262927
0.515822 0.510793 0.276183
0.515822 0.510765 0.288104
1e-06 0.508124 1e-06
1e-06 0.509587 1e-06
1e-06 0.510944 1e-06
1e-06 0.512199 1e-06
1e-06 0.513354 1e-06
1e-06 0.514415 1e-06
1e-06 0.515385 1e-06
1e-06 0.515822 1e-06
1e-06 0.515822 1e-06
