resources/flame/Syncolor/Shared/transforms/camera_manufacturer_luts/arri/ARRI_Alexa_LUTs/ARRI_LogC3_v1-2_LUT_Package/LUTs/ARRI_LogC3-to-St2084_2K_P3-D65_DW200_v2_33.cube
LUT_3D_SIZE 33
0.00000073 0.00000073 0.00000073
0.03200717 0.00000073 0.00119519
0.06068005 0.00000073 0.00275465
0.08845930 0.00000073 0.00469080
0.11581541 0.00000073 0.00700336
0.14291289 0.00000073 0.00969557
0.16986841 0.00000073 0.01277788
0.19677009 0.00000073 0.01626558
0.22368216 0.00000073 0.02017679
0.25067697 0.00000073 0.02453596
0.27797034 0.00000073 0.02939987
0.30578963 0.00000073 0.03484368
0.33435676 0.00000073 0.04095985
0.36388930 0.00000073 0.04786013
0.39459959 0.00000073 0.05567770
0.42593179 0.00000073 0.06434986
0.45731219 0.00000073 0.07376295
0.48874426 0.00000073 0.08394486
0.52023172 0.00000073 0.09492453
0.55177683 0.00000073 0.10673133
0.58338108 0.00000073 0.11939519
0.61504536 0.00000073 0.13294658
0.64677000 0.00000073 0.14741645
0.67855489 0.00000073 0.16283624
0.71039950 0.00000073 0.17923779
0.74230295 0.00000073 0.19665339
0.77426408 0.00000073 0.21511569
0.80628141 0.00000073 0.23465767
0.82742464 0.00000073 0.25531267
0.82742464 0.00000073 0.27711035
0.82742464 0.00000073 0.29993876
0.82742464 0.00000073 0.32370681
0.82742464 0.00000073 0.34836992
0.00000073 0.01147806 0.00000073
0.00290381 0.00311797 0.00000073
0.03438510 0.00000073 0.00130718
0.06359940 0.00000073 0.00293860
0.09207665 0.00000073 0.00497343
0.12022415 0.00000073 0.00741399
0.14831108 0.00000073 0.01028027
0.17663986 0.00000073 0.01361665
0.20547729 0.00000073 0.01748426
0.23506981 0.00000073 0.02196174
0.26565118 0.00000073 0.02714682
0.29732978 0.00000073 0.03313543
0.32923251 0.00000073 0.03982282
0.36114210 0.00000073 0.04719300
0.39306590 0.00000073 0.05527144
0.42500913 0.00000073 0.06408423
0.45697540 0.00000073 0.07365798
0.48896734 0.00000073 0.08401987
0.52098922 0.00000073 0.09519848
0.55304430 0.00000073 0.10722295
0.58513474 0.00000073 0.12012286
0.61726197 0.00000073 0.13392826
0.64942683 0.00000073 0.14866963
0.68162963 0.00000073 0.16437785
0.71387024 0.00000073 0.18108419
0.74614814 0.00000073 0.19882023
0.77846246 0.00000073 0.21761787
0.81081205 0.00000073 0.23750928
0.82742464 0.00000073 0.25845947
0.82742464 0.00000073 0.28035517
0.82742464 0.00000073 0.30316023
0.82742464 0.00000073 0.32682982
0.82742464 0.00000073 0.35130841
0.00000073 0.02293388 0.00000073
0.00000073 0.01576678 0.00000073
0.00795222 0.00850677 0.00000073
0.04020182 0.00000073 0.00148887
0.07095139 0.00000073 0.00342219
0.10168901 0.00000073 0.00575871
0.13292049 0.00000073 0.00865585
0.16500732 0.00000073 0.01219182
0.19781437 0.00000073 0.01640940
0.23053279 0.00000073 0.02124122
0.26316751 0.00000073 0.02670412
0.29574538 0.00000073 0.03282066
0.32828528 0.00000073 0.03961456
0.36080076 0.00000073 0.04711048
0.39330159 0.00000073 0.05533377
0.42579485 0.00000073 0.06431040
0.45828555 0.00000073 0.07406682
0.49077715 0.00000073 0.08462990
0.52327295 0.00000073 0.09602723
0.55577748 0.00000073 0.10828768
0.58829360 0.00000073 0.12144032
0.62082333 0.00000073 0.13551465
0.65336802 0.00000073 0.15054053
0.68592843 0.00000073 0.16654814
0.71850484 0.00000073 0.18356798
0.75109709 0.00000073 0.20163079
0.78367051 0.00000073 0.22074695
0.81602722 0.00000073 0.24081853
0.82742464 0.00000073 0.26180540
0.82742464 0.00000073 0.28367265
0.82742464 0.00000073 0.30637543
0.82742464 0.00000073 0.32985829
0.82742464 0.00000073 0.35405457
0.00000073 0.03686424 0.00000073
0.00000073 0.03157361 0.00000073
0.00000073 0.02708187 0.00000073
0.02216197 0.02355310 0.00000073
0.05883634 0.02067308 0.00000073
0.09397344 0.01677109 0.00000073
0.12834965 0.00759935 0.00562035
0.16228087 0.00000073 0.01028225
0.19592340 0.00000073 0.01505799
0.22936820 0.00000073 0.02025958
0.26267236 0.00000073 0.02600552
0.29587367 0.00000073 0.03236256
0.32899811 0.00000073 0.03937757
0.36206400 0.00000073 0.04708832
0.39508451 0.00000073 0.05552805
0.42806915 0.00000073 0.06472760
0.46102477 0.00000073 0.07471645
0.49395624 0.00000073 0.08552335
0.52686701 0.00000073 0.09717667
0.55976156 0.00000073 0.10970543
0.59264387 0.00000073 0.12313895
0.62551658 0.00000073 0.13750651
0.65838159 0.00000073 0.15283755
0.69124014 0.00000073 0.16916165
0.72408871 0.00000073 0.18650625
0.75677823 0.00000073 0.20481453
0.78920225 0.00000073 0.22403627
0.82131465 0.00000073 0.24414535
0.82742464 0.00000073 0.26510661
0.82742464 0.00000073 0.28687521
0.82742464 0.00000073 0.30939593
0.82742464 0.00000073 0.33260256
0.82742464 0.00000073 0.35641734
0.00000073 0.05892349 0.00000073
0.00000073 0.05771393 0.00000073
0.00000073 0.05676101 0.00000073
0.00000073 0.05586960 0.00000073
0.05204637 0.05489849 0.00000073
0.09000509 0.05371141 0.00000073
0.12589559 0.05206005 0.00000073
0.16092165 0.04949972 0.00000073
0.19544929 0.04521106 0.00000073
0.22965056 0.03733543 0.01098193
0.26362296 0.01775913 0.01988244
0.29742717 0.00000073 0.02799727
0.33110313 0.00000073 0.03621931
0.36467817 0.00000073 0.04484576
0.39817147 0.00000073 0.05402626
0.43159673 0.00000073 0.06385406
0.46496379 0.00000073 0.07439580
0.49827973 0.00000073 0.08570389
0.53154955 0.00000073 0.09782241
0.56477748 0.00000073 0.11079063
0.59796873 0.00000073 0.12464545
0.63112677 0.00000073 0.13942143
0.66425415 0.00000073 0.15515169
0.69727933 0.00000073 0.17182976
0.73005901 0.00000073 0.18939986
0.76254890 0.00000073 0.20784559
0.79470352 0.00000073 0.22714264
0.82647466 0.00000073 0.24725746
0.82742464 0.00000073 0.26814668
0.82742464 0.00000073 0.28975650
0.82742464 0.00000073 0.31202221
0.82742464 0.00000073 0.33486761
0.82742464 0.00000073 0.35820463
0.00000073 0.09076677 0.00000073
0.00000073 0.09040039 0.00000073
0.00000073 0.09013003 0.00000073
0.00000073 0.08993632 0.00000073
0.03925570 0.08974798 0.00000073
0.08530575 0.08951184 0.00000073
0.12384025 0.08914897 0.00000073
0.16038327 0.08852253 0.00000073
0.19598731 0.08741225 0.00000073
0.23103524 0.08547473 0.00000073
0.26571266 0.08215305 0.00000073
0.30012494 0.07644155 0.00000073
0.33433756 0.06611415 0.02345068
0.36839362 0.04318654 0.03635477
0.40232255 0.00000073 0.04808019
0.43614499 0.00000073 0.05969378
0.46987560 0.00000073 0.07159906
0.50352494 0.00000073 0.08400580
0.53710054 0.00000073 0.09704423
0.57060786 0.00000073 0.11080539
0.60405280 0.00000073 0.12535955
0.63741655 0.00000073 0.14075253
0.67056259 0.00000073 0.15695909
0.70343566 0.00000073 0.17397789
0.73599409 0.00000073 0.19180394
0.76819328 0.00000073 0.21042123
0.79998576 0.00000073 0.22980287
0.82742464 0.00000073 0.24991094
0.82742464 0.00000073 0.27069630
0.82742464 0.00000073 0.29209828
0.82742464 0.00000073 0.31404438
0.82742464 0.00000073 0.33644997
0.82742464 0.00000073 0.35921810
0.00000073 0.12437265 0.00000073
0.00000073 0.12458630 0.00000073
0.00000073 0.12489282 0.00000073
0.00000073 0.12527607 0.00000073
0.00000073 0.12569129 0.00000073
0.07698917 0.12610683 0.00000073
0.12103426 0.12648494 0.00000073
0.15999880 0.12676621 0.00000073
0.19706446 0.12685519 0.00000073
0.23314371 0.12660664 0.00000073
0.26861599 0.12580643 0.00000073
0.30367458 0.12413605 0.00000073
0.33843115 0.12109922 0.00000073
0.37295567 0.11585505 0.00000073
0.40729436 0.10676765 0.02703091
0.44147891 0.08972415 0.04694551
0.47553155 0.04216774 0.06306055
0.50946810 0.00000073 0.07821426
0.54329993 0.00000073 0.09325135
0.57703245 0.00000073 0.10856029
0.61057312 0.00000073 0.12431188
0.64384970 0.00000073 0.14060536
0.67682553 0.00000073 0.15751085
0.70946050 0.00000073 0.17506630
0.74171129 0.00000073 0.19328611
0.77353150 0.00000073 0.21216580
0.80487175 0.00000073 0.23168449
0.82742464 0.00000073 0.25180637
0.82742464 0.00000073 0.27248155
0.82742464 0.00000073 0.29364639
0.82742464 0.00000073 0.31522385
0.82742464 0.00000073 0.33712358
0.82742464 0.00000073 0.35924208
0.00000073 0.15939706 0.00000073
0.00000073 0.16010865 0.00000073
0.00000073 0.16090413 0.00000073
0.00000073 0.16176935 0.00000073
0.00000073 0.16267342 0.00000073
0.05640802 0.16359399 0.00000073
0.11546408 0.16450696 0.00000073
0.15878946 0.16537977 0.00000073
0.19806575 0.16616305 0.00000073
0.23552602 0.16678187 0.00000073
0.27196893 0.16712648 0.00000073
0.30776157 0.16703995 0.00000073
0.34310028 0.16629739 0.00000073
0.37810123 0.16456795 0.00000073
0.41283813 0.16134014 0.00000073
0.44736005 0.15575993 0.00000073
0.48170078 0.14621870 0.03460477
0.51588410 0.12897636 0.06216623
0.54988198 0.08984601 0.08288253
0.58361102 0.00000073 0.10163623
0.61704037 0.00000073 0.11972944
0.65013718 0.00000073 0.13771345
0.68286405 0.00000073 0.15586857
0.71517972 0.00000073 0.17434817
0.74703942 0.00000073 0.19323490
0.77839512 0.00000073 0.21256621
0.80919567 0.00000073 0.23234741
0.82742464 0.00000073 0.25255872
0.82742464 0.00000073 0.27315947
0.82742464 0.00000073 0.29409060
0.82742464 0.00000073 0.31527626
0.82742464 0.00000073 0.33662503
0.82742464 0.00000073 0.35813915
0.00000073 0.19565066 0.00000073
0.00000073 0.19678461 0.00000073
0.00000073 0.19799029 0.00000073
0.00000073 0.19925484 0.00000073
0.00000073 0.20055582 0.00000073
0.00000073 0.20187615 0.00000073
0.10273942 0.20319786 0.00000073
0.15517836 0.20449936 0.00000073
0.19812563 0.20575102 0.00000073
0.23760645 0.20690947 0.00000073
0.27533908 0.20791159 0.00000073
0.31203243 0.20866748 0.00000073
0.34803833 0.20905115 0.00000073
0.38355327 0.20888571 0.00000073
0.41869644 0.20791829 0.00000073
0.45354454 0.20577448 0.00000073
0.48813624 0.20187538 0.00000073
0.52242539 0.19528841 0.00000073
0.55639170 0.18424877 0.05109829
0.59001405 0.16470108 0.08361420
0.62326412 0.12191236 0.10799419
0.65610930 0.00000073 0.12974344
0.68851209 0.00000073 0.15039869
0.72043047 0.00000073 0.17061319
0.75181858 0.00000073 0.19071362
0.78262700 0.00000073 0.21087155
0.81280293 0.00000073 0.23117155
0.82742464 0.00000073 0.25164282
0.82742464 0.00000073 0.27227556
0.82742464 0.00000073 0.29303016
0.82742464 0.00000073 0.31388723
0.82742464 0.00000073 0.33492606
0.82742464 0.00000073 0.35610875
0.00000073 0.23293826 0.00000073
0.00000073 0.23442302 0.00000073
0.00000073 0.23596550 0.00000073
0.00000073 0.23755374 0.00000073
0.00000073 0.23917087 0.00000073
0.00000073 0.24080314 0.00000073
0.06486673 0.24243609 0.00000073
0.14617583 0.24405351 0.00000073
0.19591877 0.24563510 0.00000073
0.23859689 0.24715305 0.00000073
0.27818013 0.24856797 0.00000073
0.31606812 0.24982413 0.00000073
0.35289950 0.25084386 0.00000073
0.38901075 0.25151984 0.00000073
0.42459569 0.25170352 0.00000073
0.45972677 0.25119678 0.00000073
0.49443212 0.24972211 0.00000073
0.52872834 0.24686633 0.00000073
0.56261349 0.24198555 0.00000073
0.59607253 0.23399638 0.00000073
0.62908068 0.22084275 0.07584385
0.66160687 0.19770737 0.11066941
0.69361429 0.14619201 0.13762033
0.72506081 0.00000073 0.16158636
0.75589988 0.00000073 0.18411165
0.78608100 0.00000073 0.20587365
0.81555000 0.00000073 0.22720934
0.82742464 0.00000073 0.24828931
0.82742464 0.00000073 0.26920642
0.82742464 0.00000073 0.29009716
0.82742464 0.00000073 0.31100116
0.82742464 0.00000073 0.33190798
0.82742464 0.00000073 0.35279174
0.00000073 0.27106222 0.00000073
0.00000073 0.27282899 0.00000073
0.00000073 0.27463833 0.00000073
0.00000073 0.27647896 0.00000073
0.00000073 0.27833792 0.00000073
0.00000073 0.28020357 0.00000073
0.00000073 0.28206381 0.00000073
0.12382969 0.28390552 0.00000073
0.18912171 0.28571336 0.00000073
0.23732972 0.28746773 0.00000073
0.27975824 0.28914211 0.00000073
0.31934433 0.29069979 0.00000073
0.35727490 0.29209000 0.00000073
0.39411737 0.29324312 0.00000073
0.43014802 0.29407101 0.00000073
0.46552438 0.29445831 0.00000073
0.50033166 0.29424630 0.00000073
0.53461151 0.29321351 0.00000073
0.56837770 0.29104340 0.00000073
0.60162510 0.28726651 0.00000073
0.63433514 0.28114775 0.00000073
0.66648018 0.27143815 0.03494842
0.69802529 0.25572692 0.10618822
0.72892907 0.22818329 0.14170830
0.75914491 0.16439360 0.17009753
0.78862163 0.00000073 0.19534086
0.81729600 0.00000073 0.21886748
0.82742464 0.00000073 0.24138188
0.82742464 0.00000073 0.26330579
0.82742464 0.00000073 0.28482951
0.82742464 0.00000073 0.30605832
0.82742464 0.00000073 0.32704429
0.82742464 0.00000073 0.34780374
0.00000073 0.30982408 0.00000073
0.00000073 0.31180601 0.00000073
0.00000073 0.31381458 0.00000073
0.00000073 0.31583934 0.00000073
0.00000073 0.31786982 0.00000073
0.00000073 0.31989588 0.00000073
0.00000073 0.32190708 0.00000073
0.00000073 0.32389232 0.00000073
0.17254840 0.32583918 0.00000073
0.23185592 0.32773274 0.00000073
0.27901020 0.32955386 0.00000073
0.32116438 0.33127541 0.00000073
0.36062987 0.33285807 0.00000073
0.39840940 0.33426262 0.00000073
0.43500804 0.33543681 0.00000073
0.47069906 0.33630945 0.00000073
0.50563385 0.33678427 0.00000073
0.53989386 0.33673105 0.00000073
0.57351764 0.33597224 0.00000073
0.60651572 0.33426176 0.00000073
0.63887956 0.33124965 0.00000073
0.67058764 0.32641817 0.00000073
0.70160771 0.31895605 0.00000073
0.73188814 0.30746934 0.08321217
0.76138371 0.28927111 0.13885780
0.79008133 0.25767465 0.17418889
0.81806564 0.18187180 0.20320509
0.82742464 0.00000073 0.22912551
0.82742464 0.00000073 0.25323679
0.82742464 0.00000073 0.27617308
0.82742464 0.00000073 0.29827896
0.82742464 0.00000073 0.31974827
0.82742464 0.00000073 0.34068724
0.00000073 0.34902528 0.00000073
0.00000073 0.35115706 0.00000073
0.00000073 0.35329901 0.00000073
0.00000073 0.35544167 0.00000073
0.00000073 0.35757606 0.00000073
0.00000073 0.35969318 0.00000073
0.00000073 0.36178377 0.00000073
0.00000073 0.36383816 0.00000073
0.12616076 0.36584582 0.00000073
0.21822609 0.36779431 0.00000073
0.27423382 0.36965753 0.00000073
0.32054756 0.37141713 0.00000073
0.36231611 0.37305686 0.00000073
0.40145499 0.37455352 0.00000073
0.43885888 0.37587465 0.00000073
0.47499570 0.37697577 0.00000073
0.51012404 0.37779699 0.00000073
0.54438830 0.37825846 0.00000073
0.57786557 0.37825411 0.00000073
0.61058650 0.37763847 0.00000073
0.64254723 0.37621063 0.00000073
0.67374086 0.37371563 0.00000073
0.70414786 0.36979538 0.00000073
0.73374415 0.36392333 0.00000073
0.76259445 0.35521129 0.00000073
0.79072086 0.34213936 0.12235554
0.81811305 0.32171868 0.17211105
0.82742464 0.28635749 0.20706525
0.82742464 0.19932756 0.23622007
0.82742464 0.00000073 0.26225208
0.82742464 0.00000073 0.28632093
0.82742464 0.00000073 0.30901851
0.82742464 0.00000073 0.33067138
0.00000073 0.38846760 0.00000073
0.00000073 0.39068510 0.00000073
0.00000073 0.39289600 0.00000073
0.00000073 0.39509178 0.00000073
0.00000073 0.39726441 0.00000073
0.00000073 0.39940571 0.00000073
0.00000073 0.40150732 0.00000073
0.00000073 0.40356059 0.00000073
0.00000073 0.40554632 0.00000073
0.18510583 0.40744190 0.00000073
0.26231571 0.40924255 0.00000073
0.31606038 0.41094189 0.00000073
0.36151537 0.41253056 0.00000073
0.40271701 0.41399481 0.00000073
0.44131533 0.41531496 0.00000073
0.47811942 0.41646361 0.00000073
0.51355499 0.41739380 0.00000073
0.54786181 0.41805142 0.00000073
0.58118254 0.41837743 0.00000073
0.61359502 0.41829297 0.00000073
0.64513580 0.41769441 0.00000073
0.67581431 0.41644582 0.00000073
0.70567279 0.41435216 0.00000073
0.73477024 0.41113046 0.00000073
0.76311027 0.40639276 0.00000073
0.79069008 0.39956623 0.00000073
0.81750200 0.38975158 0.04391925
0.82742464 0.37540521 0.15920320
0.82742464 0.35348496 0.20489410
0.82742464 0.31634278 0.23885342
0.82742464 0.22850036 0.26746980
0.82742464 0.00000073 0.29296698
0.82742464 0.00000073 0.31637026
0.00000073 0.42795340 0.00000073
0.00000073 0.43019338 0.00000073
0.00000073 0.43240989 0.00000073
0.00000073 0.43459516 0.00000073
0.00000073 0.43674176 0.00000073
0.00000073 0.43884216 0.00000073
0.00000073 0.44088360 0.00000073
0.00000073 0.44283403 0.00000073
0.00000073 0.44468756 0.00000073
0.00000073 0.44644249 0.00000073
0.23554504 0.44809679 0.00000073
0.30515132 0.44964745 0.00000073
0.35698162 0.45108823 0.00000073
0.40144254 0.45239916 0.00000073
0.44184302 0.45357099 0.00000073
0.47963806 0.45459348 0.00000073
0.51557125 0.45545008 0.00000073
0.55005399 0.45611624 0.00000073
0.58332203 0.45655823 0.00000073
0.61550976 0.45673109 0.00000073
0.64670576 0.45657463 0.00000073
0.67701701 0.45599984 0.00000073
0.70648920 0.45488995 0.00000073
0.73514593 0.45309306 0.00000073
0.76299861 0.45040839 0.00000073
0.79004986 0.44656503 0.00000073
0.81629587 0.44118627 0.00000073
0.82742464 0.43372596 0.00000073
0.82742464 0.42334457 0.11582396
0.82742464 0.40863919 0.19210195
0.82742464 0.38695010 0.23473918
0.82742464 0.35204110 0.26738634
0.82742464 0.28057734 0.29497146
0.00000073 0.46728677 0.00000073
0.00000073 0.46948602 0.00000073
0.00000073 0.47164528 0.00000073
0.00000073 0.47375724 0.00000073
0.00000073 0.47581377 0.00000073
0.00000073 0.47777990 0.00000073
0.00000073 0.47963945 0.00000073
0.00000073 0.48139142 0.00000073
0.00000073 0.48303535 0.00000073
0.00000073 0.48456564 0.00000073
0.15427083 0.48597228 0.00000073
0.28204144 0.48726000 0.00000073
0.34649363 0.48843320 0.00000073
0.39647114 0.48949473 0.00000073
0.43976994 0.49044504 0.00000073
0.47918306 0.49128137 0.00000073
0.51600492 0.49199706 0.00000073
0.55091696 0.49258056 0.00000073
0.58430464 0.49301482 0.00000073
0.61643427 0.49327637 0.00000073
0.64747599 0.49332353 0.00000073
0.67753198 0.49310041 0.00000073
0.70666681 0.49253633 0.00000073
0.73492004 0.49154207 0.00000073
0.76231408 0.49000498 0.00000073
0.78885921 0.48778178 0.00000073
0.81455700 0.48468822 0.00000073
0.82742464 0.48048297 0.00000073
0.82742464 0.47484162 0.00000073
0.82742464 0.46731216 0.00000073
0.82742464 0.45723272 0.15295556
0.82742464 0.44356503 0.21882496
0.82742464 0.42451041 0.25923699
0.00000073 0.50627258 0.00000073
0.00000073 0.50836870 0.00000073
0.00000073 0.51040821 0.00000073
0.00000073 0.51236501 0.00000073
0.00000073 0.51420376 0.00000073
0.00000073 0.51592248 0.00000073
0.00000073 0.51750955 0.00000073
0.00000073 0.51896236 0.00000073
0.00000073 0.52028738 0.00000073
0.00000073 0.52149158 0.00000073
0.00000073 0.52258215 0.00000073
0.22629089 0.52356624 0.00000073
0.32576389 0.52445058 0.00000073
0.38619748 0.52524103 0.00000073
0.43436877 0.52594217 0.00000073
0.47639927 0.52655664 0.00000073
0.51468481 0.52708460 0.00000073
0.55039730 0.52752923 0.00000073
0.58420014 0.52788501 0.00000073
0.61648481 0.52813104 0.00000073
0.64749316 0.52824003 0.00000073
0.67737847 0.52817714 0.00000073
0.70623866 0.52789882 0.00000073
0.73413569 0.52735124 0.00000073
0.76110726 0.52646855 0.00000073
0.78717430 0.52517050 0.00000073
0.81234579 0.52335960 0.00000073
0.82742464 0.52091709 0.00000073
0.82742464 0.51769756 0.00000073
0.82742464 0.51352116 0.00000073
0.82742464 0.50816189 0.00000073
0.82742464 0.50132952 0.00000073
0.82742464 0.49263960 0.17326834
0.00000073 0.54471606 0.00000073
0.00000073 0.54663878 0.00000073
0.00000073 0.54843469 0.00000073
0.00000073 0.55008287 0.00000073
0.00000073 0.55158516 0.00000073
0.00000073 0.55294687 0.00000073
0.00000073 0.55417406 0.00000073
0.00000073 0.55527349 0.00000073
0.00000073 0.55625254 0.00000073
0.00000073 0.55711917 0.00000073
0.00000073 0.55788169 0.00000073
0.00000073 0.55854871 0.00000073
0.28230744 0.55912879 0.00000073
0.36745490 0.55963013 0.00000073
0.42440202 0.56006025 0.00000073
0.47071525 0.56043019 0.00000073
0.51134309 0.56075819 0.00000073
0.54839741 0.56104059 0.00000073
0.58295150 0.56126885 0.00000073
0.61561050 0.56143073 0.00000073
0.64673829 0.56150977 0.00000073
0.67656245 0.56148471 0.00000073
0.70522833 0.56132894 0.00000073
0.73282913 0.56100998 0.00000073
0.75942374 0.56048891 0.00000073
0.78504765 0.55971986 0.00000073
0.80972005 0.55864956 0.00000073
0.82742464 0.55721691 0.00000073
0.82742464 0.55535276 0.00000073
0.82742464 0.55297516 0.00000073
0.82742464 0.54995604 0.00000073
0.82742464 0.54617309 0.00000073
0.82742464 0.54141880 0.00000073
0.00000073 0.58234652 0.00000073
0.00000073 0.58391047 0.00000073
0.00000073 0.58532224 0.00000073
0.00000073 0.58658650 0.00000073
0.00000073 0.58770864 0.00000073
0.00000073 0.58869478 0.00000073
0.00000073 0.58955176 0.00000073
0.00000073 0.59028712 0.00000073
0.00000073 0.59090910 0.00000073
0.00000073 0.59142656 0.00000073
0.00000073 0.59184889 0.00000073
0.00000073 0.59218584 0.00000073
0.00000073 0.59244740 0.00000073
0.33209698 0.59264500 0.00000073
0.40745760 0.59280940 0.00000073
0.46110178 0.59295079 0.00000073
0.50547228 0.59306939 0.00000073
0.54462819 0.59316357 0.00000073
0.58039188 0.59322954 0.00000073
0.61372165 0.59326098 0.00000073
0.64517013 0.59324874 0.00000073
0.67507475 0.59318057 0.00000073
0.70364869 0.59304088 0.00000073
0.73102891 0.59281065 0.00000073
0.75730344 0.59246736 0.00000073
0.78252765 0.59198520 0.00000073
0.80671770 0.59131832 0.00000073
0.82742464 0.59039716 0.00000073
0.82742464 0.58919144 0.00000073
0.82742464 0.58767050 0.00000073
0.82742464 0.58576663 0.00000073
0.82742464 0.58340947 0.00000073
0.82742464 0.58052795 0.00000073
0.00000073 0.61876442 0.00000073
0.00000073 0.61992821 0.00000073
0.00000073 0.62094203 0.00000073
0.00000073 0.62181131 0.00000073
0.00000073 0.62254217 0.00000073
0.00000073 0.62314146 0.00000073
0.00000073 0.62361681 0.00000073
0.00000073 0.62397653 0.00000073
0.00000073 0.62422965 0.00000073
0.00000073 0.62438587 0.00000073
0.00000073 0.62445546 0.00000073
0.00000073 0.62444918 0.00000073
0.00000073 0.62439671 0.00000073
0.23965384 0.62432595 0.00000073
0.37775119 0.62424096 0.00000073
0.44561525 0.62414499 0.00000073
0.49620198 0.62404030 0.00000073
0.53864384 0.62392788 0.00000073
0.57627864 0.62380726 0.00000073
0.61068573 0.62367622 0.00000073
0.64272142 0.62353065 0.00000073
0.67288941 0.62336441 0.00000073
0.70150085 0.62316882 0.00000073
0.72871897 0.62289804 0.00000073
0.75465249 0.62252028 0.00000073
0.77938774 0.62202587 0.00000073
0.80298022 0.62140426 0.00000073
0.82546401 0.62064492 0.00000073
0.82742464 0.61972792 0.00000073
0.82742464 0.61862049 0.00000073
0.82742464 0.61729222 0.00000073
0.82742464 0.61571124 0.00000073
0.82742464 0.61384459 0.00000073
0.00000073 0.65391196 0.00000073
0.00000073 0.65466328 0.00000073
0.00000073 0.65526689 0.00000073
0.00000073 0.65572890 0.00000073
0.00000073 0.65605618 0.00000073
0.00000073 0.65625631 0.00000073
0.00000073 0.65633764 0.00000073
0.00000073 0.65630921 0.00000073
0.00000073 0.65618081 0.00000073
0.00000073 0.65596289 0.00000073
0.00000073 0.65567638 0.00000073
0.00000073 0.65536585 0.00000073
0.00000073 0.65504015 0.00000073
0.00000073 0.65470451 0.00000073
0.31533818 0.65436381 0.00000073
0.42018427 0.65402245 0.00000073
0.48204282 0.65368412 0.00000073
0.52975972 0.65335169 0.00000073
0.57026057 0.65302702 0.00000073
0.60630811 0.65270374 0.00000073
0.63923056 0.65233817 0.00000073
0.66978776 0.65192428 0.00000073
0.69844096 0.65146274 0.00000073
0.72548031 0.65095306 0.00000073
0.75109344 0.65039383 0.00000073
0.77540319 0.64978315 0.00000073
0.79851273 0.64911898 0.00000073
0.82056475 0.64839238 0.00000073
0.82742464 0.64758732 0.00000073
0.82742464 0.64668712 0.00000073
0.82742464 0.64567506 0.00000073
0.82742464 0.64453484 0.00000073
0.82742464 0.64325124 0.00000073
0.00000073 0.68775873 0.00000073
0.00000073 0.68808410 0.00000073
0.00000073 0.68826403 0.00000073
0.00000073 0.68830537 0.00000073
0.00000073 0.68821566 0.00000073
0.00000073 0.68800321 0.00000073
0.00000073 0.68767705 0.00000073
0.00000073 0.68724695 0.00000073
0.00000073 0.68672602 0.00000073
0.00000073 0.68616501 0.00000073
0.00000073 0.68558432 0.00000073
0.00000073 0.68498979 0.00000073
0.00000073 0.68438724 0.00000073
0.00000073 0.68378241 0.00000073
0.00000073 0.68318080 0.00000073
0.37345422 0.68258763 0.00000073
0.46010644 0.68198639 0.00000073
0.51676636 0.68134659 0.00000073
0.56159212 0.68067495 0.00000073
0.59994167 0.67997808 0.00000073
0.63412625 0.67926176 0.00000073
0.66533849 0.67853090 0.00000073
0.69426103 0.67778963 0.00000073
0.72131056 0.67704146 0.00000073
0.74675571 0.67629024 0.00000073
0.77082847 0.67554520 0.00000073
0.79369124 0.67480097 0.00000073
0.81545356 0.67404795 0.00000073
0.82742464 0.67327644 0.00000073
0.82742464 0.67247693 0.00000073
0.82742464 0.67164053 0.00000073
0.82742464 0.67075942 0.00000073
0.82742464 0.66982745 0.00000073
