resources/flame/Syncolor/Shared/transforms/camera_manufacturer_luts/arri/ARRI_Alexa_LUTs/ARRI_LogC3_v1-2_LUT_Package/LUTs/ARRI_LogC3-to-St2084_4K_P3-D65_DW200_v2_33.cube
LUT_3D_SIZE 5
0.00000073 0.00000073 0.00000073
0.22368216 0.00000073 0.02017679
0.45731219 0.00000073 0.07376295
0.71039950 0.00000073 0.17923779
0.90257239 0.00000073 0.34836992
0.00000073 0.19565066 0.00000073
0.19812563 0.20575102 0.00000073
0.48813624 0.20187538 0.00000073
0.75181858 0.00000073 0.19071362
0.90257239 0.00000073 0.35610875
0.00000073 0.50627258 0.00000073
0.00000073 0.52028738 0.00000073
0.51468481 0.52708460 0.00000073
0.76110726 0.52646855 0.00000073
0.90257239 0.49263965 0.17326837
0.00000073 0.78111093 0.00000073
0.00000073 0.77068024 0.00000073
0.00000073 0.76170576 0.00000073
0.74489839 0.75822052 0.00000073
0.90257239 0.76143615 0.00000073
0.00000073 0.90257239 0.00000073
0.00000073 0.90257239 0.00000073
0.00000073 0.90257239 0.00000073
0.71836746 0.90257239 0.00000073
0.90252661 0.90257239 0.00000073
0.00000073 0.00000073 0.18607845
0.19776893 0.00000073 0.14433472
0.45117304 0.00000073 0.14715672
0.70893122 0.00000073 0.20673547
0.90257239 0.00000073 0.34767452
0.00000073 0.18541451 0.18374393
0.19607037 0.19607037 0.19607037
0.49452602 0.18756749 0.21589715
0.74658138 0.00000073 0.26636853
0.90257239 0.00000073 0.36720682
0.00000073 0.51084480 0.00000073
0.00000073 0.52218885 0.00000073
0.51621729 0.52787065 0.00000073
0.75129702 0.53001965 0.19331803
0.90257239 0.51706440 0.35105091
0.00000073 0.77368831 0.00000073
0.00000073 0.76325449 0.00000073
0.33341401 0.75664504 0.00000073
0.74473010 0.75757422 0.00000073
0.90029913 0.76557406 0.00000073
0.00000073 0.90257239 0.00000073
0.00000073 0.90257239 0.00000073
0.00000073 0.90257239 0.00000073
0.74547268 0.90257239 0.00000073
0.89543995 0.90257239 0.61055792
0.00000073 0.00000073 0.27217433
0.14629454 0.00000073 0.24590632
0.43050898 0.00000073 0.25786017
0.69022721 0.00000073 0.28962524
0.90257239 0.00000073 0.36727998
0.00000073 0.00000073 0.38342327
0.00000073 0.00000073 0.40820859
0.48299750 0.00000073 0.43005877
0.72943369 0.00000073 0.45354260
0.90257239 0.00000073 0.48772870
0.00000073 0.49297145 0.48888909
0.00000073 0.50197289 0.49977232
0.50897895 0.50897896 0.50897896
0.73965236 0.51528453 0.52475123
0.89371579 0.51492216 0.55265287
0.00000073 0.76239174 0.34707008
0.00000073 0.75300091 0.43099386
0.39350874 0.75037187 0.49270586
0.74480455 0.75506485 0.55181195
0.88756337 0.76710452 0.61740239
0.00000073 0.90257239 0.00000073
0.00000073 0.90257239 0.00000073
0.00000073 0.90257239 0.23394653
0.77483551 0.90257239 0.64514473
0.88975970 0.89524003 0.82661755
0.00000073 0.00000073 0.33183450
0.00000073 0.00000073 0.32230791
0.40365313 0.00000073 0.33848259
0.65952626 0.00000073 0.36491052
0.87519248 0.00000073 0.41136682
0.00000073 0.00000073 0.48797382
0.00000073 0.00000073 0.51527144
0.44599321 0.00000073 0.54037981
0.69794768 0.00000073 0.56630725
0.87632525 0.00000073 0.59344945
0.00000073 0.25962937 0.67217925
0.00000073 0.23859175 0.68162668
0.44615540 0.30226596 0.68652609
0.71858746 0.37503313 0.68953543
0.86715493 0.42149682 0.69806270
0.00000073 0.73226664 0.72685723
0.00000073 0.72630118 0.72324416
0.00000073 0.72970382 0.72801395
0.74061168 0.74061169 0.74061170
0.86902372 0.76175510 0.76417858
0.00000073 0.90257239 0.69034948
0.00000073 0.90257239 0.72341967
0.00000073 0.89931424 0.75819972
0.82155204 0.88394477 0.82635313
0.89237083 0.89349318 0.88235475
0.00000073 0.00000073 0.37923662
0.00000073 0.00000073 0.38471826
0.36885438 0.00000073 0.40369396
0.62143084 0.00000073 0.42980293
0.82442359 0.00000073 0.46677765
0.00000073 0.00000073 0.56633760
0.00000073 0.00000073 0.59157012
0.37885487 0.00000073 0.61514591
0.66029613 0.00000073 0.63820551
0.83097103 0.00000073 0.66191429
0.00000073 0.00000073 0.76187485
0.00000073 0.00000073 0.77059338
0.00000073 0.00000073 0.77657519
0.68639631 0.00000073 0.78094255
0.83610697 0.00000073 0.78558865
0.00000073 0.63332196 0.86691297
0.00000073 0.64486519 0.85641265
0.00000073 0.66964089 0.85044624
0.72715382 0.70363149 0.84806121
0.83261104 0.76953983 0.82827812
0.00000073 0.89055748 0.88579242
0.00000073 0.88145924 0.87859619
0.60907953 0.87108323 0.86959908
0.85453679 0.87622752 0.87596195
0.89999997 0.90000000 0.90000003
