resources/flame/Syncolor/Shared/transforms/camera_manufacturer_luts/arri/ARRI_Alexa_LUTs/ARRI_LogC3_v1-2_LUT_Package/LUTs/ARRI_LogC3-to-HLG_1K_Rec2100-D65_DW100_v1_33.cube
LUT_3D_SIZE 33
0.005478 0.005478 0.005478
0.019699 0.004776 0.004776
0.035721 0.007752 0.004257
0.052476 0.011383 0.003937
0.070588 0.015320 0.003708
0.090318 0.019593 0.003540
0.111910 0.024277 0.004211
0.135607 0.029419 0.005097
0.161654 0.035065 0.006088
0.190372 0.041306 0.007172
0.222278 0.048219 0.008362
0.258061 0.055985 0.009720
0.298543 0.064775 0.011231
0.344808 0.074815 0.012985
0.398154 0.086381 0.014984
0.458625 0.099504 0.017258
0.524743 0.114092 0.019791
0.586236 0.130327 0.022614
0.642466 0.148394 0.025742
0.695033 0.168536 0.029236
0.744976 0.190982 0.033127
0.792981 0.216037 0.037476
0.839536 0.244038 0.042344
0.884993 0.275349 0.047776
0.929641 0.310430 0.053864
0.973678 0.349783 0.060685
1.000000 0.393988 0.068360
1.000000 0.448844 0.077867
1.000000 0.515602 0.089525
1.000000 0.580499 0.102876
1.000000 0.640330 0.118059
1.000000 0.696437 0.135225
1.000000 0.749722 0.154574
0.005127 0.008560 0.005127
0.005478 0.005478 0.005478
0.021012 0.004715 0.004715
0.037415 0.008118 0.004211
0.054780 0.011887 0.003906
0.073671 0.015976 0.003677
0.094469 0.020493 0.003555
0.117662 0.025528 0.004425
0.143755 0.031189 0.005417
0.173434 0.037629 0.006531
0.207507 0.045014 0.007813
0.246799 0.053544 0.009293
0.290852 0.063096 0.010941
0.339879 0.073747 0.012787
0.394430 0.085573 0.014847
0.455131 0.098741 0.017136
0.521813 0.113405 0.019669
0.584176 0.129717 0.022507
0.641047 0.147906 0.025666
0.694148 0.168154 0.029175
0.744549 0.190768 0.033097
0.792935 0.216007 0.037476
0.839841 0.244236 0.042374
0.885618 0.275807 0.047852
0.930556 0.311192 0.053986
0.974868 0.350912 0.060883
1.000000 0.395560 0.068620
1.000000 0.451301 0.078294
1.000000 0.518410 0.090043
1.000000 0.582605 0.103365
1.000000 0.641596 0.118425
1.000000 0.696849 0.135363
1.000000 0.749218 0.154376
0.004623 0.015091 0.004623
0.004898 0.011063 0.004898
0.006409 0.006836 0.005264
0.024201 0.005447 0.004593
0.041749 0.009064 0.004120
0.061021 0.013245 0.003815
0.082826 0.017975 0.003601
0.107851 0.023407 0.004059
0.136538 0.029618 0.005142
0.168536 0.036561 0.006348
0.204196 0.044297 0.007691
0.243915 0.052918 0.009186
0.288167 0.062516 0.010849
0.337423 0.073213 0.012696
0.392264 0.085100 0.014771
0.453330 0.098360 0.017060
0.520577 0.113115 0.019623
0.583566 0.129549 0.022477
0.640955 0.147860 0.025650
0.694469 0.168292 0.029191
0.745220 0.191089 0.033158
0.793927 0.216571 0.037568
0.841108 0.245045 0.042512
0.887144 0.276936 0.048051
0.932326 0.312688 0.054246
0.976883 0.352834 0.061219
1.000000 0.397910 0.069032
1.000000 0.454231 0.078813
1.000000 0.520851 0.090501
1.000000 0.584070 0.103700
1.000000 0.642115 0.118563
1.000000 0.696422 0.135225
1.000000 0.747784 0.153811
0.006363 0.022797 0.004273
0.005554 0.019867 0.004379
0.004852 0.017395 0.004501
0.014450 0.015427 0.004486
0.034272 0.014862 0.004166
0.055741 0.016510 0.003861
0.079194 0.019898 0.003616
0.105180 0.024567 0.003418
0.134066 0.030259 0.004456
0.166247 0.036896 0.005859
0.202106 0.044450 0.007324
0.242069 0.052979 0.008896
0.286595 0.062531 0.010620
0.336202 0.073213 0.012528
0.391455 0.085161 0.014633
0.453010 0.098466 0.016968
0.520790 0.113313 0.019562
0.584237 0.129870 0.022446
0.641993 0.148348 0.025666
0.695811 0.168948 0.029252
0.746838 0.191974 0.033249
0.795789 0.217685 0.037720
0.843198 0.246479 0.042725
0.889448 0.278706 0.048310
0.934813 0.314855 0.054597
0.979324 0.355245 0.061601
1.000000 0.400244 0.069413
1.000000 0.456672 0.079194
1.000000 0.522560 0.090791
1.000000 0.584741 0.103838
1.000000 0.641764 0.118441
1.000000 0.695003 0.134737
1.000000 0.745266 0.152804
0.009873 0.035355 0.003906
0.009674 0.034638 0.003922
0.009491 0.034028 0.003937
0.013474 0.033387 0.003937
0.030579 0.032639 0.003876
0.051972 0.032242 0.003723
0.075929 0.032807 0.003555
0.102388 0.034775 0.003403
0.131716 0.038193 0.003250
0.164294 0.043061 0.003113
0.200534 0.049287 0.003738
0.240894 0.056825 0.006516
0.285832 0.065660 0.008865
0.335897 0.075822 0.011170
0.391684 0.087388 0.013565
0.453819 0.100450 0.016129
0.522179 0.115145 0.018906
0.585946 0.131640 0.021942
0.643946 0.150103 0.025284
0.698009 0.170779 0.028977
0.749233 0.193927 0.033082
0.798367 0.219821 0.037659
0.845945 0.248844 0.042756
0.892256 0.281315 0.048447
0.937362 0.317479 0.054765
0.981476 0.357702 0.061784
1.000000 0.402426 0.069566
1.000000 0.458625 0.079347
1.000000 0.523568 0.090806
1.000000 0.584573 0.103639
1.000000 0.640467 0.117937
1.000000 0.692546 0.133776
1.000000 0.741573 0.151263
0.015259 0.054688 0.003586
0.015152 0.054261 0.003586
0.015030 0.053834 0.003601
0.016770 0.053407 0.003601
0.029526 0.052888 0.003571
0.049042 0.052338 0.003525
0.072602 0.052049 0.003433
0.099351 0.052399 0.003326
0.129183 0.053819 0.003204
0.162325 0.056550 0.003098
0.199115 0.060746 0.002991
0.240040 0.066484 0.002884
0.285557 0.073808 0.002792
0.336217 0.082734 0.006180
0.392645 0.093309 0.010117
0.455512 0.105592 0.013535
0.524468 0.119707 0.016892
0.588434 0.135760 0.020356
0.646632 0.153918 0.024033
0.700847 0.174411 0.028016
0.752224 0.197467 0.032349
0.801465 0.223377 0.037125
0.848905 0.252323 0.042374
0.894850 0.284581 0.048173
0.939544 0.320485 0.054551
0.983169 0.360357 0.061601
1.000000 0.404562 0.069383
1.000000 0.460166 0.079118
1.000000 0.523888 0.090425
1.000000 0.583581 0.102998
1.000000 0.638209 0.116930
1.000000 0.688991 0.132265
1.000000 0.736675 0.149065
0.021439 0.076783 0.003342
0.021363 0.076524 0.003357
0.021302 0.076295 0.003357
0.022217 0.076051 0.003357
0.031403 0.075776 0.003342
0.048219 0.075410 0.003326
0.070329 0.075059 0.003281
0.096605 0.074922 0.003204
0.126589 0.075288 0.003128
0.160189 0.076524 0.003037
0.197620 0.078920 0.002945
0.239200 0.082734 0.002869
0.285435 0.088151 0.002777
0.336843 0.095293 0.002701
0.394049 0.104295 0.002625
0.457755 0.115206 0.004883
0.527337 0.128176 0.011582
0.591470 0.143282 0.016480
0.649805 0.160723 0.021073
0.704143 0.180636 0.025696
0.755459 0.203220 0.030518
0.804425 0.228641 0.035660
0.851499 0.257115 0.041184
0.897017 0.288899 0.047181
0.941238 0.324269 0.053712
0.984314 0.363500 0.060838
1.000000 0.406912 0.068650
1.000000 0.461479 0.078325
1.000000 0.523659 0.089448
1.000000 0.581827 0.101762
1.000000 0.635004 0.115282
1.000000 0.684352 0.130068
1.000000 0.730541 0.146136
0.028473 0.102007 0.003159
0.028458 0.101946 0.003159
0.028443 0.101900 0.003159
0.029084 0.101869 0.003159
0.035813 0.101808 0.003159
0.049836 0.101686 0.003143
0.069902 0.101518 0.003128
0.094957 0.101350 0.003082
0.124453 0.101381 0.003037
0.158129 0.101854 0.002976
0.195987 0.103075 0.002899
0.238239 0.105348 0.002823
0.285237 0.108995 0.002747
0.337484 0.114244 0.002670
0.395575 0.121340 0.002609
0.460227 0.130449 0.002533
0.530480 0.141756 0.002472
0.594797 0.155413 0.003296
0.653178 0.171557 0.014008
0.707332 0.190326 0.020615
0.758358 0.211872 0.026596
0.806958 0.236347 0.032517
0.853635 0.263951 0.038605
0.898680 0.294881 0.045014
0.942367 0.329366 0.051835
0.984833 0.367620 0.059174
1.000000 0.409873 0.067079
1.000000 0.462882 0.076707
1.000000 0.523156 0.087678
1.000000 0.579522 0.099702
1.000000 0.631022 0.112810
1.000000 0.678737 0.127001
1.000000 0.723491 0.142367
0.036530 0.130831 0.003006
0.036561 0.130983 0.003006
0.036606 0.131151 0.003006
0.037156 0.131319 0.003006
0.042298 0.131487 0.003006
0.053849 0.131594 0.002991
0.071641 0.131655 0.002976
0.094987 0.131670 0.002960
0.123400 0.131716 0.002930
0.156603 0.131930 0.002884
0.194491 0.132540 0.002838
0.237156 0.133822 0.002777
0.284825 0.136110 0.002716
0.337911 0.139712 0.002640
0.396948 0.144945 0.002579
0.462623 0.152087 0.002518
0.533562 0.161425 0.002457
0.597894 0.173159 0.002396
0.656107 0.187472 0.002335
0.710033 0.204547 0.004517
0.760739 0.224506 0.017853
0.808972 0.247532 0.026123
0.855207 0.273777 0.033570
0.899748 0.303380 0.040864
0.942840 0.336538 0.048310
0.984634 0.373388 0.056062
1.000000 0.414099 0.064240
1.000000 0.464973 0.073899
1.000000 0.522881 0.084764
1.000000 0.577020 0.096544
1.000000 0.626642 0.109255
1.000000 0.672969 0.123033
1.000000 0.716625 0.137911
0.045701 0.163729 0.002884
0.045808 0.164096 0.002869
0.045914 0.164492 0.002869
0.046448 0.164904 0.002869
0.050568 0.165286 0.002869
0.060105 0.165637 0.002869
0.075654 0.165942 0.002853
0.097032 0.166201 0.002838
0.123919 0.166400 0.002823
0.156115 0.166644 0.002792
0.193545 0.167041 0.002762
0.236210 0.167803 0.002716
0.284260 0.169192 0.002670
0.338033 0.171542 0.002609
0.397955 0.175204 0.002548
0.464530 0.180514 0.002487
0.535943 0.187808 0.002426
0.600290 0.197391 0.002380
0.658396 0.209537 0.002319
0.712108 0.224460 0.002258
0.762524 0.242359 0.002213
0.810391 0.263401 0.008606
0.856138 0.287739 0.023117
0.900145 0.315496 0.032990
0.942596 0.346792 0.041917
0.983658 0.381750 0.050614
1.000000 0.420432 0.059403
1.000000 0.468528 0.069276
1.000000 0.523537 0.080201
1.000000 0.575265 0.091905
1.000000 0.623133 0.104479
1.000000 0.667948 0.117967
1.000000 0.710185 0.132418
0.056168 0.201205 0.002762
0.056336 0.201816 0.002762
0.056519 0.202457 0.002762
0.057084 0.203098 0.002762
0.060517 0.203723 0.002747
0.068482 0.204318 0.002747
0.081941 0.204868 0.002747
0.101244 0.205371 0.002731
0.126329 0.205798 0.002716
0.157107 0.206195 0.002701
0.193576 0.206622 0.002670
0.235752 0.207187 0.002640
0.283787 0.208103 0.002609
0.337896 0.209613 0.002564
0.398337 0.212070 0.002518
0.465537 0.215824 0.002457
0.537392 0.221256 0.002411
0.601846 0.228717 0.002365
0.659907 0.238575 0.002304
0.713451 0.251102 0.002258
0.763607 0.266560 0.002197
0.811078 0.285176 0.002152
0.856367 0.307103 0.002106
0.899794 0.332464 0.013840
0.941573 0.361364 0.029465
0.981872 0.393881 0.040879
1.000000 0.429999 0.051194
1.000000 0.474739 0.061845
1.000000 0.526650 0.073259
1.000000 0.575540 0.085237
1.000000 0.621103 0.097887
1.000000 0.663951 0.111269
1.000000 0.704463 0.125429
0.068055 0.243809 0.002655
0.068299 0.244678 0.002655
0.068544 0.245563 0.002655
0.069184 0.246448 0.002655
0.072145 0.247318 0.002655
0.078874 0.248173 0.002640
0.090517 0.248966 0.002640
0.107744 0.249714 0.002640
0.130846 0.250385 0.002625
0.159899 0.250996 0.002609
0.194980 0.251545 0.002594
0.236194 0.252125 0.002564
0.283680 0.252827 0.002548
0.337591 0.253849 0.002502
0.398154 0.255482 0.002472
0.465675 0.258061 0.002426
0.537850 0.261921 0.002380
0.602472 0.267491 0.002335
0.660563 0.275135 0.002289
0.713985 0.285237 0.002243
0.763897 0.298085 0.002197
0.811002 0.313954 0.002152
0.855818 0.333074 0.002106
0.898634 0.355566 0.002060
0.939681 0.381537 0.002014
0.979171 0.411048 0.018936
1.000000 0.444251 0.036103
1.000000 0.485344 0.049531
1.000000 0.533333 0.062486
1.000000 0.578592 0.075380
1.000000 0.621241 0.088533
1.000000 0.661631 0.102113
1.000000 0.700008 0.116228
0.081559 0.292149 0.002564
0.081865 0.293278 0.002564
0.082185 0.294423 0.002564
0.082887 0.295552 0.002564
0.085527 0.296681 0.002548
0.091295 0.297765 0.002548
0.101366 0.298817 0.002548
0.116640 0.299794 0.002548
0.137652 0.300694 0.002533
0.164752 0.301518 0.002533
0.198123 0.302235 0.002518
0.237934 0.302876 0.002502
0.284367 0.303532 0.002472
0.337575 0.304311 0.002457
0.397757 0.305425 0.002426
0.465156 0.307164 0.002396
0.537438 0.309819 0.002350
0.602197 0.313802 0.002304
0.660319 0.319493 0.002274
0.713649 0.327291 0.002228
0.763302 0.337530 0.002182
0.810025 0.350546 0.002136
0.854307 0.366583 0.002090
0.896483 0.385855 0.002045
0.936934 0.408545 0.002014
0.975906 0.434806 0.001968
1.000000 0.464744 0.001938
1.000000 0.501625 0.023850
1.000000 0.544427 0.043839
1.000000 0.585275 0.059770
1.000000 0.624323 0.074586
1.000000 0.661707 0.089143
1.000000 0.697475 0.103761
0.096818 0.346853 0.002472
0.097215 0.348257 0.002472
0.097612 0.349645 0.002472
0.098375 0.351034 0.002472
0.100771 0.352392 0.002472
0.105791 0.353719 0.002472
0.114534 0.354986 0.002457
0.127977 0.356191 0.002457
0.146929 0.357305 0.002457
0.171923 0.358267 0.002441
0.203311 0.359106 0.002441
0.241367 0.359823 0.002426
0.286305 0.360464 0.002411
0.338323 0.361135 0.002396
0.397635 0.361944 0.002365
0.464408 0.363104 0.002350
0.536400 0.364889 0.002319
0.601083 0.367590 0.002274
0.659129 0.371603 0.002243
0.712291 0.377295 0.002197
0.761669 0.385092 0.002167
0.808011 0.395315 0.002121
0.851850 0.408301 0.002090
0.893660 0.424323 0.002045
0.933700 0.443610 0.002014
0.972198 0.466331 0.001968
1.000000 0.492638 0.001938
1.000000 0.523812 0.001907
1.000000 0.560479 0.001907
1.000000 0.596292 0.028290
1.000000 0.631144 0.051316
1.000000 0.664958 0.069398
1.000000 0.697627 0.085908
0.114061 0.408621 0.002396
0.114534 0.410285 0.002396
0.114992 0.411933 0.002396
0.115831 0.413550 0.002396
0.118044 0.415137 0.002396
0.122454 0.416678 0.002380
0.130053 0.418143 0.002380
0.141878 0.419471 0.002380
0.158831 0.420645 0.002380
0.181674 0.421683 0.002365
0.210895 0.422568 0.002365
0.246906 0.423316 0.002350
0.289982 0.423957 0.002350
0.340352 0.424506 0.002335
0.398230 0.425071 0.002319
0.463783 0.425772 0.002289
0.534936 0.426841 0.002274
0.599252 0.428519 0.002243
0.657038 0.431159 0.002213
0.709972 0.435111 0.002182
0.759091 0.440757 0.002152
0.805188 0.448463 0.002106
0.848814 0.458595 0.002075
0.890303 0.471458 0.002045
0.929961 0.487327 0.001999
0.967971 0.506355 0.001968
1.000000 0.527504 0.001938
1.000000 0.551141 0.001907
1.000000 0.581567 0.001907
1.000000 0.612039 0.001892
1.000000 0.642267 0.001892
1.000000 0.672053 0.029694
1.000000 0.701183 0.056550
0.133486 0.478202 0.002319
0.134020 0.480110 0.002319
0.134554 0.481987 0.002319
0.135454 0.483818 0.002319
0.137499 0.485603 0.002319
0.141390 0.487251 0.002319
0.148028 0.488731 0.002304
0.158404 0.490059 0.002304
0.173495 0.491218 0.002304
0.194186 0.492210 0.002304
0.221118 0.493004 0.002304
0.254826 0.493629 0.002289
0.295674 0.494102 0.002289
0.343969 0.494438 0.002274
0.399939 0.494713 0.002258
0.463767 0.495033 0.002243
0.533532 0.495521 0.002228
0.597070 0.496407 0.002213
0.654383 0.497963 0.002182
0.706996 0.500496 0.002152
0.755947 0.504311 0.002121
0.801862 0.509697 0.002090
0.845228 0.516915 0.002060
0.886427 0.526116 0.002029
0.925689 0.537377 0.001999
0.963241 0.550683 0.001968
0.999222 0.565881 0.001938
1.000000 0.582773 0.001907
1.000000 0.607309 0.001892
1.000000 0.632456 0.001892
1.000000 0.657923 0.001892
1.000000 0.683421 0.001877
1.000000 0.708705 0.001877
0.155322 0.551415 0.002258
0.155917 0.553185 0.002258
0.156481 0.554879 0.002243
0.157412 0.556497 0.002243
0.159289 0.557931 0.002243
0.162722 0.559213 0.002243
0.168521 0.560311 0.002243
0.177600 0.561227 0.002243
0.190951 0.561975 0.002243
0.209506 0.562554 0.002243
0.234089 0.562982 0.002228
0.265324 0.563256 0.002228
0.303716 0.563378 0.002228
0.349630 0.563409 0.002213
0.403311 0.563333 0.002213
0.465003 0.563256 0.002197
0.532799 0.563226 0.002182
0.595087 0.563409 0.002167
0.651667 0.563958 0.002152
0.703838 0.565057 0.002121
0.752438 0.566934 0.002106
0.798077 0.569848 0.002075
0.841169 0.573999 0.002045
0.882017 0.579599 0.002014
0.920897 0.586801 0.001984
0.957977 0.595682 0.001953
0.993423 0.606241 0.001923
1.000000 0.618418 0.001892
1.000000 0.636805 0.001892
1.000000 0.657038 0.001892
1.000000 0.677897 0.001877
1.000000 0.699123 0.001877
1.000000 0.720455 0.001877
0.179782 0.616785 0.002182
0.180407 0.618280 0.002182
0.180972 0.619623 0.002182
0.181842 0.620783 0.002182
0.183490 0.621775 0.002182
0.186481 0.622583 0.002182
0.191501 0.623224 0.002182
0.199405 0.623697 0.002182
0.211154 0.624018 0.002182
0.227695 0.624201 0.002182
0.249958 0.624247 0.002182
0.278676 0.624170 0.002167
0.314458 0.623972 0.002167
0.357748 0.623667 0.002167
0.408881 0.623301 0.002152
0.468055 0.622889 0.002152
0.533364 0.622538 0.002136
0.593881 0.622278 0.002121
0.649317 0.622232 0.002106
0.700725 0.622507 0.002090
0.748791 0.623239 0.002075
0.794003 0.624643 0.002045
0.836698 0.626856 0.002029
0.877150 0.630106 0.001999
0.915602 0.634531 0.001968
0.952209 0.640253 0.001953
0.987106 0.647333 0.001923
1.000000 0.655818 0.001892
1.000000 0.669001 0.001877
1.000000 0.684886 0.001877
1.000000 0.701579 0.001877
1.000000 0.718883 0.001877
1.000000 0.736690 0.001862
0.207065 0.676204 0.002121
0.207599 0.677256 0.002121
0.208057 0.678141 0.002121
0.208774 0.678828 0.002121
0.210163 0.679362 0.002121
0.212696 0.679713 0.002121
0.216999 0.679927 0.002121
0.223835 0.679988 0.002121
0.234104 0.679896 0.002121
0.248783 0.679683 0.002121
0.268803 0.679347 0.002121
0.295033 0.678904 0.002121
0.328145 0.678355 0.002121
0.368688 0.677729 0.002106
0.417014 0.677073 0.002106
0.473396 0.676432 0.002106
0.535653 0.675792 0.002090
0.593805 0.675227 0.002090
0.647654 0.674754 0.002075
0.697963 0.674479 0.002060
0.745220 0.674495 0.002045
0.789792 0.674922 0.002029
0.831952 0.675898 0.001999
0.871931 0.677577 0.001984
0.909880 0.680095 0.001968
0.945953 0.683589 0.001938
0.980285 0.688136 0.001907
1.000000 0.693843 0.001892
1.000000 0.702846 0.001877
1.000000 0.715206 0.001877
1.000000 0.728435 0.001862
1.000000 0.742428 0.001862
1.000000 0.757046 0.001862
0.237156 0.730953 0.002075
0.237507 0.731548 0.002075
0.237781 0.731960 0.002075
0.238285 0.732204 0.002075
0.239353 0.732280 0.002075
0.241413 0.732189 0.002075
0.245014 0.731960 0.002075
0.250874 0.731594 0.002075
0.259800 0.731090 0.002075
0.272740 0.730465 0.002075
0.290654 0.729717 0.002075
0.314443 0.728893 0.002075
0.344884 0.728008 0.002060
0.382559 0.727108 0.002060
0.427924 0.726192 0.002060
0.481300 0.725277 0.002060
0.539940 0.724376 0.002045
0.595178 0.723507 0.002045
0.646983 0.722713 0.002029
0.695811 0.722026 0.002029
0.741970 0.721523 0.002014
0.785687 0.721279 0.001999
0.827131 0.721416 0.001984
0.866499 0.722042 0.001968
0.903899 0.723293 0.001938
0.939437 0.725277 0.001923
0.973220 0.728084 0.001907
1.000000 0.731777 0.001877
1.000000 0.737545 0.001862
1.000000 0.747112 0.001862
1.000000 0.757519 0.001862
1.000000 0.768673 0.001862
1.000000 0.780468 0.001846
0.270161 0.781979 0.002014
0.270253 0.782101 0.002014
0.270237 0.782055 0.002014
0.270436 0.781827 0.002014
0.271122 0.781445 0.002014
0.272663 0.780911 0.002014
0.275563 0.780224 0.002014
0.280461 0.779400 0.002014
0.288121 0.778454 0.002014
0.299458 0.777386 0.002014
0.315389 0.776242 0.002014
0.336843 0.775067 0.002014
0.364630 0.773892 0.002014
0.399405 0.772686 0.002014
0.441718 0.771496 0.002014
0.491951 0.770291 0.002014
0.546334 0.769116 0.002014
0.598184 0.767956 0.001999
0.647532 0.766827 0.001999
0.694530 0.765789 0.001999
0.739315 0.764904 0.001984
0.781964 0.764218 0.001968
0.822599 0.763806 0.001953
0.861250 0.763760 0.001938
0.898009 0.764157 0.001923
0.932952 0.765103 0.001907
0.966140 0.766674 0.001892
0.997787 0.768933 0.001877
1.000000 0.772290 0.001862
1.000000 0.779629 0.001846
1.000000 0.787716 0.001846
1.000000 0.796475 0.001846
1.000000 0.805859 0.001846
0.306142 0.829923 0.001968
0.305852 0.829557 0.001968
0.305455 0.829023 0.001968
0.305226 0.828321 0.001968
0.305425 0.827436 0.001968
0.306371 0.826413 0.001968
0.308537 0.825254 0.001968
0.312490 0.823941 0.001968
0.318944 0.822522 0.001968
0.328771 0.821057 0.001968
0.342855 0.819577 0.001968
0.362066 0.818082 0.001984
0.387274 0.816571 0.001984
0.419196 0.815061 0.001984
0.458442 0.813550 0.001968
0.505394 0.812024 0.001968
0.554849 0.810544 0.001968
0.602991 0.809094 0.001968
0.649592 0.807721 0.001968
0.694514 0.806424 0.001953
0.737697 0.805249 0.001953
0.779095 0.804227 0.001938
0.818677 0.803418 0.001938
0.856458 0.802869 0.001923
0.892439 0.802655 0.001907
0.926741 0.802869 0.001892
0.959457 0.803555 0.001877
0.990646 0.804776 0.001862
1.000000 0.806592 0.001846
1.000000 0.811902 0.001846
1.000000 0.818112 0.001831
1.000000 0.824918 0.001831
1.000000 0.832273 0.001831
0.345098 0.875151 0.001923
0.344305 0.874281 0.001923
0.343389 0.873228 0.001923
0.342611 0.871992 0.001923
0.342184 0.870603 0.001923
0.342443 0.869062 0.001923
0.343786 0.867369 0.001923
0.346792 0.865599 0.001923
0.352117 0.863798 0.001938
0.360525 0.861967 0.001938
0.372839 0.860121 0.001938
0.389944 0.858274 0.001938
0.412665 0.856413 0.001938
0.441825 0.854566 0.001938
0.478080 0.852735 0.001938
0.521126 0.850950 0.001938
0.565591 0.849210 0.001938
0.609873 0.847517 0.001938
0.653468 0.845884 0.001923
0.696056 0.844327 0.001923
0.737377 0.842878 0.001923
0.777264 0.841550 0.001907
0.815595 0.840391 0.001907
0.852338 0.839460 0.001892
0.887510 0.838804 0.001892
0.921126 0.838483 0.001877
0.953246 0.838514 0.001862
0.983902 0.838972 0.001846
1.000000 0.839872 0.001831
1.000000 0.843351 0.001831
1.000000 0.848020 0.001831
1.000000 0.853223 0.001816
1.000000 0.858915 0.001816
0.386984 0.917906 0.001877
0.385504 0.916472 0.001877
0.383902 0.914855 0.001877
0.382406 0.913069 0.001877
0.381231 0.911116 0.001877
0.380682 0.909026 0.001892
0.381201 0.906905 0.001892
0.383276 0.904738 0.001892
0.387472 0.902541 0.001892
0.394507 0.900343 0.001892
0.405158 0.898131 0.001892
0.420294 0.895949 0.001892
0.440757 0.893782 0.001892
0.467353 0.891630 0.001907
0.500786 0.889525 0.001907
0.538811 0.887449 0.001907
0.578408 0.885435 0.001907
0.618738 0.883452 0.001892
0.659174 0.881544 0.001892
0.699199 0.879713 0.001892
0.738445 0.877974 0.001892
0.776623 0.876356 0.001892
0.813550 0.874907 0.001877
0.849149 0.873686 0.001877
0.883345 0.872663 0.001862
0.916152 0.871916 0.001862
0.947539 0.871443 0.001846
0.977554 0.871290 0.001831
1.000000 0.871504 0.001816
1.000000 0.873533 0.001816
1.000000 0.876967 0.001816
1.000000 0.880842 0.001816
1.000000 0.885130 0.001801
0.431601 0.958282 0.001831
0.429236 0.956252 0.001831
0.426764 0.954040 0.001846
0.424369 0.951644 0.001846
0.422354 0.949187 0.001846
0.420996 0.946670 0.001846
0.420661 0.944137 0.001846
0.421790 0.941588 0.001846
0.424903 0.939040 0.001862
0.430655 0.936492 0.001862
0.439780 0.933959 0.001862
0.453101 0.931441 0.001862
0.471443 0.928954 0.001862
0.495628 0.926482 0.001862
0.525200 0.924056 0.001862
0.557931 0.921660 0.001862
0.592935 0.919326 0.001862
0.629404 0.917037 0.001862
0.666606 0.914824 0.001862
0.703944 0.912688 0.001862
0.740932 0.910689 0.001862
0.777234 0.908843 0.001862
0.812589 0.907149 0.001862
0.846876 0.905638 0.001846
0.879973 0.904311 0.001846
0.911818 0.903182 0.001831
0.942367 0.902296 0.001831
0.971618 0.901656 0.001816
0.999557 0.901289 0.001801
1.000000 0.902190 0.001801
1.000000 0.904570 0.001801
1.000000 0.907332 0.001801
1.000000 0.910460 0.001801
0.478691 0.996323 0.001801
0.475196 0.993652 0.001801
0.471702 0.990845 0.001801
0.468421 0.988006 0.001801
0.465583 0.985138 0.001816
0.463386 0.982238 0.001816
0.462165 0.979339 0.001816
0.462318 0.976425 0.001816
0.464347 0.973526 0.001816
0.468833 0.970611 0.001831
0.476478 0.967712 0.001831
0.488075 0.964843 0.001831
0.504387 0.961990 0.001831
0.525154 0.959167 0.001831
0.549859 0.956390 0.001831
0.577951 0.953658 0.001831
0.608759 0.950973 0.001831
0.641535 0.948348 0.001831
0.675532 0.945830 0.001831
0.710094 0.943465 0.001831
0.744701 0.941222 0.001831
0.779004 0.939147 0.001831
0.812665 0.937194 0.001831
0.845518 0.935393 0.001831
0.877379 0.933761 0.001816
0.908141 0.932296 0.001816
0.937728 0.931029 0.001801
0.966125 0.929961 0.001801
0.993271 0.929122 0.001785
1.000000 0.929107 0.001785
1.000000 0.930587 0.001785
1.000000 0.932403 0.001785
1.000000 0.934539 0.001785
0.531930 1.000000 0.001785
0.526970 1.000000 0.001785
0.522057 1.000000 0.001785
0.517281 1.000000 0.001785
0.512840 1.000000 0.001785
0.508949 1.000000 0.001785
0.505943 1.000000 0.001785
0.504601 1.000000 0.001785
0.505455 1.000000 0.001785
0.508568 1.000000 0.001785
0.514519 0.999451 0.001801
0.523796 0.996185 0.001801
0.536782 0.992950 0.001801
0.553628 0.989746 0.001801
0.574289 0.986587 0.001801
0.598398 0.983474 0.001801
0.625452 0.980438 0.001816
0.654719 0.977539 0.001816
0.685557 0.974777 0.001816
0.717357 0.972168 0.001816
0.749569 0.969680 0.001816
0.781796 0.967330 0.001816
0.813687 0.965118 0.001801
0.844984 0.963027 0.001801
0.875502 0.961089 0.001801
0.905089 0.959289 0.001801
0.933623 0.957656 0.001785
0.961059 0.956191 0.001785
0.987320 0.954925 0.001770
1.000000 0.954131 0.001770
