resources/flame/Syncolor/Shared/transforms/camera_manufacturer_luts/arri/ARRI_Alexa_LUTs/ARRI_LogC3_v1-2_LUT_Package/LUTs/ARRI_LogC3-to-HLG_1K_Rec2100-D65_DW200_v2_33.cube
LUT_3D_SIZE 9
0.00000000 0.00000000 0.00000000
0.07058855 0.01531471 0.00265696
0.16165506 0.03507227 0.00608472
0.29854700 0.06477200 0.01123736
0.52512187 0.11418067 0.01980931
0.74738222 0.19214778 0.03333590
0.93531425 0.31522748 0.05468911
1.00000000 0.53149346 0.09252725
1.00000000 0.76947152 0.16257658
0.00986834 0.03535103 0.00000000
0.03089252 0.03297456 0.00000000
0.13387517 0.03941744 0.00000000
0.29352891 0.06811178 0.00867971
0.54070234 0.12030843 0.01935228
0.77000550 0.20498844 0.03466593
0.96313192 0.34079864 0.05854948
1.00000000 0.57230232 0.10061143
1.00000000 0.79057542 0.17134816
0.03825487 0.13703912 0.00000000
0.04736959 0.14164480 0.00000000
0.13725825 0.14650894 0.00000000
0.31504616 0.15600789 0.00000000
0.58372610 0.18707019 0.00000000
0.80786765 0.25969057 0.01249744
0.99351965 0.39064063 0.05289613
1.00000000 0.60795427 0.09998328
1.00000000 0.79496128 0.16698298
0.09123510 0.32682835 0.00000000
0.10096641 0.34064037 0.00000000
0.16917420 0.35416569 0.00000000
0.34323191 0.36636446 0.00000000
0.61871641 0.38183079 0.00000000
0.83412514 0.42004210 0.00000000
1.00000000 0.50837927 0.00000000
1.00000000 0.65516852 0.04636777
1.00000000 0.79727508 0.13038957
0.18406160 0.62689299 0.00000000
0.19516075 0.64085668 0.00000000
0.24408059 0.65152431 0.00000000
0.38908298 0.65903311 0.00000000
0.63699054 0.66431658 0.00000000
0.83970822 0.67179332 0.00000000
1.00000000 0.69167995 0.00000000
1.00000000 0.75014263 0.00000000
1.00000000 0.82631084 0.00000000
0.33302909 0.86176860 0.00000000
0.34043762 0.86558004 0.00000000
0.37099253 0.86616377 0.00000000
0.47539084 0.86427865 0.00000000
0.65837388 0.86111227 0.00000000
0.83258737 0.85724686 0.00000000
0.98300154 0.85487421 0.00000000
1.00000000 0.86799801 0.00000000
1.00000000 0.89449257 0.00000000
0.54876253 1.00000000 0.00000000
0.53943802 1.00000000 0.00000000
0.54284862 1.00000000 0.00000000
0.58786153 1.00000000 0.00000000
0.69089243 0.99954037 0.00000000
0.82243642 0.98630011 0.00000000
0.95033219 0.97430694 0.00000000
1.00000000 0.96842468 0.00000000
1.00000000 0.97099473 0.00000000
0.73758279 1.00000000 0.00000000
0.71260809 1.00000000 0.00000000
0.69353203 1.00000000 0.00000000
0.69782651 1.00000000 0.00000000
0.74565736 1.00000000 0.00000000
0.83109472 1.00000000 0.00000000
0.92898067 1.00000000 0.00000000
1.00000000 1.00000000 0.00000000
1.00000000 1.00000000 0.00000000
0.85508385 1.00000000 0.00000000
0.81691255 1.00000000 0.00000000
0.78409366 1.00000000 0.00000000
0.77031420 1.00000000 0.00000000
0.78963623 1.00000000 0.00000000
0.84351417 1.00000000 0.00000000
0.91579055 1.00000000 0.00000000
0.98814914 1.00000000 0.00000000
1.00000000 1.00000000 0.00000000
0.00000000 0.00000000 0.08585885
0.06023799 0.00000000 0.05461142
0.15194629 0.02993788 0.03061346
0.29197471 0.06273423 0.02207040
0.52304173 0.11343467 0.02575589
0.74757508 0.19210821 0.03683180
0.93676484 0.31638441 0.05707847
1.00000000 0.53407235 0.09453565
1.00000000 0.76601910 0.16228439
0.00316301 0.03129212 0.03191187
0.02962013 0.02962012 0.02962012
0.13589548 0.03789154 0.02489566
0.29723494 0.06813881 0.02515257
0.54652588 0.12141426 0.03040766
0.77494443 0.20738661 0.04239957
0.96535139 0.34274643 0.06396381
1.00000000 0.56820377 0.10362068
1.00000000 0.77785648 0.16910750
0.03807611 0.13827005 0.00000000
0.04737798 0.14359235 0.00000000
0.13939752 0.14842486 0.00000000
0.32143867 0.15784507 0.00000000
0.59089573 0.18952927 0.01294784
0.81068925 0.26207093 0.03803992
0.99129799 0.38945180 0.06530801
1.00000000 0.59611929 0.10708764
1.00000000 0.77643054 0.16782314
0.09220101 0.33155030 0.00000000
0.10216992 0.34584837 0.00000000
0.17101668 0.35937342 0.00000000
0.34768448 0.37078426 0.00000000
0.62252062 0.38585227 0.00000000
0.83328486 0.42361729 0.00000000
1.00000000 0.50818445 0.00000000
1.00000000 0.64587861 0.07963023
1.00000000 0.77926393 0.14548111
0.18604082 0.63214478 0.00000000
0.19688002 0.64494437 0.00000000
0.24639294 0.65445646 0.00000000
0.39301608 0.66107571 0.00000000
0.63898533 0.66603276 0.00000000
0.83766668 0.67371946 0.00000000
0.99771350 0.69304610 0.00000000
1.00000000 0.74618953 0.00000000
1.00000000 0.81523489 0.00000000
0.33357121 0.86265182 0.00000000
0.34005114 0.86495250 0.00000000
0.37171717 0.86438791 0.00000000
0.47927572 0.86227156 0.00000000
0.66094062 0.85909511 0.00000000
0.83096405 0.85544794 0.00000000
0.97583310 0.85360110 0.00000000
1.00000000 0.86547666 0.00000000
1.00000000 0.88969460 0.00000000
0.54104527 1.00000000 0.00000000
0.53059106 1.00000000 0.00000000
0.53590137 1.00000000 0.00000000
0.58689699 1.00000000 0.00000000
0.69331266 0.99295111 0.00000000
0.82262927 0.98058726 0.00000000
0.94593369 0.96971186 0.00000000
1.00000000 0.96422128 0.00000000
1.00000000 0.96680949 0.00000000
0.72321773 1.00000000 0.00000000
0.69777626 1.00000000 0.00000000
0.68042398 1.00000000 0.00000000
0.69040143 1.00000000 0.00000000
0.74416368 1.00000000 0.00000000
0.83092213 1.00000000 0.00000000
0.92632800 1.00000000 0.00000000
1.00000000 1.00000000 0.00000000
1.00000000 1.00000000 0.00000000
0.83404647 1.00000000 0.00000000
0.79593737 1.00000000 0.00000000
0.76681185 1.00000000 0.00000000
0.75923394 1.00000000 0.00000000
0.78550491 1.00000000 0.00000000
0.84332989 1.00000000 0.00000000
0.91528235 1.00000000 0.00000000
0.98449003 1.00000000 0.00000000
1.00000000 1.00000000 0.00000000
0.00000000 0.00000000 0.16069936
0.03119636 0.00000000 0.13369722
0.13666789 0.00000000 0.09617634
0.28170213 0.04966411 0.07834195
0.51243463 0.10647381 0.07278162
0.74192130 0.18705927 0.07381981
0.93324501 0.31209472 0.08393111
1.00000000 0.52481840 0.11230000
1.00000000 0.75235171 0.17076739
0.00000000 0.00000000 0.14051367
0.00000000 0.00000000 0.14368786
0.13030371 0.00000000 0.12684033
0.29687827 0.04630445 0.11328225
0.54864216 0.11277780 0.10724845
0.77655330 0.20347243 0.10727006
0.96372239 0.33853829 0.11525622
1.00000000 0.55632903 0.14204739
1.00000000 0.75859788 0.19340307
0.01300265 0.12734230 0.12964853
0.03011010 0.13259263 0.13538967
0.13727906 0.13727906 0.13727906
0.32731878 0.14797487 0.13346445
0.59608914 0.18307728 0.13057867
0.81126121 0.25776885 0.13183466
0.98618827 0.38215039 0.14049205
1.00000000 0.57988592 0.16757716
1.00000000 0.75482242 0.21341796
0.08646298 0.33157413 0.09638987
0.09690262 0.34613239 0.10167049
0.16867480 0.35968601 0.10584284
0.35049008 0.37014326 0.11159113
0.62574638 0.38465515 0.12233064
0.83152536 0.42255683 0.13472643
0.99559616 0.50418329 0.15116346
1.00000000 0.63404921 0.18291619
1.00000000 0.75919423 0.22808015
0.18425458 0.63506537 0.00000000
0.19485770 0.64661657 0.00000000
0.24600918 0.65530722 0.00000000
0.39541502 0.66142139 0.00000000
0.64068011 0.66624004 0.00000000
0.83563860 0.67408602 0.03603093
0.99040353 0.69307118 0.10784242
1.00000000 0.74136336 0.16416826
1.00000000 0.80467174 0.22148468
0.33107273 0.86195345 0.00000000
0.33684445 0.86286644 0.00000000
0.37065419 0.86182369 0.00000000
0.48222310 0.85968440 0.00000000
0.66333193 0.85657819 0.00000000
0.82943092 0.85315546 0.00000000
0.96926524 0.85192684 0.00000000
1.00000000 0.86269869 0.00000000
1.00000000 0.88495909 0.16137176
0.53048674 1.00000000 0.00000000
0.51972348 1.00000000 0.00000000
0.52781588 1.00000000 0.00000000
0.58655343 0.99878166 0.00000000
0.69602074 0.98640865 0.00000000
0.82302373 0.97506531 0.00000000
0.94199567 0.96516483 0.00000000
1.00000000 0.95999822 0.00000000
1.00000000 0.96263170 0.00000000
0.70750105 1.00000000 0.00000000
0.68185850 1.00000000 0.00000000
0.66717824 1.00000000 0.00000000
0.68401873 1.00000000 0.00000000
0.74346228 1.00000000 0.00000000
0.83126648 1.00000000 0.00000000
0.92416833 1.00000000 0.00000000
1.00000000 1.00000000 0.00000000
1.00000000 1.00000000 0.00000000
0.81194898 1.00000000 0.00000000
0.77551124 1.00000000 0.00000000
0.75057284 1.00000000 0.00000000
0.74963040 1.00000000 0.00000000
0.78285977 1.00000000 0.00000000
0.84422231 1.00000000 0.00000000
0.91555519 1.00000000 0.00000000
0.98178579 1.00000000 0.00000000
1.00000000 1.00000000 0.62499071
0.00000000 0.00000000 0.22257466
0.00000000 0.00000000 0.19712533
0.11449297 0.00000000 0.16337015
0.26612704 0.00000000 0.14285706
0.49366518 0.08879433 0.13182545
0.73059761 0.17517888 0.12781968
0.92315573 0.30004190 0.13114463
1.00000000 0.50155494 0.14995127
1.00000000 0.72722783 0.19606889
0.00000000 0.00000000 0.24172178
0.00000000 0.00000000 0.24947705
0.10548882 0.00000000 0.24663392
0.28421548 0.00000000 0.22800969
0.54102690 0.07201511 0.21474103
0.76985158 0.18310541 0.20737125
0.95422776 0.32058954 0.20702568
1.00000000 0.52803774 0.22411062
1.00000000 0.73006238 0.26247150
0.00000000 0.04731445 0.31468962
0.00000000 0.04175019 0.33373999
0.11615874 0.04292901 0.34247751
0.32227313 0.07776691 0.32132436
0.59428221 0.13938917 0.30211861
0.80708545 0.23007875 0.29051376
0.97739900 0.35887572 0.28639642
1.00000000 0.55276680 0.30310867
1.00000000 0.72709048 0.33641927
0.03218787 0.31011698 0.31485847
0.04975420 0.32318444 0.32947516
0.14812245 0.33548355 0.34158030
0.34550988 0.34550988 0.34550988
0.62698770 0.36205749 0.34136208
0.82862423 0.40393116 0.33726837
0.98768317 0.48646095 0.33703687
1.00000000 0.61453261 0.35776904
1.00000000 0.73469012 0.39292762
0.16689004 0.63049927 0.27198330
0.17763467 0.64089903 0.28307693
0.23441855 0.64904603 0.29478823
0.39067056 0.65565335 0.30588172
0.64048014 0.66048936 0.31853655
0.83335156 0.66860097 0.33715380
0.98249857 0.68820555 0.35666214
1.00000000 0.73322776 0.38933608
1.00000000 0.79238208 0.43164147
0.31981508 0.85847388 0.00290973
0.32532193 0.85834972 0.09636315
0.36279990 0.85718520 0.14486486
0.48063759 0.85515600 0.18878573
0.66409004 0.85221700 0.23394677
0.82761359 0.84903738 0.28304230
0.96314124 0.84833503 0.33085293
1.00000000 0.85819279 0.38165513
1.00000000 0.87898001 0.43920464
0.51435259 1.00000000 0.00000000
0.50326256 1.00000000 0.00000000
0.51757723 1.00000000 0.00000000
0.58459219 0.99091147 0.00000000
0.69774477 0.97951962 0.00000000
0.82311622 0.96905735 0.11307993
0.93825190 0.95993429 0.24780942
1.00000000 0.95497655 0.34399432
1.00000000 0.95766490 0.43619216
0.68916036 1.00000000 0.00000000
0.66347431 1.00000000 0.00000000
0.65308868 1.00000000 0.00000000
0.67744952 1.00000000 0.00000000
0.74274959 1.00000000 0.00000000
0.83166838 1.00000000 0.00000000
0.92219186 1.00000000 0.13267457
1.00000000 1.00000000 0.33378788
1.00000000 1.00000000 0.49915859
0.78893173 1.00000000 0.00000000
0.75494173 1.00000000 0.00000000
0.73455561 1.00000000 0.00000000
0.74083047 1.00000000 0.00000000
0.78119832 1.00000000 0.00000000
0.84587359 1.00000000 0.00000000
0.91640240 1.00000000 0.17513022
0.98157293 1.00000000 0.61120357
1.00000000 1.00000000 0.85695313
0.00000000 0.00000000 0.27471445
0.00000000 0.00000000 0.24850402
0.08721159 0.00000000 0.22646002
0.24466616 0.00000000 0.20490861
0.47001738 0.05311819 0.19050823
0.71441390 0.15634227 0.18263245
0.90667767 0.28056258 0.18212534
1.00000000 0.46566707 0.19462905
1.00000000 0.69078276 0.23285630
0.00000000 0.00000000 0.33146212
0.00000000 0.00000000 0.34499910
0.05604036 0.00000000 0.35877362
0.25981231 0.00000000 0.34367200
0.52074802 0.00000000 0.32845737
0.75548462 0.13739259 0.31717178
0.93730848 0.28636749 0.31263940
1.00000000 0.48086070 0.32502419
1.00000000 0.69134182 0.36012091
0.00000000 0.00000000 0.48293190
0.00000000 0.00000000 0.51099219
0.00000000 0.00000000 0.53835297
0.28922059 0.00000000 0.52923209
0.57770723 0.00000000 0.50682230
0.79466865 0.14758234 0.48423337
0.96267583 0.30604307 0.46954338
1.00000000 0.50076861 0.47945881
1.00000000 0.68636146 0.50963404
0.00000000 0.22959154 0.58897347
0.00000000 0.23455644 0.61188727
0.02358790 0.24149558 0.63157939
0.31809148 0.24991285 0.63550045
0.61656287 0.27783262 0.62057911
0.82109117 0.33734160 0.60120984
0.97672445 0.43349621 0.58625873
1.00000000 0.57386755 0.59214201
1.00000000 0.70058881 0.61168315
0.06586155 0.60191729 0.60705261
0.08494132 0.61127576 0.61853556
0.17917957 0.61936883 0.62752630
0.36561461 0.62711076 0.63380074
0.63375090 0.63375090 0.63375091
0.82975713 0.64544656 0.62929234
0.97392516 0.66970948 0.62650225
1.00000000 0.71544584 0.63588798
1.00000000 0.77392697 0.65466726
0.28052105 0.84813080 0.54470657
0.28724482 0.84757226 0.55726208
0.33321136 0.84632927 0.57020674
0.46514991 0.84460345 0.58314006
0.65964225 0.84245656 0.59479969
0.82449411 0.83996590 0.60656033
0.95717670 0.83989807 0.62209632
1.00000000 0.84953136 0.64137642
1.00000000 0.86978044 0.66704734
0.48228290 1.00000000 0.34363777
0.47335250 1.00000000 0.38793032
0.49530753 0.99250376 0.43449146
0.57617953 0.98108615 0.48033394
0.69630634 0.97068002 0.52245302
0.82174411 0.96109784 0.55951318
0.93420808 0.95271224 0.59528887
1.00000000 0.94801001 0.63182866
1.00000000 0.95102181 0.67253901
0.66463732 1.00000000 0.00000000
0.63953422 1.00000000 0.00000000
0.63486840 1.00000000 0.10647631
0.66829666 1.00000000 0.30082147
0.74061682 1.00000000 0.41123476
0.83127120 1.00000000 0.50225433
0.91981021 1.00000000 0.57716911
0.99475794 1.00000000 0.63897366
1.00000000 1.00000000 0.75568137
0.76400067 1.00000000 0.00000000
0.73231910 1.00000000 0.00000000
0.71709720 1.00000000 0.00000000
0.73167552 1.00000000 0.00000000
0.77975861 1.00000000 0.31559856
0.84775706 1.00000000 0.49139690
0.92277670 1.00000000 0.65881202
0.98348166 1.00000000 0.84016388
1.00000000 1.00000000 0.95004484
0.00000000 0.00000000 0.32611980
0.00000000 0.00000000 0.30068645
0.04610424 0.00000000 0.29393646
0.22058980 0.00000000 0.27279147
0.44410979 0.00000000 0.25555388
0.69480253 0.12656124 0.24393635
0.88631632 0.25441748 0.23982665
1.00000000 0.42257285 0.24602265
1.00000000 0.64603048 0.27976391
0.00000000 0.00000000 0.41508574
0.00000000 0.00000000 0.43325037
0.00000000 0.00000000 0.45562461
0.22711333 0.00000000 0.45230677
0.48841697 0.00000000 0.43607955
0.73513125 0.00000000 0.42395848
0.91453536 0.23495222 0.41647422
1.00000000 0.42117234 0.42515259
1.00000000 0.64130633 0.46486963
0.00000000 0.00000000 0.60546473
0.00000000 0.00000000 0.63147258
0.00000000 0.00000000 0.65618379
0.23314799 0.00000000 0.66588279
0.54165335 0.00000000 0.65535501
0.77438574 0.00000000 0.64233702
0.94312123 0.20260815 0.63051443
1.00000000 0.41553253 0.63254922
1.00000000 0.62648180 0.65367195
0.00000000 0.00000000 0.76308809
0.00000000 0.00000000 0.78229311
0.00000000 0.00000000 0.79873572
0.24414755 0.00000000 0.80520889
0.58914764 0.00000000 0.79259215
0.80622588 0.14947520 0.77307272
0.96037353 0.31733554 0.75474604
1.00000000 0.48735533 0.75061037
1.00000000 0.64655145 0.76085518
0.00000000 0.50840071 0.82353899
0.00000000 0.51558843 0.83276992
0.00000000 0.52538640 0.83995946
0.29078451 0.53676985 0.84328685
0.61110410 0.55049527 0.83953461
0.81828419 0.57791727 0.82587058
0.96264175 0.61934369 0.81080322
1.00000000 0.67600506 0.80539056
1.00000000 0.74164288 0.81031510
0.11579015 0.82049522 0.82389688
0.13783210 0.81981357 0.82537540
0.23082505 0.81895002 0.82581062
0.41272882 0.81814864 0.82509282
0.64411610 0.81779303 0.82289009
0.81753404 0.81753405 0.81753406
0.95046820 0.82039716 0.81099045
1.00000000 0.83217161 0.80982125
1.00000000 0.85416527 0.81702473
0.40995788 0.99941877 0.76340578
0.40590373 0.98811152 0.76606936
0.44187579 0.97660058 0.76960989
0.55077663 0.96624371 0.77357952
0.68831600 0.95701983 0.77746509
0.81737311 0.94887325 0.78065090
0.92935285 0.94160316 0.78549996
1.00000000 0.93748372 0.79592392
1.00000000 0.94156679 0.81333766
0.62373392 1.00000000 0.66258364
0.60046959 1.00000000 0.68360745
0.60441689 1.00000000 0.70156137
0.65195991 1.00000000 0.71807014
0.73501772 1.00000000 0.73424251
0.82920870 1.00000000 0.75105493
0.91663255 1.00000000 0.76982994
0.98701461 1.00000000 0.80889139
1.00000000 0.99077234 0.89274208
0.73291955 1.00000000 0.35310707
0.70342995 1.00000000 0.51515446
0.69473869 1.00000000 0.60465139
0.71999674 1.00000000 0.66176241
0.77754699 1.00000000 0.70602727
0.85197608 1.00000000 0.75183481
0.93811488 1.00000000 0.85115111
0.98680058 1.00000000 0.94366780
0.99784508 0.99988805 0.98106728
0.00000000 0.00000000 0.37625603
0.00000000 0.00000000 0.35440124
0.00000000 0.00000000 0.35859496
0.19285327 0.00000000 0.34532868
0.41460741 0.00000000 0.32606615
0.67216913 0.07077205 0.31236045
0.86270850 0.21947749 0.30495610
1.00000000 0.37619529 0.30657807
1.00000000 0.59419050 0.33751978
0.00000000 0.00000000 0.50223501
0.00000000 0.00000000 0.52450827
0.00000000 0.00000000 0.54915447
0.18345765 0.00000000 0.55959745
0.44990628 0.00000000 0.54724331
0.70855501 0.00000000 0.53472282
0.88984442 0.15216057 0.52669797
1.00000000 0.35036106 0.52637147
1.00000000 0.57695140 0.56325844
0.00000000 0.00000000 0.68922728
0.00000000 0.00000000 0.71274593
0.00000000 0.00000000 0.73489037
0.14983282 0.00000000 0.75171642
0.49088621 0.00000000 0.74712866
0.74691700 0.00000000 0.73872275
0.91935091 0.00000000 0.73215477
1.00000000 0.29230464 0.73110308
1.00000000 0.53555754 0.75139621
0.00000000 0.00000000 0.84972890
0.00000000 0.00000000 0.86844110
0.00000000 0.00000000 0.88463859
0.00000000 0.00000000 0.89878788
0.52633500 0.00000000 0.89401490
0.77920580 0.00000000 0.88181598
0.93963283 0.00000000 0.86789872
1.00000000 0.32236094 0.85897565
1.00000000 0.55096788 0.86641100
0.00000000 0.21064102 0.96619411
0.00000000 0.19536310 0.97533654
0.00000000 0.20182974 0.98165441
0.00000000 0.23929905 0.98472040
0.56520895 0.30332682 0.97334938
0.79946379 0.39090797 0.95542512
0.94698171 0.49460436 0.93622582
1.00000000 0.59703952 0.92282098
1.00000000 0.68752579 0.92117156
0.00000000 0.75751080 0.99395561
0.00000000 0.75704401 0.99244675
0.00000000 0.75850008 0.98887946
0.27370441 0.76185247 0.98308556
0.60783698 0.76572076 0.97487298
0.80342794 0.77109913 0.96399524
0.93872381 0.78204541 0.94815636
1.00000000 0.80059241 0.93421639
1.00000000 0.82882494 0.92995868
0.17707693 0.96980271 0.97258443
0.20396676 0.95872421 0.96369708
0.30152355 0.94878164 0.95512291
0.47738102 0.94021214 0.94701667
0.66743950 0.93294127 0.93908388
0.80892102 0.92707811 0.93109485
0.92247302 0.92247303 0.92247305
1.00000000 0.92106932 0.91553745
1.00000000 0.92956829 0.91984608
0.53280934 1.00000000 0.91746881
0.51508587 1.00000000 0.90886299
0.54184741 1.00000000 0.90188020
0.62031151 1.00000000 0.89656459
0.72345866 1.00000000 0.89300834
0.82477630 1.00000000 0.89134308
0.91387767 0.99977503 0.89396341
0.98065581 0.98704025 0.92108891
0.99697281 0.98350879 0.96027285
0.68513106 1.00000000 0.83956156
0.65911317 1.00000000 0.84427349
0.66166103 1.00000000 0.84946337
0.70368923 1.00000000 0.85569202
0.77429858 1.00000000 0.86369151
0.87260532 1.00000000 0.89550341
0.95845996 1.00000000 0.94729088
0.99008271 0.99911440 0.97995846
0.99758271 0.99815042 0.99309515
0.00000000 0.00000000 0.42498444
0.00000000 0.00000000 0.41083451
0.00000000 0.00000000 0.42172881
0.15941631 0.00000000 0.42054289
0.38209235 0.00000000 0.40108093
0.64500477 0.00000000 0.38597347
0.83605919 0.17017616 0.37670313
0.99320357 0.32727786 0.37651139
1.00000000 0.53163632 0.40339569
0.00000000 0.00000000 0.57978869
0.00000000 0.00000000 0.60104695
0.00000000 0.00000000 0.62352886
0.11911647 0.00000000 0.64168287
0.40570122 0.00000000 0.63524529
0.67820080 0.00000000 0.62576676
0.86353274 0.00000000 0.62015027
1.00000000 0.26276351 0.61833147
1.00000000 0.48650901 0.64343444
0.00000000 0.00000000 0.75788915
0.00000000 0.00000000 0.77939882
0.00000000 0.00000000 0.79954218
0.00000000 0.00000000 0.81826815
0.42753731 0.00000000 0.81956235
0.71504111 0.00000000 0.81361515
0.89169387 0.00000000 0.80756147
1.00000000 0.00000000 0.80456276
1.00000000 0.39192264 0.82276891
0.00000000 0.00000000 0.91487033
0.00000000 0.00000000 0.93117103
0.00000000 0.00000000 0.94565725
0.00000000 0.00000000 0.95905402
0.43474609 0.00000000 0.96243674
0.74407306 0.00000000 0.95560550
0.91309733 0.00000000 0.94617116
1.00000000 0.00000000 0.93728798
1.00000000 0.35293193 0.94534939
0.00000000 0.00000000 1.00000000
0.00000000 0.00000000 1.00000000
0.00000000 0.00000000 1.00000000
0.00000000 0.00000000 1.00000000
0.45440059 0.00000000 1.00000000
0.77056236 0.00000000 1.00000000
0.92888032 0.11672965 1.00000000
1.00000000 0.40694720 1.00000000
1.00000000 0.59076160 1.00000000
0.00000000 0.59515175 1.00000000
0.00000000 0.59785109 1.00000000
0.00000000 0.61287436 1.00000000
0.00000000 0.63596188 1.00000000
0.53177326 0.66034390 1.00000000
0.78307248 0.68685669 1.00000000
0.92332468 0.71800799 1.00000000
1.00000000 0.75234014 1.00000000
1.00000000 0.79417682 1.00000000
0.00000000 0.91942722 1.00000000
0.00000000 0.91035040 1.00000000
0.00000000 0.90362713 1.00000000
0.30727209 0.89877380 1.00000000
0.62607643 0.89522147 1.00000000
0.79676794 0.89355070 1.00000000
0.91321362 0.89423465 1.00000000
0.99626832 0.90046459 1.00000000
1.00000000 0.92390862 0.98303359
0.24242600 1.00000000 1.00000000
0.27918420 1.00000000 1.00000000
0.38566446 1.00000000 1.00000000
0.55481449 1.00000000 1.00000000
0.70394765 1.00000000 1.00000000
0.82050546 0.99098094 0.99600491
0.92082632 0.98050045 0.98289381
0.97747847 0.97747849 0.97747852
0.98997122 0.98285228 0.98250404
0.59057237 1.00000000 1.00000000
0.57561072 1.00000000 0.99838859
0.60649003 1.00000000 0.98577246
0.68045798 1.00000000 0.97534273
0.78562151 1.00000000 0.96865615
0.90942371 1.00000000 0.97276434
0.97593265 0.99808236 0.98457608
0.99310002 0.99648439 0.99251522
0.99811804 0.99823877 0.99717452
0.00000000 0.00000000 0.47319831
0.00000000 0.00000000 0.47051550
0.00000000 0.00000000 0.48545611
0.11560556 0.00000000 0.49631567
0.34635610 0.00000000 0.47917578
0.61261751 0.00000000 0.46334945
0.80754893 0.08481341 0.45467066
0.96234528 0.26950852 0.45332948
1.00000000 0.45405053 0.47540295
0.00000000 0.00000000 0.64239572
0.00000000 0.00000000 0.66284574
0.00000000 0.00000000 0.68376796
0.00000000 0.00000000 0.70481898
0.35505997 0.00000000 0.70483901
0.64405563 0.00000000 0.69871111
0.83459007 0.00000000 0.69451828
0.98113851 0.10343501 0.69436184
1.00000000 0.36840539 0.71017822
0.00000000 0.00000000 0.81558378
0.00000000 0.00000000 0.83540326
0.00000000 0.00000000 0.85379377
0.00000000 0.00000000 0.87135929
0.35090597 0.00000000 0.87938089
0.67769820 0.00000000 0.87595623
0.86202373 0.00000000 0.87083701
0.99766963 0.00000000 0.86791147
1.00000000 0.15021735 0.88128501
0.00000000 0.00000000 0.97000652
0.00000000 0.00000000 0.98428799
0.00000000 0.00000000 0.99737079
0.00000000 0.00000000 1.00000000
0.31435323 0.00000000 1.00000000
0.70263250 0.00000000 1.00000000
0.88474552 0.00000000 1.00000000
1.00000000 0.00000000 0.99804825
1.00000000 0.00000000 1.00000000
0.00000000 0.00000000 1.00000000
0.00000000 0.00000000 1.00000000
0.00000000 0.00000000 1.00000000
0.00000000 0.00000000 1.00000000
0.27057287 0.00000000 1.00000000
0.72968102 0.00000000 1.00000000
0.90443682 0.00000000 1.00000000
1.00000000 0.00000000 1.00000000
1.00000000 0.37533456 1.00000000
0.00000000 0.00000000 1.00000000
0.00000000 0.00000000 1.00000000
0.00000000 0.00000000 1.00000000
0.00000000 0.00000000 1.00000000
0.37454850 0.26042915 1.00000000
0.76037914 0.46219542 1.00000000
0.90926443 0.59777522 1.00000000
1.00000000 0.68353127 1.00000000
1.00000000 0.75696761 1.00000000
0.00000000 0.82655885 1.00000000
0.00000000 0.82455906 1.00000000
0.00000000 0.82697547 1.00000000
0.00000000 0.83320063 1.00000000
0.55448687 0.84061774 1.00000000
0.78208654 0.84978916 1.00000000
0.90469905 0.86184895 1.00000000
0.97890057 0.89248843 1.00000000
0.99224888 0.93398307 0.99928352
0.00000000 1.00000000 1.00000000
0.00000000 1.00000000 1.00000000
0.00000000 0.99233667 1.00000000
0.43158547 0.98176854 1.00000000
0.68259178 0.97334874 1.00000000
0.83200162 0.96718440 1.00000000
0.93805904 0.96807238 1.00000000
0.97850725 0.97677898 0.99158736
0.98816105 0.98475736 0.98873164
0.30446202 1.00000000 1.00000000
0.36724208 1.00000000 1.00000000
0.50195346 1.00000000 1.00000000
0.65824672 1.00000000 1.00000000
0.83314540 1.00000000 1.00000000
0.94961214 0.99711526 0.99908932
0.98530413 0.99438271 0.99480584
0.99522313 0.99639553 0.99645153
0.99884165 0.99884167 0.99884171
