resources/flame/Syncolor/Shared/transforms/camera_manufacturer_luts/arri/ARRI_Alexa_LUTs/ARRI_LogC3_v1-2_LUT_Package/LUTs/ARRI_LogC3-to-St2084_4K_Rec2100-D65_DW100_v1_33.cube
LUT_3D_SIZE 9
0.006302 0.006302 0.006302
0.104173 0.027924 0.006302
0.205234 0.068299 0.012955
0.310948 0.120958 0.027359
0.429923 0.191394 0.051255
0.552224 0.275074 0.085817
0.675532 0.370352 0.132631
0.799878 0.477012 0.193957
0.902571 0.593225 0.271092
0.017090 0.057206 0.006302
0.050904 0.053880 0.006302
0.176745 0.071336 0.006302
0.302815 0.121508 0.021485
0.428794 0.192416 0.049180
0.554910 0.277729 0.085878
0.680949 0.375051 0.134600
0.803433 0.480323 0.195743
0.902571 0.588602 0.267674
0.073213 0.184863 0.006302
0.082551 0.185672 0.006302
0.181262 0.188922 0.006302
0.307485 0.202243 0.006302
0.435904 0.237903 0.006302
0.562783 0.301732 0.051728
0.684993 0.386145 0.123461
0.799298 0.480034 0.187457
0.902571 0.574670 0.253666
0.150576 0.320729 0.006302
0.155840 0.323796 0.006302
0.212177 0.327214 0.006302
0.321874 0.332647 0.006302
0.445457 0.344961 0.006302
0.567559 0.372808 0.006302
0.681804 0.421836 0.006302
0.786160 0.488441 0.119890
0.879347 0.562966 0.213840
0.244266 0.459327 0.006302
0.248219 0.462608 0.006302
0.275013 0.464775 0.006302
0.350423 0.466285 0.006302
0.456748 0.469398 0.006302
0.568170 0.478202 0.006302
0.673930 0.497810 0.006302
0.769802 0.531518 0.006302
0.853346 0.576776 0.006302
0.347127 0.593194 0.006302
0.347295 0.592386 0.006302
0.357214 0.590234 0.006302
0.399023 0.587778 0.006302
0.478599 0.586770 0.006302
0.575280 0.588922 0.006302
0.671504 0.596582 0.006302
0.759335 0.611902 0.006302
0.837064 0.635584 0.006302
0.448692 0.713130 0.006302
0.444373 0.707576 0.006302
0.446006 0.702113 0.006302
0.467536 0.697642 0.006302
0.521386 0.694820 0.006302
0.599664 0.694591 0.006302
0.684337 0.698421 0.006302
0.764843 0.707134 0.006302
0.836927 0.721065 0.006302
0.545571 0.819303 0.006302
0.538354 0.811048 0.006302
0.535775 0.803540 0.006302
0.546929 0.797253 0.006302
0.583261 0.793332 0.006302
0.643809 0.792630 0.006302
0.715724 0.795300 0.006302
0.787503 0.801633 0.006302
0.852873 0.811826 0.006302
0.637812 0.902571 0.006302
0.627558 0.902571 0.006302
0.622065 0.893919 0.006302
0.628794 0.887236 0.006302
0.655375 0.883528 0.006302
0.703075 0.882719 0.006302
0.763470 0.884688 0.006302
0.825864 0.889357 0.006302
0.882734 0.896544 0.006302
0.006302 0.006302 0.109255
0.091737 0.006302 0.086351
0.197101 0.058579 0.065126
0.307713 0.118090 0.056275
0.429541 0.190784 0.067887
0.552346 0.275044 0.094057
0.676036 0.370718 0.136538
0.800183 0.477256 0.195758
0.902571 0.589990 0.269551
0.006302 0.050797 0.050874
0.048051 0.048051 0.048051
0.177844 0.068559 0.046662
0.304051 0.121126 0.051453
0.430182 0.192966 0.066300
0.556466 0.278737 0.095216
0.680766 0.374868 0.139101
0.799603 0.476860 0.196109
0.902571 0.579492 0.262791
0.072602 0.184924 0.006302
0.081788 0.186252 0.006302
0.181872 0.189364 0.006302
0.309621 0.202686 0.006302
0.437827 0.238773 0.006302
0.562875 0.301991 0.075578
0.681727 0.383886 0.131197
0.791028 0.473060 0.188434
0.889891 0.562646 0.249134
0.151095 0.321889 0.006302
0.156405 0.325170 0.006302
0.212512 0.328573 0.006302
0.322911 0.333639 0.006302
0.446113 0.345846 0.006302
0.565713 0.373144 0.006302
0.676463 0.420005 0.006302
0.776806 0.482658 0.139986
0.865156 0.551705 0.217411
0.245167 0.460685 0.006302
0.248844 0.463554 0.006302
0.275593 0.465141 0.006302
0.351263 0.466285 0.006302
0.456825 0.469413 0.006302
0.566232 0.478447 0.006302
0.668894 0.497704 0.006302
0.760647 0.529397 0.006302
0.839902 0.570855 0.006302
0.346593 0.592599 0.006302
0.346212 0.590982 0.006302
0.356741 0.588373 0.006302
0.400153 0.586221 0.006302
0.479988 0.585748 0.006302
0.575067 0.588632 0.006302
0.668360 0.597009 0.006302
0.753170 0.612543 0.006302
0.827802 0.635355 0.006302
0.445457 0.709499 0.006302
0.441123 0.703716 0.006302
0.444053 0.698589 0.006302
0.468254 0.694652 0.006302
0.524331 0.692592 0.006302
0.602167 0.693599 0.006302
0.684703 0.698680 0.006302
0.762432 0.708339 0.006302
0.831403 0.722744 0.006302
0.539956 0.813352 0.006302
0.533150 0.805280 0.006302
0.532082 0.798154 0.006302
0.546670 0.792782 0.006302
0.586603 0.790372 0.006302
0.648325 0.791043 0.006302
0.719127 0.795010 0.006302
0.788571 0.802533 0.006302
0.850919 0.813642 0.006302
0.629526 0.902571 0.006302
0.619974 0.895506 0.006302
0.617166 0.887404 0.006302
0.627832 0.882216 0.006302
0.658656 0.879911 0.006302
0.708888 0.880369 0.006302
0.769299 0.883482 0.006302
0.829816 0.889143 0.006302
0.882277 0.895583 0.006302
0.006302 0.006302 0.181643
0.060594 0.006302 0.166018
0.185733 0.006302 0.152575
0.304265 0.095247 0.151278
0.427741 0.182879 0.158282
0.551507 0.271824 0.169619
0.675883 0.369558 0.190188
0.798062 0.474937 0.226566
0.902571 0.583551 0.281849
0.006302 0.006302 0.161089
0.006302 0.006302 0.167025
0.172488 0.006302 0.170672
0.303166 0.086534 0.174166
0.430625 0.183246 0.179431
0.556680 0.275273 0.188037
0.678538 0.371664 0.204196
0.793133 0.470512 0.233829
0.896895 0.567178 0.278660
0.031144 0.173617 0.172580
0.050813 0.174517 0.176104
0.177722 0.177722 0.177722
0.310964 0.193149 0.179522
0.438605 0.233051 0.184558
0.561440 0.298268 0.194141
0.676432 0.378698 0.211658
0.781476 0.464378 0.239658
0.875715 0.549172 0.277913
0.144335 0.320455 0.142702
0.150088 0.323949 0.143832
0.209369 0.327489 0.144152
0.323003 0.332296 0.148821
0.446433 0.344488 0.163760
0.563256 0.371588 0.183566
0.670542 0.416815 0.208545
0.766659 0.475868 0.239841
0.849912 0.539605 0.276402
0.243412 0.460929 0.006302
0.246815 0.463264 0.006302
0.274434 0.464454 0.006302
0.351400 0.465492 0.006302
0.456764 0.468803 0.006302
0.564370 0.478096 0.006302
0.663737 0.497108 0.124498
0.751263 0.527062 0.212268
0.827268 0.565591 0.268681
0.344564 0.591028 0.006302
0.343771 0.588739 0.006302
0.355535 0.586175 0.006302
0.401083 0.584466 0.006302
0.481468 0.584634 0.006302
0.575113 0.588312 0.006302
0.665797 0.597482 0.006302
0.747707 0.613260 0.006302
0.819196 0.635386 0.230472
0.441337 0.705226 0.006302
0.437354 0.699626 0.006302
0.441917 0.694942 0.006302
0.469245 0.691661 0.006302
0.527642 0.690623 0.006302
0.605005 0.692943 0.006302
0.685542 0.699168 0.006302
0.760571 0.709697 0.006302
0.826413 0.724559 0.006302
0.533928 0.807156 0.006302
0.527687 0.799344 0.006302
0.528573 0.792798 0.006302
0.547158 0.788876 0.006302
0.590524 0.787869 0.006302
0.653269 0.789853 0.006302
0.722972 0.795026 0.006302
0.790112 0.803647 0.006302
0.849393 0.815579 0.006302
0.620920 0.897597 0.006302
0.612970 0.888060 0.006302
0.613107 0.881498 0.006302
0.627878 0.877729 0.006302
0.662898 0.876738 0.006302
0.715404 0.878370 0.006302
0.775631 0.882521 0.006302
0.834318 0.888533 0.006302
0.880781 0.892699 0.621195
0.006302 0.006302 0.227924
0.006302 0.006302 0.218006
0.171374 0.006302 0.212848
0.298878 0.006302 0.220920
0.424292 0.157610 0.232181
0.549248 0.261997 0.245182
0.673289 0.364080 0.261631
0.792462 0.468467 0.284749
0.902571 0.572656 0.319280
0.006302 0.006302 0.237110
0.006302 0.006302 0.248173
0.155123 0.006302 0.258656
0.297978 0.006302 0.268482
0.428458 0.122972 0.278355
0.554055 0.257221 0.288518
0.673381 0.361135 0.300145
0.783368 0.459068 0.315618
0.882414 0.552041 0.338155
0.006302 0.104280 0.278248
0.006302 0.073106 0.288899
0.152102 0.006302 0.299077
0.305257 0.096544 0.305882
0.436225 0.188754 0.311391
0.557671 0.277272 0.317586
0.669261 0.365240 0.325551
0.770672 0.451545 0.337057
0.860075 0.532967 0.353750
0.078599 0.308034 0.303761
0.085435 0.310246 0.310292
0.188220 0.313085 0.315297
0.318196 0.318196 0.318196
0.445274 0.332341 0.321706
0.559854 0.361975 0.328237
0.663722 0.408255 0.337728
0.755505 0.465675 0.351171
0.833722 0.525475 0.369116
0.229358 0.457328 0.291066
0.232715 0.459098 0.294484
0.265309 0.460060 0.298360
0.347997 0.461601 0.302907
0.455741 0.465248 0.310887
0.562371 0.474922 0.325917
0.658305 0.494148 0.344472
0.742336 0.523186 0.366079
0.815229 0.559655 0.390311
0.337911 0.587671 0.006302
0.336934 0.584985 0.006302
0.350942 0.582757 0.147158
0.400214 0.581674 0.214618
0.482246 0.582589 0.261692
0.575158 0.587121 0.304936
0.663706 0.597070 0.344686
0.742779 0.613184 0.382269
0.811078 0.634897 0.419257
0.435309 0.700328 0.006302
0.431754 0.695003 0.006302
0.438346 0.690822 0.006302
0.469642 0.688319 0.006302
0.530617 0.688609 0.006302
0.607828 0.692149 0.146899
0.686641 0.699382 0.328313
0.759121 0.710750 0.403784
0.821820 0.726101 0.463035
0.526879 0.800580 0.006302
0.521294 0.793103 0.006302
0.524895 0.787732 0.006302
0.547723 0.785229 0.006302
0.594598 0.785550 0.006302
0.658381 0.788754 0.006302
0.727077 0.795056 0.295567
0.792004 0.804669 0.454139
0.847395 0.817166 0.544900
0.612085 0.889143 0.006302
0.606180 0.881163 0.006302
0.609384 0.875990 0.006302
0.628550 0.873564 0.006302
0.667811 0.873777 0.006302
0.722438 0.876478 0.006302
0.782361 0.881544 0.398672
0.840131 0.885084 0.618753
0.879789 0.888914 0.753613
0.006302 0.006302 0.261021
0.006302 0.006302 0.253544
0.154772 0.006302 0.254871
0.292058 0.006302 0.268101
0.419669 0.084154 0.282826
0.545541 0.244358 0.299168
0.667781 0.353521 0.317266
0.783291 0.457496 0.338048
0.888350 0.556939 0.363668
0.006302 0.006302 0.288075
0.006302 0.006302 0.303243
0.117388 0.006302 0.318822
0.289113 0.006302 0.334173
0.423255 0.006302 0.348898
0.548363 0.205432 0.362875
0.664805 0.338613 0.376410
0.770550 0.440833 0.390387
0.865660 0.532753 0.406516
0.006302 0.006302 0.351019
0.006302 0.006302 0.366537
0.006302 0.006302 0.381277
0.290394 0.006302 0.393881
0.428977 0.006302 0.404196
0.550393 0.187396 0.413153
0.659983 0.331044 0.421897
0.757946 0.428717 0.431205
0.842603 0.510918 0.441459
0.006302 0.270436 0.404135
0.006302 0.262989 0.416251
0.006302 0.256275 0.426780
0.300038 0.256123 0.435554
0.437812 0.277928 0.440665
0.553765 0.323217 0.444663
0.655283 0.382193 0.449561
0.743008 0.445426 0.455970
0.817746 0.506493 0.464637
0.146899 0.444099 0.435126
0.145800 0.443946 0.440970
0.219791 0.444022 0.445060
0.333318 0.445884 0.448341
0.450767 0.450767 0.450767
0.559243 0.462699 0.454902
0.652354 0.484199 0.462959
0.733547 0.514336 0.474128
0.803464 0.550500 0.488441
0.315206 0.580102 0.426703
0.314733 0.577478 0.429770
0.334508 0.575647 0.434318
0.393362 0.575326 0.440742
0.480415 0.577493 0.449363
0.574502 0.583154 0.461707
0.661799 0.593988 0.479637
0.738109 0.610819 0.500114
0.803220 0.632670 0.523064
0.423560 0.693950 0.345556
0.420447 0.688914 0.372549
0.430106 0.685252 0.399161
0.467216 0.683925 0.425116
0.532097 0.685588 0.450401
0.609964 0.690349 0.476783
0.687709 0.698573 0.506020
0.757900 0.710765 0.538109
0.817472 0.726757 0.572396
0.517082 0.793256 0.006302
0.512505 0.786481 0.006302
0.519478 0.782513 0.140871
0.547204 0.781323 0.373358
0.598123 0.782879 0.446662
0.663294 0.787259 0.501015
0.731243 0.794659 0.549676
0.794064 0.805219 0.597086
0.841703 0.817273 0.666377
0.602518 0.881086 0.006302
0.598581 0.874479 0.006302
0.605158 0.870603 0.006302
0.629221 0.869383 0.006302
0.672999 0.870695 0.453254
0.729763 0.874372 0.553582
0.791653 0.878050 0.640787
0.847135 0.879896 0.743389
0.880858 0.886625 0.820447
0.006302 0.006302 0.289509
0.006302 0.006302 0.284840
0.131991 0.006302 0.292653
0.284199 0.006302 0.307515
0.414481 0.006302 0.323552
0.539940 0.213703 0.340444
0.659648 0.337789 0.358328
0.770718 0.442130 0.377966
0.870329 0.537514 0.400519
0.006302 0.006302 0.328603
0.006302 0.006302 0.345068
0.006302 0.006302 0.362188
0.277287 0.006302 0.379553
0.415808 0.006302 0.396612
0.540093 0.006302 0.413428
0.653300 0.298375 0.430076
0.755825 0.415030 0.446265
0.846830 0.508476 0.462348
0.006302 0.006302 0.400137
0.006302 0.006302 0.418769
0.006302 0.006302 0.436851
0.266255 0.006302 0.453605
0.417914 0.006302 0.468177
0.540566 0.006302 0.480858
0.648569 0.230610 0.492256
0.743114 0.387198 0.502525
0.823011 0.478981 0.511742
0.006302 0.110735 0.472450
0.006302 0.006302 0.488396
0.006302 0.006302 0.502266
0.258106 0.006302 0.513802
0.423789 0.006302 0.522652
0.543877 0.006302 0.529046
0.644343 0.305592 0.534264
0.729274 0.402762 0.539406
0.801694 0.475914 0.545632
0.006302 0.415885 0.527108
0.006302 0.409628 0.536110
0.006302 0.405020 0.543130
0.290517 0.403998 0.548928
0.437812 0.409354 0.553750
0.551293 0.427207 0.556298
0.644831 0.456550 0.559640
0.724269 0.493080 0.565377
0.791608 0.533181 0.573556
0.222797 0.565301 0.552255
0.217731 0.561563 0.555673
0.271183 0.559426 0.558572
0.369146 0.559670 0.561654
0.472496 0.563470 0.565881
0.571237 0.571237 0.571237
0.659251 0.584482 0.579232
0.733150 0.603510 0.590997
0.795224 0.626795 0.605859
0.393378 0.683864 0.548089
0.391348 0.679133 0.551934
0.408301 0.676341 0.557946
0.457252 0.676448 0.566384
0.530083 0.679606 0.577111
0.610330 0.685969 0.590005
0.688273 0.695460 0.606394
0.756725 0.708736 0.627787
0.813169 0.725826 0.652140
0.500130 0.784390 0.515938
0.497353 0.778882 0.535836
0.508873 0.776181 0.555962
0.543511 0.776226 0.577050
0.600092 0.779019 0.599695
0.667491 0.784634 0.624384
0.735149 0.793271 0.651987
0.795621 0.803998 0.689631
0.835004 0.816678 0.746487
0.590036 0.872877 0.413703
0.588144 0.867521 0.500511
0.598871 0.864805 0.554742
0.628977 0.864683 0.598932
0.678035 0.867002 0.639429
0.738247 0.870893 0.681590
0.804959 0.871336 0.747051
0.854856 0.875425 0.812375
0.884108 0.887190 0.856291
0.006302 0.006302 0.314031
0.006302 0.006302 0.313191
0.086076 0.006302 0.326162
0.275013 0.006302 0.342351
0.408286 0.006302 0.359365
0.532692 0.137011 0.376669
0.649256 0.313893 0.394385
0.755337 0.421744 0.412787
0.850752 0.515496 0.432898
0.006302 0.006302 0.364462
0.006302 0.006302 0.382086
0.006302 0.006302 0.400320
0.260685 0.006302 0.418326
0.406485 0.006302 0.435798
0.529824 0.006302 0.452674
0.640375 0.213184 0.469291
0.739574 0.379522 0.486183
0.826200 0.478416 0.503456
0.006302 0.006302 0.440894
0.006302 0.006302 0.460044
0.006302 0.006302 0.478355
0.228412 0.006302 0.495552
0.404578 0.006302 0.511635
0.529213 0.006302 0.527214
0.635554 0.006302 0.541863
0.726543 0.297368 0.554223
0.802579 0.431327 0.564477
0.006302 0.006302 0.518654
0.006302 0.006302 0.536339
0.006302 0.006302 0.552667
0.110079 0.006302 0.567422
0.404425 0.006302 0.579385
0.531273 0.006302 0.588525
0.631418 0.006302 0.595346
0.714977 0.285008 0.601328
0.785321 0.421424 0.607248
0.006302 0.362280 0.588617
0.006302 0.332341 0.600549
0.006302 0.299657 0.610193
0.006302 0.274800 0.617762
0.415732 0.283452 0.623316
0.539544 0.330907 0.627344
0.635126 0.390906 0.630991
0.713878 0.449027 0.635386
0.779171 0.501946 0.641138
0.006302 0.541222 0.633188
0.006302 0.534096 0.638422
0.006302 0.529931 0.642313
0.299641 0.529946 0.645655
0.455741 0.535027 0.649821
0.563989 0.545541 0.654948
0.653651 0.563424 0.659678
0.726955 0.587427 0.665995
0.786664 0.614771 0.674968
0.296452 0.668574 0.653590
0.293950 0.663310 0.655985
0.343053 0.661234 0.659205
0.429114 0.662577 0.663752
0.521416 0.667353 0.669871
0.608118 0.675700 0.677821
0.687449 0.687449 0.687449
0.755169 0.703212 0.699977
0.804364 0.723293 0.717388
0.463752 0.772763 0.657908
0.464088 0.768444 0.663615
0.485115 0.767041 0.671107
0.532921 0.768429 0.680964
0.599207 0.772641 0.693446
0.670634 0.779843 0.708614
0.738964 0.789899 0.727291
0.797162 0.801328 0.757717
0.830823 0.817655 0.795071
0.569879 0.863645 0.653361
0.570779 0.859419 0.670283
0.587854 0.857801 0.688914
0.626642 0.858762 0.709590
0.682704 0.862119 0.732479
0.753597 0.862715 0.766705
0.820661 0.864485 0.810986
0.862501 0.874876 0.848203
0.888518 0.889677 0.878920
0.006302 0.006302 0.335317
0.006302 0.006302 0.339696
0.006302 0.006302 0.355795
0.263905 0.006302 0.373068
0.400702 0.006302 0.390661
0.523796 0.006302 0.408286
0.636606 0.275257 0.425879
0.738659 0.395987 0.443809
0.829847 0.490181 0.462623
0.006302 0.006302 0.396216
0.006302 0.006302 0.414893
0.006302 0.006302 0.433707
0.236286 0.006302 0.452079
0.395102 0.006302 0.469718
0.518242 0.006302 0.486625
0.626627 0.006302 0.503288
0.722255 0.321294 0.519738
0.804166 0.439689 0.535988
0.006302 0.006302 0.476707
0.006302 0.006302 0.496010
0.006302 0.006302 0.514290
0.127810 0.006302 0.531304
0.388479 0.006302 0.547463
0.516808 0.006302 0.562890
0.621454 0.006302 0.577539
0.708843 0.006302 0.591089
0.782513 0.346654 0.603601
0.006302 0.006302 0.557244
0.006302 0.006302 0.574487
0.006302 0.006302 0.590433
0.006302 0.006302 0.605234
0.380133 0.006302 0.618479
0.517021 0.006302 0.630137
0.617884 0.006302 0.639460
0.700404 0.006302 0.647227
0.768811 0.262898 0.653925
0.006302 0.225544 0.630137
0.006302 0.006302 0.643687
0.006302 0.006302 0.655848
0.006302 0.006302 0.665553
0.380926 0.006302 0.672816
0.525338 0.006302 0.678660
0.624125 0.006302 0.683497
0.702647 0.334447 0.687953
0.766186 0.444724 0.692592
0.006302 0.504753 0.687968
0.006302 0.488197 0.695308
0.006302 0.477256 0.700557
0.006302 0.474983 0.705074
0.425483 0.482673 0.709499
0.553658 0.500587 0.713893
0.646174 0.527916 0.718074
0.719448 0.561410 0.722499
0.777340 0.596841 0.728084
0.006302 0.646937 0.723323
0.006302 0.640620 0.726192
0.006302 0.638682 0.729351
0.360800 0.641062 0.733074
0.504585 0.647745 0.737636
0.604120 0.658747 0.743343
0.685328 0.673960 0.750317
0.751583 0.694438 0.757183
0.790814 0.723171 0.762661
0.366506 0.758022 0.743923
0.375570 0.754269 0.747204
0.429465 0.753780 0.751583
0.509987 0.756497 0.757351
0.594385 0.762448 0.764797
0.672877 0.771801 0.774289
0.746197 0.783581 0.785000
0.800336 0.800336 0.800336
0.831586 0.821637 0.821149
0.530434 0.852110 0.757992
0.537163 0.848905 0.765179
0.567315 0.848493 0.774350
0.621134 0.850752 0.785748
0.693050 0.852766 0.800229
0.776120 0.853147 0.820981
0.835538 0.861677 0.845609
0.870542 0.877043 0.869398
0.893950 0.894163 0.892256
0.006302 0.006302 0.354314
0.006302 0.006302 0.364752
0.006302 0.006302 0.382055
0.249714 0.006302 0.399954
0.391608 0.006302 0.417960
0.513176 0.006302 0.435798
0.622446 0.194095 0.453437
0.721004 0.361898 0.471305
0.807691 0.460273 0.489418
0.006302 0.006302 0.424384
0.006302 0.006302 0.443748
0.006302 0.006302 0.462867
0.196155 0.006302 0.481392
0.381415 0.006302 0.499046
0.505867 0.006302 0.516182
0.612131 0.006302 0.532876
0.704005 0.006302 0.548974
0.781231 0.382559 0.564401
0.006302 0.006302 0.507942
0.006302 0.006302 0.527214
0.006302 0.006302 0.545296
0.006302 0.006302 0.562280
0.368231 0.006302 0.578439
0.503212 0.006302 0.593622
0.606485 0.006302 0.607553
0.691524 0.006302 0.620462
0.762921 0.006302 0.633066
0.006302 0.006302 0.590433
0.006302 0.006302 0.607218
0.006302 0.006302 0.622934
0.006302 0.006302 0.637125
0.346731 0.006302 0.649592
0.501869 0.006302 0.660746
0.604364 0.006302 0.671611
0.685878 0.006302 0.681483
0.752316 0.006302 0.689418
0.006302 0.006302 0.664530
0.006302 0.006302 0.677409
0.006302 0.006302 0.688808
0.006302 0.006302 0.698939
0.324941 0.006302 0.708522
0.508995 0.006302 0.716426
0.612482 0.006302 0.722683
0.691020 0.006302 0.727703
0.752880 0.273732 0.731853
0.006302 0.451606 0.725078
0.006302 0.405051 0.734310
0.006302 0.355795 0.741833
0.006302 0.325399 0.748119
0.371939 0.344656 0.753445
0.540230 0.400732 0.757916
0.638148 0.463630 0.761608
0.711513 0.522179 0.764752
0.766110 0.576303 0.766644
0.006302 0.617670 0.771740
0.006302 0.608225 0.776211
0.006302 0.605142 0.780133
0.006302 0.608774 0.783780
0.478401 0.619074 0.787350
0.598505 0.635584 0.791073
0.683314 0.657588 0.795010
0.746273 0.691020 0.791272
0.779141 0.730724 0.784344
0.006302 0.739239 0.803464
0.006302 0.735714 0.806134
0.006302 0.736217 0.809094
0.470573 0.740734 0.812604
0.587762 0.749248 0.816953
0.681239 0.761807 0.819226
0.758846 0.780484 0.816480
0.806119 0.803998 0.821515
0.834760 0.828168 0.835813
0.439124 0.838361 0.826932
0.467247 0.836011 0.830671
0.532876 0.836820 0.835630
0.616205 0.839841 0.841245
0.718379 0.840452 0.843015
0.801251 0.847684 0.849332
0.848310 0.863340 0.863996
0.878965 0.881468 0.881590
0.899992 0.899992 0.899992
