resources/flame/Syncolor/Shared/transforms/camera_manufacturer_luts/arri/ARRI_Alexa_LUTs/ARRI_LogC3_v1-2_LUT_Package/LUTs/ARRI_LogC3-to-St2084_1K_Rec2100-D65_DW200_v1_33.cube
LUT_3D_SIZE 33
0.006302 0.006302 0.006302
0.027924 0.006302 0.006302
0.053681 0.012146 0.006302
0.078996 0.019638 0.006302
0.104173 0.027924 0.006302
0.129335 0.036957 0.006302
0.154528 0.046708 0.008042
0.179812 0.057145 0.010330
0.205234 0.068299 0.012955
0.230869 0.080140 0.015900
0.256886 0.092790 0.019242
0.283513 0.106355 0.023041
0.310948 0.120958 0.027359
0.339422 0.136782 0.032288
0.369131 0.153994 0.037949
0.399542 0.172351 0.044312
0.430106 0.191501 0.051301
0.460807 0.211475 0.058961
0.491646 0.232242 0.067323
0.522621 0.253819 0.076432
0.553735 0.276188 0.086305
0.584985 0.299351 0.097002
0.616358 0.323308 0.108537
0.647868 0.348058 0.120974
0.679500 0.373602 0.134356
0.711269 0.399939 0.148714
0.743145 0.427054 0.164080
0.751827 0.454963 0.180529
0.751827 0.483665 0.198093
0.751827 0.513146 0.216800
0.751827 0.543206 0.236606
0.751827 0.573724 0.257404
0.751827 0.604608 0.279210
0.006302 0.011063 0.006302
0.006302 0.006302 0.006302
0.030030 0.006302 0.006302
0.056321 0.012894 0.006302
0.082307 0.020676 0.006302
0.108263 0.029328 0.006302
0.134356 0.038849 0.006409
0.160876 0.049271 0.008591
0.188022 0.060685 0.011139
0.216037 0.073213 0.014160
0.245121 0.087007 0.017700
0.275395 0.102159 0.021836
0.306020 0.118288 0.026551
0.336767 0.135286 0.031800
0.367651 0.153124 0.037644
0.398657 0.171801 0.044114
0.429770 0.191302 0.051225
0.461021 0.211612 0.059022
0.492378 0.232746 0.067536
0.523857 0.254688 0.076814
0.555459 0.277440 0.086885
0.587167 0.300999 0.097780
0.618997 0.325338 0.109545
0.650919 0.350484 0.122225
0.682963 0.376425 0.135866
0.715099 0.403159 0.150500
0.747341 0.430671 0.166186
0.751827 0.458976 0.182940
0.751827 0.487968 0.200778
0.751827 0.517464 0.219608
0.751827 0.547387 0.239414
0.751827 0.577676 0.260166
0.751827 0.608240 0.281819
0.006302 0.022156 0.006302
0.006302 0.015213 0.006302
0.007828 0.008423 0.006302
0.035248 0.007630 0.006302
0.063005 0.014801 0.006302
0.091142 0.023529 0.006302
0.120027 0.033524 0.006302
0.149966 0.044892 0.007660
0.180789 0.057572 0.010437
0.211734 0.071244 0.013672
0.242756 0.085847 0.017395
0.273884 0.101381 0.021622
0.305104 0.117800 0.026398
0.336446 0.135103 0.031739
0.367880 0.153262 0.037690
0.399420 0.172259 0.044282
0.431052 0.192111 0.051530
0.462791 0.212787 0.059480
0.494621 0.234287 0.068177
0.526543 0.256596 0.077638
0.558572 0.279728 0.087907
0.590692 0.303655 0.099031
0.622889 0.328374 0.111055
0.655192 0.353902 0.123995
0.687572 0.380224 0.137911
0.720027 0.407324 0.152834
0.751827 0.435187 0.168811
0.751827 0.463615 0.185748
0.751827 0.492531 0.203647
0.751827 0.521874 0.222477
0.751827 0.551553 0.242222
0.751827 0.581506 0.262821
0.751827 0.611612 0.284260
0.009796 0.035691 0.006302
0.008179 0.030549 0.006302
0.006851 0.026184 0.006302
0.021866 0.023331 0.006302
0.052689 0.024201 0.006302
0.084337 0.028992 0.006302
0.115938 0.036851 0.006302
0.147494 0.047044 0.006302
0.179065 0.058946 0.008865
0.210651 0.072251 0.012512
0.242313 0.086732 0.016541
0.274022 0.102281 0.021012
0.305806 0.118822 0.025986
0.337667 0.136309 0.031525
0.369619 0.154711 0.037659
0.401633 0.173983 0.044434
0.433738 0.194125 0.051881
0.465904 0.215106 0.060044
0.498146 0.236927 0.068940
0.530480 0.259571 0.078645
0.562860 0.283040 0.089158
0.595331 0.307301 0.100542
0.627863 0.332372 0.112825
0.660472 0.358251 0.126055
0.693126 0.384894 0.140261
0.725704 0.412207 0.155428
0.751827 0.440055 0.171527
0.751827 0.468391 0.188525
0.751827 0.497124 0.206439
0.751827 0.526207 0.225208
0.751827 0.555535 0.244831
0.751827 0.585031 0.265217
0.751827 0.614588 0.286336
0.017090 0.057206 0.006302
0.016663 0.056016 0.006302
0.016342 0.055100 0.006302
0.023453 0.054353 0.006302
0.051438 0.054444 0.006302
0.082811 0.055985 0.006302
0.114794 0.059495 0.006302
0.146899 0.065293 0.006302
0.179034 0.073411 0.006302
0.211215 0.083711 0.006302
0.243412 0.095949 0.006363
0.275654 0.109865 0.014374
0.307927 0.125261 0.021164
0.340276 0.141939 0.027909
0.372656 0.159808 0.034974
0.405112 0.178759 0.042496
0.437613 0.198718 0.050568
0.470161 0.219638 0.059281
0.502770 0.241489 0.068696
0.535424 0.264225 0.078859
0.568124 0.287831 0.089815
0.600885 0.312276 0.101625
0.633692 0.337545 0.114321
0.666468 0.363577 0.127916
0.699077 0.390219 0.142382
0.731456 0.417426 0.157733
0.751827 0.445121 0.173938
0.751827 0.473228 0.191012
0.751827 0.501671 0.208911
0.751827 0.530358 0.227588
0.751827 0.559197 0.247028
0.751827 0.588113 0.267140
0.751827 0.616983 0.287861
0.028946 0.088350 0.006302
0.028809 0.087999 0.006302
0.028702 0.087724 0.006302
0.032502 0.087587 0.006302
0.054810 0.087861 0.006302
0.084398 0.088853 0.006302
0.115984 0.090883 0.006302
0.148226 0.094301 0.006302
0.180713 0.099428 0.006302
0.213291 0.106447 0.006302
0.245930 0.115480 0.006302
0.278614 0.126513 0.006302
0.311315 0.139422 0.006302
0.344060 0.154086 0.010163
0.376837 0.170336 0.024170
0.409644 0.188052 0.034913
0.442481 0.207080 0.045090
0.475364 0.227314 0.055360
0.508263 0.248661 0.065995
0.541207 0.271077 0.077165
0.574166 0.294469 0.088991
0.607126 0.318791 0.101549
0.639963 0.343877 0.114839
0.672602 0.369665 0.128893
0.704997 0.396063 0.143725
0.737102 0.422980 0.159335
0.751827 0.450355 0.175738
0.751827 0.478065 0.192889
0.751827 0.506065 0.210788
0.751827 0.534218 0.229358
0.751827 0.562432 0.248569
0.751827 0.590631 0.268345
0.751827 0.618662 0.288594
0.042893 0.121309 0.006302
0.043000 0.121523 0.006302
0.043122 0.121828 0.006302
0.045869 0.122225 0.006302
0.063020 0.122896 0.006302
0.089555 0.123949 0.006302
0.119860 0.125628 0.006302
0.151659 0.128130 0.006302
0.184115 0.131731 0.006302
0.216876 0.136660 0.006302
0.249790 0.143160 0.006302
0.282780 0.151415 0.006302
0.315801 0.161517 0.006302
0.348867 0.173510 0.006302
0.381949 0.187350 0.006302
0.415061 0.202960 0.006302
0.448173 0.220218 0.025940
0.481300 0.239002 0.043244
0.514458 0.259220 0.057679
0.547601 0.280720 0.071397
0.580652 0.303349 0.085069
0.613550 0.326970 0.098970
0.646220 0.351461 0.113313
0.678614 0.376684 0.128191
0.710719 0.402564 0.143648
0.742443 0.428962 0.159731
0.751827 0.455787 0.176440
0.751827 0.482933 0.193774
0.751827 0.510277 0.211704
0.751827 0.537728 0.230182
0.751827 0.565164 0.249165
0.751827 0.592477 0.268559
0.751827 0.619532 0.288304
0.058808 0.155749 0.006302
0.059144 0.156451 0.006302
0.059525 0.157229 0.006302
0.062058 0.158114 0.006302
0.075486 0.159152 0.006302
0.098436 0.160464 0.006302
0.126619 0.162142 0.006302
0.157366 0.164340 0.006302
0.189349 0.167239 0.006302
0.221973 0.171038 0.006302
0.254917 0.175952 0.006302
0.288045 0.182193 0.006302
0.321279 0.189960 0.006302
0.354543 0.199405 0.006302
0.387854 0.210651 0.006302
0.421164 0.223728 0.006302
0.454490 0.238651 0.006302
0.487816 0.255360 0.006302
0.521080 0.273732 0.029252
0.554208 0.293614 0.055100
0.587137 0.314839 0.074174
0.619837 0.337224 0.091402
0.652262 0.360647 0.108003
0.684352 0.384924 0.124483
0.716060 0.409934 0.141131
0.747326 0.435508 0.158068
0.751827 0.461524 0.175372
0.751827 0.487846 0.193072
0.751827 0.514351 0.211170
0.751827 0.540902 0.229648
0.751827 0.567376 0.248432
0.751827 0.593622 0.267460
0.751827 0.619654 0.286748
0.076600 0.191470 0.006302
0.077180 0.192584 0.006302
0.077806 0.193774 0.006302
0.080415 0.195041 0.006302
0.091325 0.196429 0.006302
0.110826 0.198001 0.006302
0.136370 0.199802 0.006302
0.165438 0.201953 0.006302
0.196475 0.204547 0.006302
0.228580 0.207752 0.006302
0.261295 0.211719 0.006302
0.294362 0.216648 0.006302
0.327611 0.222721 0.006302
0.360967 0.230152 0.006302
0.394385 0.239094 0.006302
0.427817 0.249729 0.006302
0.461250 0.262165 0.006302
0.494575 0.276402 0.006302
0.527749 0.292424 0.006302
0.560723 0.310124 0.006302
0.593454 0.329381 0.038407
0.625879 0.350027 0.071550
0.657969 0.371878 0.094789
0.689647 0.394766 0.115145
0.720882 0.418494 0.134310
0.751598 0.442878 0.152972
0.751827 0.467765 0.171450
0.751827 0.492988 0.189929
0.751827 0.518395 0.208484
0.751827 0.543816 0.227115
0.751827 0.569146 0.245869
0.751827 0.594430 0.264851
0.751827 0.619577 0.284031
0.096208 0.228260 0.006302
0.097017 0.229725 0.006302
0.097856 0.231250 0.006302
0.100679 0.232837 0.006302
0.109850 0.234516 0.006302
0.126329 0.236316 0.006302
0.149004 0.238270 0.006302
0.175937 0.240452 0.006302
0.205539 0.242924 0.006302
0.236744 0.245808 0.006302
0.268894 0.249210 0.006302
0.301640 0.253285 0.006302
0.334722 0.258198 0.006302
0.368002 0.264134 0.006302
0.401389 0.271275 0.006302
0.434791 0.279805 0.006302
0.468101 0.289891 0.006302
0.501289 0.301671 0.006302
0.534279 0.315175 0.006302
0.567010 0.330404 0.006302
0.599435 0.347295 0.006302
0.631510 0.365743 0.006302
0.663172 0.385565 0.055009
0.694362 0.406577 0.092485
0.725032 0.428595 0.118883
0.751827 0.451408 0.141665
0.751827 0.474800 0.162722
0.751827 0.498589 0.182864
0.751827 0.522591 0.202487
0.751827 0.546777 0.221866
0.751827 0.571038 0.241169
0.751827 0.595300 0.260441
0.751827 0.619440 0.279698
0.117510 0.265949 0.006302
0.118532 0.267689 0.006302
0.119570 0.269474 0.006302
0.122621 0.271321 0.006302
0.130541 0.273213 0.006302
0.144518 0.275196 0.006302
0.164340 0.277272 0.006302
0.188815 0.279500 0.006302
0.216556 0.281926 0.006302
0.246448 0.284627 0.006302
0.277714 0.287663 0.006302
0.309850 0.291173 0.006302
0.342535 0.295277 0.006302
0.375540 0.300130 0.006302
0.408682 0.305882 0.006302
0.441840 0.312718 0.006302
0.474922 0.320836 0.006302
0.507851 0.330373 0.006302
0.540536 0.341482 0.006302
0.572946 0.354208 0.006302
0.604990 0.368566 0.006302
0.636606 0.384527 0.006302
0.667765 0.401953 0.006302
0.698390 0.420722 0.006302
0.728405 0.440620 0.076616
0.751827 0.461433 0.116197
0.751827 0.482963 0.144686
0.751827 0.505043 0.169100
0.751827 0.527596 0.191531
0.751827 0.550439 0.212802
0.751827 0.573449 0.233356
0.751827 0.596490 0.253407
0.751827 0.619455 0.273106
0.140414 0.304311 0.006302
0.141619 0.306264 0.006302
0.142901 0.308263 0.006302
0.146075 0.310277 0.006302
0.153033 0.312337 0.006302
0.164935 0.314443 0.006302
0.182101 0.316609 0.006302
0.203967 0.318868 0.006302
0.229511 0.321248 0.006302
0.257710 0.323796 0.006302
0.287724 0.326589 0.006302
0.318959 0.329686 0.006302
0.350973 0.333196 0.006302
0.383429 0.337224 0.006302
0.416144 0.341924 0.006302
0.448905 0.347433 0.006302
0.481621 0.353948 0.006302
0.514168 0.361608 0.006302
0.546456 0.370565 0.006302
0.578424 0.380957 0.006302
0.609979 0.392844 0.006302
0.641077 0.406241 0.006302
0.671626 0.421118 0.006302
0.701595 0.437369 0.006302
0.730892 0.454856 0.006302
0.751827 0.473381 0.006302
0.751827 0.492851 0.100160
0.751827 0.513085 0.141222
0.751827 0.533913 0.171374
0.751827 0.555154 0.197101
0.751827 0.576654 0.220447
0.751827 0.598276 0.242298
0.751827 0.619867 0.263127
0.164782 0.343145 0.006302
0.166140 0.345266 0.006302
0.167666 0.347387 0.006302
0.170886 0.349523 0.006302
0.177050 0.351675 0.006302
0.187228 0.353857 0.006302
0.201984 0.356054 0.006302
0.221225 0.358312 0.006302
0.244358 0.360632 0.006302
0.270527 0.363043 0.006302
0.298939 0.365606 0.006302
0.328923 0.368353 0.006302
0.359976 0.371374 0.006302
0.391669 0.374762 0.006302
0.423728 0.378622 0.006302
0.455940 0.383093 0.006302
0.488136 0.388312 0.006302
0.520180 0.394415 0.006302
0.551949 0.401572 0.006302
0.583368 0.409918 0.006302
0.614359 0.419547 0.006302
0.644846 0.430533 0.006302
0.674754 0.442893 0.006302
0.704005 0.456596 0.006302
0.732647 0.471565 0.006302
0.751827 0.487739 0.006302
0.751827 0.504967 0.006302
0.751827 0.523064 0.006302
0.751827 0.541894 0.125734
0.751827 0.561273 0.167132
0.751827 0.581018 0.197986
0.751827 0.600961 0.224170
0.751827 0.620951 0.247669
0.190478 0.382269 0.006302
0.191958 0.384482 0.006302
0.193698 0.386679 0.006302
0.196857 0.388861 0.006302
0.202350 0.391043 0.006302
0.211063 0.393240 0.006302
0.223682 0.395422 0.006302
0.240391 0.397620 0.006302
0.260975 0.399832 0.006302
0.284871 0.402075 0.006302
0.311376 0.404379 0.006302
0.339803 0.406790 0.006302
0.369589 0.409384 0.006302
0.400244 0.412222 0.006302
0.431449 0.415412 0.006302
0.462913 0.419013 0.006302
0.494438 0.423178 0.006302
0.525841 0.428031 0.006302
0.557000 0.433707 0.006302
0.587808 0.440330 0.006302
0.618158 0.448020 0.006302
0.647974 0.456855 0.006302
0.677211 0.466926 0.006302
0.705867 0.478233 0.006302
0.733944 0.490806 0.006302
0.751827 0.504555 0.006302
0.751827 0.519387 0.006302
0.751827 0.535195 0.006302
0.751827 0.551812 0.006302
0.751827 0.569085 0.062501
0.751827 0.586831 0.150027
0.751827 0.604883 0.191135
0.751827 0.623056 0.222004
0.217334 0.421485 0.006302
0.218891 0.423713 0.006302
0.220783 0.425910 0.006302
0.223819 0.428092 0.006302
0.228702 0.430259 0.006302
0.236179 0.432380 0.006302
0.246876 0.434485 0.006302
0.261234 0.436545 0.006302
0.279286 0.438575 0.006302
0.300740 0.440574 0.006302
0.325048 0.442603 0.006302
0.351614 0.444694 0.006302
0.379843 0.446876 0.006302
0.409216 0.449226 0.006302
0.439353 0.451804 0.006302
0.469886 0.454719 0.006302
0.500603 0.458030 0.006302
0.531258 0.461875 0.006302
0.561700 0.466331 0.006302
0.591806 0.471550 0.006302
0.621454 0.477623 0.006302
0.650614 0.484642 0.006302
0.679255 0.492714 0.006302
0.707301 0.501869 0.006302
0.734737 0.512169 0.006302
0.751827 0.523568 0.006302
0.751827 0.536034 0.006302
0.751827 0.549493 0.006302
0.751827 0.563790 0.006302
0.751827 0.578805 0.006302
0.751827 0.594385 0.006302
0.751827 0.610346 0.087236
0.751827 0.626520 0.169009
0.245182 0.460578 0.006302
0.246769 0.462760 0.006302
0.248722 0.464912 0.006302
0.251591 0.467033 0.006302
0.255909 0.469093 0.006302
0.262272 0.471077 0.006302
0.271305 0.472984 0.006302
0.283482 0.474815 0.006302
0.299077 0.476585 0.006302
0.318013 0.478325 0.006302
0.339956 0.480049 0.006302
0.364416 0.481788 0.006302
0.390845 0.483589 0.006302
0.418708 0.485496 0.006302
0.447562 0.487556 0.006302
0.476997 0.489860 0.006302
0.506737 0.492470 0.006302
0.536507 0.495460 0.006302
0.566125 0.498939 0.006302
0.595468 0.502983 0.006302
0.624430 0.507729 0.006302
0.652934 0.513237 0.006302
0.680903 0.519600 0.006302
0.708293 0.526879 0.006302
0.735042 0.535149 0.006302
0.751827 0.544396 0.006302
0.751827 0.554620 0.006302
0.751827 0.565759 0.006302
0.751827 0.577752 0.006302
0.751827 0.590478 0.006302
0.751827 0.603799 0.006302
0.751827 0.617563 0.006302
0.751827 0.631601 0.006302
0.273823 0.499367 0.006302
0.275410 0.501442 0.006302
0.277333 0.503487 0.006302
0.279973 0.505440 0.006302
0.283711 0.507286 0.006302
0.289067 0.509026 0.006302
0.296605 0.510658 0.006302
0.306844 0.512215 0.006302
0.320134 0.513695 0.006302
0.336599 0.515129 0.006302
0.356115 0.516533 0.006302
0.378317 0.517922 0.006302
0.402731 0.519341 0.006302
0.428855 0.520821 0.006302
0.456199 0.522408 0.006302
0.484352 0.524163 0.006302
0.512963 0.526146 0.006302
0.541726 0.528420 0.006302
0.570443 0.531075 0.006302
0.598962 0.534173 0.006302
0.627161 0.537804 0.006302
0.654917 0.542046 0.006302
0.682155 0.546960 0.006302
0.708812 0.552651 0.006302
0.734829 0.559136 0.006302
0.751827 0.566461 0.006302
0.751827 0.574655 0.006302
0.751827 0.583658 0.006302
0.751827 0.593454 0.006302
0.751827 0.603952 0.006302
0.751827 0.615030 0.006302
0.751827 0.626566 0.006302
0.751827 0.638437 0.006302
0.303044 0.537636 0.006302
0.304570 0.539559 0.006302
0.306355 0.541344 0.006302
0.308644 0.543023 0.006302
0.311818 0.544579 0.006302
0.316289 0.546029 0.006302
0.322530 0.547372 0.006302
0.331044 0.548608 0.006302
0.342245 0.549783 0.006302
0.356390 0.550881 0.006302
0.373465 0.551919 0.006302
0.393317 0.552941 0.006302
0.415564 0.553964 0.006302
0.439750 0.555016 0.006302
0.465415 0.556146 0.006302
0.492088 0.557397 0.006302
0.519387 0.558816 0.006302
0.547021 0.560464 0.006302
0.574731 0.562402 0.006302
0.602319 0.564691 0.006302
0.629648 0.567376 0.006302
0.656580 0.570550 0.006302
0.683009 0.574258 0.006302
0.708873 0.578576 0.006302
0.734096 0.583551 0.006302
0.751827 0.589212 0.006302
0.751827 0.595605 0.006302
0.751827 0.602701 0.006302
0.751827 0.610468 0.006302
0.751827 0.618875 0.006302
0.751827 0.627832 0.006302
0.751827 0.637232 0.006302
0.751827 0.647044 0.006302
0.332616 0.575174 0.006302
0.333974 0.576791 0.006302
0.335515 0.578271 0.006302
0.337453 0.579629 0.006302
0.340078 0.580865 0.006302
0.343725 0.581964 0.006302
0.348821 0.582971 0.006302
0.355825 0.583871 0.006302
0.365148 0.584680 0.006302
0.377111 0.585397 0.006302
0.391867 0.586069 0.006302
0.409354 0.586694 0.006302
0.429343 0.587289 0.006302
0.451453 0.587915 0.006302
0.475227 0.588586 0.006302
0.500252 0.589364 0.006302
0.526101 0.590280 0.006302
0.552438 0.591363 0.006302
0.579004 0.592660 0.006302
0.605554 0.594217 0.006302
0.631907 0.596094 0.006302
0.657923 0.598352 0.006302
0.683482 0.601022 0.006302
0.708476 0.604166 0.006302
0.732845 0.607843 0.006302
0.751827 0.612070 0.006302
0.751827 0.616892 0.006302
0.751827 0.622293 0.006302
0.751827 0.628260 0.006302
0.751827 0.634775 0.006302
0.751827 0.641810 0.006302
0.751827 0.649332 0.006302
0.751827 0.657267 0.006302
0.362264 0.611734 0.006302
0.363378 0.613001 0.006302
0.364630 0.614130 0.006302
0.366186 0.615122 0.006302
0.368261 0.615991 0.006302
0.371160 0.616724 0.006302
0.375235 0.617334 0.006302
0.380896 0.617838 0.006302
0.388525 0.618235 0.006302
0.398505 0.618555 0.006302
0.411063 0.618799 0.006302
0.426246 0.618997 0.006302
0.443961 0.619181 0.006302
0.463890 0.619379 0.006302
0.485649 0.619623 0.006302
0.508858 0.619944 0.006302
0.533089 0.620356 0.006302
0.558007 0.620890 0.006302
0.583291 0.621592 0.006302
0.608682 0.622492 0.006302
0.633951 0.623636 0.006302
0.658961 0.625071 0.006302
0.683558 0.626825 0.006302
0.707622 0.628962 0.006302
0.731044 0.631495 0.006302
0.751827 0.634485 0.006302
0.751827 0.637934 0.006302
0.751827 0.641871 0.006302
0.751827 0.646296 0.006302
0.751827 0.651225 0.006302
0.751827 0.656641 0.006302
0.751827 0.662486 0.006302
0.751827 0.668742 0.006302
0.391791 0.647181 0.006302
0.392615 0.648066 0.006302
0.393515 0.648783 0.006302
0.394629 0.649363 0.006302
0.396155 0.649805 0.006302
0.398337 0.650111 0.006302
0.401480 0.650294 0.006302
0.405921 0.650370 0.006302
0.412055 0.650324 0.006302
0.420249 0.650187 0.006302
0.430777 0.649989 0.006302
0.443778 0.649760 0.006302
0.459220 0.649531 0.006302
0.476921 0.649302 0.006302
0.496605 0.649104 0.006302
0.517876 0.648951 0.006302
0.540383 0.648875 0.006302
0.563729 0.648875 0.006302
0.587594 0.649012 0.006302
0.611704 0.649287 0.006302
0.635798 0.649744 0.006302
0.659693 0.650401 0.006302
0.683207 0.651331 0.006302
0.706249 0.652552 0.006302
0.728695 0.654108 0.006302
0.750454 0.656031 0.006302
0.751827 0.658350 0.006302
0.751827 0.661082 0.006302
0.751827 0.664240 0.006302
0.751827 0.667842 0.006302
0.751827 0.671839 0.006302
0.751827 0.676265 0.006302
0.751827 0.681041 0.006302
0.420981 0.681376 0.006302
0.421424 0.681804 0.006302
0.421927 0.682078 0.006302
0.422568 0.682200 0.006302
0.423529 0.682170 0.006302
0.425010 0.682017 0.006302
0.427268 0.681712 0.006302
0.430625 0.681300 0.006302
0.435416 0.680766 0.006302
0.442008 0.680186 0.006302
0.450675 0.679561 0.006302
0.461616 0.678920 0.006302
0.474891 0.678248 0.006302
0.490410 0.677577 0.006302
0.507973 0.676905 0.006302
0.527245 0.676280 0.006302
0.547890 0.675669 0.006302
0.569558 0.675135 0.006302
0.591882 0.674678 0.006302
0.614572 0.674342 0.006302
0.637385 0.674144 0.006302
0.660090 0.674128 0.006302
0.682521 0.674327 0.006302
0.704509 0.674769 0.006302
0.725948 0.675486 0.006302
0.746792 0.676524 0.006302
0.751827 0.677913 0.006302
0.751827 0.679652 0.006302
0.751827 0.681743 0.006302
0.751827 0.684215 0.006302
0.751827 0.687053 0.006302
0.751827 0.690242 0.006302
0.751827 0.693751 0.006302
0.449592 0.714137 0.006302
0.449622 0.714076 0.006302
0.449653 0.713848 0.006302
0.449790 0.713466 0.006302
0.450156 0.712932 0.006302
0.450935 0.712245 0.006302
0.452354 0.711437 0.006302
0.454704 0.710506 0.006302
0.458305 0.709529 0.006302
0.463462 0.708507 0.006302
0.470451 0.707439 0.006302
0.479500 0.706325 0.006302
0.490730 0.705196 0.006302
0.504128 0.704036 0.006302
0.519554 0.702876 0.006302
0.536782 0.701717 0.006302
0.555520 0.700572 0.006302
0.575402 0.699489 0.006302
0.596139 0.698482 0.006302
0.617380 0.697581 0.006302
0.638849 0.696788 0.006302
0.660334 0.696162 0.006302
0.681621 0.695720 0.006302
0.702571 0.695491 0.006302
0.723064 0.695521 0.006302
0.743038 0.695842 0.006302
0.751827 0.696437 0.006302
0.751827 0.697337 0.006302
0.751827 0.698543 0.006302
0.751827 0.700084 0.006302
0.751827 0.701930 0.006302
0.751827 0.704082 0.006302
0.751827 0.706523 0.006302
0.477424 0.745342 0.006302
0.476951 0.744732 0.006302
0.476463 0.743954 0.006302
0.476036 0.743023 0.006302
0.475776 0.741924 0.006302
0.475853 0.740673 0.006302
0.476509 0.739361 0.006302
0.477974 0.737987 0.006302
0.480491 0.736538 0.006302
0.484337 0.735042 0.006302
0.489784 0.733471 0.006302
0.497078 0.731868 0.006302
0.506386 0.730220 0.006302
0.517754 0.728542 0.006302
0.531136 0.726864 0.006302
0.546380 0.725200 0.006302
0.563210 0.723552 0.006302
0.581338 0.721965 0.006302
0.600443 0.720439 0.006302
0.620203 0.719005 0.006302
0.640330 0.717678 0.006302
0.660563 0.716503 0.006302
0.680705 0.715526 0.006302
0.700618 0.714748 0.006302
0.720165 0.714183 0.006302
0.739254 0.713878 0.006302
0.751827 0.713802 0.006302
0.751827 0.714000 0.006302
0.751827 0.714458 0.006302
0.751827 0.715206 0.006302
0.751827 0.716213 0.006302
0.751827 0.717494 0.006302
0.751827 0.719036 0.006302
0.504204 0.751827 0.006302
0.503182 0.751827 0.006302
0.502113 0.751827 0.006302
0.501076 0.751827 0.006302
0.500206 0.751827 0.006302
0.499657 0.751827 0.006302
0.499580 0.751827 0.006302
0.500175 0.751827 0.006302
0.501656 0.751827 0.006302
0.504295 0.751827 0.006302
0.508354 0.751827 0.006302
0.514061 0.751827 0.006302
0.521630 0.751827 0.006302
0.531136 0.751080 0.006302
0.542626 0.748913 0.006302
0.555978 0.746761 0.006302
0.570977 0.744640 0.006302
0.587366 0.742565 0.006302
0.604868 0.740551 0.006302
0.623133 0.738628 0.006302
0.641871 0.736843 0.006302
0.660853 0.735225 0.006302
0.679850 0.733776 0.006302
0.698711 0.732509 0.006302
0.717281 0.731441 0.006302
0.735485 0.730587 0.006302
0.751827 0.729946 0.006302
0.751827 0.729534 0.006302
0.751827 0.729366 0.006302
0.751827 0.729442 0.006302
0.751827 0.729747 0.006302
0.751827 0.730297 0.006302
0.751827 0.731075 0.006302
0.529702 0.751827 0.006302
0.528054 0.751827 0.006302
0.526390 0.751827 0.006302
0.524773 0.751827 0.006302
0.523308 0.751827 0.006302
0.522103 0.751827 0.006302
0.521309 0.751827 0.006302
0.521065 0.751827 0.006302
0.521614 0.751827 0.006302
0.523171 0.751827 0.006302
0.525978 0.751827 0.006302
0.530297 0.751827 0.006302
0.536309 0.751827 0.006302
0.544152 0.751827 0.006302
0.553902 0.751827 0.006302
0.565484 0.751827 0.006302
0.578759 0.751827 0.006302
0.593484 0.751827 0.006302
0.609400 0.751827 0.006302
0.626169 0.751827 0.006302
0.643534 0.751827 0.006302
0.661250 0.751827 0.006302
0.679088 0.750500 0.006302
0.696895 0.748791 0.006302
0.714488 0.747280 0.006302
0.731777 0.745953 0.006302
0.748669 0.744823 0.006302
0.751827 0.743893 0.006302
0.751827 0.743175 0.006302
0.751827 0.742672 0.006302
0.751827 0.742397 0.006302
0.751827 0.742321 0.006302
0.751827 0.742473 0.006302
0.553658 0.751827 0.006302
0.551431 0.751827 0.006302
0.549172 0.751827 0.006302
0.546990 0.751827 0.006302
0.544915 0.751827 0.006302
0.543069 0.751827 0.006302
0.541573 0.751827 0.006302
0.540581 0.751827 0.006302
0.540261 0.751827 0.006302
0.540856 0.751827 0.006302
0.542580 0.751827 0.006302
0.545647 0.751827 0.006302
0.550286 0.751827 0.006302
0.556649 0.751827 0.006302
0.564828 0.751827 0.006302
0.574807 0.751827 0.006302
0.586465 0.751827 0.006302
0.599588 0.751827 0.006302
0.613962 0.751827 0.006302
0.629282 0.751827 0.006302
0.645289 0.751827 0.006302
0.661753 0.751827 0.006302
0.678462 0.751827 0.006302
0.695201 0.751827 0.006302
0.711818 0.751827 0.006302
0.728206 0.751827 0.006302
0.744244 0.751827 0.006302
0.751827 0.751827 0.006302
0.751827 0.751827 0.006302
0.751827 0.751827 0.006302
