resources/flame/Syncolor/Shared/transforms/camera_manufacturer_luts/arri/ARRI_Alexa_LUTs/ARRI_LogC3_v1-2_LUT_Package/LUTs/ARRI_LogC3-to-St2084_2K_Rec2100-D65_DW200_v1_33.cube
LUT_3D_SIZE 33
0.006302 0.006302 0.006302
0.027924 0.006302 0.006302
0.053681 0.012146 0.006302
0.078996 0.019638 0.006302
0.104173 0.027924 0.006302
0.129335 0.036957 0.006302
0.154528 0.046708 0.008042
0.179812 0.057145 0.010330
0.205234 0.068299 0.012955
0.230869 0.080140 0.015900
0.256886 0.092790 0.019242
0.283513 0.106355 0.023041
0.310948 0.120958 0.027359
0.339422 0.136782 0.032288
0.369131 0.153994 0.037949
0.399542 0.172351 0.044312
0.430106 0.191501 0.051301
0.460807 0.211475 0.058961
0.491646 0.232242 0.067323
0.522621 0.253819 0.076432
0.553735 0.276188 0.086305
0.584985 0.299351 0.097002
0.616358 0.323308 0.108537
0.647868 0.348058 0.120974
0.679500 0.373602 0.134356
0.711269 0.399939 0.148714
0.743145 0.427054 0.164080
0.775143 0.454963 0.180529
0.807263 0.483665 0.198093
0.827420 0.513146 0.216800
0.827420 0.543206 0.236606
0.827420 0.573724 0.257404
0.827420 0.604608 0.279210
0.006302 0.011063 0.006302
0.006302 0.006302 0.006302
0.030030 0.006302 0.006302
0.056321 0.012894 0.006302
0.082307 0.020676 0.006302
0.108263 0.029328 0.006302
0.134356 0.038849 0.006409
0.160876 0.049271 0.008591
0.188022 0.060685 0.011139
0.216037 0.073213 0.014160
0.245121 0.087007 0.017700
0.275395 0.102159 0.021836
0.306020 0.118288 0.026551
0.336767 0.135286 0.031800
0.367651 0.153124 0.037644
0.398657 0.171801 0.044114
0.429770 0.191302 0.051225
0.461021 0.211612 0.059022
0.492378 0.232746 0.067536
0.523857 0.254688 0.076814
0.555459 0.277440 0.086885
0.587167 0.300999 0.097780
0.618997 0.325338 0.109545
0.650919 0.350484 0.122225
0.682963 0.376425 0.135866
0.715099 0.403159 0.150500
0.747341 0.430671 0.166186
0.779690 0.458976 0.182940
0.812024 0.487968 0.200778
0.827420 0.517464 0.219608
0.827420 0.547387 0.239414
0.827420 0.577676 0.260166
0.827420 0.608240 0.281819
0.006302 0.022156 0.006302
0.006302 0.015213 0.006302
0.007828 0.008423 0.006302
0.035248 0.007630 0.006302
0.063005 0.014801 0.006302
0.091142 0.023529 0.006302
0.120027 0.033524 0.006302
0.149966 0.044892 0.007660
0.180789 0.057572 0.010437
0.211734 0.071244 0.013672
0.242756 0.085847 0.017395
0.273884 0.101381 0.021622
0.305104 0.117800 0.026398
0.336446 0.135103 0.031739
0.367880 0.153262 0.037690
0.399420 0.172259 0.044282
0.431052 0.192111 0.051530
0.462791 0.212787 0.059480
0.494621 0.234287 0.068177
0.526543 0.256596 0.077638
0.558572 0.279728 0.087907
0.590692 0.303655 0.099031
0.622889 0.328374 0.111055
0.655192 0.353902 0.123995
0.687572 0.380224 0.137911
0.720027 0.407324 0.152834
0.752544 0.435187 0.168811
0.784909 0.463615 0.185748
0.817029 0.492531 0.203647
0.827420 0.521874 0.222477
0.827420 0.551553 0.242222
0.827420 0.581506 0.262821
0.827420 0.611612 0.284260
0.009796 0.035691 0.006302
0.008179 0.030549 0.006302
0.006851 0.026184 0.006302
0.021866 0.023331 0.006302
0.052689 0.024201 0.006302
0.084337 0.028992 0.006302
0.115938 0.036851 0.006302
0.147494 0.047044 0.006302
0.179065 0.058946 0.008865
0.210651 0.072251 0.012512
0.242313 0.086732 0.016541
0.274022 0.102281 0.021012
0.305806 0.118822 0.025986
0.337667 0.136309 0.031525
0.369619 0.154711 0.037659
0.401633 0.173983 0.044434
0.433738 0.194125 0.051881
0.465904 0.215106 0.060044
0.498146 0.236927 0.068940
0.530480 0.259571 0.078645
0.562860 0.283040 0.089158
0.595331 0.307301 0.100542
0.627863 0.332372 0.112825
0.660472 0.358251 0.126055
0.693126 0.384894 0.140261
0.725704 0.412207 0.155428
0.758068 0.440055 0.171527
0.790204 0.468391 0.188525
0.822019 0.497124 0.206439
0.827420 0.526207 0.225208
0.827420 0.555535 0.244831
0.827420 0.585031 0.265217
0.827420 0.614588 0.286336
0.017090 0.057206 0.006302
0.016663 0.056016 0.006302
0.016342 0.055100 0.006302
0.023453 0.054353 0.006302
0.051438 0.054444 0.006302
0.082811 0.055985 0.006302
0.114794 0.059495 0.006302
0.146899 0.065293 0.006302
0.179034 0.073411 0.006302
0.211215 0.083711 0.006302
0.243412 0.095949 0.006363
0.275654 0.109865 0.014374
0.307927 0.125261 0.021164
0.340276 0.141939 0.027909
0.372656 0.159808 0.034974
0.405112 0.178759 0.042496
0.437613 0.198718 0.050568
0.470161 0.219638 0.059281
0.502770 0.241489 0.068696
0.535424 0.264225 0.078859
0.568124 0.287831 0.089815
0.600885 0.312276 0.101625
0.633692 0.337545 0.114321
0.666468 0.363577 0.127916
0.699077 0.390219 0.142382
0.731456 0.417426 0.157733
0.763577 0.445121 0.173938
0.795361 0.473228 0.191012
0.826780 0.501671 0.208911
0.827420 0.530358 0.227588
0.827420 0.559197 0.247028
0.827420 0.588113 0.267140
0.827420 0.616983 0.287861
0.028946 0.088350 0.006302
0.028809 0.087999 0.006302
0.028702 0.087724 0.006302
0.032502 0.087587 0.006302
0.054810 0.087861 0.006302
0.084398 0.088853 0.006302
0.115984 0.090883 0.006302
0.148226 0.094301 0.006302
0.180713 0.099428 0.006302
0.213291 0.106447 0.006302
0.245930 0.115480 0.006302
0.278614 0.126513 0.006302
0.311315 0.139422 0.006302
0.344060 0.154086 0.010163
0.376837 0.170336 0.024170
0.409644 0.188052 0.034913
0.442481 0.207080 0.045090
0.475364 0.227314 0.055360
0.508263 0.248661 0.065995
0.541207 0.271077 0.077165
0.574166 0.294469 0.088991
0.607126 0.318791 0.101549
0.639963 0.343877 0.114839
0.672602 0.369665 0.128893
0.704997 0.396063 0.143725
0.737102 0.422980 0.159335
0.768856 0.450355 0.175738
0.800229 0.478065 0.192889
0.827420 0.506065 0.210788
0.827420 0.534218 0.229358
0.827420 0.562432 0.248569
0.827420 0.590631 0.268345
0.827420 0.618662 0.288594
0.042893 0.121309 0.006302
0.043000 0.121523 0.006302
0.043122 0.121828 0.006302
0.045869 0.122225 0.006302
0.063020 0.122896 0.006302
0.089555 0.123949 0.006302
0.119860 0.125628 0.006302
0.151659 0.128130 0.006302
0.184115 0.131731 0.006302
0.216876 0.136660 0.006302
0.249790 0.143160 0.006302
0.282780 0.151415 0.006302
0.315801 0.161517 0.006302
0.348867 0.173510 0.006302
0.381949 0.187350 0.006302
0.415061 0.202960 0.006302
0.448173 0.220218 0.025940
0.481300 0.239002 0.043244
0.514458 0.259220 0.057679
0.547601 0.280720 0.071397
0.580652 0.303349 0.085069
0.613550 0.326970 0.098970
0.646220 0.351461 0.113313
0.678614 0.376684 0.128191
0.710719 0.402564 0.143648
0.742443 0.428962 0.159731
0.773770 0.455787 0.176440
0.804608 0.482933 0.193774
0.827420 0.510277 0.211704
0.827420 0.537728 0.230182
0.827420 0.565164 0.249165
0.827420 0.592477 0.268559
0.827420 0.619532 0.288304
0.058808 0.155749 0.006302
0.059144 0.156451 0.006302
0.059525 0.157229 0.006302
0.062058 0.158114 0.006302
0.075486 0.159152 0.006302
0.098436 0.160464 0.006302
0.126619 0.162142 0.006302
0.157366 0.164340 0.006302
0.189349 0.167239 0.006302
0.221973 0.171038 0.006302
0.254917 0.175952 0.006302
0.288045 0.182193 0.006302
0.321279 0.189960 0.006302
0.354543 0.199405 0.006302
0.387854 0.210651 0.006302
0.421164 0.223728 0.006302
0.454490 0.238651 0.006302
0.487816 0.255360 0.006302
0.521080 0.273732 0.029252
0.554208 0.293614 0.055100
0.587137 0.314839 0.074174
0.619837 0.337224 0.091402
0.652262 0.360647 0.108003
0.684352 0.384924 0.124483
0.716060 0.409934 0.141131
0.747326 0.435508 0.158068
0.778103 0.461524 0.175372
0.808331 0.487846 0.193072
0.827420 0.514351 0.211170
0.827420 0.540902 0.229648
0.827420 0.567376 0.248432
0.827420 0.593622 0.267460
0.827420 0.619654 0.286748
0.076600 0.191470 0.006302
0.077180 0.192584 0.006302
0.077806 0.193774 0.006302
0.080415 0.195041 0.006302
0.091325 0.196429 0.006302
0.110826 0.198001 0.006302
0.136370 0.199802 0.006302
0.165438 0.201953 0.006302
0.196475 0.204547 0.006302
0.228580 0.207752 0.006302
0.261295 0.211719 0.006302
0.294362 0.216648 0.006302
0.327611 0.222721 0.006302
0.360967 0.230152 0.006302
0.394385 0.239094 0.006302
0.427817 0.249729 0.006302
0.461250 0.262165 0.006302
0.494575 0.276402 0.006302
0.527749 0.292424 0.006302
0.560723 0.310124 0.006302
0.593454 0.329381 0.038407
0.625879 0.350027 0.071550
0.657969 0.371878 0.094789
0.689647 0.394766 0.115145
0.720882 0.418494 0.134310
0.751598 0.442878 0.152972
0.781750 0.467765 0.171450
0.811276 0.492988 0.189929
0.827420 0.518395 0.208484
0.827420 0.543816 0.227115
0.827420 0.569146 0.245869
0.827420 0.594430 0.264851
0.827420 0.619577 0.284031
0.096208 0.228260 0.006302
0.097017 0.229725 0.006302
0.097856 0.231250 0.006302
0.100679 0.232837 0.006302
0.109850 0.234516 0.006302
0.126329 0.236316 0.006302
0.149004 0.238270 0.006302
0.175937 0.240452 0.006302
0.205539 0.242924 0.006302
0.236744 0.245808 0.006302
0.268894 0.249210 0.006302
0.301640 0.253285 0.006302
0.334722 0.258198 0.006302
0.368002 0.264134 0.006302
0.401389 0.271275 0.006302
0.434791 0.279805 0.006302
0.468101 0.289891 0.006302
0.501289 0.301671 0.006302
0.534279 0.315175 0.006302
0.567010 0.330404 0.006302
0.599435 0.347295 0.006302
0.631510 0.365743 0.006302
0.663172 0.385565 0.055009
0.694362 0.406577 0.092485
0.725032 0.428595 0.118883
0.755123 0.451408 0.141665
0.784558 0.474800 0.162722
0.813275 0.498589 0.182864
0.827420 0.522591 0.202487
0.827420 0.546761 0.221866
0.827420 0.571008 0.241154
0.827420 0.595224 0.260395
0.827420 0.619303 0.279591
0.117510 0.265949 0.006302
0.118532 0.267689 0.006302
0.119570 0.269474 0.006302
0.122621 0.271321 0.006302
0.130541 0.273213 0.006302
0.144518 0.275196 0.006302
0.164340 0.277272 0.006302
0.188815 0.279500 0.006302
0.216556 0.281926 0.006302
0.246448 0.284627 0.006302
0.277714 0.287663 0.006302
0.309850 0.291173 0.006302
0.342535 0.295277 0.006302
0.375540 0.300130 0.006302
0.408682 0.305882 0.006302
0.441840 0.312718 0.006302
0.474922 0.320836 0.006302
0.507851 0.330373 0.006302
0.540536 0.341482 0.006302
0.572946 0.354208 0.006302
0.604990 0.368566 0.006302
0.636606 0.384527 0.006302
0.667765 0.401953 0.006302
0.698390 0.420722 0.006302
0.728405 0.440620 0.076616
0.757763 0.461433 0.116197
0.786389 0.482948 0.144671
0.814298 0.504997 0.169085
0.827420 0.527489 0.191485
0.827420 0.550256 0.212711
0.827420 0.573175 0.233188
0.827420 0.596124 0.253178
0.827420 0.618967 0.272770
0.140414 0.304311 0.006302
0.141619 0.306264 0.006302
0.142901 0.308263 0.006302
0.146075 0.310277 0.006302
0.153033 0.312337 0.006302
0.164935 0.314443 0.006302
0.182101 0.316609 0.006302
0.203967 0.318868 0.006302
0.229511 0.321248 0.006302
0.257710 0.323796 0.006302
0.287724 0.326589 0.006302
0.318959 0.329686 0.006302
0.350973 0.333196 0.006302
0.383429 0.337224 0.006302
0.416144 0.341924 0.006302
0.448905 0.347433 0.006302
0.481621 0.353948 0.006302
0.514168 0.361608 0.006302
0.546456 0.370565 0.006302
0.578424 0.380957 0.006302
0.609979 0.392844 0.006302
0.641077 0.406241 0.006302
0.671626 0.421118 0.006302
0.701564 0.437354 0.006302
0.730831 0.454795 0.006302
0.759380 0.473259 0.006302
0.787274 0.492653 0.100175
0.814527 0.512795 0.141146
0.827420 0.533501 0.171206
0.827420 0.554635 0.196841
0.827420 0.576013 0.220081
0.827420 0.597513 0.241825
0.827420 0.618967 0.262531
0.164782 0.343145 0.006302
0.166140 0.345266 0.006302
0.167666 0.347387 0.006302
0.170886 0.349523 0.006302
0.177050 0.351675 0.006302
0.187228 0.353857 0.006302
0.201984 0.356054 0.006302
0.221225 0.358312 0.006302
0.244358 0.360632 0.006302
0.270527 0.363043 0.006302
0.298939 0.365606 0.006302
0.328923 0.368353 0.006302
0.359976 0.371374 0.006302
0.391669 0.374762 0.006302
0.423728 0.378622 0.006302
0.455940 0.383093 0.006302
0.488136 0.388312 0.006302
0.520180 0.394415 0.006302
0.551949 0.401572 0.006302
0.583368 0.409903 0.006302
0.614328 0.419501 0.006302
0.644755 0.430442 0.006302
0.674586 0.442741 0.006302
0.703761 0.456352 0.006302
0.732311 0.471229 0.006302
0.760235 0.487297 0.006302
0.787503 0.504402 0.006302
0.814099 0.522393 0.006302
0.827420 0.541100 0.125582
0.827420 0.560342 0.166751
0.827420 0.579965 0.197452
0.827420 0.599802 0.223499
0.827420 0.619684 0.246860
0.190478 0.382269 0.006302
0.191958 0.384482 0.006302
0.193698 0.386679 0.006302
0.196857 0.388861 0.006302
0.202350 0.391043 0.006302
0.211063 0.393240 0.006302
0.223682 0.395422 0.006302
0.240391 0.397620 0.006302
0.260975 0.399832 0.006302
0.284871 0.402075 0.006302
0.311376 0.404379 0.006302
0.339803 0.406790 0.006302
0.369589 0.409384 0.006302
0.400244 0.412222 0.006302
0.431449 0.415412 0.006302
0.462913 0.419013 0.006302
0.494423 0.423163 0.006302
0.525795 0.427985 0.006302
0.556893 0.433600 0.006302
0.587625 0.440146 0.006302
0.617884 0.447730 0.006302
0.647593 0.456474 0.006302
0.676707 0.466423 0.006302
0.705257 0.477623 0.006302
0.733196 0.490074 0.006302
0.760510 0.503700 0.006302
0.787137 0.518425 0.006302
0.813062 0.534112 0.006302
0.827420 0.550637 0.006302
0.827420 0.567803 0.063020
0.827420 0.585473 0.149508
0.827420 0.603449 0.190402
0.827420 0.621576 0.221118
0.217334 0.421485 0.006302
0.218891 0.423713 0.006302
0.220783 0.425910 0.006302
0.223819 0.428092 0.006302
0.228702 0.430259 0.006302
0.236179 0.432380 0.006302
0.246876 0.434485 0.006302
0.261234 0.436545 0.006302
0.279286 0.438575 0.006302
0.300740 0.440574 0.006302
0.325048 0.442603 0.006302
0.351614 0.444694 0.006302
0.379843 0.446876 0.006302
0.409201 0.449195 0.006302
0.439277 0.451743 0.006302
0.469749 0.454582 0.006302
0.500374 0.457816 0.006302
0.530938 0.461555 0.006302
0.561273 0.465904 0.006302
0.591257 0.471000 0.006302
0.620798 0.476951 0.006302
0.649836 0.483848 0.006302
0.678355 0.491798 0.006302
0.706294 0.500862 0.006302
0.733608 0.511040 0.006302
0.760281 0.522347 0.006302
0.786267 0.534737 0.006302
0.811536 0.548104 0.006302
0.827420 0.562356 0.006302
0.827420 0.577340 0.006302
0.827420 0.592905 0.006302
0.827420 0.608881 0.086870
0.827420 0.625116 0.168276
0.245182 0.460578 0.006302
0.246769 0.462760 0.006302
0.248722 0.464912 0.006302
0.251591 0.467033 0.006302
0.255909 0.469093 0.006302
0.262272 0.471077 0.006302
0.271305 0.472984 0.006302
0.283482 0.474815 0.006302
0.299077 0.476585 0.006302
0.317998 0.478309 0.006302
0.339925 0.480003 0.006302
0.364324 0.481682 0.006302
0.390677 0.483421 0.006302
0.418463 0.485237 0.006302
0.447196 0.487205 0.006302
0.476539 0.489387 0.006302
0.506157 0.491875 0.006302
0.535805 0.494743 0.006302
0.565301 0.498100 0.006302
0.594522 0.502037 0.006302
0.623377 0.506661 0.006302
0.651774 0.512062 0.006302
0.679652 0.518334 0.006302
0.706950 0.525536 0.006302
0.733639 0.533730 0.006302
0.759655 0.542931 0.006302
0.784985 0.553140 0.006302
0.809583 0.564294 0.006302
0.827420 0.576318 0.006302
0.827420 0.589105 0.006302
0.827420 0.602533 0.006302
0.827420 0.616419 0.006302
0.827420 0.630655 0.006302
0.273823 0.499367 0.006302
0.275410 0.501442 0.006302
0.277333 0.503487 0.006302
0.279973 0.505440 0.006302
0.283711 0.507286 0.006302
0.289067 0.509026 0.006302
0.296590 0.510643 0.006302
0.306783 0.512154 0.006302
0.320027 0.513588 0.006302
0.336416 0.514931 0.006302
0.355840 0.516243 0.006302
0.377935 0.517525 0.006302
0.402228 0.518822 0.006302
0.428229 0.520195 0.006302
0.455451 0.521660 0.006302
0.483482 0.523293 0.006302
0.511971 0.525154 0.006302
0.540612 0.527306 0.006302
0.569238 0.529854 0.006302
0.597681 0.532860 0.006302
0.625788 0.536416 0.006302
0.653498 0.540612 0.006302
0.680705 0.545495 0.006302
0.707347 0.551171 0.006302
0.733379 0.557671 0.006302
0.758740 0.565057 0.006302
0.783398 0.573312 0.006302
0.807294 0.582437 0.006302
0.827420 0.592386 0.006302
0.827420 0.603082 0.006302
0.827420 0.614405 0.006302
0.827420 0.626230 0.006302
0.827420 0.638437 0.006302
0.303044 0.537636 0.006302
0.304570 0.539559 0.006302
0.306355 0.541344 0.006302
0.308629 0.542992 0.006302
0.311757 0.544503 0.006302
0.316152 0.545876 0.006302
0.322332 0.547143 0.006302
0.330755 0.548287 0.006302
0.341848 0.549340 0.006302
0.355856 0.550317 0.006302
0.372824 0.551247 0.006302
0.392538 0.552148 0.006302
0.414664 0.553048 0.006302
0.438727 0.553979 0.006302
0.464271 0.555001 0.006302
0.490837 0.556146 0.006302
0.518059 0.557488 0.006302
0.545617 0.559060 0.006302
0.573281 0.560952 0.006302
0.600855 0.563210 0.006302
0.628183 0.565896 0.006302
0.655131 0.569100 0.006302
0.681636 0.572869 0.006302
0.707591 0.577279 0.006302
0.732937 0.582376 0.006302
0.757610 0.588220 0.006302
0.781582 0.594812 0.006302
0.804791 0.602167 0.006302
0.827207 0.610254 0.006302
0.827420 0.619028 0.006302
0.827420 0.628351 0.006302
0.827420 0.638148 0.006302
0.827420 0.648356 0.006302
0.332586 0.575128 0.006302
0.333898 0.576684 0.006302
0.335363 0.578103 0.006302
0.337240 0.579370 0.006302
0.339757 0.580499 0.006302
0.343313 0.581491 0.006302
0.348302 0.582376 0.006302
0.355184 0.583154 0.006302
0.364370 0.583841 0.006302
0.376196 0.584436 0.006302
0.390829 0.584985 0.006302
0.408194 0.585504 0.006302
0.428077 0.586023 0.006302
0.450111 0.586557 0.006302
0.473823 0.587167 0.006302
0.498787 0.587900 0.006302
0.524620 0.588800 0.006302
0.550973 0.589883 0.006302
0.577569 0.591226 0.006302
0.604196 0.592859 0.006302
0.630655 0.594842 0.006302
0.656825 0.597238 0.006302
0.682567 0.600092 0.006302
0.707790 0.603464 0.006302
0.732433 0.607416 0.006302
0.756405 0.611978 0.006302
0.779644 0.617166 0.006302
0.802075 0.622950 0.006302
0.823636 0.629313 0.006302
0.827420 0.636225 0.006302
0.827420 0.643687 0.006302
0.827420 0.651652 0.006302
0.827420 0.660060 0.006302
0.362020 0.611444 0.006302
0.363043 0.612604 0.006302
0.364202 0.613611 0.006302
0.365637 0.614481 0.006302
0.367605 0.615229 0.006302
0.370382 0.615839 0.006302
0.374350 0.616327 0.006302
0.379873 0.616724 0.006302
0.387396 0.617029 0.006302
0.397269 0.617258 0.006302
0.409735 0.617426 0.006302
0.424857 0.617563 0.006302
0.442512 0.617700 0.006302
0.462425 0.617899 0.006302
0.484199 0.618158 0.006302
0.507454 0.618524 0.006302
0.531777 0.619028 0.006302
0.556802 0.619684 0.006302
0.582238 0.620539 0.006302
0.607828 0.621653 0.006302
0.633356 0.623041 0.006302
0.658671 0.624765 0.006302
0.683604 0.626871 0.006302
0.708034 0.629374 0.006302
0.731838 0.632303 0.006302
0.754940 0.635676 0.006302
0.777295 0.639536 0.006302
0.798825 0.643900 0.006302
0.819562 0.648783 0.006302
0.827420 0.654185 0.006302
0.827420 0.660075 0.006302
0.827420 0.666468 0.006302
0.827420 0.673274 0.006302
0.391211 0.646509 0.006302
0.391928 0.647257 0.006302
0.392721 0.647868 0.006302
0.393729 0.648325 0.006302
0.395148 0.648661 0.006302
0.397238 0.648875 0.006302
0.400275 0.648966 0.006302
0.404639 0.648966 0.006302
0.410712 0.648875 0.006302
0.418860 0.648722 0.006302
0.429358 0.648508 0.006302
0.442374 0.648310 0.006302
0.457862 0.648142 0.006302
0.475654 0.648020 0.006302
0.495460 0.647959 0.006302
0.516899 0.647974 0.006302
0.539620 0.648112 0.006302
0.563226 0.648386 0.006302
0.587411 0.648829 0.006302
0.611887 0.649470 0.006302
0.636347 0.650294 0.006302
0.660624 0.651347 0.006302
0.684550 0.652674 0.006302
0.708003 0.654307 0.006302
0.730877 0.656306 0.006302
0.753079 0.658671 0.006302
0.774563 0.661463 0.006302
0.795377 0.664698 0.006302
0.815473 0.668391 0.006302
0.827420 0.672557 0.006302
0.827420 0.677165 0.006302
0.827420 0.682216 0.006302
0.827420 0.687678 0.006302
0.420035 0.680293 0.006302
0.420401 0.680613 0.006302
0.420813 0.680797 0.006302
0.421378 0.680842 0.006302
0.422278 0.680766 0.006302
0.423713 0.680552 0.006302
0.425940 0.680247 0.006302
0.429282 0.679835 0.006302
0.434089 0.679347 0.006302
0.440726 0.678843 0.006302
0.449485 0.678325 0.006302
0.460563 0.677821 0.006302
0.474006 0.677348 0.006302
0.489754 0.676905 0.006302
0.507576 0.676524 0.006302
0.527184 0.676219 0.006302
0.548211 0.675990 0.006302
0.570245 0.675822 0.006302
0.592966 0.675761 0.006302
0.616068 0.675822 0.006302
0.639292 0.676051 0.006302
0.662440 0.676478 0.006302
0.685313 0.677134 0.006302
0.707790 0.678065 0.006302
0.729747 0.679301 0.006302
0.751125 0.680873 0.006302
0.771908 0.682826 0.006302
0.792050 0.685176 0.006302
0.811521 0.687922 0.006302
0.827420 0.691081 0.006302
0.827420 0.694636 0.006302
0.827420 0.698604 0.006302
0.827420 0.702937 0.006302
0.448371 0.712764 0.006302
0.448356 0.712642 0.006302
0.448356 0.712398 0.006302
0.448478 0.712001 0.006302
0.448859 0.711482 0.006302
0.449668 0.710857 0.006302
0.451148 0.710124 0.006302
0.453605 0.709316 0.006302
0.457343 0.708507 0.006302
0.462684 0.707683 0.006302
0.469902 0.706859 0.006302
0.479240 0.706065 0.006302
0.490806 0.705272 0.006302
0.504570 0.704494 0.006302
0.520378 0.703700 0.006302
0.538003 0.702937 0.006302
0.557153 0.702220 0.006302
0.577462 0.701564 0.006302
0.598642 0.700999 0.006302
0.620356 0.700557 0.006302
0.642329 0.700267 0.006302
0.664332 0.700160 0.006302
0.686168 0.700267 0.006302
0.707683 0.700633 0.006302
0.728801 0.701289 0.006302
0.749432 0.702251 0.006302
0.769512 0.703548 0.006302
0.789014 0.705180 0.006302
0.807904 0.707179 0.006302
0.826139 0.709545 0.006302
0.827420 0.712276 0.006302
0.827420 0.715373 0.006302
0.827420 0.718807 0.006302
0.476097 0.743877 0.006302
0.475669 0.743297 0.006302
0.475227 0.742596 0.006302
0.474876 0.741741 0.006302
0.474739 0.740780 0.006302
0.474983 0.739727 0.006302
0.475837 0.738628 0.006302
0.477531 0.737514 0.006302
0.480339 0.736385 0.006302
0.484535 0.735256 0.006302
0.490349 0.734066 0.006302
0.498024 0.732830 0.006302
0.507729 0.731594 0.006302
0.519509 0.730327 0.006302
0.533349 0.729091 0.006302
0.549035 0.727871 0.006302
0.566354 0.726711 0.006302
0.585000 0.725628 0.006302
0.604623 0.724620 0.006302
0.624949 0.723751 0.006302
0.645670 0.723033 0.006302
0.666529 0.722484 0.006302
0.687358 0.722179 0.006302
0.707958 0.722103 0.006302
0.728267 0.722301 0.006302
0.748150 0.722789 0.006302
0.767559 0.723568 0.006302
0.786435 0.724666 0.006302
0.804746 0.726085 0.006302
0.822446 0.727840 0.006302
0.827420 0.729915 0.006302
0.827420 0.732341 0.006302
0.827420 0.735073 0.006302
0.503075 0.773571 0.006302
0.502205 0.772534 0.006302
0.501305 0.771344 0.006302
0.500481 0.770031 0.006302
0.499870 0.768673 0.006302
0.499641 0.767285 0.006302
0.499916 0.765835 0.006302
0.500862 0.764324 0.006302
0.502724 0.762753 0.006302
0.505760 0.761120 0.006302
0.510231 0.759472 0.006302
0.516381 0.757778 0.006302
0.524407 0.756100 0.006302
0.534432 0.754421 0.006302
0.546441 0.752758 0.006302
0.560342 0.751156 0.006302
0.575921 0.749599 0.006302
0.592935 0.748135 0.006302
0.611078 0.746761 0.006302
0.630030 0.745525 0.006302
0.649500 0.744472 0.006302
0.669245 0.743618 0.006302
0.689067 0.742977 0.006302
0.708782 0.742580 0.006302
0.728267 0.742443 0.006302
0.747433 0.742550 0.006302
0.766186 0.742947 0.006302
0.784451 0.743618 0.006302
0.802213 0.744610 0.006302
0.819409 0.745892 0.006302
0.827420 0.747494 0.006302
0.827420 0.749386 0.006302
0.827420 0.751598 0.006302
0.529198 0.801816 0.006302
0.527840 0.800275 0.006302
0.526497 0.798642 0.006302
0.525231 0.796933 0.006302
0.524132 0.795132 0.006302
0.523293 0.793256 0.006302
0.522881 0.791302 0.006302
0.523064 0.789319 0.006302
0.524056 0.787274 0.006302
0.526070 0.785199 0.006302
0.529397 0.783124 0.006302
0.534234 0.781018 0.006302
0.540810 0.778943 0.006302
0.549279 0.776883 0.006302
0.559655 0.774853 0.006302
0.571908 0.772900 0.006302
0.585901 0.771008 0.006302
0.601389 0.769207 0.006302
0.618082 0.767544 0.006302
0.635691 0.766079 0.006302
0.653941 0.764782 0.006302
0.672587 0.763699 0.006302
0.691432 0.762814 0.006302
0.710262 0.762173 0.006302
0.728969 0.761761 0.006302
0.747433 0.761608 0.006302
0.765545 0.761715 0.006302
0.783246 0.762097 0.006302
0.800473 0.762753 0.006302
0.817182 0.763699 0.006302
0.827420 0.764950 0.006302
0.827420 0.766476 0.006302
0.827420 0.768307 0.006302
0.554253 0.827420 0.006302
0.552377 0.826413 0.006302
0.550515 0.824262 0.006302
0.548714 0.822034 0.006302
0.547066 0.819745 0.006302
0.545663 0.817395 0.006302
0.544625 0.815000 0.006302
0.544121 0.812558 0.006302
0.544350 0.810101 0.006302
0.545510 0.807630 0.006302
0.547829 0.805142 0.006302
0.551553 0.802686 0.006302
0.556893 0.800244 0.006302
0.563989 0.797848 0.006302
0.572946 0.795514 0.006302
0.583749 0.793240 0.006302
0.596277 0.791073 0.006302
0.610330 0.789075 0.006302
0.625650 0.787228 0.006302
0.641993 0.785580 0.006302
0.659083 0.784131 0.006302
0.676677 0.782864 0.006302
0.694560 0.781811 0.006302
0.712551 0.780987 0.006302
0.730510 0.780407 0.006302
0.748287 0.780056 0.006302
0.765789 0.779965 0.006302
0.782940 0.780133 0.006302
0.799664 0.780591 0.006302
0.815930 0.781308 0.006302
