resources/flame/Syncolor/Shared/transforms/camera_manufacturer_luts/arri/ARRI_Alexa_LUTs/ARRI_LogC3_v1-2_LUT_Package/LUTs/ARRI_LogC3-to-HLG_1K_Rec2100-D65_DW100_v1_33.cube
LUT_3D_SIZE 9
0.005478 0.005478 0.005478
0.070588 0.015320 0.003708
0.161654 0.035065 0.006088
0.298543 0.064775 0.011231
0.524743 0.114092 0.019791
0.744976 0.190982 0.033127
0.929641 0.310430 0.053864
1.000000 0.515602 0.089525
1.000000 0.749722 0.154574
0.009873 0.035355 0.003906
0.030579 0.032639 0.003876
0.131716 0.038193 0.003250
0.285832 0.065660 0.008865
0.522179 0.115145 0.018906
0.749233 0.193927 0.033082
0.937362 0.317479 0.054765
1.000000 0.523568 0.090806
1.000000 0.741573 0.151263
0.036530 0.130831 0.003006
0.042298 0.131487 0.003006
0.123400 0.131716 0.002930
0.284825 0.136110 0.002716
0.533562 0.161425 0.002457
0.760739 0.224506 0.017853
0.942840 0.336538 0.048310
1.000000 0.522881 0.084764
1.000000 0.716625 0.137911
0.081559 0.292149 0.002564
0.085527 0.296681 0.002548
0.137652 0.300694 0.002533
0.284367 0.303532 0.002472
0.537438 0.309819 0.002350
0.763302 0.337530 0.002182
0.936934 0.408545 0.002014
1.000000 0.544427 0.043839
1.000000 0.697475 0.103761
0.155322 0.551415 0.002258
0.159289 0.557931 0.002243
0.190951 0.561975 0.002243
0.303716 0.563378 0.002228
0.532799 0.563226 0.002182
0.752438 0.566934 0.002106
0.920897 0.586801 0.001984
1.000000 0.636805 0.001892
1.000000 0.720455 0.001877
0.270161 0.781979 0.002014
0.271122 0.781445 0.002014
0.288121 0.778454 0.002014
0.364630 0.773892 0.002014
0.546334 0.769116 0.002014
0.739315 0.764904 0.001984
0.898009 0.764157 0.001923
1.000000 0.772290 0.001862
1.000000 0.805859 0.001846
0.431601 0.958282 0.001831
0.422354 0.949187 0.001846
0.424903 0.939040 0.001862
0.471443 0.928954 0.001862
0.592935 0.919326 0.001862
0.740932 0.910689 0.001862
0.879973 0.904311 0.001846
0.999557 0.901289 0.001801
1.000000 0.910460 0.001801
0.629191 1.000000 0.001785
0.607034 1.000000 0.001785
0.592081 1.000000 0.001785
0.603876 1.000000 0.001785
0.664332 1.000000 0.001785
0.763973 1.000000 0.001770
0.874159 1.000000 0.001770
0.976486 1.000000 0.001755
1.000000 0.997681 0.001740
0.775509 1.000000 0.001770
0.744488 1.000000 0.001770
0.719097 1.000000 0.001770
0.713558 1.000000 0.001770
0.742718 1.000000 0.001770
0.807706 1.000000 0.001770
0.890425 1.000000 0.001755
0.971740 1.000000 0.001755
1.000000 1.000000 0.001740
0.004181 0.004181 0.084794
0.061097 0.003799 0.056550
0.153231 0.029587 0.033539
0.293614 0.062882 0.024765
0.523934 0.113558 0.027512
0.745190 0.190921 0.037263
0.930358 0.310964 0.056107
1.000000 0.516213 0.090867
1.000000 0.744015 0.153124
0.003983 0.031388 0.031449
0.029053 0.029053 0.029053
0.132921 0.036393 0.023270
0.287724 0.065293 0.022400
0.525185 0.115526 0.026719
0.751690 0.194980 0.037736
0.937118 0.317174 0.057420
1.000000 0.515251 0.091127
1.000000 0.725338 0.146685
0.036149 0.130907 0.003006
0.041779 0.132052 0.003006
0.123980 0.132113 0.002930
0.288182 0.136370 0.002701
0.537621 0.162188 0.002441
0.760861 0.224872 0.027970
0.938155 0.333135 0.052735
1.000000 0.505943 0.085557
1.000000 0.694636 0.134035
0.081865 0.293889 0.002564
0.085863 0.298756 0.002548
0.137835 0.302770 0.002533
0.285893 0.305028 0.002472
0.538720 0.311223 0.002350
0.760357 0.338643 0.002182
0.929366 0.406317 0.002014
1.000000 0.531334 0.054902
1.000000 0.676555 0.107195
0.156130 0.554162 0.002243
0.159854 0.559823 0.002243
0.191730 0.562905 0.002243
0.305425 0.563653 0.002228
0.533272 0.563546 0.002182
0.749142 0.567956 0.002106
0.913085 0.587594 0.001999
1.000000 0.632013 0.001892
1.000000 0.708721 0.001877
0.269612 0.781308 0.002014
0.269856 0.779492 0.002014
0.287770 0.775631 0.002029
0.367086 0.771206 0.002029
0.549142 0.766857 0.002014
0.737987 0.763470 0.001984
0.891569 0.763912 0.001923
1.000000 0.772320 0.001862
1.000000 0.802976 0.001846
0.425208 0.952819 0.001846
0.415671 0.943023 0.001846
0.420462 0.932967 0.001862
0.472221 0.923201 0.001877
0.597604 0.914153 0.001877
0.743252 0.906783 0.001862
0.877668 0.901839 0.001846
0.992279 0.900069 0.001816
1.000000 0.908843 0.001801
0.615335 1.000000 0.001785
0.593057 1.000000 0.001785
0.580331 1.000000 0.001785
0.598856 1.000000 0.001785
0.666026 1.000000 0.001785
0.766918 1.000000 0.001770
0.874723 1.000000 0.001770
0.972869 0.996414 0.001755
1.000000 0.994491 0.001740
0.756695 1.000000 0.001770
0.725795 1.000000 0.001770
0.704265 1.000000 0.001785
0.705165 1.000000 0.001785
0.741802 1.000000 0.001770
0.810773 1.000000 0.001770
0.892882 1.000000 0.001755
0.970596 1.000000 0.001755
1.000000 1.000000 0.001740
0.003708 0.003708 0.156924
0.035920 0.003708 0.136767
0.141421 0.003235 0.104768
0.288991 0.047456 0.089952
0.520363 0.106447 0.085328
0.743923 0.187015 0.085313
0.930159 0.308949 0.092439
1.000000 0.510567 0.115633
1.000000 0.732601 0.166461
0.003830 0.003830 0.134569
0.003784 0.003784 0.140856
0.127626 0.003265 0.125566
0.287373 0.042023 0.111391
0.526513 0.106508 0.103059
0.752132 0.190570 0.099733
0.933959 0.312032 0.103426
1.000000 0.499596 0.122087
1.000000 0.702937 0.163714
0.014069 0.120043 0.118929
0.023957 0.120699 0.122408
0.120638 0.120638 0.120638
0.291096 0.126406 0.112612
0.539620 0.155581 0.106126
0.758679 0.219913 0.104265
0.930587 0.324926 0.109758
1.000000 0.484489 0.127489
1.000000 0.669352 0.163714
0.076661 0.291676 0.075410
0.080858 0.296864 0.075990
0.134615 0.301076 0.075669
0.286213 0.302754 0.077455
0.539605 0.308812 0.084718
0.756542 0.336400 0.094148
0.920974 0.401373 0.107485
1.000000 0.515435 0.128420
1.000000 0.653391 0.163714
0.154177 0.554650 0.002243
0.157641 0.559350 0.002243
0.190524 0.561822 0.002243
0.306081 0.562371 0.002228
0.533608 0.562524 0.002182
0.745998 0.567575 0.002106
0.905043 0.587243 0.049775
1.000000 0.626596 0.103197
1.000000 0.697856 0.152026
0.266911 0.779141 0.002014
0.266590 0.776196 0.002029
0.286244 0.772183 0.002029
0.369055 0.768124 0.002029
0.552010 0.764294 0.002014
0.737011 0.761807 0.001984
0.885924 0.763485 0.001938
1.000000 0.772503 0.001862
1.000000 0.800336 0.100252
0.416999 0.946349 0.001846
0.407919 0.936431 0.001862
0.415518 0.926604 0.001862
0.473457 0.917296 0.001877
0.602777 0.909194 0.001877
0.745892 0.903197 0.001862
0.875929 0.899504 0.001846
0.985641 0.898848 0.001816
1.000000 0.907240 0.001801
0.600214 1.000000 0.001785
0.578027 1.000000 0.001785
0.568566 1.000000 0.001785
0.595132 1.000000 0.001785
0.668635 1.000000 0.001785
0.770550 1.000000 0.001770
0.876204 0.999207 0.001770
0.969802 0.992660 0.001755
1.000000 0.991348 0.001755
0.736828 1.000000 0.001770
0.707683 1.000000 0.001785
0.690486 1.000000 0.001785
0.698421 1.000000 0.001785
0.742473 1.000000 0.001770
0.814908 1.000000 0.001770
0.896025 1.000000 0.001755
0.970260 1.000000 0.001755
1.000000 1.000000 0.617792
0.003494 0.003494 0.213596
0.003540 0.003540 0.200671
0.124758 0.003235 0.176150
0.281193 0.002823 0.164111
0.513695 0.085191 0.158022
0.740536 0.175387 0.155978
0.926513 0.300114 0.158572
1.000000 0.494514 0.173526
1.000000 0.712932 0.211612
0.003449 0.003449 0.225971
0.003403 0.003403 0.241413
0.106355 0.003204 0.243900
0.278279 0.002808 0.229404
0.523445 0.059480 0.217456
0.748363 0.169131 0.208515
0.926696 0.295109 0.204334
1.000000 0.471641 0.211261
1.000000 0.674586 0.238346
0.003174 0.060456 0.276326
0.003204 0.038849 0.299260
0.100710 0.003113 0.310582
0.286320 0.047562 0.287434
0.536568 0.110643 0.265019
0.753201 0.192737 0.249195
0.920470 0.302831 0.239734
1.000000 0.453941 0.240757
1.000000 0.637873 0.262593
0.034226 0.272389 0.265187
0.037903 0.275410 0.275502
0.114427 0.278233 0.282078
0.279881 0.279881 0.279881
0.538430 0.288350 0.270359
0.751614 0.319722 0.262150
0.911391 0.385504 0.258518
1.000000 0.490501 0.263050
1.000000 0.625269 0.289235
0.139513 0.547143 0.213458
0.142870 0.550881 0.217990
0.179843 0.553033 0.223484
0.300984 0.554482 0.229038
0.531991 0.555016 0.236637
0.742748 0.560800 0.250034
0.896498 0.581613 0.265187
1.000000 0.620020 0.283650
1.000000 0.685359 0.317632
0.257450 0.774243 0.002029
0.256855 0.770535 0.002029
0.279377 0.766781 0.064698
0.367575 0.763256 0.113268
0.553307 0.760082 0.156313
0.735973 0.758495 0.201495
0.880934 0.761257 0.245838
0.997192 0.770962 0.289265
1.000000 0.796521 0.341329
0.404913 0.938872 0.001862
0.396445 0.928923 0.001862
0.407568 0.919402 0.001877
0.473152 0.910735 0.001877
0.607004 0.904021 0.001877
0.748333 0.899245 0.001877
0.874449 0.896544 0.186694
0.979416 0.896818 0.280034
1.000000 0.904860 0.368429
0.582345 1.000000 0.001785
0.560327 1.000000 0.001785
0.555947 1.000000 0.001785
0.591302 1.000000 0.001785
0.671260 1.000000 0.001785
0.775219 1.000000 0.001785
0.877958 0.994049 0.087312
0.967102 0.988540 0.295460
1.000000 0.987228 0.459678
0.716014 1.000000 0.001770
0.689403 1.000000 0.001785
0.676921 1.000000 0.001785
0.692638 1.000000 0.001785
0.744167 1.000000 0.001770
0.819745 1.000000 0.001770
0.899626 1.000000 0.159365
0.972290 1.000000 0.599329
1.000000 1.000000 0.852705
0.003357 0.003357 0.260121
0.003388 0.003388 0.249134
0.106264 0.003204 0.238209
0.269413 0.002823 0.230076
0.504784 0.036332 0.225956
0.734920 0.155657 0.224903
0.918746 0.283650 0.228412
1.000000 0.467857 0.242008
1.000000 0.683818 0.276295
0.003250 0.003250 0.302296
0.003204 0.003204 0.327749
0.069520 0.003113 0.350576
0.261234 0.002792 0.345632
0.511162 0.002502 0.337682
0.740124 0.116106 0.329885
0.914702 0.260624 0.324315
1.000000 0.429603 0.327245
1.000000 0.636957 0.352743
0.003052 0.003052 0.417105
0.003006 0.003006 0.449470
0.002960 0.002960 0.481834
0.257862 0.002731 0.476631
0.520912 0.002472 0.456550
0.743023 0.099931 0.435309
0.907591 0.249928 0.417762
1.000000 0.403357 0.408728
1.000000 0.592630 0.427588
0.002625 0.217334 0.484688
0.002640 0.207080 0.518029
0.002640 0.197955 0.545541
0.256413 0.191714 0.552773
0.526680 0.207797 0.533852
0.743481 0.256580 0.506996
0.899855 0.336767 0.484337
1.000000 0.444755 0.470024
1.000000 0.585367 0.485267
0.069749 0.517967 0.494621
0.069062 0.517937 0.510307
0.131167 0.518242 0.520867
0.278462 0.520104 0.526299
0.522683 0.522683 0.522683
0.738247 0.533242 0.513832
0.887388 0.560327 0.508782
1.000000 0.602655 0.509041
1.000000 0.666194 0.530495
0.225574 0.762295 0.426429
0.225620 0.758434 0.434653
0.254520 0.754940 0.445106
0.354620 0.752132 0.457664
0.548730 0.750378 0.471382
0.733745 0.750103 0.488365
0.876234 0.754055 0.512764
0.987961 0.765103 0.537255
1.000000 0.789395 0.571054
0.381552 0.929091 0.246586
0.373861 0.919127 0.286305
0.390036 0.909865 0.328679
0.465965 0.902327 0.372198
0.607843 0.896971 0.415335
0.749310 0.893355 0.460365
0.872709 0.891600 0.510658
0.973388 0.892805 0.560739
1.000000 0.900740 0.611734
0.557610 1.000000 0.001785
0.536309 1.000000 0.001785
0.538674 1.000000 0.001785
0.584710 1.000000 0.229877
0.673732 1.000000 0.338079
0.779187 0.994812 0.431159
0.879515 0.987900 0.521889
0.964477 0.983383 0.600732
1.000000 0.979797 0.730434
0.693141 1.000000 0.001785
0.668910 1.000000 0.001785
0.661814 1.000000 0.001785
0.686534 1.000000 0.001785
0.746090 1.000000 0.281743
0.824735 1.000000 0.459144
0.908675 1.000000 0.642054
0.976242 1.000000 0.832578
0.998154 1.000000 0.947463
0.003250 0.003250 0.304646
0.003265 0.003265 0.297047
0.083223 0.003159 0.302480
0.255787 0.002823 0.296895
0.492424 0.002533 0.292973
0.726406 0.124681 0.291310
0.907210 0.260365 0.293660
1.000000 0.432502 0.305287
1.000000 0.646403 0.341054
0.003128 0.003128 0.373373
0.003067 0.003067 0.405188
0.003021 0.003021 0.440223
0.239979 0.002777 0.446204
0.491585 0.002502 0.442802
0.727321 0.002274 0.440574
0.898558 0.205661 0.439399
1.000000 0.375174 0.442863
1.000000 0.586648 0.475990
0.002914 0.002914 0.524559
0.002869 0.002869 0.564065
0.002823 0.002823 0.599985
0.215976 0.002686 0.617182
0.489876 0.002472 0.612558
0.726192 0.002258 0.602838
0.892042 0.130083 0.592096
1.000000 0.324636 0.581949
1.000000 0.520684 0.596597
0.002716 0.056153 0.663264
0.002701 0.002701 0.693263
0.002670 0.002670 0.716686
0.197192 0.002594 0.728588
0.496757 0.002426 0.718822
0.730587 0.002243 0.701549
0.885359 0.217060 0.681529
1.000000 0.358480 0.665751
1.000000 0.515068 0.669215
0.002304 0.451713 0.706554
0.002304 0.438514 0.725811
0.002304 0.429328 0.740826
0.218051 0.424994 0.750011
0.496925 0.426932 0.749493
0.726879 0.448936 0.736461
0.876570 0.495323 0.720912
0.991608 0.557153 0.708965
1.000000 0.629786 0.710750
0.121645 0.737881 0.712779
0.117571 0.731868 0.720577
0.172152 0.727382 0.725750
0.311437 0.724834 0.728634
0.531106 0.725017 0.729641
0.727565 0.727565 0.727565
0.870909 0.735180 0.725170
0.978408 0.750164 0.726543
1.000000 0.775555 0.736645
0.325261 0.913390 0.664439
0.319936 0.903426 0.669932
0.346944 0.894896 0.677577
0.441428 0.888869 0.687175
0.601419 0.885054 0.697795
0.747173 0.883146 0.708461
0.870192 0.882704 0.721370
0.967361 0.885161 0.739651
1.000000 0.893721 0.762554
0.514153 1.000000 0.549325
0.494759 1.000000 0.582727
0.507393 1.000000 0.612741
0.572152 1.000000 0.642863
0.673228 0.993210 0.672145
0.781720 0.985672 0.700862
0.880552 0.979980 0.730770
0.960693 0.974701 0.780621
0.996231 0.971237 0.872633
0.663752 1.000000 0.283970
0.641749 1.000000 0.436606
0.641672 1.000000 0.543618
0.677958 1.000000 0.616739
0.747219 1.000000 0.673884
0.831998 1.000000 0.730648
0.926558 1.000000 0.839231
0.981399 1.000000 0.938216
0.996567 0.998611 0.979782
0.003174 0.003174 0.346670
0.003174 0.003174 0.345174
0.046204 0.003113 0.366720
0.240055 0.002823 0.365789
0.477012 0.002533 0.362814
0.715358 0.063462 0.361944
0.892439 0.227237 0.363104
1.000000 0.388830 0.370550
1.000000 0.601633 0.407675
0.003021 0.003021 0.445045
0.002960 0.002960 0.483665
0.002914 0.002914 0.524971
0.212543 0.002747 0.543404
0.467369 0.002502 0.543404
0.709285 0.002289 0.541909
0.880446 0.114839 0.542260
1.000000 0.311879 0.545617
1.000000 0.518318 0.577249
0.002808 0.002808 0.607767
0.002762 0.002762 0.643366
0.002716 0.002716 0.675929
0.162432 0.002640 0.699580
0.453712 0.002457 0.702205
0.704891 0.002274 0.700908
0.872602 0.002106 0.699413
1.000000 0.193484 0.696132
1.000000 0.409186 0.706813
0.002640 0.002640 0.743648
0.002594 0.002594 0.772030
0.002564 0.002564 0.797650
0.051850 0.002533 0.820142
0.442069 0.002396 0.821363
0.705241 0.002243 0.813535
0.866468 0.002090 0.801846
0.988022 0.181353 0.789670
1.000000 0.389197 0.788006
0.002335 0.340978 0.829114
0.002350 0.289235 0.854459
0.002365 0.239033 0.874922
0.002380 0.204822 0.889769
0.453819 0.209354 0.886458
0.710491 0.265568 0.872663
0.863203 0.351934 0.855894
0.976623 0.452308 0.840925
1.000000 0.560494 0.834821
0.002075 0.695445 0.865827
0.002075 0.682765 0.876417
0.002090 0.674159 0.883101
0.207385 0.670817 0.885985
0.492485 0.672221 0.885405
0.715206 0.678874 0.881407
0.861265 0.694621 0.871855
0.967269 0.718853 0.862303
1.000000 0.750240 0.858946
0.184588 0.889342 0.863203
0.180117 0.878019 0.865202
0.239551 0.869932 0.866361
0.379995 0.865034 0.867094
0.581048 0.862898 0.867323
0.740841 0.863264 0.866972
0.865614 0.865614 0.865614
0.960784 0.871504 0.865873
1.000000 0.884108 0.874235
0.423850 1.000000 0.826535
0.413352 1.000000 0.827420
0.446799 0.996139 0.831052
0.544121 0.986694 0.836118
0.667124 0.978943 0.842618
0.782406 0.972900 0.850385
0.881819 0.968505 0.861662
0.956863 0.963287 0.896895
0.980514 0.966995 0.943679
0.616587 1.000000 0.776532
0.598062 1.000000 0.790219
0.610300 1.000000 0.804562
0.664637 1.000000 0.820432
0.747234 1.000000 0.837980
0.855695 1.000000 0.878767
0.949248 1.000000 0.938064
0.986740 0.995773 0.976608
0.997009 0.997574 0.992508
0.003098 0.003098 0.386099
0.003082 0.003082 0.394598
0.003037 0.003037 0.426886
0.221775 0.002808 0.434928
0.458488 0.002533 0.433799
0.700404 0.002304 0.433982
0.874403 0.179355 0.435492
1.000000 0.341787 0.441840
1.000000 0.546166 0.478035
0.002930 0.002930 0.515862
0.002884 0.002884 0.556085
0.002823 0.002823 0.593912
0.176959 0.002716 0.618540
0.438743 0.002502 0.622019
0.688228 0.002304 0.622171
0.860151 0.002121 0.623911
0.997055 0.225116 0.626978
1.000000 0.426352 0.648692
0.002731 0.002731 0.673045
0.002686 0.002686 0.706172
0.002640 0.002640 0.736538
0.065370 0.002594 0.763302
0.412711 0.002441 0.769512
0.680690 0.002274 0.770367
0.850294 0.002121 0.770459
0.978744 0.001984 0.771923
1.000000 0.256718 0.782330
0.002548 0.002548 0.804746
0.002518 0.002518 0.831159
0.002487 0.002487 0.855222
0.002457 0.002457 0.877424
0.382177 0.002365 0.887083
0.675547 0.002228 0.886809
0.843641 0.002106 0.881773
0.966644 0.001984 0.875074
1.000000 0.152102 0.872541
0.002380 0.143740 0.910369
0.002380 0.002380 0.934356
0.002365 0.002365 0.952514
0.002335 0.002335 0.966796
0.373297 0.002289 0.970382
0.683528 0.002182 0.962692
0.847227 0.002075 0.950515
0.960800 0.239918 0.935744
1.000000 0.421790 0.924086
0.002106 0.625711 0.965042
0.002106 0.592050 0.979660
0.002121 0.567208 0.988754
0.002121 0.558389 0.993973
0.424979 0.564813 0.992737
0.697749 0.586633 0.985245
0.848920 0.622827 0.973190
0.954238 0.667201 0.959411
1.000000 0.712993 0.947738
0.001923 0.854154 0.985580
0.001923 0.840436 0.988022
0.001938 0.832013 0.988663
0.257786 0.828214 0.987350
0.541588 0.828199 0.983688
0.731624 0.831861 0.978134
0.859098 0.839078 0.970947
0.950546 0.852567 0.960067
0.985580 0.882918 0.943435
0.248798 0.997391 0.973632
0.254200 0.983688 0.971756
0.330358 0.972854 0.969146
0.483909 0.964538 0.965988
0.653361 0.958480 0.962463
0.781720 0.954849 0.959075
0.891508 0.951720 0.954025
0.956207 0.956207 0.956207
0.975784 0.968643 0.968292
0.521035 1.000000 0.953552
0.512123 1.000000 0.949081
0.555367 1.000000 0.945953
0.644190 1.000000 0.944671
0.762020 1.000000 0.946838
0.895583 1.000000 0.959167
0.969696 0.991867 0.978347
0.990921 0.994308 0.990341
0.997971 0.998093 0.997024
0.003052 0.003052 0.423850
0.003021 0.003021 0.445655
0.002960 0.002960 0.483558
0.199908 0.002792 0.502495
0.436851 0.002533 0.504341
0.681559 0.002319 0.505913
0.854170 0.099992 0.509743
0.994873 0.286244 0.516335
1.000000 0.473976 0.546044
0.002853 0.002853 0.575448
0.002808 0.002808 0.613184
0.002762 0.002762 0.648478
0.128389 0.002686 0.676967
0.405905 0.002502 0.683482
0.664759 0.002304 0.685847
0.837598 0.002136 0.688594
0.972091 0.001999 0.693202
1.000000 0.313939 0.706859
0.002655 0.002655 0.726085
0.002609 0.002609 0.757473
0.002579 0.002579 0.786145
0.002533 0.002533 0.812512
0.365545 0.002426 0.824170
0.652811 0.002274 0.827100
0.825971 0.002136 0.827893
0.953292 0.002014 0.829496
1.000000 0.001923 0.836576
0.002487 0.002487 0.855207
0.002457 0.002457 0.880186
0.002426 0.002426 0.903273
0.002396 0.002396 0.924224
0.312184 0.002335 0.937163
0.642802 0.002213 0.938689
0.820081 0.002106 0.938155
0.943862 0.001999 0.936339
1.000000 0.001923 0.932876
0.002350 0.002350 0.963806
0.002319 0.002319 0.982788
0.002304 0.002304 0.999527
0.002274 0.002274 1.000000
0.265171 0.002243 1.000000
0.645151 0.002167 1.000000
0.823957 0.002075 1.000000
0.941604 0.001984 1.000000
1.000000 0.149538 0.991638
0.002121 0.508080 1.000000
0.002152 0.400595 1.000000
0.002167 0.304234 1.000000
0.002167 0.250797 1.000000
0.321477 0.273136 1.000000
0.675196 0.357443 1.000000
0.836027 0.471702 1.000000
0.940520 0.583459 1.000000
1.000000 0.672770 1.000000
0.001938 0.805982 1.000000
0.001953 0.786191 1.000000
0.001968 0.774975 1.000000
0.001968 0.773037 1.000000
0.477546 0.778027 1.000000
0.720211 0.789593 1.000000
0.852918 0.807172 1.000000
0.935180 0.846098 1.000000
0.955871 0.896742 0.963119
0.001816 0.967544 1.000000
0.001831 0.953445 1.000000
0.001831 0.943481 1.000000
0.390982 0.936828 1.000000
0.636408 0.933455 1.000000
0.796246 0.933364 1.000000
0.911498 0.941711 0.991791
0.959716 0.957977 0.972839
0.976165 0.972747 0.976745
0.320089 1.000000 1.000000
0.349126 1.000000 1.000000
0.461204 1.000000 1.000000
0.626886 1.000000 1.000000
0.813962 1.000000 1.000000
0.939742 0.987366 0.989273
0.980652 0.989746 0.990158
0.993988 0.995163 0.995209
0.998840 0.998840 0.998840
