resources/flame/Syncolor/Shared/transforms/camera_manufacturer_luts/arri/ARRI_Alexa_LUTs/ARRI_LogC3_v1-2_LUT_Package/LUTs/ARRI_LogC3-to-HLG_1K_Rec2100-D65_DW100_v2_33.cube
LUT_3D_SIZE 33
0.00000000 0.00000000 0.00000000
0.01975593 0.00428620 0.00074362
0.03572533 0.00775088 0.00134471
0.05248353 0.01138669 0.00197549
0.07058855 0.01531471 0.00265696
0.09031554 0.01959463 0.00339949
0.11190528 0.02427869 0.00421213
0.13560036 0.02941951 0.00510402
0.16165506 0.03507227 0.00608472
0.19037137 0.04130249 0.00716561
0.22227880 0.04822505 0.00836661
0.25805587 0.05598715 0.00971326
0.29854700 0.06477200 0.01123736
0.34480731 0.07480853 0.01297860
0.39815986 0.08638376 0.01498680
0.45861755 0.09950051 0.01726244
0.52473586 0.11408916 0.01979344
0.58623542 0.13032166 0.02260963
0.64246190 0.14839388 0.02574499
0.69503636 0.16852837 0.02923815
0.74498068 0.19097896 0.03313312
0.79298322 0.21603587 0.03748027
0.83953234 0.24403179 0.04233731
0.88498968 0.27534914 0.04777058
0.92963308 0.31042871 0.05385657
0.97368309 0.34978016 0.06068369
1.00000000 0.39399456 0.06835449
1.00000000 0.44884371 0.07787032
1.00000000 0.51560976 0.08953062
1.00000000 0.58049535 0.10288250
1.00000000 0.64032620 0.11806506
1.00000000 0.69643437 0.13523005
1.00000000 0.74972075 0.15456850
0.00241395 0.00864741 0.00000000
0.00307071 0.00327766 0.00000000
0.02104672 0.00456624 0.00079220
0.03741810 0.00811814 0.00140842
0.05478081 0.01188511 0.00206196
0.07367121 0.01598352 0.00277300
0.09447599 0.02049727 0.00355609
0.11765972 0.02552716 0.00442873
0.14376271 0.03119039 0.00541125
0.17344027 0.03762916 0.00652832
0.20750259 0.04501924 0.00781043
0.24679999 0.05354510 0.00928959
0.29085601 0.06310339 0.01094787
0.33988064 0.07373965 0.01279316
0.39443026 0.08557460 0.01484642
0.45513106 0.09874409 0.01713121
0.52181760 0.11340139 0.01967412
0.58417130 0.12971999 0.02250524
0.64104957 0.14789818 0.02565899
0.69415284 0.16816167 0.02917453
0.74454498 0.19076782 0.03309649
0.79293872 0.21601092 0.03747594
0.83983760 0.24422844 0.04237142
0.88561319 0.27580835 0.04785025
0.93055015 0.31119801 0.05399004
0.97487388 0.35091475 0.06088053
1.00000000 0.39555872 0.06862586
1.00000000 0.45130329 0.07829704
1.00000000 0.51841003 0.09004682
1.00000000 0.58260203 0.10336756
1.00000000 0.64159369 0.11841989
1.00000000 0.69684573 0.13536745
1.00000000 0.74922517 0.15437368
0.00421907 0.01511381 0.00000000
0.00310246 0.01111383 0.00000000
0.00642831 0.00686155 0.00000000
0.02421243 0.00545326 0.00081177
0.04174858 0.00905767 0.00157142
0.06102540 0.01323992 0.00229701
0.08282068 0.01796857 0.00311738
0.10785830 0.02340067 0.00405980
0.13654032 0.02962344 0.00513940
0.16853911 0.03656582 0.00634384
0.20419657 0.04430197 0.00768599
0.24391984 0.05292023 0.00918118
0.28816017 0.06251850 0.01084639
0.33742134 0.07320608 0.01270059
0.39226837 0.08510556 0.01476504
0.45333705 0.09835487 0.01706368
0.52057055 0.11310964 0.01962350
0.58357142 0.12954591 0.02247504
0.64095154 0.14786386 0.02565304
0.69446875 0.16829267 0.02919725
0.74521672 0.19109345 0.03315298
0.79392538 0.21656485 0.03757204
0.84110894 0.24504935 0.04251384
0.88714595 0.27694080 0.04804672
0.93232584 0.31269340 0.05424947
0.97687744 0.35283253 0.06121325
1.00000000 0.39791587 0.06903480
1.00000000 0.45423827 0.07880623
1.00000000 0.52084492 0.09049983
1.00000000 0.58406583 0.10370663
1.00000000 0.64212237 0.11856832
1.00000000 0.69641743 0.13522439
1.00000000 0.74778456 0.15380903
0.00636677 0.02280747 0.00000000
0.00554935 0.01987923 0.00000000
0.00485801 0.01740266 0.00000000
0.01446454 0.01543939 0.00000000
0.03428550 0.01486266 0.00000000
0.05574062 0.01651478 0.00000000
0.07919959 0.01989657 0.00091133
0.10517359 0.02456575 0.00300693
0.13406394 0.03026612 0.00445609
0.16624675 0.03689892 0.00585707
0.20211068 0.04445506 0.00732064
0.24207493 0.05297542 0.00889813
0.28660101 0.06253203 0.01062364
0.33620244 0.07321986 0.01252541
0.39145417 0.08515360 0.01463020
0.45300266 0.09846719 0.01696548
0.52078634 0.11331469 0.01956069
0.58424344 0.12987225 0.02244817
0.64198975 0.14834085 0.02566401
0.69581650 0.16895124 0.02924908
0.74683647 0.19196771 0.03324983
0.79579022 0.21769271 0.03771916
0.84319851 0.24647345 0.04271762
0.88944418 0.27870943 0.04831474
0.93481363 0.31485650 0.05458978
0.97932802 0.35524326 0.06159972
1.00000000 0.40024695 0.06941006
1.00000000 0.45667295 0.07920120
1.00000000 0.52256606 0.09079621
1.00000000 0.58473508 0.10383696
1.00000000 0.64176712 0.11844401
1.00000000 0.69500932 0.13473137
1.00000000 0.74526280 0.15280280
0.00986834 0.03535103 0.00000000
0.00966921 0.03463768 0.00000000
0.00949896 0.03402780 0.00000000
0.01346769 0.03338738 0.00000000
0.03058599 0.03264737 0.00000000
0.05197991 0.03223775 0.00000000
0.07592702 0.03281544 0.00000000
0.10239600 0.03476968 0.00000000
0.13171911 0.03819966 0.00000000
0.16429408 0.04306397 0.00000000
0.20053702 0.04928923 0.00374452
0.24089100 0.05682480 0.00650924
0.28583669 0.06566039 0.00885909
0.33590294 0.07582681 0.01116832
0.39167858 0.08739198 0.01356578
0.45382346 0.10045671 0.01612450
0.52217915 0.11515210 0.01889851
0.58594629 0.13163866 0.02193503
0.64395224 0.15010706 0.02527989
0.69800508 0.17078073 0.02898061
0.74922836 0.19392050 0.03308870
0.79836857 0.21982775 0.03766094
0.84595008 0.24885057 0.04276108
0.89225224 0.28131224 0.04844729
0.93736843 0.31747339 0.05476614
0.98147616 0.35770849 0.06178430
1.00000000 0.40242011 0.06957296
1.00000000 0.45863056 0.07934833
1.00000000 0.52357199 0.09081065
1.00000000 0.58457444 0.10363966
1.00000000 0.64047048 0.11793392
1.00000000 0.69254911 0.13378123
1.00000000 0.74157750 0.15125450
0.01526703 0.05469054 0.00000000
0.01514632 0.05425813 0.00000000
0.01502820 0.05383499 0.00000000
0.01676382 0.05340526 0.00000000
0.02952025 0.05288998 0.00000000
0.04903984 0.05234494 0.00000000
0.07259857 0.05204391 0.00000000
0.09935519 0.05240561 0.00000000
0.12918883 0.05381847 0.00000000
0.16232043 0.05654916 0.00000000
0.19912102 0.06074863 0.00000000
0.24003371 0.06649039 0.00000000
0.28555262 0.07380983 0.00000000
0.33622176 0.08273487 0.00617581
0.39264793 0.09330807 0.01011820
0.45550789 0.10559728 0.01353264
0.52446178 0.11970139 0.01688474
0.58843965 0.13575319 0.02034970
0.64662832 0.15392106 0.02403124
0.70084522 0.17441093 0.02800827
0.75221825 0.19747047 0.03235142
0.80146178 0.22337263 0.03712637
0.84889894 0.25231970 0.04237931
0.89484632 0.28458825 0.04816832
0.93954673 0.32049119 0.05455560
0.98317302 0.36036322 0.06160532
1.00000000 0.40455757 0.06938351
1.00000000 0.46016915 0.07911430
1.00000000 0.52389056 0.09041833
1.00000000 0.58357689 0.10299741
1.00000000 0.63820233 0.11692779
1.00000000 0.68899093 0.13227100
1.00000000 0.73667194 0.14906947
0.02143432 0.07678343 0.00000000
0.02136347 0.07652962 0.00000000
0.02129695 0.07629132 0.00000000
0.02222472 0.07605725 0.00000000
0.03141083 0.07577038 0.00000000
0.04821917 0.07541568 0.00000000
0.07032543 0.07506510 0.00000000
0.09660682 0.07491961 0.00000000
0.12659037 0.07529010 0.00000000
0.16019696 0.07652097 0.00000000
0.19761587 0.07892146 0.00000000
0.23920632 0.08273731 0.00000000
0.28543464 0.08815188 0.00000000
0.33684545 0.09530022 0.00000000
0.39405435 0.10428799 0.00000000
0.45775100 0.11521047 0.00487847
0.52733355 0.12816952 0.01158644
0.59147406 0.14328779 0.01648617
0.64980222 0.16071643 0.02107155
0.70413936 0.18064096 0.02569744
0.75546156 0.20321970 0.03052389
0.80441863 0.22863424 0.03565634
0.85149435 0.25711125 0.04118186
0.89702404 0.28890011 0.04717575
0.94124358 0.32427009 0.05370747
0.98431894 0.36350648 0.06084327
1.00000000 0.40690539 0.06864718
1.00000000 0.46147117 0.07831890
1.00000000 0.52365884 0.08945327
1.00000000 0.58182386 0.10175679
1.00000000 0.63500619 0.11528398
1.00000000 0.68435163 0.13007092
1.00000000 0.73054392 0.14613081
0.02847688 0.10201176 0.00000000
0.02845960 0.10194983 0.00000000
0.02844756 0.10190672 0.00000000
0.02908065 0.10187318 0.00000000
0.03581674 0.10180761 0.00000000
0.04984227 0.10168476 0.00000000
0.06989954 0.10151134 0.00000000
0.09495795 0.10135776 0.00000000
0.12445403 0.10138748 0.00000000
0.15813492 0.10185497 0.00000000
0.19599455 0.10306940 0.00000000
0.23823719 0.10534881 0.00000000
0.28523382 0.10898790 0.00000000
0.33748224 0.11424407 0.00000000
0.39558202 0.12133619 0.00000000
0.46022464 0.13045121 0.00000000
0.53047994 0.14175556 0.00000000
0.59479136 0.15540911 0.00329552
0.65317385 0.17155820 0.01401288
0.70732727 0.19032687 0.02061301
0.75835165 0.21186587 0.02659688
0.80695925 0.23634374 0.03251384
0.85362809 0.26394701 0.03860333
0.89868764 0.29487950 0.04500969
0.94236776 0.32935955 0.05183718
0.98482817 0.36761527 0.05916969
1.00000000 0.40987803 0.06707870
1.00000000 0.46288569 0.07670560
1.00000000 0.52316228 0.08768314
1.00000000 0.57951804 0.09970635
1.00000000 0.63102699 0.11280995
1.00000000 0.67873471 0.12700652
1.00000000 0.72348726 0.14236519
0.03652308 0.13083537 0.00000000
0.03656397 0.13098186 0.00000000
0.03661046 0.13114839 0.00000000
0.03714888 0.13132671 0.00000000
0.04229474 0.13148506 0.00000000
0.05385430 0.13159973 0.00000000
0.07164288 0.13165848 0.00000000
0.09499132 0.13167640 0.00000000
0.12340406 0.13172103 0.00000000
0.15660523 0.13193476 0.00000000
0.19449767 0.13254020 0.00000000
0.23715583 0.13382320 0.00000000
0.28482530 0.13610306 0.00000000
0.33791007 0.13970434 0.00000000
0.39695239 0.14493799 0.00000000
0.46261574 0.15209209 0.00000000
0.53356150 0.16142738 0.00000000
0.59789786 0.17316002 0.00000000
0.65611150 0.18747651 0.00000000
0.71002650 0.20454282 0.00451682
0.76074445 0.22451221 0.01784672
0.80897914 0.24753802 0.02611642
0.85520628 0.27377535 0.03356265
0.89975172 0.30338483 0.04086432
0.94284080 0.33653190 0.04830980
0.98462796 0.37338307 0.05606460
1.00000000 0.41409943 0.06423995
1.00000000 0.46497025 0.07389307
1.00000000 0.52287788 0.08476902
1.00000000 0.57702379 0.09654191
1.00000000 0.62663682 0.10925706
1.00000000 0.67296618 0.12303038
1.00000000 0.71662923 0.13790781
0.04570580 0.16373031 0.00000000
0.04580967 0.16410242 0.00000000
0.04591899 0.16449401 0.00000000
0.04645120 0.16489727 0.00000000
0.05056696 0.16528690 0.00000000
0.06011020 0.16564248 0.00000000
0.07565339 0.16594724 0.00000000
0.09702714 0.16619517 0.00000000
0.12392096 0.16640587 0.00000000
0.15612260 0.16664468 0.00000000
0.19354110 0.16704182 0.00000000
0.23620315 0.16780161 0.00000000
0.28426593 0.16919617 0.00000000
0.33803277 0.17154655 0.00000000
0.39795608 0.17520015 0.00000000
0.46453398 0.18050821 0.00000000
0.53595002 0.18780434 0.00000000
0.60029396 0.19739118 0.00000000
0.65839880 0.20953400 0.00000000
0.71210627 0.22446005 0.00000000
0.76252955 0.24236251 0.00000000
0.81038380 0.26340752 0.00860247
0.85614546 0.28774104 0.02311182
0.90014180 0.31549692 0.03299464
0.94259560 0.34679590 0.04191843
0.98365745 0.38174595 0.05061801
1.00000000 0.42043766 0.05940560
1.00000000 0.46852956 0.06927817
1.00000000 0.52353265 0.08019409
1.00000000 0.57526059 0.09189852
1.00000000 0.62313427 0.10447566
1.00000000 0.66794183 0.11797356
1.00000000 0.71018982 0.13242393
0.05616713 0.20120557 0.00000000
0.05633851 0.20181951 0.00000000
0.05651468 0.20245060 0.00000000
0.05708427 0.20309109 0.00000000
0.06051837 0.20372009 0.00000000
0.06847735 0.20432019 0.00000000
0.08194747 0.20487438 0.00000000
0.10124198 0.20536929 0.00000000
0.12632601 0.20580294 0.00000000
0.15711242 0.20619770 0.00000000
0.19357166 0.20661766 0.00000000
0.23575121 0.20718634 0.00000000
0.28378540 0.20809818 0.00000000
0.33788978 0.20961789 0.00000000
0.39834064 0.21207178 0.00000000
0.46553801 0.21582533 0.00000000
0.53738939 0.22125450 0.00000000
0.60184417 0.22872463 0.00000000
0.65991311 0.23857405 0.00000000
0.71345834 0.25110275 0.00000000
0.76360698 0.26656639 0.00000000
0.81108325 0.28517554 0.00000000
0.85636972 0.30709850 0.00000000
0.89979294 0.33246479 0.01383515
0.94157513 0.36136965 0.02946391
0.98186638 0.39387746 0.04087370
1.00000000 0.43000690 0.05119249
1.00000000 0.47474612 0.06183955
1.00000000 0.52664779 0.07326322
1.00000000 0.57553311 0.08524386
1.00000000 0.62110597 0.09788964
1.00000000 0.66395505 0.11126947
1.00000000 0.70446386 0.12542340
0.06806068 0.24381141 0.00000000
0.06830339 0.24468089 0.00000000
0.06854968 0.24556317 0.00000000
0.06917914 0.24645038 0.00000000
0.07214800 0.24732471 0.00000000
0.07887849 0.24817104 0.00000000
0.09051915 0.24897335 0.00000000
0.10774924 0.24971617 0.00000000
0.13084499 0.25038840 0.00000000
0.15990001 0.25099076 0.00000000
0.19498373 0.25154754 0.00000000
0.23620148 0.25212057 0.00000000
0.28368511 0.25282395 0.00000000
0.33759706 0.25385625 0.00000000
0.39815823 0.25548909 0.00000000
0.46566775 0.25805460 0.00000000
0.53785160 0.26192575 0.00000000
0.60247362 0.26749290 0.00000000
0.66056384 0.27514096 0.00000000
0.71399203 0.28522976 0.00000000
0.76389490 0.29807871 0.00000000
0.81100514 0.31395641 0.00000000
0.85581063 0.33307414 0.00000000
0.89862976 0.35557167 0.00000000
0.93968418 0.38153998 0.00000000
0.97916883 0.41104896 0.01893510
1.00000000 0.44425407 0.03610185
1.00000000 0.48534039 0.04953504
1.00000000 0.53333451 0.06248984
1.00000000 0.57858782 0.07538105
1.00000000 0.62123628 0.08853304
1.00000000 0.66163008 0.10211465
1.00000000 0.70000041 0.11622596
0.08155291 0.29214417 0.00000000
0.08186959 0.29327861 0.00000000
0.08218799 0.29441921 0.00000000
0.08288793 0.29555775 0.00000000
0.08552750 0.29667865 0.00000000
0.09130194 0.29776839 0.00000000
0.10137045 0.29881210 0.00000000
0.11663540 0.29979414 0.00000000
0.13765713 0.30069995 0.00000000
0.16474723 0.30151932 0.00000000
0.19811619 0.30223754 0.00000000
0.23793408 0.30288135 0.00000000
0.28436320 0.30352822 0.00000000
0.33757563 0.30431135 0.00000000
0.39776414 0.30543131 0.00000000
0.46515909 0.30715869 0.00000000
0.53744208 0.30982556 0.00000000
0.60219570 0.31380747 0.00000000
0.66031682 0.31950027 0.00000000
0.71364750 0.32729131 0.00000000
0.76330525 0.33753204 0.00000000
0.81002585 0.35054302 0.00000000
0.85430356 0.36658651 0.00000000
0.89648316 0.38585863 0.00000000
0.93693968 0.40854981 0.00000000
0.97591302 0.43480971 0.00000000
1.00000000 0.46473718 0.00000000
1.00000000 0.50162882 0.02385374
1.00000000 0.54442714 0.04384357
1.00000000 0.58527105 0.05976568
1.00000000 0.62432839 0.07459054
1.00000000 0.66170623 0.08914770
1.00000000 0.69747059 0.10376706
0.09682390 0.34684891 0.00000000
0.09721541 0.34825141 0.00000000
0.09760600 0.34965062 0.00000000
0.09837887 0.35103789 0.00000000
0.10077518 0.35239920 0.00000000
0.10579485 0.35372208 0.00000000
0.11452854 0.35499259 0.00000000
0.12797805 0.35619557 0.00000000
0.14692559 0.35729833 0.00000000
0.17191815 0.35826532 0.00000000
0.20331319 0.35909993 0.00000000
0.24137031 0.35982038 0.00000000
0.28630857 0.36047030 0.00000000
0.33833059 0.36113281 0.00000000
0.39763175 0.36194513 0.00000000
0.46440926 0.36310940 0.00000000
0.53640132 0.36488365 0.00000000
0.60109035 0.36758823 0.00000000
0.65912521 0.37159685 0.00000000
0.71228654 0.37730218 0.00000000
0.76167340 0.38509021 0.00000000
0.80800619 0.39531596 0.00000000
0.85185075 0.40829689 0.00000000
0.89365866 0.42431710 0.00000000
0.93370520 0.44360530 0.00000000
0.97219237 0.46633721 0.00000000
1.00000000 0.49263540 0.00000000
1.00000000 0.52381389 0.00000000
1.00000000 0.56047664 0.00000000
1.00000000 0.59629133 0.02828337
1.00000000 0.63114935 0.05132240
1.00000000 0.66495528 0.06939261
1.00000000 0.69762208 0.08590278
0.11406762 0.40862051 0.00000000
0.11453230 0.41028510 0.00000000
0.11499252 0.41193375 0.00000000
0.11583406 0.41355709 0.00000000
0.11804076 0.41514220 0.00000000
0.12245130 0.41667718 0.00000000
0.13005321 0.41813910 0.00000000
0.14187119 0.41946680 0.00000000
0.15883292 0.42064870 0.00000000
0.18166672 0.42168244 0.00000000
0.21089803 0.42256939 0.00000000
0.24690525 0.42331893 0.00000000
0.28997971 0.42395387 0.00000000
0.34035141 0.42450688 0.00000000
0.39822610 0.42506504 0.00000000
0.46378651 0.42577257 0.00000000
0.53493370 0.42683558 0.00000000
0.59924715 0.42852384 0.00000000
0.65703914 0.43116259 0.00000000
0.70996668 0.43511483 0.00000000
0.75908687 0.44075876 0.00000000
0.80519525 0.44846913 0.00000000
0.84881188 0.45859733 0.00000000
0.89030941 0.47146093 0.00000000
0.92996307 0.48733173 0.00000000
0.96797718 0.50635417 0.00000000
1.00000000 0.52751102 0.00000000
1.00000000 0.55114381 0.00000000
1.00000000 0.58157381 0.00000000
1.00000000 0.61203634 0.00000000
1.00000000 0.64227335 0.00000000
1.00000000 0.67205516 0.02968721
1.00000000 0.70118122 0.05655570
0.13349236 0.47820510 0.00000000
0.13402470 0.48011208 0.00000000
0.13454819 0.48198734 0.00000000
0.13544780 0.48382048 0.00000000
0.13749578 0.48559684 0.00000000
0.14139253 0.48724464 0.00000000
0.14802912 0.48873097 0.00000000
0.15840367 0.49005476 0.00000000
0.17350198 0.49121547 0.00000000
0.19418387 0.49220538 0.00000000
0.22112254 0.49300885 0.00000000
0.25482641 0.49363413 0.00000000
0.29567593 0.49409942 0.00000000
0.34396671 0.49443931 0.00000000
0.39993546 0.49471492 0.00000000
0.46376965 0.49502599 0.00000000
0.53352915 0.49552250 0.00000000
0.59707153 0.49641227 0.00000000
0.65437690 0.49796165 0.00000000
0.70700225 0.50049134 0.00000000
0.75594038 0.50431043 0.00000000
0.80185820 0.50970344 0.00000000
0.84523453 0.51691599 0.00000000
0.88642394 0.52611765 0.00000000
0.92569317 0.53738170 0.00000000
0.96324375 0.55067712 0.00000000
0.99922702 0.56587590 0.00000000
1.00000000 0.58276989 0.00000000
1.00000000 0.60730191 0.00000000
1.00000000 0.63245560 0.00000000
1.00000000 0.65792352 0.00000000
1.00000000 0.68342723 0.00000000
1.00000000 0.70870941 0.00000000
0.15531963 0.55142131 0.00000000
0.15590958 0.55318003 0.00000000
0.15648535 0.55488507 0.00000000
0.15741321 0.55649016 0.00000000
0.15928417 0.55793018 0.00000000
0.16272275 0.55920667 0.00000000
0.16851962 0.56030763 0.00000000
0.17760039 0.56122873 0.00000000
0.19095048 0.56197626 0.00000000
0.20951024 0.56255689 0.00000000
0.23408966 0.56297806 0.00000000
0.26533141 0.56324903 0.00000000
0.30372211 0.56338315 0.00000000
0.34962636 0.56340167 0.00000000
0.40331781 0.56333961 0.00000000
0.46499597 0.56325352 0.00000000
0.53280048 0.56323023 0.00000000
0.59509080 0.56340644 0.00000000
0.65166534 0.56395164 0.00000000
0.70383510 0.56505593 0.00000000
0.75244494 0.56694074 0.00000000
0.79807918 0.56984298 0.00000000
0.84116379 0.57399374 0.00000000
0.88202035 0.57959419 0.00000000
0.92089620 0.58679385 0.00000000
0.95798236 0.59567436 0.00000000
0.99342532 0.60623983 0.00000000
1.00000000 0.61841680 0.00000000
1.00000000 0.63680877 0.00000000
1.00000000 0.65703275 0.00000000
1.00000000 0.67789270 0.00000000
1.00000000 0.69912245 0.00000000
1.00000000 0.72045924 0.00000000
0.17978238 0.61678531 0.00000000
0.18040754 0.61828294 0.00000000
0.18097619 0.61962610 0.00000000
0.18184060 0.62078783 0.00000000
0.18349443 0.62176952 0.00000000
0.18647987 0.62257698 0.00000000
0.19150026 0.62321669 0.00000000
0.19940651 0.62369576 0.00000000
0.21114951 0.62402179 0.00000000
0.22769930 0.62420283 0.00000000
0.24995467 0.62424749 0.00000000
0.27867595 0.62416543 0.00000000
0.31446068 0.62396834 0.00000000
0.35775532 0.62367205 0.00000000
0.40888143 0.62329968 0.00000000
0.46805522 0.62289477 0.00000000
0.53336434 0.62253418 0.00000000
0.59387925 0.62228305 0.00000000
0.64931846 0.62223176 0.00000000
0.70072784 0.62250198 0.00000000
0.74879335 0.62324539 0.00000000
0.79399598 0.62463696 0.00000000
0.83669192 0.62686294 0.00000000
0.87715559 0.63010585 0.00000000
0.91560315 0.63452644 0.00000000
0.95220600 0.64024707 0.00000000
0.98709902 0.64733836 0.00000000
1.00000000 0.65581115 0.00000000
1.00000000 0.66899506 0.00000000
1.00000000 0.68489287 0.00000000
1.00000000 0.70158630 0.00000000
1.00000000 0.71888891 0.00000000
1.00000000 0.73669472 0.00000000
0.20706387 0.67620883 0.00000000
0.20759616 0.67726311 0.00000000
0.20805136 0.67813642 0.00000000
0.20877040 0.67883323 0.00000000
0.21015982 0.67935909 0.00000000
0.21269347 0.67972061 0.00000000
0.21699401 0.67992522 0.00000000
0.22383402 0.67998109 0.00000000
0.23411045 0.67989701 0.00000000
0.24878612 0.67968234 0.00000000
0.26880790 0.67934698 0.00000000
0.29502623 0.67890160 0.00000000
0.32814186 0.67835809 0.00000000
0.36868782 0.67773313 0.00000000
0.41701805 0.67708058 0.00000000
0.47339587 0.67642740 0.00000000
0.53565969 0.67579564 0.00000000
0.59380880 0.67522121 0.00000000
0.64765925 0.67475849 0.00000000
0.69796040 0.67448413 0.00000000
0.74521748 0.67449849 0.00000000
0.78979221 0.67492466 0.00000000
0.83195783 0.67590268 0.00000000
0.87192974 0.67758008 0.00000000
0.90988241 0.68009969 0.00000000
0.94595850 0.68358622 0.00000000
0.98028088 0.68814197 0.00000000
1.00000000 0.69383967 0.00000000
1.00000000 0.70283887 0.00000000
1.00000000 0.71520277 0.00000000
1.00000000 0.72843769 0.00000000
1.00000000 0.74243266 0.00000000
1.00000000 0.75705171 0.00000000
0.23715695 0.73094798 0.00000000
0.23751153 0.73154068 0.00000000
0.23778206 0.73195569 0.00000000
0.23828321 0.73219829 0.00000000
0.23935529 0.73227491 0.00000000
0.24141660 0.73219299 0.00000000
0.24502154 0.73196085 0.00000000
0.25087031 0.73158762 0.00000000
0.25979860 0.73108315 0.00000000
0.27273839 0.73045799 0.00000000
0.29065069 0.72972325 0.00000000
0.31444454 0.72889077 0.00000000
0.34488629 0.72800301 0.00000000
0.38256278 0.72710085 0.00000000
0.42792499 0.72618938 0.00000000
0.48129961 0.72527669 0.00000000
0.53994267 0.72437614 0.00000000
0.59517335 0.72350939 0.00000000
0.64698245 0.72270955 0.00000000
0.69580953 0.72202501 0.00000000
0.74196541 0.72152178 0.00000000
0.78568123 0.72128423 0.00000000
0.82713804 0.72141331 0.00000000
0.86649926 0.72203857 0.00000000
0.90389887 0.72328723 0.00000000
0.93944276 0.72526949 0.00000000
0.97322083 0.72807896 0.00000000
1.00000000 0.73178292 0.00000000
1.00000000 0.73754554 0.00000000
1.00000000 0.74711672 0.00000000
1.00000000 0.75751846 0.00000000
1.00000000 0.76866721 0.00000000
1.00000000 0.78046398 0.00000000
0.27015857 0.78197920 0.00000000
0.27024667 0.78210540 0.00000000
0.27024317 0.78205465 0.00000000
0.27043650 0.78183306 0.00000000
0.27111740 0.78144790 0.00000000
0.27265958 0.78090744 0.00000000
0.27556108 0.78022083 0.00000000
0.28045859 0.77939813 0.00000000
0.28812708 0.77845017 0.00000000
0.29945564 0.77738853 0.00000000
0.31539274 0.77624066 0.00000000
0.33684734 0.77507043 0.00000000
0.36462763 0.77388677 0.00000000
0.39941032 0.77269355 0.00000000
0.44172330 0.77149532 0.00000000
0.49195257 0.77029827 0.00000000
0.54633943 0.76911140 0.00000000
0.59818011 0.76794868 0.00000000
0.64752855 0.76683150 0.00000000
0.69452675 0.76579438 0.00000000
0.73930819 0.76490170 0.00000000
0.78196941 0.76421505 0.00000000
0.82259207 0.76380606 0.00000000
0.86125077 0.76375777 0.00000000
0.89801488 0.76416004 0.00000000
0.93294896 0.76510297 0.00000000
0.96614469 0.76667149 0.00000000
0.99778407 0.76893879 0.00000000
1.00000000 0.77228581 0.00000000
1.00000000 0.77962739 0.00000000
1.00000000 0.78770903 0.00000000
1.00000000 0.79647627 0.00000000
1.00000000 0.80585972 0.00000000
0.30613793 0.82992125 0.00000000
0.30584813 0.82956118 0.00000000
0.30545902 0.82902323 0.00000000
0.30523370 0.82831434 0.00000000
0.30542635 0.82744261 0.00000000
0.30637555 0.82641711 0.00000000
0.30853394 0.82524785 0.00000000
0.31248471 0.82394574 0.00000000
0.31894891 0.82252647 0.00000000
0.32877689 0.82106191 0.00000000
0.34285450 0.81957840 0.00000000
0.36207301 0.81808035 0.00000000
0.38727502 0.81657210 0.00000000
0.41919766 0.81505799 0.00000000
0.45843735 0.81354264 0.00000000
0.50538768 0.81203144 0.00000000
0.55484792 0.81054123 0.00000000
0.60298799 0.80909919 0.00000000
0.64958914 0.80772094 0.00000000
0.69451884 0.80642832 0.00000000
0.73769997 0.80525153 0.00000000
0.77909136 0.80423070 0.00000000
0.81867599 0.80341650 0.00000000
0.85645365 0.80286934 0.00000000
0.89244121 0.80265817 0.00000000
0.92674280 0.80286594 0.00000000
0.95945237 0.80355582 0.00000000
0.99064564 0.80478161 0.00000000
1.00000000 0.80658942 0.00000000
1.00000000 0.81190471 0.00000000
1.00000000 0.81810571 0.00000000
1.00000000 0.82491207 0.00000000
1.00000000 0.83227553 0.00000000
