resources/flame/Syncolor/Shared/transforms/camera_manufacturer_luts/arri/ARRI_Alexa_LUTs/ARRI_LogC3_v1-2_LUT_Package/LUTs/ARRI_LogC3-to-Gamma26_P3_D60-v1_33.cube
LUT_3D_SIZE 33
0.000000 0.000000 0.000000
0.000244 0.000061 0.000061
0.001617 0.000107 0.000153
0.004929 0.000000 0.000122
0.010986 0.000000 0.000153
0.020478 0.000000 0.000275
0.034028 0.000000 0.000458
0.051972 0.000000 0.000702
0.072724 0.000000 0.001007
0.092683 0.000000 0.001373
0.114260 0.000000 0.001846
0.139132 0.000000 0.002533
0.167224 0.000000 0.003479
0.198337 0.000000 0.004776
0.232227 0.000000 0.006516
0.268528 0.000000 0.008804
0.307378 0.000000 0.011795
0.348730 0.000000 0.015640
0.391836 0.000000 0.020447
0.435782 0.000000 0.026276
0.479454 0.000000 0.033066
0.521569 0.000000 0.040650
0.560647 0.000000 0.048646
0.596017 0.000000 0.056733
0.630381 0.000000 0.064912
0.663935 0.000000 0.072908
0.696544 0.000000 0.080690
0.728023 0.000000 0.088182
0.758267 0.000000 0.095399
0.787091 0.000000 0.102266
0.814420 0.000000 0.108782
0.840299 0.000000 0.114946
0.864820 0.000000 0.120790
0.000732 0.001312 0.000763
0.002045 0.002182 0.000855
0.005203 0.003037 0.000626
0.010986 0.003693 0.000000
0.020005 0.003693 0.000046
0.033112 0.002991 0.000244
0.050874 0.001465 0.000565
0.072023 0.000000 0.000992
0.092454 0.000000 0.001373
0.114321 0.000000 0.001846
0.138857 0.000000 0.002518
0.166583 0.000000 0.003449
0.197498 0.000000 0.004746
0.231403 0.000000 0.006470
0.268009 0.000000 0.008774
0.306950 0.000000 0.011749
0.347875 0.000000 0.015549
0.391150 0.000000 0.020356
0.436316 0.000000 0.026352
0.482383 0.000000 0.033570
0.528252 0.000000 0.041947
0.572671 0.000000 0.051301
0.614252 0.000000 0.061082
0.651453 0.000000 0.069947
0.685115 0.000000 0.077958
0.717754 0.000000 0.085740
0.749233 0.000000 0.093248
0.779385 0.000000 0.100420
0.808072 0.000000 0.107271
0.835325 0.000000 0.113756
0.861189 0.000000 0.119921
0.885740 0.000000 0.125780
0.909041 0.000000 0.131319
0.001801 0.006287 0.002106
0.004288 0.008392 0.001526
0.009323 0.010422 0.000351
0.017487 0.011978 0.000000
0.029358 0.012772 0.000000
0.045777 0.012833 0.000000
0.066590 0.012009 0.000153
0.087785 0.010224 0.000610
0.110079 0.007431 0.001221
0.135454 0.003647 0.002075
0.163378 0.000000 0.003220
0.193835 0.000000 0.004578
0.227344 0.000000 0.006241
0.263783 0.000000 0.008484
0.302861 0.000000 0.011414
0.344167 0.000000 0.015167
0.387167 0.000000 0.019883
0.431769 0.000000 0.025696
0.478309 0.000000 0.032883
0.525887 0.000000 0.041489
0.573465 0.000000 0.051484
0.619821 0.000000 0.062394
0.663554 0.000000 0.072816
0.703197 0.000000 0.082277
0.737392 0.000000 0.090425
0.769024 0.000000 0.097963
0.799283 0.000000 0.105165
0.828107 0.000000 0.112032
0.855543 0.000000 0.118578
0.881651 0.000000 0.124804
0.906508 0.000000 0.130724
0.930144 0.000000 0.136355
0.952651 0.000000 0.141726
0.001724 0.016419 0.002747
0.005585 0.020066 0.000946
0.012528 0.023514 0.000000
0.022980 0.025956 0.000000
0.037720 0.027771 0.000000
0.057343 0.028809 0.000000
0.079118 0.028931 0.000000
0.101213 0.028031 0.000000
0.126528 0.026032 0.000534
0.155032 0.022934 0.001541
0.186191 0.018860 0.002914
0.219501 0.013916 0.004700
0.255634 0.007691 0.007080
0.294499 0.000000 0.010178
0.335790 0.000000 0.014130
0.379095 0.000000 0.018936
0.423957 0.000000 0.024613
0.469947 0.000000 0.031495
0.517510 0.000000 0.039872
0.566293 0.000000 0.049882
0.615244 0.000000 0.061311
0.663142 0.000000 0.072724
0.708675 0.000000 0.083574
0.750362 0.000000 0.093507
0.786679 0.000000 0.102159
0.817609 0.000000 0.109529
0.846876 0.000000 0.116518
0.874815 0.000000 0.123171
0.901472 0.000000 0.129519
0.926864 0.000000 0.135576
0.950820 0.000000 0.141253
0.973312 0.000000 0.146304
0.994430 0.000000 0.151019
0.000000 0.033097 0.001511
0.004623 0.038575 0.000000
0.013382 0.042893 0.000000
0.026291 0.046616 0.000000
0.043931 0.049638 0.000000
0.066194 0.051850 0.000000
0.088716 0.053117 0.000000
0.113390 0.053315 0.000000
0.141619 0.052323 0.000000
0.173037 0.050034 0.000580
0.207080 0.046555 0.002197
0.243091 0.042054 0.004318
0.281468 0.036332 0.007095
0.322454 0.029206 0.010712
0.365774 0.020661 0.015305
0.411048 0.010697 0.021042
0.457816 0.000000 0.028046
0.505547 0.000000 0.036423
0.554086 0.000000 0.046311
0.603845 0.000000 0.057984
0.653864 0.000000 0.070207
0.702998 0.000000 0.082094
0.749920 0.000000 0.093370
0.793271 0.000000 0.103685
0.831678 0.000000 0.112734
0.863890 0.000000 0.120211
0.892546 0.000000 0.126787
0.919646 0.000000 0.132998
0.945220 0.000000 0.138842
0.969299 0.000000 0.144320
0.991913 0.000000 0.149447
1.000000 0.000000 0.154223
1.000000 0.000000 0.158679
0.000000 0.057435 0.000000
0.000000 0.063661 0.000000
0.010834 0.068788 0.000000
0.026398 0.073106 0.000000
0.047089 0.076646 0.000000
0.071748 0.079377 0.000000
0.096117 0.081224 0.000000
0.123613 0.082109 0.000000
0.154543 0.082017 0.000000
0.188632 0.080919 0.000000
0.225391 0.078859 0.001007
0.264149 0.075883 0.003464
0.304921 0.071901 0.006668
0.348135 0.066545 0.010819
0.393515 0.059510 0.016068
0.440696 0.050584 0.022599
0.489235 0.040269 0.030549
0.538598 0.028794 0.040009
0.588266 0.016358 0.051041
0.638773 0.002548 0.063584
0.689601 0.000000 0.076204
0.739635 0.000000 0.088487
0.787671 0.000000 0.100160
0.832349 0.000000 0.110918
0.872358 0.000000 0.120485
0.906432 0.000000 0.128511
0.934478 0.000000 0.135042
0.960510 0.000000 0.141054
0.985000 0.000000 0.146654
1.000000 0.000000 0.151873
1.000000 0.000000 0.156695
1.000000 0.000000 0.161120
1.000000 0.000000 0.165164
0.000000 0.084245 0.000000
0.000000 0.090059 0.000000
0.004273 0.095171 0.000000
0.022339 0.099687 0.000000
0.045823 0.103578 0.000000
0.073228 0.106798 0.000000
0.100481 0.109300 0.000000
0.131044 0.111009 0.000000
0.164904 0.111879 0.000000
0.201816 0.111894 0.000000
0.241337 0.111101 0.000000
0.282856 0.109575 0.001801
0.326253 0.107317 0.005447
0.371832 0.104204 0.010163
0.419364 0.100114 0.016114
0.468482 0.094972 0.023484
0.518776 0.088701 0.032410
0.569726 0.081209 0.042985
0.620722 0.072480 0.055222
0.671839 0.061952 0.068360
0.722957 0.048707 0.081300
0.773144 0.034394 0.093843
0.821378 0.020111 0.105760
0.866545 0.007095 0.116808
0.907469 0.000000 0.126711
0.942992 0.000000 0.135164
0.971923 0.000000 0.141878
0.997131 0.000000 0.147616
1.000000 0.009491 0.152911
1.000000 0.023117 0.157763
1.000000 0.040879 0.162219
1.000000 0.062928 0.166247
1.000000 0.086381 0.169223
0.000000 0.111589 0.000000
0.000000 0.118410 0.000000
0.000000 0.124575 0.000000
0.012177 0.130083 0.000000
0.038300 0.134966 0.000000
0.069444 0.139193 0.000000
0.100908 0.142733 0.000000
0.135271 0.145541 0.000000
0.172549 0.147601 0.000000
0.212604 0.148913 0.000000
0.255085 0.149538 0.000000
0.299474 0.149554 0.000000
0.345693 0.149020 0.002213
0.393820 0.147921 0.007446
0.443641 0.146242 0.014069
0.494789 0.144015 0.022217
0.546715 0.141131 0.032059
0.598749 0.137499 0.043626
0.650324 0.133257 0.056870
0.701228 0.128420 0.070542
0.752026 0.122683 0.083864
0.801999 0.116258 0.096727
0.850217 0.109636 0.108934
0.895674 0.103655 0.120272
0.937285 0.099550 0.130495
0.973953 0.098939 0.139300
1.000000 0.103487 0.146441
1.000000 0.113100 0.151995
1.000000 0.124453 0.157000
1.000000 0.137102 0.161563
1.000000 0.150820 0.165652
1.000000 0.168841 0.165530
1.000000 0.187213 0.164309
0.000000 0.143435 0.000000
0.000000 0.151537 0.000000
0.000000 0.159045 0.000000
0.000000 0.165835 0.000000
0.024262 0.171954 0.000000
0.059266 0.177401 0.000000
0.096941 0.182177 0.000000
0.136248 0.186282 0.000000
0.177676 0.189715 0.000000
0.221363 0.192493 0.000000
0.267124 0.194690 0.000000
0.314641 0.196399 0.000000
0.363882 0.197681 0.000000
0.414466 0.198337 0.001419
0.466102 0.198337 0.008576
0.518441 0.197711 0.017395
0.571054 0.196551 0.027939
0.623484 0.194965 0.040238
0.675319 0.193057 0.054261
0.726207 0.190982 0.068925
0.776761 0.188540 0.082979
0.826520 0.185916 0.096391
0.874632 0.183459 0.109071
0.920226 0.181704 0.120806
0.962295 0.181323 0.131395
0.999817 0.183124 0.140597
1.000000 0.187930 0.148135
1.000000 0.196323 0.153826
1.000000 0.206531 0.158602
1.000000 0.218433 0.161837
1.000000 0.233524 0.160449
1.000000 0.248554 0.158907
1.000000 0.263508 0.157229
0.000000 0.180682 0.000000
0.000000 0.190021 0.000000
0.000000 0.198886 0.000000
0.000000 0.207111 0.000000
0.003815 0.214725 0.000000
0.041108 0.221653 0.000000
0.087892 0.227893 0.000000
0.134081 0.233494 0.000000
0.180728 0.238468 0.000000
0.228626 0.242771 0.000000
0.277729 0.246281 0.000000
0.328038 0.249058 0.000000
0.379431 0.251164 0.000000
0.431724 0.252659 0.000000
0.484642 0.253590 0.000000
0.537881 0.254047 0.007630
0.591119 0.254108 0.018692
0.643992 0.253864 0.031556
0.696117 0.253468 0.046143
0.747127 0.253040 0.062150
0.797559 0.252476 0.077562
0.847105 0.251896 0.091997
0.895079 0.251560 0.105440
0.940673 0.251835 0.117800
0.983001 0.253178 0.128908
1.000000 0.256107 0.138582
1.000000 0.261189 0.146563
1.000000 0.268956 0.152605
1.000000 0.279606 0.155245
1.000000 0.292409 0.153521
1.000000 0.305287 0.151644
1.000000 0.318227 0.149615
1.000000 0.331182 0.147417
0.000000 0.223941 0.000000
0.000000 0.234653 0.000000
0.000000 0.244877 0.000000
0.000000 0.254536 0.000000
0.000000 0.263615 0.000000
0.015045 0.272099 0.000000
0.071855 0.279805 0.000000
0.128161 0.286549 0.000000
0.180743 0.292363 0.000000
0.232685 0.297292 0.000000
0.284932 0.301411 0.000000
0.337774 0.304784 0.000000
0.391226 0.307500 0.000000
0.445136 0.309651 0.000000
0.499290 0.311299 0.000000
0.553460 0.312535 0.000000
0.607370 0.313466 0.003098
0.660716 0.314183 0.016327
0.713146 0.314794 0.031296
0.764355 0.315435 0.047898
0.814755 0.316060 0.065705
0.864149 0.316747 0.082078
0.911940 0.317708 0.096910
0.957427 0.319188 0.110307
0.999847 0.321538 0.122225
1.000000 0.325139 0.132555
1.000000 0.330373 0.141100
1.000000 0.337911 0.146212
1.000000 0.348684 0.144167
1.000000 0.359762 0.141939
1.000000 0.371038 0.139513
1.000000 0.382513 0.136873
1.000000 0.394049 0.135180
0.000000 0.273533 0.000000
0.000000 0.285756 0.000000
0.000000 0.297475 0.000000
0.000000 0.308354 0.000000
0.000000 0.318334 0.000000
0.000000 0.327428 0.000000
0.038254 0.335592 0.000000
0.113634 0.342794 0.000000
0.175067 0.349065 0.000000
0.232319 0.354467 0.000000
0.288289 0.359030 0.000000
0.343923 0.362860 0.000000
0.399512 0.366033 0.000000
0.455070 0.368658 0.000000
0.510506 0.370840 0.000000
0.565652 0.372656 0.000000
0.620264 0.374197 0.000000
0.674098 0.375570 0.000000
0.726848 0.376883 0.008560
0.778286 0.378241 0.025345
0.828748 0.379644 0.043870
0.878004 0.381155 0.063615
0.925597 0.382940 0.081285
0.970855 0.385122 0.096651
1.000000 0.387930 0.110002
1.000000 0.391638 0.121447
1.000000 0.396384 0.131167
1.000000 0.404044 0.131380
1.000000 0.413382 0.128786
1.000000 0.423194 0.125872
1.000000 0.433295 0.122683
1.000000 0.443656 0.119188
1.000000 0.453803 0.125856
0.000000 0.329152 0.000000
0.000000 0.342245 0.000000
0.000000 0.354467 0.000000
0.000000 0.365759 0.000000
0.000000 0.376089 0.000000
0.000000 0.385489 0.000000
0.000000 0.393927 0.000000
0.084062 0.401404 0.000000
0.162066 0.407965 0.000000
0.227070 0.413626 0.000000
0.287800 0.418479 0.000000
0.346685 0.422599 0.000000
0.404654 0.426108 0.000000
0.461997 0.429084 0.000000
0.518776 0.431632 0.000000
0.574914 0.433845 0.000000
0.630243 0.435813 0.000000
0.684581 0.437644 0.000000
0.737652 0.439414 0.000000
0.789319 0.441230 0.000000
0.839780 0.443015 0.012284
0.888762 0.444877 0.032319
0.935866 0.446906 0.053468
0.980652 0.449271 0.073365
1.000000 0.452079 0.089952
1.000000 0.455497 0.104005
1.000000 0.460105 0.113130
1.000000 0.467216 0.110292
1.000000 0.475395 0.106828
1.000000 0.484199 0.102876
1.000000 0.493339 0.098482
1.000000 0.502678 0.097139
1.000000 0.511818 0.111681
0.000000 0.387839 0.000000
0.000000 0.401343 0.000000
0.000000 0.413916 0.000000
0.000000 0.425452 0.000000
0.000000 0.435996 0.000000
0.000000 0.445548 0.000000
0.000000 0.454093 0.000000
0.022202 0.461677 0.000000
0.138964 0.468315 0.000000
0.216358 0.474098 0.000000
0.283452 0.479103 0.000000
0.346334 0.483421 0.000000
0.407019 0.487129 0.000000
0.466316 0.490333 0.000000
0.524529 0.493126 0.000000
0.581689 0.495598 0.000000
0.637720 0.497795 0.000000
0.692409 0.499763 0.000000
0.745571 0.501610 0.000000
0.797284 0.503426 0.000000
0.847578 0.505241 0.000000
0.896223 0.507164 0.000000
0.943160 0.509255 0.012024
0.988403 0.511559 0.034043
1.000000 0.514214 0.056565
1.000000 0.517357 0.076387
1.000000 0.522057 0.082216
1.000000 0.528344 0.078050
1.000000 0.535592 0.072892
1.000000 0.543511 0.066758
1.000000 0.551812 0.059648
1.000000 0.560113 0.072206
1.000000 0.568566 0.090379
0.000000 0.448829 0.000000
0.000000 0.462348 0.000000
0.000000 0.474968 0.000000
0.000000 0.486641 0.000000
0.000000 0.497246 0.000000
0.000000 0.506798 0.000000
0.000000 0.515312 0.000000
0.000000 0.522850 0.000000
0.098741 0.529473 0.000000
0.199222 0.535271 0.000000
0.275227 0.540322 0.000000
0.343084 0.544717 0.000000
0.406958 0.548516 0.000000
0.468376 0.551766 0.000000
0.527947 0.554513 0.000000
0.585946 0.556878 0.000000
0.642451 0.558938 0.000000
0.697368 0.560815 0.000000
0.750698 0.562585 0.000000
0.802502 0.564340 0.000000
0.852750 0.566155 0.000000
0.901671 0.568048 0.000000
0.949142 0.570062 0.000000
0.994934 0.572259 0.000000
1.000000 0.574746 0.006683
1.000000 0.577646 0.029587
1.000000 0.582315 0.029648
1.000000 0.587930 0.023804
1.000000 0.594400 0.016968
1.000000 0.601556 0.009247
1.000000 0.609033 0.006821
1.000000 0.616510 0.031952
1.000000 0.624353 0.055879
0.000000 0.511437 0.000000
0.000000 0.524895 0.000000
0.000000 0.537301 0.000000
0.000000 0.548684 0.000000
0.000000 0.559045 0.000000
0.000000 0.568414 0.000000
0.000000 0.576822 0.000000
0.000000 0.584253 0.000000
0.016190 0.590799 0.000000
0.173922 0.596521 0.000000
0.262959 0.601419 0.000000
0.336919 0.605600 0.000000
0.404288 0.609140 0.000000
0.467887 0.612131 0.000000
0.528878 0.614679 0.000000
0.587808 0.616861 0.000000
0.644877 0.618784 0.000000
0.700175 0.620554 0.000000
0.753780 0.622263 0.000000
0.805921 0.623987 0.000000
0.856703 0.625757 0.000000
0.906126 0.627573 0.000000
0.954070 0.629511 0.000000
1.000000 0.631601 0.000000
1.000000 0.633951 0.000000
1.000000 0.636728 0.000000
1.000000 0.641199 0.000000
1.000000 0.646281 0.000000
1.000000 0.652110 0.000000
1.000000 0.658579 0.000000
1.000000 0.665187 0.000000
1.000000 0.672084 0.000000
1.000000 0.679362 0.006470
0.000000 0.574578 0.000000
0.000000 0.587976 0.000000
0.000000 0.600168 0.000000
0.000000 0.611185 0.000000
0.000000 0.621118 0.000000
0.000000 0.630076 0.000000
0.000000 0.638071 0.000000
0.000000 0.645106 0.000000
0.000000 0.651255 0.000000
0.135515 0.656580 0.000000
0.245853 0.661143 0.000000
0.327703 0.665019 0.000000
0.399298 0.668284 0.000000
0.465446 0.671046 0.000000
0.528069 0.673411 0.000000
0.588052 0.675456 0.000000
0.645823 0.677287 0.000000
0.701656 0.679011 0.000000
0.755840 0.680720 0.000000
0.808530 0.682414 0.000000
0.859831 0.684154 0.000000
0.909697 0.685924 0.000000
0.958099 0.687785 0.000000
1.000000 0.689799 0.000000
1.000000 0.692027 0.000000
1.000000 0.694865 0.000000
1.000000 0.698955 0.000000
1.000000 0.703578 0.000000
1.000000 0.708873 0.000000
1.000000 0.714641 0.000000
1.000000 0.720592 0.000000
1.000000 0.726955 0.000000
1.000000 0.733669 0.000000
0.000000 0.637003 0.000000
0.000000 0.650385 0.000000
0.000000 0.662394 0.000000
0.000000 0.673075 0.000000
0.000000 0.682536 0.000000
0.000000 0.690898 0.000000
0.000000 0.698268 0.000000
0.000000 0.704707 0.000000
0.000000 0.710323 0.000000
0.064439 0.715190 0.000000
0.223026 0.719356 0.000000
0.315816 0.722927 0.000000
0.392584 0.725948 0.000000
0.461723 0.728527 0.000000
0.526207 0.730739 0.000000
0.587381 0.732677 0.000000
0.645960 0.734524 0.000000
0.702480 0.736309 0.000000
0.757259 0.738033 0.000000
0.810468 0.739742 0.000000
0.862226 0.741451 0.000000
0.912520 0.743191 0.000000
0.961318 0.745006 0.000000
1.000000 0.746944 0.000000
1.000000 0.749065 0.000000
1.000000 0.751919 0.000000
1.000000 0.755688 0.000000
1.000000 0.759945 0.000000
1.000000 0.764782 0.000000
1.000000 0.769848 0.000000
1.000000 0.775326 0.000000
1.000000 0.781186 0.000000
1.000000 0.787320 0.000000
0.000000 0.697307 0.000000
0.000000 0.710613 0.000000
0.000000 0.722377 0.000000
0.000000 0.732708 0.000000
0.000000 0.741787 0.000000
0.000000 0.749722 0.000000
0.000000 0.756649 0.000000
0.000000 0.762646 0.000000
0.000000 0.767849 0.000000
0.000000 0.772320 0.000000
0.192813 0.776150 0.000000
0.301427 0.779400 0.000000
0.384649 0.782193 0.000000
0.457267 0.784573 0.000000
0.523720 0.786740 0.000000
0.586114 0.788769 0.000000
0.645579 0.790692 0.000000
0.702800 0.792523 0.000000
0.758160 0.794278 0.000000
0.811856 0.796002 0.000000
0.864042 0.797711 0.000000
0.914717 0.799435 0.000000
0.963867 0.801221 0.000000
1.000000 0.803098 0.000000
1.000000 0.805142 0.000000
1.000000 0.807996 0.000000
1.000000 0.811521 0.000000
1.000000 0.815457 0.000000
1.000000 0.819669 0.000000
1.000000 0.824094 0.000000
1.000000 0.828809 0.000000
1.000000 0.833677 0.000000
1.000000 0.838621 0.000000
0.000000 0.753643 0.000000
0.000000 0.767117 0.000000
0.000000 0.778943 0.000000
0.000000 0.789258 0.000000
0.000000 0.798245 0.000000
0.000000 0.806012 0.000000
0.000000 0.812711 0.000000
0.000000 0.818479 0.000000
0.000000 0.823407 0.000000
0.000000 0.827604 0.000000
0.154482 0.831174 0.000000
0.286015 0.834211 0.000000
0.376425 0.836881 0.000000
0.452354 0.839338 0.000000
0.520745 0.841642 0.000000
0.584421 0.843763 0.000000
0.644831 0.845777 0.000000
0.702770 0.847669 0.000000
0.758679 0.849500 0.000000
0.812848 0.851255 0.000000
0.865431 0.852979 0.000000
0.916457 0.854704 0.000000
0.965911 0.856474 0.000000
1.000000 0.858335 0.000000
1.000000 0.860304 0.000000
1.000000 0.863035 0.000000
1.000000 0.866072 0.000000
1.000000 0.869169 0.000000
1.000000 0.872313 0.000000
1.000000 0.875547 0.000000
1.000000 0.878843 0.000000
1.000000 0.882078 0.000000
1.000000 0.885191 0.000000
0.000000 0.805982 0.000000
0.000000 0.819303 0.000000
0.000000 0.831479 0.000000
0.000000 0.842130 0.000000
0.000000 0.851316 0.000000
0.000000 0.859205 0.000000
0.000000 0.865949 0.000000
0.000000 0.871687 0.000000
0.000000 0.876539 0.000000
0.000000 0.880644 0.000000
0.107912 0.884154 0.000000
0.270878 0.887312 0.000000
0.368170 0.890211 0.000000
0.447395 0.892882 0.000000
0.517739 0.895338 0.000000
0.582727 0.897612 0.000000
0.644053 0.899733 0.000000
0.702647 0.901732 0.000000
0.759091 0.903639 0.000000
0.813687 0.905455 0.000000
0.866606 0.907240 0.000000
0.917891 0.908949 0.000000
0.967468 0.910582 0.000000
1.000000 0.912093 0.000000
1.000000 0.913481 0.000000
1.000000 0.915450 0.000000
1.000000 0.917250 0.000000
1.000000 0.918868 0.000000
1.000000 0.920409 0.000000
1.000000 0.921828 0.000000
1.000000 0.923049 0.000000
1.000000 0.924041 0.000000
1.000000 0.925078 0.000000
0.000000 0.856046 0.000000
0.000000 0.868650 0.000000
0.000000 0.880217 0.000000
0.000000 0.890822 0.000000
0.000000 0.900435 0.000000
0.000000 0.908766 0.000000
0.000000 0.915831 0.000000
0.000000 0.921798 0.000000
0.000000 0.926833 0.000000
0.000000 0.931243 0.000000
0.046906 0.935210 0.000000
0.257588 0.938796 0.000000
0.361395 0.942031 0.000000
0.443549 0.944976 0.000000
0.515572 0.947677 0.000000
0.581643 0.950164 0.000000
0.643748 0.952468 0.000000
0.702907 0.954620 0.000000
0.759686 0.956558 0.000000
0.814405 0.958282 0.000000
0.867201 0.959731 0.000000
0.918120 0.960891 0.000000
0.967102 0.961730 0.000000
1.000000 0.962234 0.000000
1.000000 0.962402 0.000000
1.000000 0.962722 0.000000
1.000000 0.962646 0.000000
1.000000 0.962264 0.000000
1.000000 0.961700 0.000000
1.000000 0.961151 0.000000
1.000000 0.960662 0.000000
1.000000 0.960266 0.000000
1.000000 0.959960 0.000000
0.000000 0.904036 0.000000
0.000000 0.915908 0.000000
0.000000 0.926894 0.000000
0.000000 0.937011 0.000000
0.000000 0.946181 0.000000
0.000000 0.954452 0.000000
0.000000 0.961868 0.000000
0.000000 0.968490 0.000000
0.000000 0.974350 0.000000
0.000000 0.979553 0.000000
0.004105 0.984176 0.000000
0.250721 0.988327 0.000000
0.358587 0.992035 0.000000
0.442466 0.995407 0.000000
0.515450 0.998444 0.000000
0.582040 1.000000 0.000000
0.644282 1.000000 0.000000
0.703273 1.000000 0.000000
0.759609 1.000000 0.000000
0.813626 1.000000 0.000000
0.865492 1.000000 0.000000
0.915267 1.000000 0.000000
0.962921 1.000000 0.000000
1.000000 1.000000 0.000000
1.000000 1.000000 0.000000
1.000000 1.000000 0.000000
1.000000 1.000000 0.000000
1.000000 0.999100 0.000000
1.000000 0.997253 0.000000
1.000000 0.995453 0.000000
1.000000 0.993713 0.000000
1.000000 0.992081 0.000000
1.000000 0.990570 0.000000
0.000000 0.950225 0.000000
0.000000 0.961379 0.000000
0.000000 0.971725 0.000000
0.000000 0.981262 0.000000
0.000000 0.990005 0.000000
0.000000 0.998016 0.000000
0.000000 1.000000 0.000000
0.000000 1.000000 0.000000
0.000000 1.000000 0.000000
0.000000 1.000000 0.000000
0.023682 1.000000 0.000000
0.256352 1.000000 0.000000
0.362676 1.000000 0.000000
0.445670 1.000000 0.000000
0.517784 1.000000 0.000000
0.583413 1.000000 0.000000
0.644572 1.000000 0.000000
0.702312 1.000000 0.000000
0.757229 1.000000 0.000000
0.809644 1.000000 0.000000
0.859754 1.000000 0.000000
0.907607 1.000000 0.000000
0.953429 1.000000 0.000000
0.997116 1.000000 0.000000
1.000000 1.000000 0.000000
1.000000 1.000000 0.000000
1.000000 1.000000 0.000000
1.000000 1.000000 0.000000
1.000000 1.000000 0.000000
1.000000 1.000000 0.000000
1.000000 1.000000 0.000000
1.000000 1.000000 0.000000
1.000000 1.000000 0.000000
0.000000 0.994659 0.000000
0.000000 1.000000 0.000000
0.000000 1.000000 0.000000
0.000000 1.000000 0.000000
0.000000 1.000000 0.000000
0.000000 1.000000 0.000000
0.000000 1.000000 0.000000
0.000000 1.000000 0.000000
0.000000 1.000000 0.000000
0.000000 1.000000 0.000000
0.092271 1.000000 0.000000
0.273732 1.000000 0.000000
0.373388 1.000000 0.000000
0.452537 1.000000 0.000000
0.521645 1.000000 0.000000
0.584619 1.000000 0.000000
0.643290 1.000000 0.000000
0.698573 1.000000 0.000000
0.751141 1.000000 0.000000
0.801526 1.000000 0.000000
0.849989 1.000000 0.000000
0.896513 1.000000 0.000000
0.941054 1.000000 0.000000
0.983505 1.000000 0.000000
1.000000 1.000000 0.000000
1.000000 1.000000 0.000000
1.000000 1.000000 0.000000
1.000000 1.000000 0.000000
1.000000 1.000000 0.000000
1.000000 1.000000 0.000000
1.000000 1.000000 0.000000
1.000000 1.000000 0.000000
1.000000 1.000000 0.000000
0.000000 1.000000 0.000000
0.000000 1.000000 0.000000
0.000000 1.000000 0.000000
0.000000 1.000000 0.000000
0.000000 1.000000 0.000000
0.000000 1.000000 0.000000
0.000000 1.000000 0.000000
0.000000 1.000000 0.000000
0.000000 1.000000 0.000000
0.000000 1.000000 0.000000
0.196124 1.000000 0.000000
0.320439 1.000000 0.000000
0.406088 1.000000 0.000000
0.476768 1.000000 0.000000
0.539193 1.000000 0.000000
0.596567 1.000000 0.000000
0.650507 1.000000 0.000000
0.701808 1.000000 0.000000
0.751049 1.000000 0.000000
0.798520 1.000000 0.000000
0.844251 1.000000 0.000000
0.888243 1.000000 0.000000
0.930388 1.000000 0.000000
0.970611 1.000000 0.000000
1.000000 1.000000 0.000000
1.000000 1.000000 0.000000
1.000000 1.000000 0.000000
1.000000 1.000000 0.000000
1.000000 1.000000 0.000000
1.000000 1.000000 0.000000
1.000000 1.000000 0.000000
1.000000 1.000000 0.000000
1.000000 1.000000 0.012360
0.000000 1.000000 0.000000
0.000000 1.000000 0.000000
0.000000 1.000000 0.000000
0.000000 1.000000 0.000000
0.000000 1.000000 0.000000
0.000000 1.000000 0.000000
0.000000 1.000000 0.000000
0.000000 1.000000 0.000000
0.000000 1.000000 0.000000
0.121279 1.000000 0.000000
0.273167 1.000000 0.000000
0.362432 1.000000 0.000000
0.433509 1.000000 0.000000
0.495491 1.000000 0.000000
0.551980 1.000000 0.000000
0.604746 1.000000 0.000000
0.654887 1.000000 0.000000
0.703136 1.000000 0.000000
0.749737 1.000000 0.000000
0.794781 1.000000 0.000000
0.838300 1.000000 0.000000
0.880217 1.000000 0.000000
0.920439 1.000000 0.000000
0.958816 1.000000 0.000000
0.995224 1.000000 0.000000
1.000000 1.000000 0.000000
1.000000 1.000000 0.000000
1.000000 1.000000 0.000000
1.000000 1.000000 0.000000
1.000000 1.000000 0.000000
