resources/flame/Syncolor/Shared/transforms/camera_manufacturer_luts/arri/ARRI_Alexa_LUTs/ARRI_HDR_Lookfiles_3DLUTs_190319/3D_LUTs_for_monitor_grading_add_P3D65/ARRI_Rec2100PQ-1K-100_33.cube
LUT_3D_SIZE 33
0.00000073 0.00000073 0.00000073
0.02791784 0.00556370 0.00072140
0.05367364 0.01215183 0.00166668
0.07898963 0.01963176 0.00286187
0.10417733 0.02791900 0.00431493
0.12933013 0.03695232 0.00603512
0.15452100 0.04670090 0.00803605
0.17980881 0.05715075 0.01033456
0.20523733 0.06829599 0.01294967
0.23086285 0.08014676 0.01590506
0.25688221 0.09279239 0.01924737
0.28350814 0.10635130 0.02303786
0.31095223 0.12096256 0.02735248
0.33942528 0.13678562 0.03228408
0.36913599 0.15399973 0.03794487
0.39950138 0.17231846 0.04429670
0.42992407 0.19139171 0.05125900
0.46040543 0.21121074 0.05886078
0.49094772 0.23176887 0.06713227
0.52155222 0.25306009 0.07610447
0.55221993 0.27507924 0.08580929
0.58295156 0.29782187 0.09627957
0.61374762 0.32128412 0.10754905
0.64460838 0.34546265 0.11965240
0.67553395 0.37035451 0.13262520
0.70652426 0.39595713 0.14650398
0.73757910 0.42226822 0.16132618
0.75182710 0.44928576 0.17713020
0.75182710 0.47700791 0.19395536
0.75182710 0.50542780 0.21183861
0.75182710 0.53435597 0.23069614
0.75182710 0.56364841 0.25045888
0.75182710 0.59323243 0.27109568
0.00262578 0.01106067 0.00000073
0.00285857 0.00308364 0.00000073
0.03003518 0.00606061 0.00078872
0.05631957 0.01289027 0.00177927
0.08230692 0.02067720 0.00303808
0.10825686 0.02933442 0.00457544
0.13436216 0.03884506 0.00641227
0.16087308 0.04926470 0.00858569
0.18802236 0.06068226 0.01114540
0.21603349 0.07321440 0.01415492
0.24512494 0.08700313 0.01769363
0.27539301 0.10215362 0.02184203
0.30593548 0.11824423 0.02653212
0.33652231 0.13514191 0.03175951
0.36715485 0.15282986 0.03755061
0.39783374 0.17129365 0.04393260
0.42855912 0.19052072 0.05093344
0.45933098 0.21050020 0.05858188
0.49015165 0.23122424 0.06690814
0.52102300 0.25268610 0.07594335
0.55194632 0.27487979 0.08571946
0.58292256 0.29780009 0.09626933
0.61395243 0.32144239 0.10762667
0.64503640 0.34580265 0.11982610
0.67617472 0.37087723 0.13290315
0.70736749 0.39666292 0.14689420
0.73861462 0.42315679 0.16183657
0.75182710 0.45035621 0.17776846
0.75182710 0.47816745 0.19467247
0.75182710 0.50640342 0.21246387
0.75182710 0.53499533 0.23112035
0.75182710 0.56387042 0.25061122
0.75182710 0.59294986 0.27089536
0.00567109 0.02215866 0.00000073
0.00372321 0.01521060 0.00000073
0.00783463 0.00841811 0.00000073
0.03524301 0.00762891 0.00083970
0.06299907 0.01480091 0.00207628
0.09114240 0.02353102 0.00352975
0.12003352 0.03352938 0.00536748
0.14996668 0.04488848 0.00765325
0.18076686 0.05755926 0.01042750
0.21159315 0.07117828 0.01365226
0.24242723 0.08569217 0.01734729
0.27327937 0.10106963 0.02153645
0.30415626 0.11728522 0.02624461
0.33506228 0.13431782 0.03149758
0.36600026 0.15214951 0.03732196
0.39697191 0.17076488 0.04374514
0.42797816 0.19015044 0.05079526
0.45901937 0.21029430 0.05850115
0.49009645 0.23118649 0.06689262
0.52121217 0.25281976 0.07600092
0.55236819 0.27518733 0.08585799
0.58356575 0.29828324 0.09649662
0.61480582 0.32210218 0.10795047
0.64608908 0.34663940 0.12025402
0.67741601 0.37189064 0.13344266
0.70878685 0.39785203 0.14755258
0.74016759 0.42449074 0.16260400
0.75182710 0.45162757 0.17852772
0.75182710 0.47918072 0.19529999
0.75182710 0.50708323 0.21289998
0.75182710 0.53526233 0.23129759
0.75182710 0.56363927 0.25045261
0.75182710 0.59212920 0.27031394
0.00979877 0.03569783 0.00000073
0.00818262 0.03055118 0.00000073
0.00685613 0.02618593 0.00000073
0.02186532 0.02333154 0.00000073
0.05268553 0.02419954 0.00000073
0.08427652 0.02893777 0.00000073
0.11573531 0.03670008 0.00127667
0.14707495 0.04674435 0.00544952
0.17833748 0.05848889 0.00890311
0.20955605 0.07157892 0.01251731
0.24075350 0.08580683 0.01646893
0.27194522 0.10104747 0.02084262
0.30314159 0.11722133 0.02569362
0.33434966 0.13427503 0.03106490
0.36557419 0.15217070 0.03699351
0.39681834 0.17088017 0.04351354
0.42808411 0.19038153 0.05065755
0.45937269 0.21065709 0.05845741
0.49068468 0.23169220 0.06694478
0.52202245 0.25347589 0.07615206
0.55338842 0.27599931 0.08611222
0.58478419 0.29925464 0.09685869
0.61621101 0.32323511 0.10842550
0.64766984 0.34793475 0.12084738
0.67915716 0.37334480 0.13415791
0.71052453 0.39933534 0.14832329
0.74166511 0.42580009 0.16331325
0.75182710 0.45267732 0.17911577
0.75182710 0.47989977 0.19571061
0.75182710 0.50739455 0.21306850
0.75182710 0.53508289 0.23115038
0.75182710 0.56288010 0.24990662
0.75182710 0.59069542 0.26927630
0.01709028 0.05720417 0.00000073
0.01666506 0.05601137 0.00000073
0.01630222 0.05498842 0.00000073
0.02320383 0.05405842 0.00000073
0.05089704 0.05388310 0.00000073
0.08194546 0.05507698 0.00000073
0.11351520 0.05819545 0.00000073
0.14514672 0.06358966 0.00000073
0.17674619 0.07132849 0.00000073
0.20830332 0.08125279 0.00000073
0.23982707 0.09309765 0.00805374
0.27132899 0.10659231 0.01514591
0.30281904 0.12150728 0.02147826
0.33430498 0.13766432 0.02784190
0.36579251 0.15493010 0.03449803
0.39728574 0.17320607 0.04158153
0.42878751 0.19241912 0.04917965
0.46029971 0.21251439 0.05735738
0.49182344 0.23345002 0.06616794
0.52336006 0.25519400 0.07565807
0.55491259 0.27772263 0.08587123
0.58648300 0.30101688 0.09684843
0.61807283 0.32506140 0.10862928
0.64961039 0.34978597 0.12122218
0.68095230 0.37505757 0.13459547
0.71205306 0.40081424 0.14874714
0.74286601 0.42699098 0.16366795
0.75182710 0.45351815 0.17934022
0.75182710 0.48032108 0.19573710
0.75182710 0.50731976 0.21282197
0.75182710 0.53442867 0.23054775
0.75182710 0.56155657 0.24885623
0.75182710 0.58860642 0.26767755
0.02879886 0.08797914 0.00000073
0.02853564 0.08732371 0.00000073
0.02827806 0.08668093 0.00000073
0.03137665 0.08607909 0.00000073
0.05285688 0.08580896 0.00000073
0.08183520 0.08617830 0.00000073
0.11278931 0.08754449 0.00000073
0.14434017 0.09028277 0.00000073
0.17607313 0.09472801 0.00000073
0.20784947 0.10111769 0.00000073
0.23962332 0.10955556 0.00000073
0.27138208 0.12001390 0.00000073
0.30312491 0.13236968 0.00000073
0.33485472 0.14645201 0.01538744
0.36657522 0.16208111 0.02610428
0.39828974 0.17909140 0.03543551
0.43000100 0.19734131 0.04454536
0.46171102 0.21671474 0.05383420
0.49342115 0.23711851 0.06350588
0.52513235 0.25847867 0.07368798
0.55684717 0.28073800 0.08447251
0.58854468 0.30383462 0.09592298
0.62008769 0.32762591 0.10804194
0.65141908 0.35202488 0.12084701
0.68249533 0.37695654 0.13435024
0.71327011 0.40234498 0.14855286
0.74369432 0.42811216 0.16344561
0.75182710 0.45417698 0.17900872
0.75182710 0.48045461 0.19521163
0.75182710 0.50685588 0.21201270
0.75182710 0.53328692 0.22935878
0.75182710 0.55964882 0.24718484
0.75182710 0.58583747 0.26541359
0.04215887 0.11963957 0.00000073
0.04200696 0.11929499 0.00000073
0.04186430 0.11897109 0.00000073
0.04350082 0.11867675 0.00000073
0.05908619 0.11856087 0.00000073
0.08458441 0.11878755 0.00000073
0.11400203 0.11956478 0.00000073
0.14492826 0.12114539 0.00000073
0.17646824 0.12380900 0.00000073
0.20826192 0.12783775 0.00000073
0.24015578 0.13348500 0.00000073
0.27208295 0.14094192 0.00000073
0.30401462 0.15031312 0.00000073
0.33593908 0.16161127 0.00000073
0.36785221 0.17477133 0.00000073
0.39975322 0.18967640 0.01282512
0.43164260 0.20618463 0.03151690
0.46352122 0.22415045 0.04478728
0.49538990 0.24343780 0.05689648
0.52724654 0.26392493 0.06877747
0.55899444 0.28544481 0.08078829
0.59055746 0.30784789 0.09311649
0.62189514 0.33101766 0.10588124
0.65296424 0.35484589 0.11915450
0.68371874 0.37923005 0.13297786
0.71410982 0.40407105 0.14737077
0.74408588 0.42927129 0.16233482
0.75182710 0.45473307 0.17785602
0.75182710 0.48035728 0.19390601
0.75182710 0.50604242 0.21044270
0.75182710 0.53168381 0.22741055
0.75182710 0.55717304 0.24474070
0.75182710 0.58239750 0.26235104
0.05699388 0.15195581 0.00000073
0.05695816 0.15188083 0.00000073
0.05693329 0.15182862 0.00000073
0.05802321 0.15180177 0.00000073
0.06923779 0.15188435 0.00000073
0.09057037 0.15216930 0.00000073
0.11755180 0.15277959 0.00000073
0.14720853 0.15387615 0.00000073
0.17812685 0.15565441 0.00000073
0.20965384 0.15833748 0.00000073
0.24147673 0.16216501 0.00000073
0.27344054 0.16737568 0.00000073
0.30546686 0.17418393 0.00000073
0.33751564 0.18275522 0.00000073
0.36956640 0.19318769 0.00000073
0.40160877 0.20550589 0.00000073
0.43363761 0.21966812 0.00000073
0.46565044 0.23558321 0.00895286
0.49760199 0.25310822 0.03969546
0.52939723 0.27205064 0.05722788
0.56099545 0.29223500 0.07239810
0.59235624 0.31349252 0.08677945
0.62343631 0.33566395 0.10096459
0.65418964 0.35860073 0.11524207
0.68456753 0.38216416 0.12976827
0.71451858 0.40622361 0.14462895
0.74398862 0.43065438 0.15986599
0.75182710 0.45533571 0.17549033
0.75182710 0.48014890 0.19148894
0.75182710 0.50497577 0.20782867
0.75182710 0.52969742 0.22445856
0.75182710 0.55419323 0.24131135
0.75182710 0.57846265 0.25839357
0.07321923 0.18485847 0.00000073
0.07329963 0.18501631 0.00000073
0.07339102 0.18519563 0.00000073
0.07429176 0.18539678 0.00000073
0.08254870 0.18567048 0.00000073
0.09982516 0.18607169 0.00000073
0.12372060 0.18667539 0.00000073
0.15145662 0.18758406 0.00000073
0.18125935 0.18892914 0.00000073
0.21216680 0.19087082 0.00000073
0.24366909 0.19359589 0.00000073
0.27549161 0.19731273 0.00000073
0.30748353 0.20224129 0.00000073
0.33956062 0.20859738 0.00000073
0.37167527 0.21657266 0.00000073
0.40380029 0.22631444 0.00000073
0.43590762 0.23790724 0.00000073
0.46790841 0.25134412 0.00000073
0.49975150 0.26655145 0.00000073
0.53139364 0.28340171 0.01332841
0.56279046 0.30173055 0.05173130
0.59389736 0.32135540 0.07290719
0.62466771 0.34208848 0.09078263
0.65505236 0.36374534 0.10738389
0.68499968 0.38614955 0.12345976
0.71445548 0.40913416 0.13936378
0.74336291 0.43254137 0.15527837
0.75182710 0.45622112 0.17129521
0.75182710 0.48002936 0.18745028
0.75182710 0.50382618 0.20374107
0.75182710 0.52751812 0.22016823
0.75182710 0.55115327 0.23681391
0.75182710 0.57466589 0.25366179
0.09076130 0.21827025 0.00000073
0.09095395 0.21862668 0.00000073
0.09115656 0.21900130 0.00000073
0.09201515 0.21939360 0.00000073
0.09830568 0.21983549 0.00000073
0.11209014 0.22036042 0.00000073
0.13262845 0.22101543 0.00000073
0.15789445 0.22186665 0.00000073
0.18607040 0.22300207 0.00000073
0.21595644 0.22453347 0.00000073
0.24683720 0.22659770 0.00000073
0.27829567 0.22935688 0.00000073
0.31008765 0.23299640 0.00000073
0.34206846 0.23771938 0.00000073
0.37415022 0.24373592 0.00000073
0.40623404 0.25124072 0.00000073
0.43823747 0.26039162 0.00000073
0.47010279 0.27129074 0.00000073
0.50177732 0.28397050 0.00000073
0.53321045 0.29839154 0.00000073
0.56435197 0.31445083 0.00000073
0.59515213 0.33199719 0.02699775
0.62556018 0.35084826 0.06731557
0.65552328 0.37080573 0.09131038
0.68498652 0.39166719 0.11136630
0.71389263 0.41323376 0.12971680
0.74218186 0.43531408 0.14720183
0.75182710 0.45772577 0.16421297
0.75182710 0.48030300 0.18095078
0.75182710 0.50301589 0.19761359
0.75182710 0.52578848 0.21428957
0.75182710 0.54852223 0.23100281
0.75182710 0.57112559 0.24775331
0.10954981 0.25210944 0.00000073
0.10984764 0.25263191 0.00000073
0.11015348 0.25316799 0.00000073
0.11103042 0.25371685 0.00000073
0.11599089 0.25429898 0.00000073
0.12696243 0.25493505 0.00000073
0.14422369 0.25565520 0.00000073
0.16666204 0.25650277 0.00000073
0.19274232 0.25753695 0.00000073
0.22118282 0.25883521 0.00000073
0.25110052 0.26049560 0.00000073
0.28193082 0.26263873 0.00000073
0.31332091 0.26540917 0.00000073
0.34503611 0.26897336 0.00000073
0.37689485 0.27351671 0.00000073
0.40877403 0.27923530 0.00000073
0.44057986 0.28631607 0.00000073
0.47223597 0.29491796 0.00000073
0.50367615 0.30515285 0.00000073
0.53483977 0.31707097 0.00000073
0.56566891 0.33065421 0.00000073
0.59610745 0.34581921 0.00000073
0.62609941 0.36242792 0.00000073
0.65558761 0.38030223 0.04405161
0.68451324 0.39923943 0.08507454
0.71281560 0.41902554 0.11108634
0.74042619 0.43943980 0.13268359
0.75182710 0.46033239 0.15222941
0.75182710 0.48161169 0.17069901
0.75182710 0.50313985 0.18852825
0.75182710 0.52479005 0.20595192
0.75182710 0.54644543 0.22309896
0.75182710 0.56799767 0.24003575
0.12951405 0.28629176 0.00000073
0.12990721 0.28694889 0.00000073
0.13030561 0.28761417 0.00000073
0.13122155 0.28828667 0.00000073
0.13525227 0.28897952 0.00000073
0.14402527 0.28970557 0.00000073
0.15831728 0.29048433 0.00000073
0.17779763 0.29134454 0.00000073
0.20141621 0.29232631 0.00000073
0.22800106 0.29348337 0.00000073
0.25658946 0.29488541 0.00000073
0.28649023 0.29661903 0.00000073
0.31721892 0.29878752 0.00000073
0.34843695 0.30152570 0.00000073
0.37990787 0.30498937 0.00000073
0.41146142 0.30934951 0.00000073
0.44296978 0.31478379 0.00000073
0.47433202 0.32146374 0.00000073
0.50546397 0.32953849 0.00000073
0.53629170 0.33911751 0.00000073
0.56674717 0.35025589 0.00000073
0.59676626 0.36294593 0.00000073
0.62628590 0.37711578 0.00000073
0.65523466 0.39262890 0.00000073
0.68354705 0.40931054 0.00000073
0.71119152 0.42697728 0.06021578
0.73823725 0.44550079 0.10276384
0.75182710 0.46471336 0.13059679
0.75182710 0.48444712 0.15363518
0.75182710 0.50454303 0.17428938
0.75182710 0.52485256 0.19353770
0.75182710 0.54523809 0.21186205
0.75182710 0.56557229 0.22953212
0.15058077 0.32073136 0.00000073
0.15105687 0.32149257 0.00000073
0.15153475 0.32225591 0.00000073
0.15248989 0.32302033 0.00000073
0.15584426 0.32379412 0.00000073
0.16291289 0.32458509 0.00000073
0.17464119 0.32540594 0.00000073
0.19123592 0.32627580 0.00000073
0.21217254 0.32722201 0.00000073
0.23654820 0.32828153 0.00000073
0.26344355 0.32949289 0.00000073
0.29208181 0.33092017 0.00000073
0.32186900 0.33265073 0.00000073
0.35237284 0.33478958 0.00000073
0.38328185 0.33745977 0.00000073
0.41436897 0.34080106 0.00000073
0.44546424 0.34496601 0.00000073
0.47643567 0.35011261 0.00000073
0.50717613 0.35639334 0.00000073
0.53759170 0.36393823 0.00000073
0.56759266 0.37283680 0.00000073
0.59710515 0.38313955 0.00000073
0.62605953 0.39484041 0.00000073
0.65439352 0.40787567 0.00000073
0.68214117 0.42217007 0.00000073
0.70930152 0.43760889 0.00000073
0.73584612 0.45404243 0.00000073
0.75182710 0.47130569 0.07495705
0.75182710 0.48922753 0.11994262
0.75182710 0.50763787 0.14942895
0.75182710 0.52637240 0.17354238
0.75182710 0.54527547 0.19488749
0.75182710 0.56420172 0.21450219
0.17267304 0.35534137 0.00000073
0.17321737 0.35617672 0.00000073
0.17375939 0.35700774 0.00000073
0.17474253 0.35783332 0.00000073
0.17758328 0.35865836 0.00000073
0.18332442 0.35948745 0.00000073
0.19290187 0.36032871 0.00000073
0.20682564 0.36119489 0.00000073
0.22502325 0.36209483 0.00000073
0.24695005 0.36304266 0.00000073
0.27182742 0.36408069 0.00000073
0.29887586 0.36526274 0.00000073
0.32743320 0.36665541 0.00000073
0.35698173 0.36833950 0.00000073
0.38713149 0.37041084 0.00000073
0.41759122 0.37298037 0.00000073
0.44813449 0.37616575 0.00000073
0.47858630 0.38009597 0.00000073
0.50881214 0.38490954 0.00000073
0.53870049 0.39073848 0.00000073
0.56815517 0.39769615 0.00000073
0.59709037 0.40586425 0.00000073
0.62547736 0.41529361 0.00000073
0.65332229 0.42600317 0.00000073
0.68059023 0.43796098 0.00000073
0.70724858 0.45109337 0.00000073
0.73326622 0.46529065 0.00000073
0.75182710 0.48041530 0.00000073
0.75182710 0.49631118 0.00000073
0.75182710 0.51281212 0.08634203
0.75182710 0.52974981 0.13487671
0.75182710 0.54695894 0.16599929
0.75182710 0.56428082 0.19094432
0.19570956 0.39003430 0.00000073
0.19630521 0.39091429 0.00000073
0.19689393 0.39178324 0.00000073
0.19788718 0.39263989 0.00000073
0.20032028 0.39348679 0.00000073
0.20501469 0.39432637 0.00000073
0.21281422 0.39515868 0.00000073
0.22436630 0.39596824 0.00000073
0.23992526 0.39677042 0.00000073
0.25928171 0.39759084 0.00000073
0.28188517 0.39846254 0.00000073
0.30704294 0.39942715 0.00000073
0.33407829 0.40053521 0.00000073
0.36240334 0.40184006 0.00000073
0.39155409 0.40341501 0.00000073
0.42117333 0.40534838 0.00000073
0.45098663 0.40774059 0.00000073
0.48078118 0.41070224 0.00000073
0.51038834 0.41435029 0.00000073
0.53967048 0.41880181 0.00000073
0.56852699 0.42416754 0.00000073
0.59692888 0.43054974 0.00000073
0.62482615 0.43802486 0.00000073
0.65217250 0.44663992 0.00000073
0.67892716 0.45640685 0.00000073
0.70505310 0.46729916 0.00000073
0.73051575 0.47925233 0.00000073
0.75182710 0.49216731 0.00000073
0.75182710 0.50591766 0.00000073
0.75182710 0.52035700 0.00000073
0.75182710 0.53532681 0.00000073
0.75182710 0.55066348 0.09022071
0.75182710 0.56620401 0.14510328
0.21960506 0.42472339 0.00000073
0.22023258 0.42561816 0.00000073
0.22084831 0.42649537 0.00000073
0.22182981 0.42735349 0.00000073
0.22392419 0.42819227 0.00000073
0.22776821 0.42898499 0.00000073
0.23410111 0.42972571 0.00000073
0.24360619 0.43042638 0.00000073
0.25672151 0.43110293 0.00000073
0.27351188 0.43177236 0.00000073
0.29367410 0.43245282 0.00000073
0.31667158 0.43317806 0.00000073
0.34187955 0.43398988 0.00000073
0.36869900 0.43493874 0.00000073
0.39661353 0.43608459 0.00000073
0.42520301 0.43749737 0.00000073
0.45413481 0.43925704 0.00000073
0.48314711 0.44145252 0.00000073
0.51203402 0.44417986 0.00000073
0.54066907 0.44754390 0.00000073
0.56895600 0.45164351 0.00000073
0.59681228 0.45657082 0.00000073
0.62417105 0.46240719 0.00000073
0.65097649 0.46921592 0.00000073
0.67718056 0.47703535 0.00000073
0.70274062 0.48587301 0.00000073
0.72761777 0.49570298 0.00000073
0.75177563 0.50646557 0.00000073
0.75182710 0.51806980 0.00000073
0.75182710 0.53039844 0.00000073
0.75182710 0.54331440 0.00000073
0.75182710 0.55666760 0.00000073
0.75182710 0.57030141 0.00000073
0.24426957 0.45932181 0.00000073
0.24490764 0.46020197 0.00000073
0.24552893 0.46105779 0.00000073
0.24646080 0.46186848 0.00000073
0.24822468 0.46260518 0.00000073
0.25135316 0.46327281 0.00000073
0.25647232 0.46387137 0.00000073
0.26422102 0.46440710 0.00000073
0.27511924 0.46489468 0.00000073
0.28943002 0.46535258 0.00000073
0.30709422 0.46580376 0.00000073
0.32776830 0.46627637 0.00000073
0.35093444 0.46680456 0.00000073
0.37601992 0.46742922 0.00000073
0.40248242 0.46819868 0.00000073
0.42985182 0.46916910 0.00000073
0.45774022 0.47040459 0.00000073
0.48584686 0.47198311 0.00000073
0.51395534 0.47398608 0.00000073
0.54189731 0.47649113 0.00000073
0.56954262 0.47957932 0.00000073
0.59678906 0.48333163 0.00000073
0.62355466 0.48782423 0.00000073
0.64977202 0.49312277 0.00000073
0.67538418 0.49927645 0.00000073
0.70034164 0.50631262 0.00000073
0.72460015 0.51423198 0.00000073
0.74811914 0.52300583 0.00000073
0.75182710 0.53257573 0.00000073
0.75182710 0.54285548 0.00000073
0.75182710 0.55373510 0.00000073
0.75182710 0.56508609 0.00000073
0.75182710 0.57676736 0.00000073
0.26960798 0.49374225 0.00000073
0.27022720 0.49457029 0.00000073
0.27078844 0.49531439 0.00000073
0.27158098 0.49596144 0.00000073
0.27300791 0.49651495 0.00000073
0.27549847 0.49698137 0.00000073
0.27958001 0.49736902 0.00000073
0.28582939 0.49768844 0.00000073
0.29478219 0.49795282 0.00000073
0.30681668 0.49817838 0.00000073
0.32205934 0.49838497 0.00000073
0.34035941 0.49859660 0.00000073
0.36134212 0.49884201 0.00000073
0.38450630 0.49915527 0.00000073
0.40931955 0.49957626 0.00000073
0.43528308 0.50015550 0.00000073
0.46197404 0.50095828 0.00000073
0.48905965 0.50203745 0.00000073
0.51627857 0.50345021 0.00000073
0.54342717 0.50525909 0.00000073
0.57034669 0.50753048 0.00000073
0.59691230 0.51033228 0.00000073
0.62302429 0.51373062 0.00000073
0.64860157 0.51778620 0.00000073
0.67357652 0.52254934 0.00000073
0.69789134 0.52805510 0.00000073
0.72149532 0.53431868 0.00000073
0.74434279 0.54133182 0.00000073
0.75182710 0.54906075 0.00000073
0.75182710 0.55744735 0.00000073
0.75182710 0.56642119 0.00000073
0.75182710 0.57589854 0.00000073
0.75182710 0.58583307 0.00000073
0.29546699 0.52782809 0.00000073
0.29594924 0.52845450 0.00000073
0.29635911 0.52897400 0.00000073
0.29695502 0.52939089 0.00000073
0.29804204 0.52971057 0.00000073
0.29996766 0.52993960 0.00000073
0.30316999 0.53008617 0.00000073
0.30815326 0.53016036 0.00000073
0.31542974 0.53017445 0.00000073
0.32543016 0.53014326 0.00000073
0.33840811 0.53008454 0.00000073
0.35437878 0.53001944 0.00000073
0.37312108 0.52997293 0.00000073
0.39423735 0.52997565 0.00000073
0.41723191 0.53008186 0.00000073
0.44161589 0.53033101 0.00000073
0.46695288 0.53075894 0.00000073
0.49287383 0.53140650 0.00000073
0.51907833 0.53231940 0.00000073
0.54532686 0.53354778 0.00000073
0.57143000 0.53514516 0.00000073
0.59723782 0.53716728 0.00000073
0.62263059 0.53966971 0.00000073
0.64751133 0.54270496 0.00000073
0.67179996 0.54631895 0.00000073
0.69542891 0.55054710 0.00000073
0.71834482 0.55541543 0.00000073
0.74050814 0.56093913 0.00000073
0.75182710 0.56710132 0.00000073
0.75182710 0.57386473 0.00000073
0.75182710 0.58120362 0.00000073
0.75182710 0.58907279 0.00000073
0.75182710 0.59740943 0.00000073
0.32154467 0.56124830 0.00000073
0.32183838 0.56161963 0.00000073
0.32205934 0.56187986 0.00000073
0.32242609 0.56203378 0.00000073
0.32317338 0.56208708 0.00000073
0.32458510 0.56204659 0.00000073
0.32702595 0.56192059 0.00000073
0.33093109 0.56171898 0.00000073
0.33677086 0.56145357 0.00000073
0.34498614 0.56113830 0.00000073
0.35590517 0.56078958 0.00000073
0.36966923 0.56042663 0.00000073
0.38619140 0.56009005 0.00000073
0.40518197 0.55982163 0.00000073
0.42623531 0.55964321 0.00000073
0.44890037 0.55958012 0.00000073
0.47273829 0.55966142 0.00000073
0.49735641 0.55992008 0.00000073
0.52242162 0.56039278 0.00000073
0.54766055 0.56111992 0.00000073
0.57285277 0.56214489 0.00000073
0.59782169 0.56351302 0.00000073
0.62242568 0.56527011 0.00000073
0.64656066 0.56747088 0.00000073
0.67013940 0.57016196 0.00000073
0.69308342 0.57337579 0.00000073
0.71532575 0.57713417 0.00000073
0.73680797 0.58144519 0.00000073
0.75182710 0.58631228 0.00000073
0.75182710 0.59173109 0.00000073
0.75182710 0.59767753 0.00000073
0.75182710 0.60411616 0.00000073
0.75182710 0.61100097 0.00000073
0.34768384 0.59388018 0.00000073
0.34775057 0.59396245 0.00000073
0.34774400 0.59392951 0.00000073
0.34784774 0.59378668 0.00000073
0.34824638 0.59354004 0.00000073
0.34917464 0.59319682 0.00000073
0.35093817 0.59276551 0.00000073
0.35391127 0.59225606 0.00000073
0.35851656 0.59168010 0.00000073
0.36518031 0.59105110 0.00000073
0.37426537 0.59039442 0.00000073
0.38598710 0.58976056 0.00000073
0.40036570 0.58916644 0.00000073
0.41723765 0.58862781 0.00000073
0.43629420 0.58816295 0.00000073
0.45714169 0.58779287 0.00000073
0.47936112 0.58754148 0.00000073
0.50255267 0.58743572 0.00000073
0.52636070 0.58750566 0.00000073
0.55048498 0.58778632 0.00000073
0.57468890 0.58832636 0.00000073
0.59877157 0.58916534 0.00000073
0.62256836 0.59034095 0.00000073
0.64594556 0.59188971 0.00000073
0.66879356 0.59384500 0.00000073
0.69102125 0.59623470 0.00000073
0.71257318 0.59908210 0.00000073
0.73347035 0.60240919 0.00000073
0.75182710 0.60622025 0.00000073
0.75182710 0.61051032 0.00000073
0.75182710 0.61526531 0.00000073
0.75182710 0.62046157 0.00000073
0.75182710 0.62606602 0.00000073
0.37373635 0.62561874 0.00000073
0.37353555 0.62537694 0.00000073
0.37326087 0.62501595 0.00000073
0.37306592 0.62454160 0.00000073
0.37309944 0.62396047 0.00000073
0.37355835 0.62328021 0.00000073
0.37470162 0.62250967 0.00000073
0.37685233 0.62165901 0.00000073
0.38038803 0.62074250 0.00000073
0.38571784 0.61981285 0.00000073
0.39319201 0.61889348 0.00000073
0.40306137 0.61799463 0.00000073
0.41543508 0.61712812 0.00000073
0.43025699 0.61630758 0.00000073
0.44731775 0.61554857 0.00000073
0.46629618 0.61486885 0.00000073
0.48681914 0.61429496 0.00000073
0.50850823 0.61386076 0.00000073
0.53099820 0.61359176 0.00000073
0.55396567 0.61351549 0.00000073
0.57713537 0.61366134 0.00000073
0.60027848 0.61405994 0.00000073
0.62320710 0.61474226 0.00000073
0.64576742 0.61573836 0.00000073
0.66783643 0.61707689 0.00000073
0.68936390 0.61879292 0.00000073
0.71030941 0.62090543 0.00000073
0.73063467 0.62342494 0.00000073
0.75031081 0.62635670 0.00000073
0.75182710 0.62969968 0.00000073
0.75182710 0.63344571 0.00000073
0.75182710 0.63757884 0.00000073
0.75182710 0.64207515 0.00000073
