resources/flame/Syncolor/Shared/transforms/camera_manufacturer_luts/arri/ARRI_Alexa_LUTs/ARRI_HDR_Lookfiles_3DLUTs_190319/3D_LUTs_for_monitor_grading_add_P3D65/ARRI_Rec2100PQ-1K-200_33.cube
LUT_3D_SIZE 9
0.00000073 0.00000073 0.00000073
0.10417733 0.02791900 0.00431493
0.20523733 0.06829599 0.01294967
0.31095223 0.12096256 0.02735248
0.43010518 0.19150739 0.05130229
0.55372981 0.27618084 0.08630605
0.67950674 0.37359992 0.13435456
0.75182710 0.48366669 0.19808797
0.75182710 0.60460291 0.27920753
0.01709028 0.05720417 0.00000073
0.05143452 0.05444610 0.00000073
0.17904066 0.07341459 0.00000073
0.30793456 0.12525427 0.02115982
0.43760678 0.19871968 0.05056975
0.56813069 0.28782580 0.08981622
0.69907679 0.39022334 0.14238394
0.75182710 0.50166426 0.20890716
0.75182710 0.61698108 0.28785468
0.07660623 0.19146709 0.00000073
0.09133101 0.19643078 0.00000073
0.19647053 0.20455117 0.00000073
0.32760906 0.22272266 0.00000073
0.46124262 0.26215964 0.00000073
0.59344922 0.32938108 0.03840280
0.72088135 0.41848834 0.13431203
0.75182710 0.51839256 0.20847831
0.75182710 0.61958085 0.28402380
0.16478647 0.34314761 0.00000073
0.17705020 0.35167828 0.00000073
0.24435332 0.36062725 0.00000073
0.35997030 0.37137399 0.00000073
0.48813438 0.38831028 0.00000073
0.61436326 0.41953924 0.00000073
0.73265103 0.47157236 0.00000073
0.75182710 0.54189851 0.12573652
0.75182710 0.62094911 0.24767130
0.27382022 0.49936318 0.00000073
0.28370468 0.50728229 0.00000073
0.32013337 0.51370177 0.00000073
0.40273530 0.51933953 0.00000073
0.51295504 0.52614406 0.00000073
0.62715773 0.53780178 0.00000073
0.73482655 0.55913533 0.00000073
0.75182710 0.59345482 0.00000073
0.75182710 0.63843099 0.00000073
0.39179038 0.64718845 0.00000073
0.39615514 0.64980793 0.00000073
0.41205990 0.65032511 0.00000073
0.45921706 0.64952868 0.00000073
0.54037818 0.64887047 0.00000073
0.63579624 0.64973771 0.00000073
0.72869138 0.65411181 0.00000073
0.75182710 0.66424249 0.00000073
0.75182710 0.68104358 0.00000073
0.50420199 0.75182710 0.00000073
0.50020289 0.75182710 0.00000073
0.50165849 0.75182710 0.00000073
0.52162216 0.75182710 0.00000073
0.57097549 0.74463628 0.00000073
0.64187770 0.73684169 0.00000073
0.71728521 0.73143866 0.00000073
0.75182710 0.72936652 0.00000073
0.75182710 0.73108058 0.00000073
0.59675968 0.75182710 0.00000073
0.58341573 0.75182710 0.00000073
0.57342189 0.75182710 0.00000073
0.57565620 0.75182710 0.00000073
0.60113398 0.75182710 0.00000073
0.64903255 0.75182710 0.00000073
0.70697037 0.75182710 0.00000073
0.75182710 0.75182710 0.00000073
0.75182710 0.75182710 0.00000073
0.66295778 0.75182710 0.00000073
0.64089198 0.75182710 0.00000073
0.62233309 0.75182710 0.00000073
0.61466374 0.75182710 0.00000073
0.62543896 0.75182710 0.00000073
0.65621798 0.75182710 0.00000073
0.69899912 0.75182710 0.00000073
0.74328554 0.75182710 0.00000073
0.75182710 0.75182710 0.00000073
0.00000073 0.00000073 0.11015490
0.09043145 0.00000073 0.08372053
0.19588934 0.05909899 0.06023424
0.30665116 0.11779542 0.05085954
0.42912543 0.19061324 0.06422753
0.55384938 0.27616326 0.09330004
0.68052165 0.37438546 0.13850892
0.75182710 0.48476666 0.20075888
0.75182710 0.60260048 0.27884050
0.00485882 0.05063550 0.05151512
0.04904836 0.04904836 0.04904836
0.18096852 0.07117707 0.04975399
0.31032220 0.12550016 0.05723096
0.44042808 0.20015134 0.07431813
0.57129962 0.29001403 0.10499552
0.70064377 0.39146894 0.15139218
0.75182710 0.49980081 0.21263900
0.75182710 0.60949394 0.28545226
0.07642198 0.19275076 0.00000073
0.09152982 0.19842742 0.00000073
0.19870302 0.20652973 0.00000073
0.33150133 0.22472520 0.00000073
0.46497134 0.26452872 0.03619352
0.59532387 0.33115349 0.09834138
0.71931908 0.41771144 0.15514188
0.75182710 0.51273979 0.21718305
0.75182710 0.60865952 0.28424238
0.16624632 0.34606618 0.00000073
0.17875272 0.35480441 0.00000073
0.24627693 0.36366497 0.00000073
0.36263559 0.37392123 0.00000073
0.49026691 0.39054433 0.00000073
0.61392387 0.42114540 0.00000073
0.72864036 0.47098455 0.00000073
0.75182710 0.53715797 0.18126561
0.75182710 0.61031281 0.26292186
0.27579502 0.50231152 0.00000073
0.28534448 0.50961669 0.00000073
0.32190951 0.51540242 0.00000073
0.40477702 0.52055367 0.00000073
0.51407677 0.52715996 0.00000073
0.62600748 0.53875455 0.00000073
0.73020423 0.55935846 0.00000073
0.75182710 0.59120392 0.00000073
0.75182710 0.63170912 0.00000073
0.39216833 0.64779064 0.00000073
0.39588891 0.64937949 0.00000073
0.41225481 0.64912086 0.00000073
0.46061571 0.64819070 0.00000073
0.54148069 0.64755408 0.00000073
0.63468607 0.64851624 0.00000073
0.72399722 0.65294404 0.00000073
0.75182710 0.66265918 0.00000073
0.75182710 0.67797932 0.00000073
0.50088781 0.75182710 0.00000073
0.49646589 0.75182710 0.00000073
0.49870225 0.75182710 0.00000073
0.52068173 0.74848645 0.00000073
0.57153945 0.74001212 0.00000073
0.64141708 0.73287510 0.00000073
0.71416110 0.72818276 0.00000073
0.75182710 0.72656766 0.00000073
0.75182710 0.72829036 0.00000073
0.58904942 0.75182710 0.00000073
0.57563000 0.75182710 0.00000073
0.56665958 0.75182710 0.00000073
0.57179892 0.75182710 0.00000073
0.60032265 0.75182710 0.00000073
0.64893307 0.75182710 0.00000073
0.70536347 0.75182710 0.00000073
0.75182710 0.75182710 0.00000073
0.75182710 0.75182710 0.00000073
0.65073561 0.75182710 0.00000073
0.62898422 0.75182710 0.00000073
0.61272654 0.75182710 0.00000073
0.60855230 0.75182710 0.00000073
0.62312278 0.75182710 0.00000073
0.65611098 0.75182710 0.00000073
0.69869295 0.75182710 0.00000073
0.74101452 0.75182710 0.00000073
0.75182710 0.75182710 0.00000073
0.00000073 0.00000073 0.18486859
0.05319241 0.00000073 0.16244200
0.18079279 0.00000073 0.14312576
0.29950627 0.09827276 0.13712526
0.42412265 0.18255188 0.14175637
0.55026746 0.27171689 0.15397744
0.67804687 0.37163058 0.17905284
0.75182710 0.48084802 0.22277135
0.75182710 0.59473860 0.28625301
0.00000073 0.00000073 0.16657845
0.00000073 0.00000073 0.16953395
0.17524202 0.00000073 0.17220478
0.30949242 0.09386629 0.17688670
0.44128664 0.19115102 0.18517481
0.57227638 0.28715610 0.19837570
0.69947249 0.38906429 0.22018698
0.75182710 0.49447902 0.25553441
0.75182710 0.59832622 0.30591931
0.02920548 0.18177347 0.18386712
0.06290239 0.18764262 0.19013066
0.19607037 0.19607037 0.19607037
0.33452996 0.21623166 0.20307630
0.46752346 0.25966780 0.21331755
0.59565627 0.32842035 0.22768315
0.71568582 0.41368170 0.24910590
0.75182710 0.50516128 0.28024527
0.75182710 0.59616513 0.32173903
0.15935484 0.34614308 0.17119992
0.17280173 0.35504233 0.17825440
0.24442876 0.36392755 0.18440901
0.36416599 0.37374662 0.19397066
0.49194080 0.39014910 0.21211348
0.61282284 0.42057246 0.23443831
0.72400914 0.46879855 0.26145758
0.75182710 0.53122223 0.29447436
0.75182710 0.59868027 0.33285208
0.27453713 0.50394183 0.00000073
0.28387101 0.51055807 0.00000073
0.32171555 0.51588913 0.00000073
0.40594440 0.52077813 0.00000073
0.51494105 0.52731839 0.00000073
0.62478550 0.53885553 0.09981500
0.72531374 0.55884569 0.21755756
0.75182710 0.58848843 0.27995328
0.75182710 0.62538868 0.32941430
0.39073764 0.64730669 0.00000073
0.39396557 0.64794887 0.00000073
0.41147908 0.64737518 0.00000073
0.46156698 0.64645788 0.00000073
0.54245136 0.64590452 0.00000073
0.63358846 0.64697652 0.00000073
0.71967399 0.65155794 0.00000073
0.75182710 0.66091794 0.00000073
0.75182710 0.67497993 0.28206223
0.49642216 0.75182710 0.00000073
0.49195301 0.75182710 0.00000073
0.49530528 0.75182710 0.00000073
0.51977968 0.74348795 0.00000073
0.57226459 0.73543273 0.00000073
0.64109508 0.72905180 0.00000073
0.71132917 0.72497676 0.00000073
0.75182710 0.72376151 0.00000073
0.75182710 0.72551073 0.00000073
0.58072286 0.75182710 0.00000073
0.56739535 0.75182710 0.00000073
0.55991666 0.75182710 0.00000073
0.56850535 0.75182710 0.00000073
0.59994200 0.75182710 0.00000073
0.64913157 0.75182710 0.00000073
0.70405661 0.75182710 0.00000073
0.75182710 0.75182710 0.00000073
0.75182710 0.75182710 0.00000073
0.63805965 0.75182710 0.00000073
0.61754744 0.75182710 0.00000073
0.60381076 0.75182710 0.00000073
0.60329674 0.75182710 0.00000073
0.62164327 0.75182710 0.00000073
0.65662924 0.75182710 0.00000073
0.69885731 0.75182710 0.00000073
0.73933819 0.75182710 0.00000073
0.75182710 0.75182710 0.54395278
0.00000073 0.00000073 0.23456533
0.00000073 0.00000073 0.21516064
0.16018726 0.00000073 0.20122373
0.28838804 0.00000073 0.20159696
0.41538363 0.16123067 0.20741965
0.54311832 0.26112711 0.21756795
0.67096947 0.36374497 0.23454085
0.75182710 0.47129522 0.26292267
0.75182710 0.58055865 0.30728897
0.00000073 0.00000073 0.24834496
0.00000073 0.00000073 0.25374349
0.15431545 0.00000073 0.26033133
0.30186078 0.00000073 0.26809753
0.43696870 0.14156880 0.27768789
0.56776980 0.27051645 0.28940342
0.69270412 0.37833576 0.30459378
0.75182710 0.48223766 0.32577193
0.75182710 0.58216522 0.35588195
0.00000073 0.08670722 0.29914588
0.00000073 0.07881854 0.30932124
0.17103080 0.08328665 0.32016747
0.32926618 0.14119342 0.32877740
0.46575900 0.22118240 0.33745750
0.59263222 0.30932525 0.34794156
0.70935871 0.40116922 0.36095608
0.75182710 0.49296299 0.37781775
0.75182710 0.58054049 0.39989549
0.07640152 0.33357034 0.33610880
0.10793964 0.34198135 0.34524940
0.22562921 0.35060243 0.35369350
0.36074830 0.36074830 0.36074830
0.49207213 0.37890508 0.36850534
0.61074100 0.41179595 0.37908155
0.71839965 0.46101190 0.39223681
0.75182710 0.52167798 0.40871882
0.75182710 0.58482531 0.42890331
0.25973769 0.50155772 0.33627396
0.26966170 0.50749290 0.34388066
0.31357151 0.51251342 0.35175470
0.40349727 0.51771877 0.35985609
0.51468364 0.52434017 0.37062675
0.62329111 0.53593059 0.38737542
0.71997523 0.55574989 0.40644545
0.75182710 0.58400227 0.42713312
0.75182710 0.61816395 0.44870232
0.38416203 0.64490231 0.00986774
0.38723980 0.64485064 0.20109676
0.40709014 0.64422513 0.25580716
0.46052546 0.64344033 0.29588405
0.54248548 0.64307482 0.33151623
0.63225444 0.64432572 0.36648725
0.71560733 0.64907372 0.39865690
0.75182710 0.65819381 0.42812076
0.75182710 0.67128828 0.45591680
0.48975473 0.75182710 0.00000073
0.48528362 0.75182710 0.00000073
0.49024662 0.74623123 0.00000073
0.51805396 0.73791004 0.00000073
0.57244589 0.73061177 0.00000073
0.64056188 0.72490297 0.23134616
0.70859626 0.72135287 0.35368649
0.75182710 0.72049142 0.41400687
0.75182710 0.72230769 0.45917708
0.57115689 0.75182710 0.00000073
0.55804781 0.75182710 0.00000073
0.55284751 0.75182710 0.00000073
0.56513737 0.75182710 0.00000073
0.59955544 0.75182710 0.00000073
0.64936330 0.75182710 0.00000073
0.70286920 0.75182710 0.25728950
0.75134391 0.75182710 0.41147176
0.75182710 0.75182710 0.48863822
0.62504353 0.75182710 0.00000073
0.60619856 0.75182710 0.00000073
0.59512715 0.75182710 0.00000073
0.59851563 0.75182710 0.00000073
0.62071538 0.75182710 0.00000073
0.65758888 0.75182710 0.00000073
0.69938090 0.75182710 0.29916318
0.73936940 0.75182710 0.53687635
0.75182710 0.75182710 0.66758358
0.00000073 0.00000073 0.27064225
0.00000073 0.00000073 0.25307169
0.13295203 0.00000073 0.24443409
0.27430909 0.00000073 0.24844923
0.40402251 0.11142180 0.25555660
0.53299508 0.24360145 0.26592990
0.65946065 0.35056379 0.28064879
0.75182710 0.45654501 0.30242628
0.75182710 0.56063815 0.33458529
0.00000073 0.00000073 0.30537568
0.00000073 0.00000073 0.31308036
0.09987816 0.00000073 0.32239683
0.28810538 0.00000073 0.33303617
0.42751247 0.00000073 0.34471260
0.55820172 0.22847982 0.35754415
0.68066537 0.35681886 0.37214073
0.75182710 0.46296021 0.38959059
0.75182710 0.56099892 0.41147893
0.00000073 0.00000073 0.38176035
0.00000073 0.00000073 0.39404018
0.00000073 0.00000073 0.40647417
0.31207503 0.00000073 0.41773571
0.45675052 0.00000073 0.42805035
0.58381247 0.24130215 0.43842308
0.69868939 0.37095566 0.44979497
0.75182710 0.47116068 0.46269622
0.75182710 0.55844066 0.47774122
0.00000073 0.28205041 0.44971225
0.00000073 0.28634376 0.46105671
0.05859601 0.29199057 0.47140441
0.34278745 0.30321013 0.48050002
0.48488601 0.33123578 0.48672694
0.60506096 0.37786080 0.49312173
0.71039928 0.43757554 0.50115052
0.75182710 0.50268898 0.51088480
0.75182710 0.56620388 0.52251280
0.14488628 0.48679948 0.48912473
0.17229248 0.49196357 0.49529877
0.27053608 0.49684408 0.50063602
0.39014557 0.50268666 0.50582853
0.51041676 0.51041676 0.51041677
0.62051035 0.52388683 0.51617393
0.71394154 0.54554482 0.52454054
0.75182710 0.57435564 0.53444432
0.75182710 0.60754102 0.54555394
0.36032758 0.63817056 0.48515162
0.36443868 0.63783998 0.49048358
0.39084481 0.63719997 0.49616435
0.45350234 0.63669339 0.50233034
0.53969989 0.63694021 0.50895839
0.63000177 0.63869187 0.51733309
0.71150977 0.64372551 0.52941915
0.75182710 0.65301217 0.54232006
0.75182710 0.66568950 0.55604391
0.47690554 0.75182710 0.41226461
0.47255150 0.74709224 0.43427106
0.48030330 0.73883877 0.45479506
0.51334756 0.73108712 0.47339883
0.57095383 0.72459414 0.48999757
0.63918576 0.71958586 0.50628055
0.70566284 0.71653290 0.52406314
0.75182710 0.71605382 0.54341947
0.75182710 0.71808822 0.56373172
0.55863382 0.75182710 0.00000073
0.54615097 0.75182710 0.00000073
0.54387522 0.75182710 0.22479962
0.56052328 0.75182710 0.38850583
0.59847626 0.75182710 0.44702673
0.64924606 0.75182710 0.48678928
0.70157032 0.75182710 0.51987003
0.74757846 0.75182710 0.55053302
0.75182710 0.75182710 0.61098328
0.61117526 0.75182710 0.00000073
0.59392365 0.75182710 0.00000073
0.58579300 0.75182710 0.00000073
0.59357775 0.75182710 0.00000073
0.61995693 0.75182710 0.39786897
0.65879094 0.75182710 0.48266502
0.70342911 0.75182710 0.55868934
0.74089701 0.75182710 0.65751299
0.75182710 0.75182710 0.72198250
0.00000073 0.00000073 0.30227783
0.00000073 0.00000073 0.28705778
0.08320095 0.00000073 0.28446240
0.25818510 0.00000073 0.29001965
0.39172385 0.00000073 0.29817053
0.52084621 0.21368299 0.30875475
0.64531178 0.33211302 0.32235028
0.75182710 0.43760328 0.34046422
0.75182710 0.53729522 0.36508678
0.00000073 0.00000073 0.34999740
0.00000073 0.00000073 0.35884685
0.00000073 0.00000073 0.36938979
0.26833122 0.00000073 0.38111420
0.41431352 0.00000073 0.39355236
0.54479969 0.00000073 0.40695015
0.66451891 0.32124691 0.42177682
0.75182710 0.43706722 0.43885163
0.75182710 0.53501934 0.45872639
0.00000073 0.00000073 0.43968808
0.00000073 0.00000073 0.45353251
0.00000073 0.00000073 0.46715367
0.28079080 0.00000073 0.48004281
0.44189813 0.00000073 0.49210770
0.57082590 0.00000073 0.50385672
0.68442493 0.29987809 0.51578926
0.75182710 0.43469861 0.52806975
0.75182710 0.52784559 0.54097183
0.00000073 0.00000073 0.53072268
0.00000073 0.00000073 0.54284082
0.00000073 0.00000073 0.55336198
0.29635645 0.00000073 0.56215588
0.46896290 0.00000073 0.56947508
0.59379959 0.24553507 0.57580700
0.69827802 0.37813423 0.58212970
0.75182710 0.46622638 0.58902992
0.75182710 0.53818785 0.59696759
0.00000073 0.44438240 0.59593218
0.00000073 0.44784647 0.60177696
0.00000073 0.45248739 0.60661639
0.34670257 0.45934650 0.61095345
0.49705733 0.47040561 0.61471457
0.61208743 0.49076375 0.61630517
0.70562844 0.51961512 0.61850324
0.75182710 0.55359224 0.62218113
0.75182710 0.58944859 0.62684269
0.22286959 0.62057287 0.62246908
0.24668598 0.62017425 0.62327524
0.32575168 0.61983521 0.62366007
0.42913212 0.62005699 0.62392776
0.53070447 0.62163686 0.62447781
0.62495222 0.62495222 0.62495223
0.70658111 0.63180230 0.62655717
0.75182710 0.64272952 0.63021534
0.75182710 0.65630454 0.63535104
0.44451879 0.74393621 0.60861838
0.44150117 0.73593514 0.60881627
0.45672368 0.72791788 0.60957777
0.50101275 0.72100947 0.61097418
0.56583839 0.71545746 0.61298543
0.63589434 0.71152677 0.61557114
0.70208190 0.70926191 0.62019229
0.75182710 0.70942625 0.62847003
0.75182710 0.71215051 0.63847538
0.53870937 0.75182710 0.55765868
0.52770963 0.75182710 0.56817965
0.52958005 0.75182710 0.57742437
0.55258955 0.75182710 0.58624053
0.59570567 0.75182710 0.59529381
0.64829862 0.75182710 0.60520733
0.69987900 0.75182710 0.61673574
0.74293263 0.75120344 0.63985953
0.75182710 0.74507641 0.68750328
0.59430284 0.75182710 0.41820009
0.57870521 0.75182710 0.49089635
0.57422560 0.75182710 0.52999940
0.58756454 0.75182710 0.55775251
0.61896496 0.75182710 0.58078060
0.66149437 0.75182710 0.60591961
0.71307710 0.75182710 0.66272935
0.74332246 0.75182710 0.71783183
0.75034121 0.75155673 0.74037562
0.00000073 0.00000073 0.33012607
0.00000073 0.00000073 0.31831377
0.00000073 0.00000073 0.32061800
0.23886814 0.00000073 0.32744989
0.37799530 0.00000073 0.33649355
0.50696800 0.14563715 0.34742426
0.62900672 0.30583687 0.36065935
0.74161605 0.41412800 0.37700910
0.75182710 0.51191552 0.39772146
0.00000073 0.00000073 0.39020208
0.00000073 0.00000073 0.40009944
0.00000073 0.00000073 0.41156405
0.23892187 0.00000073 0.42369644
0.39853456 0.00000073 0.43634088
0.52932628 0.00000073 0.44963338
0.64701562 0.25224227 0.46407419
0.75182710 0.40232523 0.48014112
0.75182710 0.50406479 0.49803796
0.00000073 0.00000073 0.48603608
0.00000073 0.00000073 0.49991190
0.00000073 0.00000073 0.51328652
0.22039374 0.00000073 0.52601074
0.42260059 0.00000073 0.53829627
0.55511013 0.00000073 0.55082439
0.66763812 0.00000073 0.56375425
0.75182710 0.36984182 0.57696546
0.75182710 0.48608341 0.58999249
0.00000073 0.00000073 0.58676903
0.00000073 0.00000073 0.59929399
0.00000073 0.00000073 0.61023892
0.00000073 0.00000073 0.61987310
0.44486743 0.00000073 0.62825941
0.57844630 0.00000073 0.63544012
0.68313564 0.00000073 0.64174286
0.75182710 0.38797995 0.64804605
0.75182710 0.49332700 0.65451922
0.00000073 0.28619326 0.67056813
0.00000073 0.27503131 0.67632651
0.00000073 0.28053938 0.68087608
0.00000073 0.30822878 0.68421814
0.47167552 0.35431456 0.68620959
0.59828691 0.40894107 0.68708332
0.69388575 0.46375974 0.68759050
0.75182710 0.51480265 0.68822702
0.75182710 0.56039257 0.68917038
0.00000073 0.58305282 0.71753074
0.00000073 0.58272470 0.71655501
0.00000073 0.58352870 0.71446862
0.35235533 0.58600794 0.71174906
0.51098815 0.59043204 0.70932400
0.61504219 0.59735871 0.70706107
0.69800431 0.60894759 0.70353662
0.75182710 0.62436290 0.70069147
0.75182710 0.64131591 0.69941830
0.29588717 0.72381723 0.72546184
0.31754216 0.71603034 0.71896316
0.38359820 0.70919366 0.71292441
0.46919392 0.70364919 0.70764338
0.55367487 0.69960242 0.70320060
0.62982090 0.69736682 0.69971549
0.69693910 0.69693911 0.69693912
0.75111532 0.69915657 0.69592952
0.75182710 0.70474291 0.69905990
0.49823375 0.75182710 0.69764476
0.49084954 0.75182710 0.69254969
0.50200169 0.75182710 0.68852608
0.53759589 0.75182710 0.68567678
0.58992741 0.75182710 0.68415669
0.64612817 0.75182710 0.68412287
0.69815345 0.74878855 0.68658314
0.73820373 0.74199137 0.70312874
0.74834676 0.74034916 0.72659757
0.56964394 0.75182710 0.65311888
0.55643633 0.75182710 0.65566554
0.55773109 0.75182710 0.65864261
0.57933724 0.75182710 0.66244673
0.61751275 0.75182710 0.66758275
0.67398030 0.75182710 0.68719148
0.72586762 0.75182710 0.71928556
0.74541789 0.75078742 0.73940943
0.75011583 0.75045354 0.74744747
0.00000073 0.00000073 0.35485319
0.00000073 0.00000073 0.34788683
0.00000073 0.00000073 0.35326507
0.21367108 0.00000073 0.36119592
0.36236674 0.00000073 0.37085756
0.49146521 0.00000073 0.38219083
0.61073233 0.26447214 0.39542571
0.72008410 0.38563226 0.41113971
0.75182710 0.48386173 0.42994830
0.00000073 0.00000073 0.42654051
0.00000073 0.00000073 0.43738841
0.00000073 0.00000073 0.44924924
0.18516552 0.00000073 0.46155552
0.37961732 0.00000073 0.47424357
0.51249743 0.00000073 0.48750018
0.62887086 0.00000073 0.50184614
0.73222402 0.34853649 0.51734256
0.75182710 0.46559925 0.53399840
0.00000073 0.00000073 0.52747522
0.00000073 0.00000073 0.54100255
0.00000073 0.00000073 0.55388135
0.00000073 0.00000073 0.56602499
0.39806573 0.00000073 0.57805366
0.53780405 0.00000073 0.59014037
0.64964848 0.00000073 0.60229601
0.74357358 0.00000073 0.61471971
0.75182710 0.42411359 0.62794479
0.00000073 0.00000073 0.63090115
0.00000073 0.00000073 0.64215741
0.00000073 0.00000073 0.65222233
0.00000073 0.00000073 0.66157828
0.41068573 0.00000073 0.67028802
0.56010826 0.00000073 0.67846782
0.66668397 0.00000073 0.68594041
0.75182710 0.00000073 0.69280942
0.75182710 0.40529893 0.69900896
0.00000073 0.00000073 0.72165581
0.00000073 0.00000073 0.72809961
0.00000073 0.00000073 0.73299566
0.00000073 0.00000073 0.73621375
0.42709398 0.00000073 0.73789731
0.58039903 0.00000073 0.73880787
0.67988126 0.22235811 0.73885706
0.75182710 0.43291674 0.73809544
0.75182710 0.51270412 0.73680717
0.00000073 0.49506750 0.75182710
0.00000073 0.49639808 0.75182710
0.00000073 0.50390978 0.75182710
0.00000073 0.51579857 0.75182710
0.47293387 0.53105181 0.75182710
0.60043746 0.54982973 0.75182710
0.68657180 0.57237816 0.75182710
0.75112868 0.59709605 0.75182710
0.75182710 0.62129718 0.74735775
0.00000073 0.68951772 0.75182710
0.00000073 0.68335103 0.75182710
0.00000073 0.67880128 0.75182710
0.38357018 0.67589916 0.75182710
0.53081044 0.67481844 0.75182710
0.62102101 0.67578498 0.75182710
0.69001980 0.67900991 0.75182710
0.74226292 0.68594522 0.74763250
0.75182710 0.70147855 0.73630131
0.35095560 0.75182710 0.75182710
0.37558728 0.75182710 0.75182710
0.43492737 0.75182710 0.75182710
0.50819036 0.75182710 0.75182710
0.57966616 0.74776805 0.75154049
0.64283873 0.74170222 0.74468756
0.70117684 0.73630516 0.73772422
0.73577827 0.73577829 0.73577831
0.74404942 0.73982384 0.73961728
0.52423496 0.75182710 0.75182710
0.51734903 0.75182710 0.74595475
0.53149301 0.75182710 0.73847394
0.56783673 0.75182710 0.73255734
0.62429993 0.75182710 0.72933595
0.69625347 0.75182710 0.73345621
0.73655263 0.74970203 0.74167730
0.74717232 0.74918447 0.74682475
0.75048648 0.75055830 0.74992522
0.00000073 0.00000073 0.37741095
0.00000073 0.00000073 0.37620064
0.00000073 0.00000073 0.38287774
0.17536689 0.00000073 0.39151781
0.34446378 0.00000073 0.40171305
0.47438917 0.00000073 0.41346295
0.59131979 0.17202204 0.42696167
0.69799869 0.34851162 0.44263915
0.75182710 0.45173894 0.46060216
0.00000073 0.00000073 0.45949884
0.00000073 0.00000073 0.47090053
0.00000073 0.00000073 0.48286581
0.00000073 0.00000073 0.49519619
0.35639269 0.00000073 0.50784085
0.49468828 0.00000073 0.52128525
0.61021682 0.00000073 0.53560872
0.71058471 0.20673510 0.55072183
0.75182710 0.41200247 0.56653854
0.00000073 0.00000073 0.56427449
0.00000073 0.00000073 0.57727234
0.00000073 0.00000073 0.58947853
0.00000073 0.00000073 0.60125900
0.36425395 0.00000073 0.61300934
0.51873146 0.00000073 0.62460734
0.63100433 0.00000073 0.63600416
0.72336784 0.00000073 0.64771520
0.75182710 0.26247106 0.66004656
0.00000073 0.00000073 0.66925921
0.00000073 0.00000073 0.67931501
0.00000073 0.00000073 0.68856399
0.00000073 0.00000073 0.69700349
0.35500330 0.00000073 0.70467307
0.53937155 0.00000073 0.71189381
0.64965135 0.00000073 0.71945504
0.73555400 0.00000073 0.72713656
0.75182710 0.00000073 0.73365660
0.00000073 0.00000073 0.75182710
0.00000073 0.00000073 0.75182710
0.00000073 0.00000073 0.75182710
0.00000073 0.00000073 0.75182710
0.33482950 0.00000073 0.75182710
0.55817095 0.00000073 0.75182710
0.66434152 0.00000073 0.75182710
0.74092827 0.00000073 0.75182710
0.75182710 0.41787010 0.75182710
0.00000073 0.00000073 0.75182710
0.00000073 0.00000073 0.75182710
0.00000073 0.00000073 0.75182710
0.00000073 0.00000073 0.75182710
0.39443781 0.33122643 0.75182710
0.58075938 0.44360438 0.75182710
0.67378653 0.50902560 0.75182710
0.73857691 0.55808766 0.75182710
0.75182710 0.59979530 0.75182710
0.00000073 0.62790615 0.75182710
0.00000073 0.62662011 0.75182710
0.00000073 0.62817431 0.75182710
0.00000073 0.63219108 0.75182710
0.49356395 0.63851357 0.75182710
0.60937555 0.64709992 0.75182710
0.68258550 0.65792649 0.75182710
0.73080711 0.68018590 0.75182710
0.74193053 0.70753381 0.74611220
0.00000073 0.75182710 0.75182710
0.00000073 0.74867662 0.75182710
0.00000073 0.73991947 0.75182710
0.45400627 0.73303871 0.75182710
0.56591978 0.72823365 0.75182710
0.64743631 0.72570373 0.75182710
0.71085945 0.72854004 0.75182710
0.73646691 0.73544291 0.74422827
0.74311273 0.74109236 0.74345155
0.39111180 0.75182710 0.75182710
0.42568597 0.75182710 0.75182710
0.48610875 0.75182710 0.75182710
0.55679790 0.75182710 0.75182710
0.65155075 0.75182710 0.75182710
0.72031895 0.74843822 0.74961248
0.74214987 0.74754247 0.74779402
0.74852058 0.74921775 0.74925106
0.75099998 0.75100000 0.75100002
