resources/flame/Syncolor/Shared/transforms/camera_manufacturer_luts/arri/ARRI_Alexa_LUTs/ARRI_HDR_Lookfiles_3DLUTs_190319/3D_LUTs_for_monitor_grading_add_P3D65/ARRI_P3D65PQ-4K-100_33.cube
LUT_3D_SIZE 5
0.00000073 0.00000073 0.00000073
0.22368216 0.00000073 0.02017679
0.45712647 0.00000073 0.07370505
0.70640435 0.00000073 0.17712684
0.90257239 0.00000073 0.33921828
0.00000073 0.18894730 0.00000073
0.18282944 0.19006888 0.00000073
0.46237200 0.17339835 0.00000073
0.71582111 0.00000073 0.17392219
0.90257239 0.00000073 0.32116383
0.00000073 0.46602199 0.00000073
0.00000073 0.47130111 0.00000073
0.45935758 0.47126626 0.00000073
0.70162980 0.46592349 0.00000073
0.88359676 0.42957822 0.14804871
0.00000073 0.72063789 0.00000073
0.00000073 0.70957202 0.00000073
0.00000073 0.70154046 0.00000073
0.68724813 0.70049180 0.00000073
0.86094242 0.70808603 0.00000073
0.00000073 0.90257239 0.00000073
0.00000073 0.90135189 0.00000073
0.00000073 0.89069335 0.00000073
0.68761489 0.89048830 0.00000073
0.88559201 0.89856401 0.00000073
0.00000073 0.00000073 0.18283388
0.20299573 0.00000073 0.15381753
0.45488822 0.00000073 0.16295826
0.70675458 0.00000073 0.21442564
0.90257239 0.00000073 0.34066568
0.00000073 0.17717366 0.17239884
0.17772259 0.17772259 0.17772259
0.46513030 0.15573773 0.18733844
0.70718366 0.00000073 0.23029017
0.90257239 0.00000073 0.32408055
0.00000073 0.46761436 0.00000073
0.00000073 0.47093812 0.00000073
0.45924381 0.47057561 0.00000073
0.69092159 0.46906295 0.06051097
0.85735083 0.45521889 0.29121412
0.00000073 0.71271440 0.00000073
0.00000073 0.70237065 0.00000073
0.24122241 0.69718223 0.00000073
0.68835190 0.70116253 0.00000073
0.84917968 0.71426507 0.00000073
0.00000073 0.90257239 0.00000073
0.00000073 0.88891290 0.00000073
0.00000073 0.88378659 0.00000073
0.71928071 0.88796851 0.00000073
0.88322489 0.89445568 0.59860988
0.00000073 0.00000073 0.26252844
0.16971777 0.00000073 0.25638646
0.44657450 0.00000073 0.28511921
0.69860349 0.00000073 0.32438713
0.90257239 0.00000073 0.38883189
0.00000073 0.00000073 0.35258108
0.00000073 0.00000073 0.38298370
0.45491830 0.00000073 0.40619777
0.69057214 0.00000073 0.42548968
0.87353559 0.00000073 0.45101818
0.00000073 0.45013572 0.43467962
0.00000073 0.44968759 0.44482618
0.45076100 0.45076100 0.45076100
0.67876813 0.45432690 0.46394757
0.83321248 0.45377417 0.49192317
0.00000073 0.70136336 0.26570100
0.00000073 0.69254227 0.36608730
0.32448392 0.69183337 0.43285709
0.68992721 0.70019362 0.49660704
0.83864270 0.71806848 0.56828807
0.00000073 0.88852520 0.00000073
0.00000073 0.87796375 0.00000073
0.00000073 0.87751680 0.16046812
0.75337194 0.88282695 0.62392443
0.88201614 0.88750037 0.81887678
0.00000073 0.00000073 0.31569934
0.09260278 0.00000073 0.32787828
0.43483644 0.00000073 0.36143329
0.67993844 0.00000073 0.39837400
0.88168731 0.00000073 0.44384591
0.00000073 0.00000073 0.44274669
0.00000073 0.00000073 0.48029776
0.42866192 0.00000073 0.51372010
0.66578304 0.00000073 0.54439112
0.83356450 0.00000073 0.56830154
0.00000073 0.36258788 0.59014792
0.00000073 0.28909556 0.61186679
0.39514609 0.21381376 0.62506857
0.65988665 0.26043777 0.63288519
0.80828050 0.32393802 0.64343671
0.00000073 0.67539910 0.65298486
0.00000073 0.66780594 0.65887842
0.00000073 0.67247956 0.66968717
0.68744196 0.68744197 0.68744198
0.82257447 0.71523424 0.71764810
0.00000073 0.87097827 0.63995496
0.00000073 0.86496660 0.68053318
0.00000073 0.86845088 0.72737386
0.80485900 0.86724773 0.80965302
0.88874425 0.88986668 0.87872818
0.00000073 0.00000073 0.35608601
0.00000073 0.00000073 0.38389178
0.41757382 0.00000073 0.42001034
0.65287831 0.00000073 0.45636141
0.83876396 0.00000073 0.49510279
0.00000073 0.00000073 0.50992251
0.00000073 0.00000073 0.54734950
0.38817750 0.00000073 0.58057135
0.63605664 0.00000073 0.60988322
0.79380000 0.00000073 0.63586259
0.00000073 0.00000073 0.66638718
0.00000073 0.00000073 0.69075166
0.00000073 0.00000073 0.71052165
0.63391373 0.00000073 0.72473086
0.78073320 0.00000073 0.73400865
0.00000073 0.62220746 0.77304051
0.00000073 0.60863554 0.78152855
0.00000073 0.62007875 0.78874489
0.67776734 0.65272811 0.79633678
0.78936463 0.72592386 0.78515874
0.00000073 0.84519295 0.82638892
0.00000073 0.84331459 0.83531218
0.58440600 0.84511524 0.84285410
0.84255969 0.86425062 0.86397293
0.89999997 0.90000000 0.90000003
