resources/flame/Syncolor/Shared/transforms/camera_manufacturer_luts/arri/ARRI_Alexa_LUTs/ARRI_HDR_Lookfiles_3DLUTs_190319/3D_LUTs_for_monitor_grading_add_P3D65/ARRI_Rec2100PQ-1K-200_33.cube
LUT_3D_SIZE 33
0.00000073 0.00000073 0.00000073
0.02791784 0.00556370 0.00072140
0.05367364 0.01215183 0.00166668
0.07898963 0.01963176 0.00286187
0.10417733 0.02791900 0.00431493
0.12933013 0.03695232 0.00603512
0.15452100 0.04670090 0.00803605
0.17980881 0.05715075 0.01033456
0.20523733 0.06829599 0.01294967
0.23086285 0.08014676 0.01590506
0.25688221 0.09279239 0.01924737
0.28350814 0.10635130 0.02303786
0.31095223 0.12096256 0.02735248
0.33942528 0.13678562 0.03228408
0.36913609 0.15399979 0.03794489
0.39954929 0.17234793 0.04430719
0.43010518 0.19150739 0.05130229
0.46080225 0.21147337 0.05896399
0.49163983 0.23224276 0.06732750
0.52261632 0.25381269 0.07642907
0.55372981 0.27618084 0.08630605
0.58497812 0.29934523 0.09699693
0.61635883 0.32330417 0.10854131
0.64786930 0.34805619 0.12097992
0.67950674 0.37359992 0.13435456
0.71126817 0.39993410 0.14870815
0.74315046 0.42705747 0.16408470
0.75182710 0.45496877 0.18052926
0.75182710 0.48366669 0.19808797
0.75182710 0.51314457 0.21680462
0.75182710 0.54321174 0.23660022
0.75182710 0.57372261 0.25741008
0.75182710 0.60460291 0.27920753
0.00262578 0.01106067 0.00000073
0.00285857 0.00308364 0.00000073
0.03003518 0.00606061 0.00078872
0.05631957 0.01289027 0.00177927
0.08230692 0.02067720 0.00303808
0.10825686 0.02933442 0.00457544
0.13436216 0.03884506 0.00641227
0.16087308 0.04926470 0.00858569
0.18802236 0.06068226 0.01114540
0.21603349 0.07321440 0.01415492
0.24512494 0.08700313 0.01769363
0.27540045 0.10215744 0.02184311
0.30602212 0.11829100 0.02654617
0.33677246 0.13528328 0.03180452
0.36764994 0.15312192 0.03764891
0.39865229 0.17179640 0.04411109
0.42977675 0.19129764 0.05122380
0.46102043 0.21161783 0.05902078
0.49238272 0.23275181 0.06753746
0.52386262 0.25469521 0.07681035
0.55545849 0.27744408 0.08687701
0.58716837 0.30099491 0.09777603
0.61899007 0.32534456 0.10954708
0.65092112 0.35049010 0.12223086
0.68295889 0.37642881 0.13586908
0.71510055 0.40315806 0.15050448
0.74734309 0.43067531 0.16618081
0.75182710 0.45897799 0.18294278
0.75182710 0.48797152 0.20077840
0.75182710 0.51746665 0.21960651
0.75182710 0.54739288 0.23940906
0.75182710 0.57767530 0.26015897
0.75182710 0.60823251 0.28181794
0.00567109 0.02215866 0.00000073
0.00372321 0.01521060 0.00000073
0.00783463 0.00841811 0.00000073
0.03524301 0.00762891 0.00083970
0.06299907 0.01480091 0.00207628
0.09114240 0.02353102 0.00352975
0.12003352 0.03352938 0.00536748
0.14996668 0.04488848 0.00765325
0.18079318 0.05757050 0.01043005
0.21172965 0.07124060 0.01366756
0.24275713 0.08585214 0.01738944
0.27388302 0.10137882 0.02162347
0.30511112 0.11779957 0.02639869
0.33644291 0.13509705 0.03174524
0.36787831 0.15325671 0.03769430
0.39941615 0.17226603 0.04427805
0.43105444 0.19211409 0.05152956
0.46279062 0.21279116 0.05948282
0.49462271 0.23428917 0.06817295
0.52655056 0.25660241 0.07763670
0.55857292 0.27972537 0.08791165
0.59068811 0.30365308 0.09903635
0.62289419 0.32838092 0.11105034
0.65518894 0.35390460 0.12399414
0.68756988 0.38022003 0.13790918
0.72003437 0.40732328 0.15283782
0.75182710 0.43518089 0.16880605
0.75182710 0.46361126 0.18574794
0.75182710 0.49253076 0.20364323
0.75182710 0.52187004 0.22247477
0.75182710 0.55155354 0.24221535
0.75182710 0.58149935 0.26282671
0.75182710 0.61161900 0.28425866
0.00979877 0.03569783 0.00000073
0.00818262 0.03055118 0.00000073
0.00685613 0.02618593 0.00000073
0.02186532 0.02333154 0.00000073
0.05268640 0.02420044 0.00000073
0.08433360 0.02899001 0.00000073
0.11593359 0.03685636 0.00114605
0.14749636 0.04703730 0.00538114
0.17906114 0.05895084 0.00885882
0.21065825 0.07224922 0.01251563
0.24230768 0.08673257 0.01653453
0.27402194 0.10228238 0.02100434
0.30580853 0.11882452 0.02598427
0.33767162 0.13630985 0.03152141
0.36961305 0.15470387 0.03765717
0.40163308 0.17398108 0.04443023
0.43373081 0.19412168 0.05187800
0.46590448 0.21510962 0.06003737
0.49815182 0.23693151 0.06894517
0.53047227 0.25957729 0.07863916
0.56286532 0.28303869 0.08915781
0.59532967 0.30730823 0.10054009
0.62786365 0.33237916 0.11282571
0.66046528 0.35824528 0.12605507
0.69312815 0.38489732 0.14026746
0.72570088 0.41220318 0.15543239
0.75182710 0.44005412 0.17152271
0.75182710 0.46838595 0.18852973
0.75182710 0.49712856 0.20643588
0.75182710 0.52620576 0.22521375
0.75182710 0.55553505 0.24482521
0.75182710 0.58502756 0.26522052
0.75182710 0.61458790 0.28633751
0.01709028 0.05720417 0.00000073
0.01666927 0.05602322 0.00000073
0.01633922 0.05509296 0.00000073
0.02345867 0.05434736 0.00000073
0.05143452 0.05444610 0.00000073
0.08281479 0.05598766 0.00000073
0.11478841 0.05949639 0.00000073
0.14689575 0.06528872 0.00000073
0.17904066 0.07341459 0.00000073
0.21121005 0.08371861 0.00000073
0.24341000 0.09595373 0.00636319
0.27564916 0.10986973 0.01437720
0.30793456 0.12525427 0.02115982
0.34027101 0.14194150 0.02791495
0.37266129 0.15980641 0.03497176
0.40510658 0.17875575 0.04248990
0.43760678 0.19871968 0.05056975
0.47016085 0.21964519 0.05928522
0.50276696 0.24149129 0.06869669
0.53542354 0.26422616 0.07885721
0.56813069 0.28782580 0.08981622
0.60088743 0.31227045 0.10162045
0.63369239 0.33754371 0.11431513
0.66647095 0.36357343 0.12791278
0.69907679 0.39022334 0.14238394
0.73146149 0.41742839 0.15773003
0.75182710 0.44512014 0.17394467
0.75182710 0.47322507 0.19101225
0.75182710 0.50166426 0.20890716
0.75182710 0.53035308 0.22759304
0.75182710 0.55920096 0.24702193
0.75182710 0.58811125 0.26713357
0.75182710 0.61698108 0.28785468
0.02894821 0.08835040 0.00000073
0.02880383 0.08799149 0.00000073
0.02869740 0.08772666 0.00000073
0.03250223 0.08758647 0.00000073
0.05480559 0.08786144 0.00000073
0.08439983 0.08884652 0.00000073
0.11598830 0.09087916 0.00000073
0.14822935 0.09430473 0.00000073
0.18071251 0.09942488 0.00000073
0.21329734 0.10645225 0.00000073
0.24593509 0.11548401 0.00000073
0.27861003 0.12650542 0.00000073
0.31131816 0.13941898 0.00000073
0.34405930 0.15408243 0.01016535
0.37683407 0.17034102 0.02416594
0.40964278 0.18804791 0.03490620
0.44248511 0.20707394 0.04508881
0.47536009 0.22731025 0.05535598
0.50826609 0.24866715 0.06599378
0.54120110 0.27107159 0.07716821
0.57416470 0.29446551 0.08899330
0.60713301 0.31878505 0.10154649
0.63996589 0.34388398 0.11483718
0.67260326 0.36967080 0.12888991
0.70499866 0.39606557 0.14372235
0.73710282 0.42298708 0.15933994
0.75182710 0.45035165 0.17573634
0.75182710 0.47807229 0.19289348
0.75182710 0.50605800 0.21078127
0.75182710 0.53421318 0.22935722
0.75182710 0.56243727 0.24856593
0.75182710 0.59062438 0.26833869
0.75182710 0.61866312 0.28859297
0.04289964 0.12131544 0.00000073
0.04299261 0.12152527 0.00000073
0.04312610 0.12182632 0.00000073
0.04587427 0.12223138 0.00000073
0.06302672 0.12289005 0.00000073
0.08955991 0.12395582 0.00000073
0.11985667 0.12562455 0.00000073
0.15166303 0.12812953 0.00000073
0.18412288 0.13172382 0.00000073
0.21688378 0.13665966 0.00000073
0.24979169 0.14316420 0.00000073
0.28277705 0.15141436 0.00000073
0.31580779 0.16151774 0.00000073
0.34886880 0.17350667 0.00000073
0.38195268 0.18734647 0.00000073
0.41505537 0.20295339 0.00000073
0.44817417 0.22021524 0.02593429
0.48130681 0.23900919 0.04324129
0.51445103 0.25921436 0.05767259
0.54760167 0.28071748 0.07139463
0.58065901 0.30335513 0.08506128
0.61354388 0.32697629 0.09897587
0.64621281 0.35145984 0.11331539
0.67861960 0.37669112 0.12818398
0.71071523 0.40256011 0.14364277
0.74244791 0.42895960 0.15972362
0.75182710 0.45578356 0.17643594
0.75182710 0.48292563 0.19377029
0.75182710 0.51027799 0.21170030
0.75182710 0.53773035 0.23018357
0.75182710 0.56516918 0.24916220
0.75182710 0.59247712 0.26856299
0.75182710 0.61953259 0.28829756
0.05881008 0.15575195 0.00000073
0.05914679 0.15645232 0.00000073
0.05952381 0.15723530 0.00000073
0.06205132 0.15810826 0.00000073
0.07548680 0.15915549 0.00000073
0.09843275 0.16046105 0.00000073
0.12662295 0.16214014 0.00000073
0.15736208 0.16434127 0.00000073
0.18935060 0.16724193 0.00000073
0.22197223 0.17104199 0.00000073
0.25492394 0.17595475 0.00000073
0.28805148 0.18219393 0.00000073
0.32127416 0.18995643 0.00000073
0.35454870 0.19940343 0.00000073
0.38785113 0.21064465 0.00000073
0.42116759 0.22373041 0.00000073
0.45448952 0.23865322 0.00000073
0.48781108 0.25535767 0.00000073
0.52108377 0.27373305 0.02925011
0.55420938 0.29361157 0.05509432
0.58714400 0.31483191 0.07418001
0.61984415 0.33723105 0.09140145
0.65226342 0.36064890 0.10799686
0.68435278 0.38493145 0.12448450
0.71606048 0.40993151 0.14112610
0.74733212 0.43550813 0.15806304
0.75182710 0.46152539 0.17536892
0.75182710 0.48785084 0.19307327
0.75182710 0.51435404 0.21117351
0.75182710 0.54090515 0.22964136
0.75182710 0.56737379 0.24842658
0.75182710 0.59362804 0.26745924
0.75182710 0.61965915 0.28675197
0.07660623 0.19146709 0.00000073
0.07718339 0.19258522 0.00000073
0.07779838 0.19377414 0.00000073
0.08041906 0.19503957 0.00000073
0.09133101 0.19643078 0.00000073
0.11082330 0.19799559 0.00000073
0.13636406 0.19980355 0.00000073
0.16543956 0.20194889 0.00000073
0.19647053 0.20455117 0.00000073
0.22858290 0.20775441 0.00000073
0.26130021 0.21172519 0.00000073
0.29435863 0.21664888 0.00000073
0.32760906 0.22272266 0.00000073
0.36096547 0.23014434 0.00000073
0.39437716 0.23909731 0.00000073
0.42781344 0.24973423 0.00000073
0.46124262 0.26215964 0.00000073
0.49457235 0.27639959 0.00000073
0.52774797 0.29241821 0.00000073
0.56072282 0.31012387 0.00000073
0.59344922 0.32938108 0.03840280
0.62587932 0.35002644 0.07154618
0.65796331 0.37188151 0.09478397
0.68964889 0.39476278 0.11514336
0.72088135 0.41848834 0.13431203
0.75160343 0.44288139 0.15297277
0.75182710 0.46777158 0.17145672
0.75182710 0.49299484 0.18993242
0.75182710 0.51839256 0.20847831
0.75182710 0.54381023 0.22711552
0.75182710 0.56914087 0.24587224
0.75182710 0.59442313 0.26484809
0.75182710 0.61958085 0.28402380
0.09620574 0.22826365 0.00000073
0.09701209 0.22973005 0.00000073
0.09785183 0.23125354 0.00000073
0.10067693 0.23283938 0.00000073
0.10985095 0.23451592 0.00000073
0.12633469 0.23631108 0.00000073
0.14900231 0.23826772 0.00000073
0.17593541 0.24044613 0.00000073
0.20553257 0.24292613 0.00000073
0.23673633 0.24580845 0.00000073
0.26890150 0.24921555 0.00000073
0.30164112 0.25329189 0.00000073
0.33472195 0.25820292 0.00000073
0.36800170 0.26413153 0.00000073
0.40139112 0.27127074 0.00000073
0.43478846 0.27980613 0.00000073
0.46810780 0.28989829 0.00000073
0.50128771 0.30166541 0.00000073
0.53427182 0.31516779 0.00000073
0.56700593 0.33040108 0.00000073
0.59943631 0.34729801 0.00000073
0.63150981 0.36573812 0.00000073
0.66317232 0.38556100 0.05500389
0.69436780 0.40658019 0.09248867
0.72503811 0.42859573 0.11888512
0.75182710 0.45140356 0.14165730
0.75182710 0.47480168 0.16272307
0.75182710 0.49859352 0.18286381
0.75182710 0.52259712 0.20248156
0.75182710 0.54677163 0.22187012
0.75182710 0.57104268 0.24117268
0.75182710 0.59530198 0.26044207
0.75182710 0.61944725 0.27969560
0.11751269 0.26594249 0.00000073
0.11852993 0.26768991 0.00000073
0.11957436 0.26947954 0.00000073
0.12262155 0.27131652 0.00000073
0.13054016 0.27321566 0.00000073
0.14451345 0.27519358 0.00000073
0.16433858 0.27727690 0.00000073
0.18881314 0.27950447 0.00000073
0.21655344 0.28192953 0.00000073
0.24644527 0.28462177 0.00000073
0.27771437 0.28766908 0.00000073
0.30985353 0.29117929 0.00000073
0.34253665 0.29528163 0.00000073
0.37553967 0.30012531 0.00000073
0.40868379 0.30587850 0.00000073
0.44184488 0.31272268 0.00000073
0.47492636 0.32083645 0.00000073
0.50784838 0.33037986 0.00000073
0.54054099 0.34147737 0.00000073
0.57293979 0.35420253 0.00000073
0.60498317 0.36856797 0.00000073
0.63661142 0.38452315 0.00000073
0.66776509 0.40195950 0.00000073
0.69838357 0.42072090 0.00000073
0.72840479 0.44061717 0.07661516
0.75182710 0.46143727 0.11619602
0.75182710 0.48296368 0.14468012
0.75182710 0.50504813 0.16910111
0.75182710 0.52758845 0.19152884
0.75182710 0.55043462 0.21280427
0.75182710 0.57344690 0.23335440
0.75182710 0.59649550 0.25341158
0.75182710 0.61945964 0.27310221
0.14041557 0.30430380 0.00000073
0.14161902 0.30626655 0.00000073
0.14289982 0.30825625 0.00000073
0.14607853 0.31027680 0.00000073
0.15303413 0.31233497 0.00000073
0.16493448 0.31444033 0.00000073
0.18210012 0.31660930 0.00000073
0.20396602 0.31886685 0.00000073
0.22951329 0.32124849 0.00000073
0.25771146 0.32380213 0.00000073
0.28772849 0.32659011 0.00000073
0.31895894 0.32968980 0.00000073
0.35096606 0.33319323 0.00000073
0.38343485 0.33722198 0.00000073
0.41613879 0.34191740 0.00000073
0.44891037 0.34743618 0.00000073
0.48162083 0.35394405 0.00000073
0.51416653 0.36160567 0.00000073
0.54645985 0.37057096 0.00000073
0.57842307 0.38095954 0.00000073
0.60998437 0.39284573 0.00000073
0.64107586 0.40624761 0.00000073
0.67163175 0.42112243 0.00000073
0.70159190 0.43737364 0.00000073
0.73089384 0.45485199 0.00000073
0.75182710 0.47338698 0.00000073
0.75182710 0.49285489 0.10015975
0.75182710 0.51308716 0.14122772
0.75182710 0.53390986 0.17137633
0.75182710 0.55515416 0.19710515
0.75182710 0.57665952 0.22044783
0.75182710 0.59827518 0.24230078
0.75182710 0.61986053 0.26312210
0.16478647 0.34314761 0.00000073
0.16614555 0.34526124 0.00000073
0.16767115 0.34738622 0.00000073
0.17087956 0.34952451 0.00000073
0.17705020 0.35167828 0.00000073
0.18722696 0.35385250 0.00000073
0.20198273 0.35605690 0.00000073
0.22122931 0.35830733 0.00000073
0.24435332 0.36062725 0.00000073
0.27052281 0.36304903 0.00000073
0.29893950 0.36560563 0.00000073
0.32893024 0.36835429 0.00000073
0.35997030 0.37137399 0.00000073
0.39166749 0.37475986 0.00000073
0.42373089 0.37862374 0.00000073
0.45594235 0.38309351 0.00000073
0.48813438 0.38831028 0.00000073
0.52017403 0.39442277 0.00000073
0.55195148 0.40157836 0.00000073
0.58337388 0.40991274 0.00000073
0.61436326 0.41953924 0.00000073
0.64484472 0.43052617 0.00000073
0.67474658 0.44288936 0.00000073
0.70400461 0.45658932 0.00000073
0.73265103 0.47157236 0.00000073
0.75182710 0.48774187 0.00000073
0.75182710 0.50496077 0.00000073
0.75182710 0.52307008 0.00000073
0.75182710 0.54189851 0.12573652
0.75182710 0.56127062 0.16712337
0.75182710 0.58101304 0.19798452
0.75182710 0.60095866 0.22417299
0.75182710 0.62094911 0.24767130
0.19048090 0.38227415 0.00000073
0.19195948 0.38447512 0.00000073
0.19369341 0.38667147 0.00000073
0.19685339 0.38886312 0.00000073
0.20234824 0.39104956 0.00000073
0.21106961 0.39323266 0.00000073
0.22367742 0.39541770 0.00000073
0.24039456 0.39761433 0.00000073
0.26098021 0.39982803 0.00000073
0.28487337 0.40206910 0.00000073
0.31137325 0.40437529 0.00000073
0.33980187 0.40679504 0.00000073
0.36958140 0.40938857 0.00000073
0.40025109 0.41222918 0.00000073
0.43145455 0.41540421 0.00000073
0.46291814 0.41901526 0.00000073
0.49443404 0.42318158 0.00000073
0.52584012 0.42803426 0.00000073
0.55700243 0.43370655 0.00000073
0.58780841 0.44032830 0.00000073
0.61816014 0.44801565 0.00000073
0.64796978 0.45685871 0.00000073
0.67720649 0.46692150 0.00000073
0.70587438 0.47823969 0.00000073
0.73393661 0.49080031 0.00000073
0.75182710 0.50454811 0.00000073
0.75182710 0.51938879 0.00000073
0.75182710 0.53519551 0.00000073
0.75182710 0.55181730 0.00000073
0.75182710 0.56908792 0.06249789
0.75182710 0.58683393 0.15001848
0.75182710 0.60488131 0.19113799
0.75182710 0.62306024 0.22199988
0.21733793 0.42148406 0.00000073
0.21889469 0.42370952 0.00000073
0.22077678 0.42591407 0.00000073
0.22382174 0.42809576 0.00000073
0.22870752 0.43025248 0.00000073
0.23617643 0.43238399 0.00000073
0.24688276 0.43448752 0.00000073
0.26123507 0.43654473 0.00000073
0.27928614 0.43856784 0.00000073
0.30073527 0.44057899 0.00000073
0.32504994 0.44260728 0.00000073
0.35161417 0.44468990 0.00000073
0.37983865 0.44687391 0.00000073
0.40922026 0.44922257 0.00000073
0.43934708 0.45180803 0.00000073
0.46989141 0.45471307 0.00000073
0.50059513 0.45803213 0.00000073
0.53125335 0.46186969 0.00000073
0.56170057 0.46633753 0.00000073
0.59179953 0.47154934 0.00000073
0.62144857 0.47761525 0.00000073
0.65061691 0.48464017 0.00000073
0.67925257 0.49270723 0.00000073
0.70730722 0.50187403 0.00000073
0.73473813 0.51216598 0.00000073
0.75182710 0.52357149 0.00000073
0.75182710 0.53604042 0.00000073
0.75182710 0.54948600 0.00000073
0.75182710 0.56378987 0.00000073
0.75182710 0.57880908 0.00000073
0.75182710 0.59438400 0.00000073
0.75182710 0.61034585 0.08722102
0.75182710 0.62652326 0.16901405
0.24518147 0.46057947 0.00000073
0.24677173 0.46276647 0.00000073
0.24872605 0.46491634 0.00000073
0.25159694 0.46702549 0.00000073
0.25591285 0.46908974 0.00000073
0.26227454 0.47107973 0.00000073
0.27129982 0.47298677 0.00000073
0.28348600 0.47481990 0.00000073
0.29907730 0.47659201 0.00000073
0.31801071 0.47832283 0.00000073
0.33995769 0.48004206 0.00000073
0.36442032 0.48178193 0.00000073
0.39084654 0.48358171 0.00000073
0.41871085 0.48548882 0.00000073
0.44755485 0.48755958 0.00000073
0.47699798 0.48985970 0.00000073
0.50673197 0.49246464 0.00000073
0.53650855 0.49545870 0.00000073
0.56612846 0.49893359 0.00000073
0.59546762 0.50299067 0.00000073
0.62442988 0.50772678 0.00000073
0.65293158 0.51323417 0.00000073
0.68090415 0.51959698 0.00000073
0.70828987 0.52688425 0.00000073
0.73503870 0.53514277 0.00000073
0.75182710 0.54439080 0.00000073
0.75182710 0.55461376 0.00000073
0.75182710 0.56576244 0.00000073
0.75182710 0.57775432 0.00000073
0.75182710 0.59047745 0.00000073
0.75182710 0.60379631 0.00000073
0.75182710 0.61755866 0.00000073
0.75182710 0.63160236 0.00000073
0.27382022 0.49936318 0.00000073
0.27540930 0.50144946 0.00000073
0.27733846 0.50348188 0.00000073
0.27996898 0.50543689 0.00000073
0.28370468 0.50728229 0.00000073
0.28906195 0.50902037 0.00000073
0.29660171 0.51066105 0.00000073
0.30683896 0.51221703 0.00000073
0.32013337 0.51370177 0.00000073
0.33660622 0.51513243 0.00000073
0.35611847 0.51653040 0.00000073
0.37831938 0.51792210 0.00000073
0.40273530 0.51933953 0.00000073
0.42885792 0.52082115 0.00000073
0.45620606 0.52241249 0.00000073
0.48435701 0.52416658 0.00000073
0.51295504 0.52614406 0.00000073
0.54171919 0.52841930 0.00000073
0.57044398 0.53107024 0.00000073
0.59896628 0.53417146 0.00000073
0.62715773 0.53780178 0.00000073
0.65491598 0.54204120 0.00000073
0.68215788 0.54696662 0.00000073
0.70881434 0.55264658 0.00000073
0.73482655 0.55913533 0.00000073
0.75182710 0.56646681 0.00000073
0.75182710 0.57464945 0.00000073
0.75182710 0.58366256 0.00000073
0.75182710 0.59345482 0.00000073
0.75182710 0.60394528 0.00000073
0.75182710 0.61502660 0.00000073
0.75182710 0.62656998 0.00000073
0.75182710 0.63843099 0.00000073
0.30304812 0.53763808 0.00000073
0.30457698 0.53955339 0.00000073
0.30635294 0.54134771 0.00000073
0.30865139 0.54302088 0.00000073
0.31181837 0.54457758 0.00000073
0.31628183 0.54602323 0.00000073
0.32252805 0.54736507 0.00000073
0.33104681 0.54861255 0.00000073
0.34224939 0.54977763 0.00000073
0.35638219 0.55087528 0.00000073
0.37347095 0.55192389 0.00000073
0.39332072 0.55294589 0.00000073
0.41556776 0.55396825 0.00000073
0.43975644 0.55502301 0.00000073
0.46541051 0.55614778 0.00000073
0.49208176 0.55739054 0.00000073
0.51938573 0.55881383 0.00000073
0.54701547 0.56046770 0.00000073
0.57472528 0.56240658 0.00000073
0.60232011 0.56469042 0.00000073
0.62964519 0.56738352 0.00000073
0.65657686 0.57055252 0.00000073
0.68301506 0.57426354 0.00000073
0.70887740 0.57857833 0.00000073
0.73409458 0.58354973 0.00000073
0.75182710 0.58921668 0.00000073
0.75182710 0.59559927 0.00000073
0.75182710 0.60269467 0.00000073
0.75182710 0.61047430 0.00000073
0.75182710 0.61888190 0.00000073
0.75182710 0.62782898 0.00000073
0.75182710 0.63723069 0.00000073
0.75182710 0.64704411 0.00000073
0.33261921 0.57517475 0.00000073
0.33397050 0.57678945 0.00000073
0.33551103 0.57827285 0.00000073
0.33745188 0.57962786 0.00000073
0.34007217 0.58085856 0.00000073
0.34372518 0.58197047 0.00000073
0.34882806 0.58297065 0.00000073
0.35582920 0.58386805 0.00000073
0.36515006 0.58467375 0.00000073
0.37711060 0.58540132 0.00000073
0.39186160 0.58606720 0.00000073
0.40935123 0.58669105 0.00000073
0.42933950 0.58729624 0.00000073
0.45145055 0.58791163 0.00000073
0.47523251 0.58858948 0.00000073
0.50024502 0.58936712 0.00000073
0.52609303 0.59027821 0.00000073
0.55243794 0.59136128 0.00000073
0.57899949 0.59265976 0.00000073
0.60555029 0.59422165 0.00000073
0.63190745 0.59609880 0.00000073
0.65792387 0.59834559 0.00000073
0.68348044 0.60101691 0.00000073
0.70847949 0.60416543 0.00000073
0.73283959 0.60783819 0.00000073
0.75182710 0.61207267 0.00000073
0.75182710 0.61688940 0.00000073
0.75182710 0.62228905 0.00000073
0.75182710 0.62826124 0.00000073
0.75182710 0.63477553 0.00000073
0.75182710 0.64181238 0.00000073
0.75182710 0.64933172 0.00000073
0.75182710 0.65727451 0.00000073
0.36226803 0.61173948 0.00000073
0.36338308 0.61300661 0.00000073
0.36463134 0.61413409 0.00000073
0.36618040 0.61512526 0.00000073
0.36825797 0.61598459 0.00000073
0.37115703 0.61671782 0.00000073
0.37523354 0.61733209 0.00000073
0.38088844 0.61783618 0.00000073
0.38852848 0.61824069 0.00000073
0.39850738 0.61855834 0.00000073
0.41106017 0.61880423 0.00000073
0.42625246 0.61899618 0.00000073
0.44395655 0.61917324 0.00000073
0.46388197 0.61937552 0.00000073
0.48565169 0.61962319 0.00000073
0.50885526 0.61993974 0.00000073
0.53309390 0.62035234 0.00000073
0.55800772 0.62089199 0.00000073
0.58328733 0.62159359 0.00000073
0.60867476 0.62249570 0.00000073
0.63395866 0.62364007 0.00000073
0.65896711 0.62507067 0.00000073
0.68356011 0.62683219 0.00000073
0.70761640 0.62896162 0.00000073
0.73103990 0.63149784 0.00000073
0.75182710 0.63447826 0.00000073
0.75182710 0.63793021 0.00000073
0.75182710 0.64186762 0.00000073
0.75182710 0.64629990 0.00000073
0.75182710 0.65122861 0.00000073
0.75182710 0.65663507 0.00000073
0.75182710 0.66248863 0.00000073
0.75182710 0.66874713 0.00000073
0.39179038 0.64718845 0.00000073
0.39260825 0.64806103 0.00000073
0.39350786 0.64878570 0.00000073
0.39462748 0.64936636 0.00000073
0.39615514 0.64980793 0.00000073
0.39833569 0.65011649 0.00000073
0.40147301 0.65029941 0.00000073
0.40592130 0.65036547 0.00000073
0.41205990 0.65032511 0.00000073
0.42024939 0.65019055 0.00000073
0.43077361 0.64998586 0.00000073
0.44377259 0.64976007 0.00000073
0.45921706 0.64952868 0.00000073
0.47692605 0.64930596 0.00000073
0.49660213 0.64910862 0.00000073
0.51788080 0.64895603 0.00000073
0.54037818 0.64887047 0.00000073
0.56372680 0.64887724 0.00000073
0.58759651 0.64900469 0.00000073
0.61170155 0.64928267 0.00000073
0.63579624 0.64973771 0.00000073
0.65968623 0.65040802 0.00000073
0.68321411 0.65133431 0.00000073
0.70625114 0.65255651 0.00000073
0.72869138 0.65411181 0.00000073
0.75044661 0.65603232 0.00000073
0.75182710 0.65834593 0.00000073
0.75182710 0.66107957 0.00000073
0.75182710 0.66424249 0.00000073
0.75182710 0.66783472 0.00000073
0.75182710 0.67184687 0.00000073
0.75182710 0.67625961 0.00000073
0.75182710 0.68104358 0.00000073
0.42097419 0.68137341 0.00000073
0.42142993 0.68180346 0.00000073
0.42192450 0.68207752 0.00000073
0.42257343 0.68220003 0.00000073
0.42353413 0.68217643 0.00000073
0.42501348 0.68201322 0.00000073
0.42727234 0.68171809 0.00000073
0.43062260 0.68130001 0.00000073
0.43541267 0.68077205 0.00000073
0.44200102 0.68018557 0.00000073
0.45067470 0.67956269 0.00000073
0.46162036 0.67891234 0.00000073
0.47489536 0.67824497 0.00000073
0.49041478 0.67757277 0.00000073
0.50796613 0.67690990 0.00000073
0.52724517 0.67627265 0.00000073
0.54789571 0.67567552 0.00000073
0.56955274 0.67513491 0.00000073
0.59188016 0.67467843 0.00000073
0.61457805 0.67433613 0.00000073
0.63738850 0.67414000 0.00000073
0.66009493 0.67412342 0.00000073
0.68251789 0.67432033 0.00000073
0.70450943 0.67476400 0.00000073
0.72595079 0.67548656 0.00000073
0.74679496 0.67652688 0.00000073
0.75182710 0.67790800 0.00000073
0.75182710 0.67964461 0.00000073
0.75182710 0.68174631 0.00000073
0.75182710 0.68421634 0.00000073
0.75182710 0.68705069 0.00000073
0.75182710 0.69023730 0.00000073
0.75182710 0.69375576 0.00000073
