resources/flame/Syncolor/Shared/transforms/camera_manufacturer_luts/arri/ARRI_Alexa_LUTs/ARRI_HDR_Lookfiles_3DLUTs_190319/3D_LUTs_for_monitor_grading_add_P3D65/ARRI_P3D65PQ-1K-200_33.cube
LUT_3D_SIZE 33
0.00000073 0.00000073 0.00000073
0.03200717 0.00000073 0.00119519
0.06068005 0.00000073 0.00275465
0.08845930 0.00000073 0.00469080
0.11581541 0.00000073 0.00700336
0.14291289 0.00000073 0.00969557
0.16986841 0.00000073 0.01277788
0.19677009 0.00000073 0.01626558
0.22368216 0.00000073 0.02017679
0.25067697 0.00000073 0.02453596
0.27797034 0.00000073 0.02939987
0.30578963 0.00000073 0.03484368
0.33435676 0.00000073 0.04095985
0.36388930 0.00000073 0.04786013
0.39459959 0.00000073 0.05567770
0.42593179 0.00000073 0.06434986
0.45731219 0.00000073 0.07376295
0.48874426 0.00000073 0.08394486
0.52023172 0.00000073 0.09492453
0.55177683 0.00000073 0.10673133
0.58338108 0.00000073 0.11939519
0.61504536 0.00000073 0.13294658
0.64677000 0.00000073 0.14741645
0.67855489 0.00000073 0.16283624
0.71039950 0.00000073 0.17923779
0.74230295 0.00000073 0.19665339
0.75182710 0.00000073 0.21511569
0.75182710 0.00000073 0.23465767
0.75182710 0.00000073 0.25531267
0.75182710 0.00000073 0.27711035
0.75182710 0.00000073 0.29993876
0.75182710 0.00000073 0.32370681
0.75182710 0.00000073 0.34836992
0.00000073 0.01147806 0.00000073
0.00290381 0.00311797 0.00000073
0.03438510 0.00000073 0.00130718
0.06359940 0.00000073 0.00293860
0.09207665 0.00000073 0.00497343
0.12022415 0.00000073 0.00741399
0.14831108 0.00000073 0.01028027
0.17663986 0.00000073 0.01361665
0.20547729 0.00000073 0.01748426
0.23506981 0.00000073 0.02196174
0.26565118 0.00000073 0.02714682
0.29732978 0.00000073 0.03313543
0.32923251 0.00000073 0.03982282
0.36114210 0.00000073 0.04719300
0.39306590 0.00000073 0.05527144
0.42500913 0.00000073 0.06408423
0.45697540 0.00000073 0.07365798
0.48896734 0.00000073 0.08401987
0.52098922 0.00000073 0.09519848
0.55304430 0.00000073 0.10722295
0.58513474 0.00000073 0.12012286
0.61726197 0.00000073 0.13392826
0.64942683 0.00000073 0.14866963
0.68162963 0.00000073 0.16437785
0.71387024 0.00000073 0.18108419
0.74614814 0.00000073 0.19882023
0.75182710 0.00000073 0.21761787
0.75182710 0.00000073 0.23750928
0.75182710 0.00000073 0.25845947
0.75182710 0.00000073 0.28035517
0.75182710 0.00000073 0.30316023
0.75182710 0.00000073 0.32682982
0.75182710 0.00000073 0.35130841
0.00000073 0.02293388 0.00000073
0.00000073 0.01576678 0.00000073
0.00795222 0.00850677 0.00000073
0.04020182 0.00000073 0.00148887
0.07095139 0.00000073 0.00342219
0.10168901 0.00000073 0.00575871
0.13292049 0.00000073 0.00865585
0.16500732 0.00000073 0.01219182
0.19781437 0.00000073 0.01640940
0.23053279 0.00000073 0.02124122
0.26316751 0.00000073 0.02670412
0.29574538 0.00000073 0.03282066
0.32828528 0.00000073 0.03961456
0.36080076 0.00000073 0.04711048
0.39330159 0.00000073 0.05533377
0.42579485 0.00000073 0.06431040
0.45828555 0.00000073 0.07406682
0.49077715 0.00000073 0.08462990
0.52327295 0.00000073 0.09602723
0.55577748 0.00000073 0.10828768
0.58829360 0.00000073 0.12144032
0.62082333 0.00000073 0.13551465
0.65336802 0.00000073 0.15054053
0.68592843 0.00000073 0.16654814
0.71850484 0.00000073 0.18356798
0.75109709 0.00000073 0.20163079
0.75182710 0.00000073 0.22074695
0.75182710 0.00000073 0.24081853
0.75182710 0.00000073 0.26180540
0.75182710 0.00000073 0.28367265
0.75182710 0.00000073 0.30637543
0.75182710 0.00000073 0.32985829
0.75182710 0.00000073 0.35405457
0.00000073 0.03686424 0.00000073
0.00000073 0.03157361 0.00000073
0.00000073 0.02708187 0.00000073
0.02216197 0.02355310 0.00000073
0.05883634 0.02067308 0.00000073
0.09397344 0.01677109 0.00000073
0.12834965 0.00759935 0.00562035
0.16228087 0.00000073 0.01028225
0.19592340 0.00000073 0.01505799
0.22936820 0.00000073 0.02025958
0.26267236 0.00000073 0.02600552
0.29587367 0.00000073 0.03236256
0.32899811 0.00000073 0.03937757
0.36206400 0.00000073 0.04708832
0.39508451 0.00000073 0.05552805
0.42806915 0.00000073 0.06472760
0.46102477 0.00000073 0.07471645
0.49395624 0.00000073 0.08552335
0.52686701 0.00000073 0.09717667
0.55976156 0.00000073 0.10970543
0.59264387 0.00000073 0.12313895
0.62551658 0.00000073 0.13750651
0.65838159 0.00000073 0.15283755
0.69124014 0.00000073 0.16916165
0.72408871 0.00000073 0.18650625
0.75182710 0.00000073 0.20481453
0.75182710 0.00000073 0.22403627
0.75182710 0.00000073 0.24414535
0.75182710 0.00000073 0.26510661
0.75182710 0.00000073 0.28687521
0.75182710 0.00000073 0.30939593
0.75182710 0.00000073 0.33260256
0.75182710 0.00000073 0.35641734
0.00000073 0.05892349 0.00000073
0.00000073 0.05771393 0.00000073
0.00000073 0.05676101 0.00000073
0.00000073 0.05586960 0.00000073
0.05204637 0.05489849 0.00000073
0.09000509 0.05371141 0.00000073
0.12589559 0.05206005 0.00000073
0.16092165 0.04949972 0.00000073
0.19544929 0.04521106 0.00000073
0.22965056 0.03733543 0.01098193
0.26362296 0.01775913 0.01988244
0.29742717 0.00000073 0.02799727
0.33110313 0.00000073 0.03621931
0.36467817 0.00000073 0.04484576
0.39817147 0.00000073 0.05402626
0.43159673 0.00000073 0.06385406
0.46496379 0.00000073 0.07439580
0.49827973 0.00000073 0.08570389
0.53154955 0.00000073 0.09782241
0.56477748 0.00000073 0.11079063
0.59796873 0.00000073 0.12464545
0.63112677 0.00000073 0.13942143
0.66425415 0.00000073 0.15515169
0.69727933 0.00000073 0.17182976
0.73005901 0.00000073 0.18939986
0.75182710 0.00000073 0.20784559
0.75182710 0.00000073 0.22714264
0.75182710 0.00000073 0.24725746
0.75182710 0.00000073 0.26814668
0.75182710 0.00000073 0.28975650
0.75182710 0.00000073 0.31202221
0.75182710 0.00000073 0.33486761
0.75182710 0.00000073 0.35820463
0.00000073 0.09076677 0.00000073
0.00000073 0.09040039 0.00000073
0.00000073 0.09013003 0.00000073
0.00000073 0.08993632 0.00000073
0.03925570 0.08974798 0.00000073
0.08530575 0.08951184 0.00000073
0.12384025 0.08914897 0.00000073
0.16038327 0.08852253 0.00000073
0.19598731 0.08741225 0.00000073
0.23103524 0.08547473 0.00000073
0.26571266 0.08215305 0.00000073
0.30012494 0.07644155 0.00000073
0.33433756 0.06611415 0.02345068
0.36839362 0.04318654 0.03635477
0.40232255 0.00000073 0.04808019
0.43614499 0.00000073 0.05969378
0.46987560 0.00000073 0.07159906
0.50352494 0.00000073 0.08400580
0.53710054 0.00000073 0.09704423
0.57060786 0.00000073 0.11080539
0.60405280 0.00000073 0.12535955
0.63741655 0.00000073 0.14075253
0.67056259 0.00000073 0.15695909
0.70343566 0.00000073 0.17397789
0.73599409 0.00000073 0.19180394
0.75182710 0.00000073 0.21042123
0.75182710 0.00000073 0.22980287
0.75182710 0.00000073 0.24991094
0.75182710 0.00000073 0.27069630
0.75182710 0.00000073 0.29209828
0.75182710 0.00000073 0.31404438
0.75182710 0.00000073 0.33644997
0.75182710 0.00000073 0.35921810
0.00000073 0.12437265 0.00000073
0.00000073 0.12458630 0.00000073
0.00000073 0.12489282 0.00000073
0.00000073 0.12527607 0.00000073
0.00000073 0.12569129 0.00000073
0.07698917 0.12610683 0.00000073
0.12103426 0.12648494 0.00000073
0.15999880 0.12676621 0.00000073
0.19706446 0.12685519 0.00000073
0.23314371 0.12660664 0.00000073
0.26861599 0.12580643 0.00000073
0.30367458 0.12413605 0.00000073
0.33843115 0.12109922 0.00000073
0.37295567 0.11585505 0.00000073
0.40729436 0.10676765 0.02703091
0.44147891 0.08972415 0.04694551
0.47553155 0.04216774 0.06306055
0.50946810 0.00000073 0.07821426
0.54329993 0.00000073 0.09325135
0.57703245 0.00000073 0.10856029
0.61057312 0.00000073 0.12431188
0.64384970 0.00000073 0.14060536
0.67682553 0.00000073 0.15751085
0.70946050 0.00000073 0.17506630
0.74171129 0.00000073 0.19328611
0.75182710 0.00000073 0.21216580
0.75182710 0.00000073 0.23168449
0.75182710 0.00000073 0.25180637
0.75182710 0.00000073 0.27248155
0.75182710 0.00000073 0.29364639
0.75182710 0.00000073 0.31522385
0.75182710 0.00000073 0.33712358
0.75182710 0.00000073 0.35924208
0.00000073 0.15939706 0.00000073
0.00000073 0.16010865 0.00000073
0.00000073 0.16090413 0.00000073
0.00000073 0.16176935 0.00000073
0.00000073 0.16267342 0.00000073
0.05640802 0.16359399 0.00000073
0.11546408 0.16450696 0.00000073
0.15878946 0.16537977 0.00000073
0.19806575 0.16616305 0.00000073
0.23552602 0.16678187 0.00000073
0.27196893 0.16712648 0.00000073
0.30776157 0.16703995 0.00000073
0.34310028 0.16629739 0.00000073
0.37810123 0.16456795 0.00000073
0.41283813 0.16134014 0.00000073
0.44736005 0.15575993 0.00000073
0.48170078 0.14621870 0.03460477
0.51588410 0.12897636 0.06216623
0.54988198 0.08984601 0.08288253
0.58361102 0.00000073 0.10163623
0.61704037 0.00000073 0.11972944
0.65013718 0.00000073 0.13771345
0.68286405 0.00000073 0.15586857
0.71517972 0.00000073 0.17434817
0.74703942 0.00000073 0.19323490
0.75182710 0.00000073 0.21256621
0.75182710 0.00000073 0.23234741
0.75182710 0.00000073 0.25255872
0.75182710 0.00000073 0.27315947
0.75182710 0.00000073 0.29409060
0.75182710 0.00000073 0.31527626
0.75182710 0.00000073 0.33662503
0.75182710 0.00000073 0.35813915
0.00000073 0.19565066 0.00000073
0.00000073 0.19678461 0.00000073
0.00000073 0.19799029 0.00000073
0.00000073 0.19925484 0.00000073
0.00000073 0.20055582 0.00000073
0.00000073 0.20187615 0.00000073
0.10273942 0.20319786 0.00000073
0.15517836 0.20449936 0.00000073
0.19812563 0.20575102 0.00000073
0.23760645 0.20690947 0.00000073
0.27533908 0.20791159 0.00000073
0.31203243 0.20866748 0.00000073
0.34803833 0.20905115 0.00000073
0.38355327 0.20888571 0.00000073
0.41869644 0.20791829 0.00000073
0.45354454 0.20577448 0.00000073
0.48813624 0.20187538 0.00000073
0.52242539 0.19528841 0.00000073
0.55639170 0.18424877 0.05109829
0.59001405 0.16470108 0.08361420
0.62326412 0.12191236 0.10799419
0.65610930 0.00000073 0.12974344
0.68851209 0.00000073 0.15039869
0.72043047 0.00000073 0.17061319
0.75181858 0.00000073 0.19071362
0.75182710 0.00000073 0.21087155
0.75182710 0.00000073 0.23117155
0.75182710 0.00000073 0.25164282
0.75182710 0.00000073 0.27227556
0.75182710 0.00000073 0.29303016
0.75182710 0.00000073 0.31388723
0.75182710 0.00000073 0.33492606
0.75182710 0.00000073 0.35610923
0.00000073 0.23293826 0.00000073
0.00000073 0.23442302 0.00000073
0.00000073 0.23596550 0.00000073
0.00000073 0.23755374 0.00000073
0.00000073 0.23917087 0.00000073
0.00000073 0.24080314 0.00000073
0.06486673 0.24243609 0.00000073
0.14617583 0.24405351 0.00000073
0.19591877 0.24563510 0.00000073
0.23859689 0.24715305 0.00000073
0.27818013 0.24856797 0.00000073
0.31606812 0.24982413 0.00000073
0.35289950 0.25084386 0.00000073
0.38901075 0.25151984 0.00000073
0.42459569 0.25170352 0.00000073
0.45972677 0.25119678 0.00000073
0.49443212 0.24972211 0.00000073
0.52872834 0.24686633 0.00000073
0.56261349 0.24198555 0.00000073
0.59607253 0.23399638 0.00000073
0.62908068 0.22084275 0.07584385
0.66160687 0.19770737 0.11066941
0.69361429 0.14619201 0.13762033
0.72506081 0.00000073 0.16158636
0.75182710 0.00000073 0.18411165
0.75182710 0.00000073 0.20587365
0.75182710 0.00000073 0.22720934
0.75182710 0.00000073 0.24828931
0.75182710 0.00000073 0.26920642
0.75182710 0.00000073 0.29010016
0.75182710 0.00000073 0.31102403
0.75182710 0.00000073 0.33196962
0.75182710 0.00000073 0.35291081
0.00000073 0.27106222 0.00000073
0.00000073 0.27282899 0.00000073
0.00000073 0.27463833 0.00000073
0.00000073 0.27647896 0.00000073
0.00000073 0.27833792 0.00000073
0.00000073 0.28020357 0.00000073
0.00000073 0.28206381 0.00000073
0.12382969 0.28390552 0.00000073
0.18912171 0.28571336 0.00000073
0.23732972 0.28746773 0.00000073
0.27975824 0.28914211 0.00000073
0.31934433 0.29069979 0.00000073
0.35727490 0.29209000 0.00000073
0.39411737 0.29324312 0.00000073
0.43014802 0.29407101 0.00000073
0.46552438 0.29445831 0.00000073
0.50033166 0.29424630 0.00000073
0.53461151 0.29321351 0.00000073
0.56837770 0.29104340 0.00000073
0.60162510 0.28726651 0.00000073
0.63433514 0.28114775 0.00000073
0.66648018 0.27143815 0.03494842
0.69802529 0.25572692 0.10618822
0.72892907 0.22818329 0.14170830
0.75182710 0.16439360 0.17009753
0.75182710 0.00000073 0.19534086
0.75182710 0.00000073 0.21887344
0.75182710 0.00000073 0.24140915
0.75182710 0.00000073 0.26337124
0.75182710 0.00000073 0.28495028
0.75182710 0.00000073 0.30625098
0.75182710 0.00000073 0.32732422
0.75182710 0.00000073 0.34818469
0.00000073 0.30982408 0.00000073
0.00000073 0.31180601 0.00000073
0.00000073 0.31381458 0.00000073
0.00000073 0.31583934 0.00000073
0.00000073 0.31786982 0.00000073
0.00000073 0.31989588 0.00000073
0.00000073 0.32190708 0.00000073
0.00000073 0.32389232 0.00000073
0.17254840 0.32583918 0.00000073
0.23185592 0.32773274 0.00000073
0.27901020 0.32955386 0.00000073
0.32116438 0.33127541 0.00000073
0.36062987 0.33285807 0.00000073
0.39840940 0.33426262 0.00000073
0.43500804 0.33543681 0.00000073
0.47069906 0.33630945 0.00000073
0.50563385 0.33678427 0.00000073
0.53989386 0.33673105 0.00000073
0.57351764 0.33597224 0.00000073
0.60651572 0.33426176 0.00000073
0.63887956 0.33124965 0.00000073
0.67058764 0.32641817 0.00000073
0.70160894 0.31895739 0.00000073
0.73191000 0.30749399 0.08320133
0.75182710 0.28934976 0.13886777
0.75182710 0.25785265 0.17423394
0.75182710 0.18237343 0.20330211
0.75182710 0.00000073 0.22929082
0.75182710 0.00000073 0.25348537
0.75182710 0.00000073 0.27651817
0.75182710 0.00000073 0.29873167
0.75182710 0.00000073 0.32031723
0.75182710 0.00000073 0.34137836
0.00000073 0.34902528 0.00000073
0.00000073 0.35115706 0.00000073
0.00000073 0.35329901 0.00000073
0.00000073 0.35544167 0.00000073
0.00000073 0.35757606 0.00000073
0.00000073 0.35969318 0.00000073
0.00000073 0.36178377 0.00000073
0.00000073 0.36383816 0.00000073
0.12616076 0.36584582 0.00000073
0.21822609 0.36779431 0.00000073
0.27423382 0.36965753 0.00000073
0.32054756 0.37141713 0.00000073
0.36231611 0.37305686 0.00000073
0.40145499 0.37455352 0.00000073
0.43885888 0.37587465 0.00000073
0.47499570 0.37697577 0.00000073
0.51012404 0.37779699 0.00000073
0.54438830 0.37825846 0.00000073
0.57786557 0.37825411 0.00000073
0.61059240 0.37764452 0.00000073
0.64258263 0.37624716 0.00000073
0.67382780 0.37380596 0.00000073
0.70430527 0.36996043 0.00000073
0.73398788 0.36418223 0.00000073
0.75182710 0.35558244 0.00000073
0.75182710 0.34264329 0.12235290
0.75182710 0.32238690 0.17229816
0.75182710 0.28727378 0.20738992
0.75182710 0.20120240 0.23667493
0.75182710 0.00000073 0.26283602
0.75182710 0.00000073 0.28703290
0.75182710 0.00000073 0.30985555
0.75182710 0.00000073 0.33162777
0.00000073 0.38846760 0.00000073
0.00000073 0.39068510 0.00000073
0.00000073 0.39289600 0.00000073
0.00000073 0.39509178 0.00000073
0.00000073 0.39726441 0.00000073
0.00000073 0.39940571 0.00000073
0.00000073 0.40150732 0.00000073
0.00000073 0.40356059 0.00000073
0.00000073 0.40554632 0.00000073
0.18510583 0.40744190 0.00000073
0.26231571 0.40924255 0.00000073
0.31606038 0.41094189 0.00000073
0.36151537 0.41253056 0.00000073
0.40271701 0.41399481 0.00000073
0.44131533 0.41531496 0.00000073
0.47811943 0.41646362 0.00000073
0.51356891 0.41740792 0.00000073
0.54791372 0.41810415 0.00000073
0.58129347 0.41849027 0.00000073
0.61378287 0.41848448 0.00000073
0.64541542 0.41798028 0.00000073
0.67619744 0.41683897 0.00000073
0.70616817 0.41486284 0.00000073
0.73538353 0.41176648 0.00000073
0.75182710 0.40715980 0.00000073
0.75182710 0.40046845 0.00000073
0.75182710 0.39079302 0.04173172
0.75182710 0.37659320 0.15949447
0.75182710 0.35484098 0.20545402
0.75182710 0.31795262 0.23959110
0.75182710 0.23116086 0.26834885
0.75182710 0.00000073 0.29396205
0.75182710 0.00000073 0.31745772
0.00000073 0.42795340 0.00000073
0.00000073 0.43019338 0.00000073
0.00000073 0.43240989 0.00000073
0.00000073 0.43459516 0.00000073
0.00000073 0.43674176 0.00000073
0.00000073 0.43884216 0.00000073
0.00000073 0.44088360 0.00000073
0.00000073 0.44283403 0.00000073
0.00000073 0.44468756 0.00000073
0.00000073 0.44644249 0.00000073
0.23554504 0.44809679 0.00000073
0.30515132 0.44964745 0.00000073
0.35698374 0.45109035 0.00000073
0.40146774 0.45242457 0.00000073
0.44191423 0.45364297 0.00000073
0.47977523 0.45473224 0.00000073
0.51579132 0.45567281 0.00000073
0.55037081 0.45643711 0.00000073
0.58374638 0.45698843 0.00000073
0.61604934 0.45727884 0.00000073
0.64736519 0.45724522 0.00000073
0.67779789 0.45679566 0.00000073
0.70739010 0.45581053 0.00000073
0.73616244 0.45413511 0.00000073
0.75182710 0.45156588 0.00000073
0.75182710 0.44782923 0.00000073
0.75182710 0.44254595 0.00000073
0.75182710 0.43516771 0.00000073
0.75182710 0.42485355 0.11582965
0.75182710 0.41020101 0.19276283
0.75182710 0.38855666 0.23559804
0.75182710 0.35371505 0.26834590
0.75182710 0.28259041 0.29597424
0.00000073 0.46728677 0.00000073
0.00000073 0.46948602 0.00000073
0.00000073 0.47164528 0.00000073
0.00000073 0.47375724 0.00000073
0.00000073 0.47581377 0.00000073
0.00000073 0.47777990 0.00000073
0.00000073 0.47963945 0.00000073
0.00000073 0.48139142 0.00000073
0.00000073 0.48303535 0.00000073
0.00000073 0.48457333 0.00000073
0.15435079 0.48601202 0.00000073
0.28214355 0.48735390 0.00000073
0.34666351 0.48860031 0.00000073
0.39672710 0.48975104 0.00000073
0.44012589 0.49080352 0.00000073
0.47964937 0.49175194 0.00000073
0.51658867 0.49258663 0.00000073
0.55162197 0.49329303 0.00000073
0.58513158 0.49385108 0.00000073
0.61738070 0.49423434 0.00000073
0.64853643 0.49439814 0.00000073
0.67869791 0.49428363 0.00000073
0.70792675 0.49381713 0.00000073
0.73625958 0.49290648 0.00000073
0.75182710 0.49143598 0.00000073
0.75182710 0.48925936 0.00000073
0.75182710 0.48618930 0.00000073
0.75182710 0.48198135 0.00000073
0.75182710 0.47630797 0.00000073
0.75182710 0.46871400 0.00000073
0.75182710 0.45853442 0.15342986
0.75182710 0.44472797 0.21948406
0.75182710 0.42549330 0.25987573
0.00000073 0.50627258 0.00000073
0.00000073 0.50836870 0.00000073
0.00000073 0.51040821 0.00000073
0.00000073 0.51236501 0.00000073
0.00000073 0.51420376 0.00000073
0.00000073 0.51592269 0.00000073
0.00000073 0.51752613 0.00000073
0.00000073 0.51901931 0.00000073
0.00000073 0.52040566 0.00000073
0.00000073 0.52168908 0.00000073
0.00000073 0.52287375 0.00000073
0.22683913 0.52396376 0.00000073
0.32630557 0.52496279 0.00000073
0.38683738 0.52587370 0.00000073
0.43512341 0.52669801 0.00000073
0.47727272 0.52743537 0.00000073
0.51567543 0.52808289 0.00000073
0.55149938 0.52864077 0.00000073
0.58540449 0.52910046 0.00000073
0.61777900 0.52943808 0.00000073
0.64886167 0.52962331 0.00000073
0.67880278 0.52961833 0.00000073
0.70769731 0.52937654 0.00000073
0.73560431 0.52884110 0.00000073
0.75182710 0.52794306 0.00000073
0.75182710 0.52659910 0.00000073
0.75182710 0.52470859 0.00000073
0.75182710 0.52214961 0.00000073
0.75182710 0.51877359 0.00000073
0.75182710 0.51439753 0.00000073
0.75182710 0.50879237 0.00000073
0.75182710 0.50166498 0.00000073
0.75182710 0.49262841 0.17326173
0.00000073 0.54471606 0.00000073
0.00000073 0.54663878 0.00000073
0.00000073 0.54843788 0.00000073
0.00000073 0.55011147 0.00000073
0.00000073 0.55166201 0.00000073
0.00000073 0.55309178 0.00000073
0.00000073 0.55440381 0.00000073
0.00000073 0.55560180 0.00000073
0.00000073 0.55669013 0.00000073
0.00000073 0.55767370 0.00000073
0.00000073 0.55855781 0.00000073
0.00000073 0.55934803 0.00000073
0.28341112 0.56004989 0.00000073
0.36853357 0.56066859 0.00000073
0.42555940 0.56120861 0.00000073
0.47196102 0.56167799 0.00000073
0.51267010 0.56209194 0.00000073
0.54979153 0.56244381 0.00000073
0.58439410 0.56272203 0.00000073
0.61707939 0.56291138 0.00000073
0.64820805 0.56299236 0.00000073
0.67800464 0.56294068 0.00000073
0.70661156 0.56272673 0.00000073
0.73411916 0.56231495 0.00000073
0.75182710 0.56166338 0.00000073
0.75182710 0.56072307 0.00000073
0.75182710 0.55943768 0.00000073
0.75182710 0.55774308 0.00000073
0.75182710 0.55556713 0.00000073
0.75182710 0.55282872 0.00000073
0.75182710 0.54943258 0.00000073
0.75182710 0.54526313 0.00000073
0.75182710 0.54011120 0.00000073
0.00000073 0.58239011 0.00000073
0.00000073 0.58400976 0.00000073
0.00000073 0.58549591 0.00000073
0.00000073 0.58685018 0.00000073
0.00000073 0.58807494 0.00000073
0.00000073 0.58917329 0.00000073
0.00000073 0.59014905 0.00000073
0.00000073 0.59100672 0.00000073
0.00000073 0.59175154 0.00000073
0.00000073 0.59238934 0.00000073
0.00000073 0.59292648 0.00000073
0.00000073 0.59336972 0.00000073
0.00000073 0.59372601 0.00000073
0.33361266 0.59400376 0.00000073
0.40891629 0.59423073 0.00000073
0.46257298 0.59441411 0.00000073
0.50695174 0.59455108 0.00000073
0.54609550 0.59463703 0.00000073
0.58181973 0.59466515 0.00000073
0.61507833 0.59462611 0.00000073
0.64642049 0.59450774 0.00000073
0.67618050 0.59429476 0.00000073
0.70456861 0.59396858 0.00000073
0.73171893 0.59350711 0.00000073
0.75182710 0.59288483 0.00000073
0.75182710 0.59207288 0.00000073
0.75182710 0.59103619 0.00000073
0.75182710 0.58973509 0.00000073
0.75182710 0.58813833 0.00000073
0.75182710 0.58621297 0.00000073
0.75182710 0.58388913 0.00000073
0.75182710 0.58109453 0.00000073
0.75182710 0.57775641 0.00000073
0.00000073 0.61906357 0.00000073
0.00000073 0.62033362 0.00000073
0.00000073 0.62146219 0.00000073
0.00000073 0.62245166 0.00000073
0.00000073 0.62330516 0.00000073
0.00000073 0.62402653 0.00000073
0.00000073 0.62462036 0.00000073
0.00000073 0.62509197 0.00000073
0.00000073 0.62544738 0.00000073
0.00000073 0.62569325 0.00000073
0.00000073 0.62583685 0.00000073
0.00000073 0.62588595 0.00000073
0.00000073 0.62586719 0.00000073
0.24210713 0.62580548 0.00000073
0.37931582 0.62570185 0.00000073
0.44705218 0.62555656 0.00000073
0.49753549 0.62536886 0.00000073
0.53985113 0.62513674 0.00000073
0.57732454 0.62485671 0.00000073
0.61152928 0.62452355 0.00000073
0.64331778 0.62413012 0.00000073
0.67319050 0.62366728 0.00000073
0.70145602 0.62312369 0.00000073
0.72830350 0.62247948 0.00000073
0.75182710 0.62171859 0.00000073
0.75182710 0.62082886 0.00000073
0.75182710 0.61979731 0.00000073
0.75182710 0.61861096 0.00000073
0.75182710 0.61724754 0.00000073
0.75182710 0.61567201 0.00000073
0.75182710 0.61385182 0.00000073
0.75182710 0.61175314 0.00000073
0.75182710 0.60934123 0.00000073
0.00000073 0.65459556 0.00000073
0.00000073 0.65546944 0.00000073
0.00000073 0.65619395 0.00000073
0.00000073 0.65677220 0.00000073
0.00000073 0.65720805 0.00000073
0.00000073 0.65750607 0.00000073
0.00000073 0.65767159 0.00000073
0.00000073 0.65771066 0.00000073
0.00000073 0.65763006 0.00000073
0.00000073 0.65743722 0.00000073
0.00000073 0.65715007 0.00000073
0.00000073 0.65681018 0.00000073
0.00000073 0.65642338 0.00000073
0.00000073 0.65599189 0.00000073
0.31678758 0.65551761 0.00000073
0.42120774 0.65500191 0.00000073
0.48281355 0.65444549 0.00000073
0.53025754 0.65384822 0.00000073
0.57044231 0.65320894 0.00000073
0.60612875 0.65252390 0.00000073
0.63867663 0.65178224 0.00000073
0.66884921 0.65098166 0.00000073
0.69710526 0.65012031 0.00000073
0.72373252 0.64919520 0.00000073
0.74891624 0.64820242 0.00000073
0.75182710 0.64713761 0.00000073
0.75182710 0.64599628 0.00000073
0.75182710 0.64476709 0.00000073
0.75182710 0.64343167 0.00000073
0.75182710 0.64197107 0.00000073
0.75182710 0.64036639 0.00000073
0.75182710 0.63859933 0.00000073
0.75182710 0.63665280 0.00000073
0.00000073 0.68884067 0.00000073
0.00000073 0.68927089 0.00000073
0.00000073 0.68954392 0.00000073
0.00000073 0.68966360 0.00000073
0.00000073 0.68963449 0.00000073
0.00000073 0.68946187 0.00000073
0.00000073 0.68915179 0.00000073
0.00000073 0.68871099 0.00000073
0.00000073 0.68814960 0.00000073
0.00000073 0.68751535 0.00000073
0.00000073 0.68682564 0.00000073
0.00000073 0.68608329 0.00000073
0.00000073 0.68529115 0.00000073
0.00000073 0.68445193 0.00000073
0.00000073 0.68356814 0.00000073
0.37351553 0.68264199 0.00000073
0.45978218 0.68167116 0.00000073
0.51606620 0.68065224 0.00000073
0.56050513 0.67958997 0.00000073
0.59845315 0.67848845 0.00000073
0.63221929 0.67735095 0.00000073
0.66299414 0.67617986 0.00000073
0.69145817 0.67497681 0.00000073
0.71802586 0.67374281 0.00000073
0.74296353 0.67247925 0.00000073
0.75182710 0.67119288 0.00000073
0.75182710 0.66987589 0.00000073
0.75182710 0.66851629 0.00000073
0.75182710 0.66710203 0.00000073
0.75182710 0.66562134 0.00000073
0.75182710 0.66406312 0.00000073
0.75182710 0.66241749 0.00000073
0.75182710 0.66067633 0.00000073
