resources/flame/Syncolor/Shared/transforms/camera_manufacturer_luts/arri/ARRI_Alexa_LUTs/ARRI_HDR_Lookfiles_3DLUTs_190319/3D_LUTs_for_monitor_grading_add_P3D65/ARRI_P3D65HLG-1K-200_33.cube
LUT_3D_SIZE 33
0.00000000 0.00000000 0.00000000
0.02246312 0.00000000 0.00112557
0.04062083 0.00000000 0.00203540
0.05967542 0.00000000 0.00299018
0.08026141 0.00000000 0.00402169
0.10269162 0.00000000 0.00514561
0.12723984 0.00000000 0.00637566
0.15418189 0.00000000 0.00772566
0.18380690 0.00000000 0.00921009
0.21645825 0.00000000 0.01084616
0.25273800 0.00000000 0.01266405
0.29341766 0.00000000 0.01470240
0.33945735 0.00000000 0.01700933
0.39205678 0.00000000 0.01964495
0.45272052 0.00000000 0.02268465
0.52078619 0.00000000 0.02613487
0.58453952 0.00000000 0.02998420
0.64257349 0.00000000 0.03428137
0.69669571 0.00000000 0.03908216
0.74802639 0.00000000 0.04445023
0.79731100 0.00000000 0.05045860
0.84507351 0.00000000 0.05719119
0.89169903 0.00000000 0.06474471
0.93748164 0.00000000 0.07323100
0.98265366 0.00000000 0.08277971
1.00000000 0.00000000 0.09354170
1.00000000 0.00000000 0.10751938
1.00000000 0.00000000 0.12450936
1.00000000 0.00000000 0.14424731
1.00000000 0.00000000 0.16722760
1.00000000 0.00000000 0.19387286
1.00000000 0.00000000 0.22468215
1.00000000 0.00000000 0.26028791
0.00000000 0.00892206 0.00000000
0.00310697 0.00330327 0.00000000
0.02393078 0.00000000 0.00119911
0.04254556 0.00000000 0.00213185
0.06228751 0.00000000 0.00312107
0.08376649 0.00000000 0.00419732
0.10742218 0.00000000 0.00538265
0.13378281 0.00000000 0.00670351
0.16346273 0.00000000 0.00819069
0.19720705 0.00000000 0.00988154
0.23593699 0.00000000 0.01182219
0.28063093 0.00000000 0.01406169
0.33086220 0.00000000 0.01657865
0.38693552 0.00000000 0.01938834
0.44953669 0.00000000 0.02252512
0.51879602 0.00000000 0.02602786
0.58389029 0.00000000 0.02994064
0.64296942 0.00000000 0.03431357
0.69795862 0.00000000 0.03920425
0.75004006 0.00000000 0.04467856
0.79999440 0.00000000 0.05081202
0.84836728 0.00000000 0.05769152
0.89555796 0.00000000 0.06541725
0.94187023 0.00000000 0.07410514
0.98754338 0.00000000 0.08388967
1.00000000 0.00000000 0.09492740
1.00000000 0.00000000 0.10960775
1.00000000 0.00000000 0.12712235
1.00000000 0.00000000 0.14742421
1.00000000 0.00000000 0.17084882
1.00000000 0.00000000 0.19785904
1.00000000 0.00000000 0.22897866
1.00000000 0.00000000 0.26479445
0.00000000 0.01559385 0.00000000
0.00000000 0.01146682 0.00000000
0.00650422 0.00691517 0.00000000
0.02754078 0.00000000 0.00130197
0.04746946 0.00000000 0.00237857
0.06938780 0.00000000 0.00347684
0.09416972 0.00000000 0.00471860
0.12263829 0.00000000 0.00614509
0.15528005 0.00000000 0.00778068
0.19180430 0.00000000 0.00961082
0.23263574 0.00000000 0.01165678
0.27827739 0.00000000 0.01394376
0.32928991 0.00000000 0.01649987
0.38630258 0.00000000 0.01935662
0.45002489 0.00000000 0.02254958
0.52049129 0.00000000 0.02611896
0.58641219 0.00000000 0.03011038
0.64617422 0.00000000 0.03457572
0.70175619 0.00000000 0.03957431
0.75437086 0.00000000 0.04517439
0.80481580 0.00000000 0.05145419
0.85364706 0.00000000 0.05850373
0.90127076 0.00000000 0.06642688
0.94799545 0.00000000 0.07534386
0.99406393 0.00000000 0.08539423
1.00000000 0.00000000 0.09674056
1.00000000 0.00000000 0.11225466
1.00000000 0.00000000 0.13019882
1.00000000 0.00000000 0.15085317
1.00000000 0.00000000 0.17460683
1.00000000 0.00000000 0.20189540
1.00000000 0.00000000 0.23320241
1.00000000 0.00000000 0.26905900
0.00000000 0.02353187 0.00000000
0.00000000 0.02051062 0.00000000
0.00000000 0.01795540 0.00000000
0.01463535 0.01556004 0.00000000
0.03862872 0.01258179 0.00000000
0.06337748 0.00945429 0.00000000
0.09033039 0.00422542 0.00322609
0.12009311 0.00000000 0.00526495
0.15329538 0.00000000 0.00718084
0.19043189 0.00000000 0.00918233
0.23198150 0.00000000 0.01135060
0.27846789 0.00000000 0.01373628
0.33047298 0.00000000 0.01638065
0.38864901 0.00000000 0.01932301
0.45373093 0.00000000 0.02260406
0.52536758 0.00000000 0.02626785
0.59165354 0.00000000 0.03036316
0.65177298 0.00000000 0.03494476
0.70770340 0.00000000 0.04007465
0.76065645 0.00000000 0.04582386
0.81143074 0.00000000 0.05227380
0.86058266 0.00000000 0.05951801
0.90851868 0.00000000 0.06766432
0.95554776 0.00000000 0.07683753
1.00000000 0.00000000 0.08718110
1.00000000 0.00000000 0.09918105
1.00000000 0.00000000 0.11507996
1.00000000 0.00000000 0.13334001
1.00000000 0.00000000 0.15428848
1.00000000 0.00000000 0.17828878
1.00000000 0.00000000 0.20574073
1.00000000 0.00000000 0.23707908
1.00000000 0.00000000 0.27276957
0.00000000 0.03647382 0.00000000
0.00000000 0.03574512 0.00000000
0.00000000 0.03517280 0.00000000
0.00000000 0.03463881 0.00000000
0.03125733 0.03323224 0.00000000
0.05805242 0.03105497 0.00000000
0.08655992 0.02852199 0.00000000
0.11769649 0.02566140 0.00000000
0.15212872 0.02215627 0.00000000
0.19043810 0.01722848 0.00509305
0.23318874 0.00774390 0.00865293
0.28077997 0.00000000 0.01178729
0.33398555 0.00000000 0.01493325
0.39353899 0.00000000 0.01825206
0.46020309 0.00000000 0.02183844
0.53284415 0.00000000 0.02576586
0.59911908 0.00000000 0.03010124
0.65932672 0.00000000 0.03491169
0.71540013 0.00000000 0.04026832
0.76852575 0.00000000 0.04624916
0.81948994 0.00000000 0.05294195
0.86884152 0.00000000 0.06044596
0.91698218 0.00000000 0.06887471
0.96411388 0.00000000 0.07833623
1.00000000 0.00000000 0.08892308
1.00000000 0.00000000 0.10159179
1.00000000 0.00000000 0.11778890
1.00000000 0.00000000 0.13632296
1.00000000 0.00000000 0.15749847
1.00000000 0.00000000 0.18164735
1.00000000 0.00000000 0.20912671
1.00000000 0.00000000 0.24031449
1.00000000 0.00000000 0.27560207
0.00000000 0.05668074 0.00000000
0.00000000 0.05643601 0.00000000
0.00000000 0.05625561 0.00000000
0.00000000 0.05612646 0.00000000
0.02108381 0.05574982 0.00000000
0.05125068 0.05448882 0.00000000
0.08157153 0.05263647 0.00000000
0.11440741 0.05035866 0.00000000
0.15044426 0.04773960 0.00000000
0.19028386 0.04470563 0.00000000
0.23454048 0.04101875 0.00000000
0.28385250 0.03622128 0.00000000
0.33889344 0.02936839 0.00945421
0.40040512 0.01743600 0.01445229
0.46901788 0.00000000 0.01905173
0.54233568 0.00000000 0.02370042
0.60831557 0.00000000 0.02860340
0.66840156 0.00000000 0.03389097
0.72445203 0.00000000 0.03967013
0.77761367 0.00000000 0.04604176
0.82864977 0.00000000 0.05310955
0.87806173 0.00000000 0.06097905
0.92604406 0.00000000 0.06973140
0.97282500 0.00000000 0.07947088
1.00000000 0.00000000 0.09031292
1.00000000 0.00000000 0.10366818
1.00000000 0.00000000 0.12014066
1.00000000 0.00000000 0.13890067
1.00000000 0.00000000 0.16022533
1.00000000 0.00000000 0.18440948
1.00000000 0.00000000 0.21176107
1.00000000 0.00000000 0.24259408
1.00000000 0.00000000 0.27721810
0.00000000 0.08050033 0.00000000
0.00000000 0.08066089 0.00000000
0.00000000 0.08089146 0.00000000
0.00000000 0.08118011 0.00000000
0.00000000 0.08149327 0.00000000
0.04244415 0.08112276 0.00000000
0.07534110 0.08010133 0.00000000
0.11001536 0.07851597 0.00000000
0.14789102 0.07644613 0.00000000
0.18960592 0.07395624 0.00000000
0.23575468 0.07103054 0.00000000
0.28698568 0.06754712 0.00000000
0.34400990 0.06325745 0.00000000
0.40760639 0.05772919 0.00000000
0.47863018 0.05017320 0.01018944
0.55278845 0.03881345 0.01789159
0.61870670 0.01543431 0.02443534
0.67857220 0.00000000 0.03084089
0.73447351 0.00000000 0.03747853
0.78755804 0.00000000 0.04456070
0.83841217 0.00000000 0.05222273
0.88745178 0.00000000 0.06058264
0.93501188 0.00000000 0.06975918
0.98133082 0.00000000 0.07986902
1.00000000 0.00000000 0.09102989
1.00000000 0.00000000 0.10508926
1.00000000 0.00000000 0.12182202
1.00000000 0.00000000 0.14076154
1.00000000 0.00000000 0.16215373
1.00000000 0.00000000 0.18625161
1.00000000 0.00000000 0.21330865
1.00000000 0.00000000 0.24356934
1.00000000 0.00000000 0.27725643
0.00000000 0.10850918 0.00000000
0.00000000 0.10911495 0.00000000
0.00000000 0.10979394 0.00000000
0.00000000 0.11053463 0.00000000
0.00000000 0.11131101 0.00000000
0.02763970 0.11188600 0.00000000
0.06716952 0.11166563 0.00000000
0.10430245 0.11089253 0.00000000
0.14416456 0.10954207 0.00000000
0.18790705 0.10764474 0.00000000
0.23619089 0.10523795 0.00000000
0.28964839 0.10231744 0.00000000
0.34898272 0.09880527 0.00000000
0.41498695 0.09452730 0.00000000
0.48855003 0.08918126 0.00000000
0.56309618 0.08226615 0.00000000
0.62889068 0.07290237 0.01236377
0.68890606 0.05926616 0.02320029
0.74488069 0.03552415 0.03206664
0.79766954 0.00000000 0.04060347
0.84804303 0.00000000 0.04932349
0.89659224 0.00000000 0.05851202
0.94363310 0.00000000 0.06835858
0.98938884 0.00000000 0.07901645
1.00000000 0.00000000 0.09062151
1.00000000 0.00000000 0.10541711
1.00000000 0.00000000 0.12241796
1.00000000 0.00000000 0.14150471
1.00000000 0.00000000 0.16289015
1.00000000 0.00000000 0.18678256
1.00000000 0.00000000 0.21337761
1.00000000 0.00000000 0.24284725
1.00000000 0.00000000 0.27549790
0.00000000 0.14139167 0.00000000
0.00000000 0.14248943 0.00000000
0.00000000 0.14366144 0.00000000
0.00000000 0.14489603 0.00000000
0.00000000 0.14617191 0.00000000
0.00000000 0.14747276 0.00000000
0.05469120 0.14814435 0.00000000
0.09647370 0.14818556 0.00000000
0.13887914 0.14765386 0.00000000
0.18481763 0.14650420 0.00000000
0.23535626 0.14473403 0.00000000
0.29121500 0.14235551 0.00000000
0.35309484 0.13935952 0.00000000
0.42177687 0.13568399 0.00000000
0.49815248 0.13118808 0.00000000
0.57300765 0.12562376 0.00000000
0.63883732 0.11859484 0.00000000
0.69871210 0.10949966 0.00000000
0.75439102 0.09727280 0.01785836
0.80695906 0.07974295 0.03136836
0.85711824 0.05030480 0.04264434
0.90524275 0.00000000 0.05350926
0.95167601 0.00000000 0.06455669
0.99677402 0.00000000 0.07612264
1.00000000 0.00000000 0.08842103
1.00000000 0.00000000 0.10403386
1.00000000 0.00000000 0.12136219
1.00000000 0.00000000 0.14060032
1.00000000 0.00000000 0.16193042
1.00000000 0.00000000 0.18551681
1.00000000 0.00000000 0.21155549
1.00000000 0.00000000 0.24039842
1.00000000 0.00000000 0.27228352
0.00000000 0.17987834 0.00000000
0.00000000 0.18151718 0.00000000
0.00000000 0.18322874 0.00000000
0.00000000 0.18500071 0.00000000
0.00000000 0.18681502 0.00000000
0.00000000 0.18865671 0.00000000
0.02933304 0.19036435 0.00000000
0.08462143 0.19118622 0.00000000
0.13115414 0.19148670 0.00000000
0.17980747 0.19116814 0.00000000
0.23278033 0.19016778 0.00000000
0.29113878 0.18845721 0.00000000
0.35568491 0.18602553 0.00000000
0.42721136 0.18285195 0.00000000
0.50651905 0.17887672 0.00000000
0.58177919 0.17399171 0.00000000
0.64768808 0.16800747 0.00000000
0.70748299 0.16060913 0.00000000
0.76296813 0.15130258 0.00000000
0.81524213 0.13929706 0.00000000
0.86501051 0.12322387 0.02691060
0.91275384 0.10027881 0.04274207
0.95880050 0.06166417 0.05650397
1.00000000 0.00000000 0.06984415
1.00000000 0.00000000 0.08363193
1.00000000 0.00000000 0.10001942
1.00000000 0.00000000 0.11784751
1.00000000 0.00000000 0.13732157
1.00000000 0.00000000 0.15862801
1.00000000 0.00000000 0.18205087
1.00000000 0.00000000 0.20783510
1.00000000 0.00000000 0.23618078
1.00000000 0.00000000 0.26727659
0.00000000 0.22476085 0.00000000
0.00000000 0.22698832 0.00000000
0.00000000 0.22928364 0.00000000
0.00000000 0.23163346 0.00000000
0.00000000 0.23402191 0.00000000
0.00000000 0.23643447 0.00000000
0.00000000 0.23885558 0.00000000
0.06409609 0.24072373 0.00000000
0.11923102 0.24183020 0.00000000
0.17190059 0.24235423 0.00000000
0.22779669 0.24218944 0.00000000
0.28883073 0.24125596 0.00000000
0.35611469 0.23950278 0.00000000
0.43051583 0.23689929 0.00000000
0.51252531 0.23342657 0.00000000
0.58857214 0.22904669 0.00000000
0.65488688 0.22367209 0.00000000
0.71482647 0.21714012 0.00000000
0.77025784 0.20918440 0.00000000
0.82231728 0.19939317 0.00000000
0.87173755 0.18713568 0.00000000
0.91900965 0.17140979 0.01076468
0.96446655 0.15047389 0.03928289
1.00000000 0.12068983 0.05732267
1.00000000 0.07021062 0.07395126
1.00000000 0.00000000 0.09187038
1.00000000 0.00000000 0.11066510
1.00000000 0.00000000 0.13075292
1.00000000 0.00000000 0.15247611
1.00000000 0.00000000 0.17606929
1.00000000 0.00000000 0.20173808
1.00000000 0.00000000 0.22966432
1.00000000 0.00000000 0.26000578
0.00000000 0.27689689 0.00000000
0.00000000 0.27975474 0.00000000
0.00000000 0.28267097 0.00000000
0.00000000 0.28563123 0.00000000
0.00000000 0.28862063 0.00000000
0.00000000 0.29162446 0.00000000
0.00000000 0.29462705 0.00000000
0.00000000 0.29761134 0.00000000
0.09947639 0.29951138 0.00000000
0.15935556 0.30084423 0.00000000
0.21931895 0.30151261 0.00000000
0.28348483 0.30139610 0.00000000
0.35361481 0.30039235 0.00000000
0.43079942 0.29844770 0.00000000
0.51547597 0.29553613 0.00000000
0.59291064 0.29164060 0.00000000
0.66001499 0.28672990 0.00000000
0.72035958 0.28073374 0.00000000
0.77591380 0.27351861 0.00000000
0.82787296 0.26486287 0.00000000
0.87700746 0.25442580 0.00000000
0.92383331 0.24169910 0.00000000
0.96870282 0.22592058 0.00000000
1.00000000 0.20589932 0.02787773
1.00000000 0.18086050 0.05465933
1.00000000 0.14663944 0.07665925
1.00000000 0.08236373 0.09795324
1.00000000 0.00000000 0.11968569
1.00000000 0.00000000 0.14242364
1.00000000 0.00000000 0.16657248
1.00000000 0.00000000 0.19239405
1.00000000 0.00000000 0.22008596
1.00000000 0.00000000 0.24979704
0.00000000 0.33720886 0.00000000
0.00000000 0.34072764 0.00000000
0.00000000 0.34428925 0.00000000
0.00000000 0.34787838 0.00000000
0.00000000 0.35148003 0.00000000
0.00000000 0.35507873 0.00000000
0.00000000 0.35865812 0.00000000
0.00000000 0.36220065 0.00000000
0.06061823 0.36536370 0.00000000
0.13890643 0.36743941 0.00000000
0.20557436 0.36886252 0.00000000
0.27391441 0.36949602 0.00000000
0.34728513 0.36922746 0.00000000
0.42735035 0.36796834 0.00000000
0.51481596 0.36566082 0.00000000
0.59435254 0.36227481 0.00000000
0.66267755 0.35779487 0.00000000
0.72371716 0.35219983 0.00000000
0.77959687 0.34543977 0.00000000
0.83159767 0.33741653 0.00000000
0.88055080 0.32796795 0.00000000
0.92701010 0.31682902 0.00000000
0.97135371 0.30360859 0.00000000
1.00000000 0.28773780 0.00000000
1.00000000 0.27043589 0.00000000
1.00000000 0.25085413 0.04563675
1.00000000 0.22230930 0.07523346
1.00000000 0.17844643 0.10104379
1.00000000 0.09629957 0.12628717
1.00000000 0.00000000 0.15192005
1.00000000 0.00000000 0.17847145
1.00000000 0.00000000 0.20633043
1.00000000 0.00000000 0.23569665
0.00000000 0.40667624 0.00000000
0.00000000 0.41086832 0.00000000
0.00000000 0.41507985 0.00000000
0.00000000 0.41929437 0.00000000
0.00000000 0.42349586 0.00000000
0.00000000 0.42766757 0.00000000
0.00000000 0.43179193 0.00000000
0.00000000 0.43585028 0.00000000
0.00000000 0.43980248 0.00000000
0.10283220 0.44283678 0.00000000
0.18361646 0.44485527 0.00000000
0.25844053 0.44611055 0.00000000
0.33602366 0.44647582 0.00000000
0.41934124 0.44583625 0.00000000
0.50982772 0.44410122 0.00000000
0.59242011 0.44121185 0.00000000
0.66249403 0.43714864 0.00000000
0.72458041 0.43191494 0.00000000
0.78105162 0.42551032 0.00000000
0.83330849 0.41791482 0.00000000
0.88224387 0.40906992 0.00000000
0.92845465 0.39886100 0.00000000
0.97242522 0.38705621 0.00000000
1.00000000 0.37327685 0.00000000
1.00000000 0.36006089 0.00000000
1.00000000 0.34731423 0.00000000
1.00000000 0.32949753 0.01218257
1.00000000 0.30461319 0.06675340
1.00000000 0.26927163 0.09927985
1.00000000 0.21637813 0.12870993
1.00000000 0.12124463 0.15758119
1.00000000 0.00000000 0.18662880
1.00000000 0.00000000 0.21626212
0.00000000 0.48632086 0.00000000
0.00000000 0.49117139 0.00000000
0.00000000 0.49600808 0.00000000
0.00000000 0.50081167 0.00000000
0.00000000 0.50551310 0.00000000
0.00000000 0.51007103 0.00000000
0.00000000 0.51446225 0.00000000
0.00000000 0.51862305 0.00000000
0.00000000 0.52254671 0.00000000
0.00000000 0.52623505 0.00000000
0.14727322 0.52851306 0.00000000
0.23432001 0.53002188 0.00000000
0.31820162 0.53074505 0.00000000
0.40568259 0.53058817 0.00000000
0.49949686 0.52945604 0.00000000
0.58662564 0.52726337 0.00000000
0.65920900 0.52394195 0.00000000
0.72279888 0.51943888 0.00000000
0.78016651 0.51370880 0.00000000
0.83289540 0.50669802 0.00000000
0.88199964 0.49832009 0.00000000
0.92824385 0.48860415 0.00000000
0.97212555 0.47751274 0.00000000
1.00000000 0.46485945 0.00000000
1.00000000 0.45410813 0.00000000
1.00000000 0.44552595 0.00000000
1.00000000 0.43360956 0.00000000
1.00000000 0.41738758 0.00000000
1.00000000 0.39550606 0.04210669
1.00000000 0.36595818 0.08927086
1.00000000 0.32545697 0.12462610
1.00000000 0.26751101 0.15707538
1.00000000 0.17307457 0.18872408
0.00000000 0.56827881 0.00000000
0.00000000 0.57254546 0.00000000
0.00000000 0.57670647 0.00000000
0.00000000 0.58075016 0.00000000
0.00000000 0.58466354 0.00000000
0.00000000 0.58838315 0.00000000
0.00000000 0.59188200 0.00000000
0.00000000 0.59516187 0.00000000
0.00000000 0.59822513 0.00000000
0.00000000 0.60107864 0.00000000
0.07283872 0.60354586 0.00000000
0.19632448 0.60484987 0.00000000
0.29136883 0.60558200 0.00000000
0.38500866 0.60566354 0.00000000
0.48290627 0.60501437 0.00000000
0.57637109 0.60355980 0.00000000
0.65252383 0.60123804 0.00000000
0.71818954 0.59800463 0.00000000
0.77680841 0.59383309 0.00000000
0.83032770 0.58870208 0.00000000
0.87994234 0.58256766 0.00000000
0.92643006 0.57536265 0.00000000
0.97033175 0.56698235 0.00000000
1.00000000 0.55726504 0.00000000
1.00000000 0.54948117 0.00000000
1.00000000 0.54450410 0.00000000
1.00000000 0.53740912 0.00000000
1.00000000 0.52753493 0.00000000
1.00000000 0.51392907 0.00000000
1.00000000 0.49518011 0.00000000
1.00000000 0.47045242 0.06257545
1.00000000 0.43847641 0.11001363
1.00000000 0.39680003 0.14757807
0.00000000 0.64018572 0.00000000
0.00000000 0.64385989 0.00000000
0.00000000 0.64741896 0.00000000
0.00000000 0.65081932 0.00000000
0.00000000 0.65400196 0.00000000
0.00000000 0.65696640 0.00000000
0.00000000 0.65972244 0.00000000
0.00000000 0.66228105 0.00000000
0.00000000 0.66464992 0.00000000
0.00000000 0.66683726 0.00000000
0.00000000 0.66885149 0.00000000
0.12972775 0.67028403 0.00000000
0.25112016 0.67086153 0.00000000
0.35516675 0.67093800 0.00000000
0.45900669 0.67045013 0.00000000
0.56059227 0.66933546 0.00000000
0.64195506 0.66753858 0.00000000
0.71053088 0.66502687 0.00000000
0.77095898 0.66177190 0.00000000
0.82563722 0.65773987 0.00000000
0.87596840 0.65290473 0.00000000
0.92284808 0.64724078 0.00000000
0.96688514 0.64071295 0.00000000
1.00000000 0.63326611 0.00000000
1.00000000 0.62751557 0.00000000
1.00000000 0.62479746 0.00000000
1.00000000 0.62095660 0.00000000
1.00000000 0.61572462 0.00000000
1.00000000 0.60876218 0.00000000
1.00000000 0.59963142 0.00000000
1.00000000 0.58775156 0.00000000
1.00000000 0.57232310 0.00000000
1.00000000 0.55217863 0.07483880
0.00000000 0.70523264 0.00000000
0.00000000 0.70837197 0.00000000
0.00000000 0.71130095 0.00000000
0.00000000 0.71401836 0.00000000
0.00000000 0.71652982 0.00000000
0.00000000 0.71884053 0.00000000
0.00000000 0.72095665 0.00000000
0.00000000 0.72288531 0.00000000
0.00000000 0.72463453 0.00000000
0.00000000 0.72621301 0.00000000
0.00000000 0.72763000 0.00000000
0.00000000 0.72889501 0.00000000
0.18676002 0.72939880 0.00000000
0.31237725 0.72930316 0.00000000
0.42591984 0.72876155 0.00000000
0.53744820 0.72773186 0.00000000
0.62674218 0.72618893 0.00000000
0.69950286 0.72408047 0.00000000
0.76240018 0.72136024 0.00000000
0.81861381 0.71799349 0.00000000
0.86990241 0.71395716 0.00000000
0.91734118 0.70923725 0.00000000
0.96163730 0.70382390 0.00000000
1.00000000 0.69770488 0.00000000
1.00000000 0.69277490 0.00000000
1.00000000 0.69102309 0.00000000
1.00000000 0.68862273 0.00000000
1.00000000 0.68544808 0.00000000
1.00000000 0.68135450 0.00000000
1.00000000 0.67617477 0.00000000
1.00000000 0.66970633 0.00000000
1.00000000 0.66169511 0.00000000
1.00000000 0.65168501 0.00000000
0.00000000 0.76520556 0.00000000
0.00000000 0.76771915 0.00000000
0.00000000 0.77002141 0.00000000
0.00000000 0.77211600 0.00000000
0.00000000 0.77400753 0.00000000
0.00000000 0.77570163 0.00000000
0.00000000 0.77720491 0.00000000
0.00000000 0.77852495 0.00000000
0.00000000 0.77967029 0.00000000
0.00000000 0.78065032 0.00000000
0.00000000 0.78147518 0.00000000
0.00000000 0.78215546 0.00000000
0.00000000 0.78270206 0.00000000
0.24861669 0.78231524 0.00000000
0.38042565 0.78159725 0.00000000
0.50331386 0.78051917 0.00000000
0.60545572 0.77902979 0.00000000
0.68437561 0.77707940 0.00000000
0.75071030 0.77462354 0.00000000
0.80899130 0.77162645 0.00000000
0.86155454 0.76806348 0.00000000
0.90975585 0.76392146 0.00000000
0.95445077 0.75919720 0.00000000
0.99621372 0.75389412 0.00000000
1.00000000 0.74914302 0.00000000
1.00000000 0.74771742 0.00000000
1.00000000 0.74589433 0.00000000
1.00000000 0.74360168 0.00000000
1.00000000 0.74078096 0.00000000
1.00000000 0.73736927 0.00000000
1.00000000 0.73323593 0.00000000
1.00000000 0.72824228 0.00000000
1.00000000 0.72224374 0.00000000
0.00000000 0.82107916 0.00000000
0.00000000 0.82297912 0.00000000
0.00000000 0.82466569 0.00000000
0.00000000 0.82614306 0.00000000
0.00000000 0.82741640 0.00000000
0.00000000 0.82849190 0.00000000
0.00000000 0.82937678 0.00000000
0.00000000 0.83007922 0.00000000
0.00000000 0.83060839 0.00000000
0.00000000 0.83097439 0.00000000
0.00000000 0.83118812 0.00000000
0.00000000 0.83126118 0.00000000
0.00000000 0.83123327 0.00000000
0.13377508 0.83096036 0.00000000
0.31585346 0.82998552 0.00000000
0.45446165 0.82871747 0.00000000
0.57551409 0.82711397 0.00000000
0.66399788 0.82513216 0.00000000
0.73528680 0.82273163 0.00000000
0.79641941 0.81987769 0.00000000
0.85070034 0.81654443 0.00000000
0.89993114 0.81271678 0.00000000
0.94519509 0.80839099 0.00000000
0.98718249 0.80356399 0.00000000
1.00000000 0.79858731 0.00000000
1.00000000 0.79709349 0.00000000
1.00000000 0.79535917 0.00000000
1.00000000 0.79336143 0.00000000
1.00000000 0.79106129 0.00000000
1.00000000 0.78839762 0.00000000
1.00000000 0.78531263 0.00000000
1.00000000 0.78174526 0.00000000
1.00000000 0.77763151 0.00000000
0.00000000 0.87352158 0.00000000
0.00000000 0.87479460 0.00000000
0.00000000 0.87584948 0.00000000
0.00000000 0.87669105 0.00000000
0.00000000 0.87732516 0.00000000
0.00000000 0.87775866 0.00000000
0.00000000 0.87799938 0.00000000
0.00000000 0.87805621 0.00000000
0.00000000 0.87793898 0.00000000
0.00000000 0.87765852 0.00000000
0.00000000 0.87724082 0.00000000
0.00000000 0.87674631 0.00000000
0.00000000 0.87618342 0.00000000
0.00000000 0.87555533 0.00000000
0.21415523 0.87450207 0.00000000
0.38824633 0.87292700 0.00000000
0.53196910 0.87107401 0.00000000
0.63650596 0.86890742 0.00000000
0.71524255 0.86639213 0.00000000
0.78041644 0.86349436 0.00000000
0.83703972 0.86017807 0.00000000
0.88764500 0.85643058 0.00000000
0.93367598 0.85225254 0.00000000
0.97602654 0.84765604 0.00000000
1.00000000 0.84266402 0.00000000
1.00000000 0.84051671 0.00000000
1.00000000 0.83866322 0.00000000
1.00000000 0.83666415 0.00000000
1.00000000 0.83448887 0.00000000
1.00000000 0.83210555 0.00000000
1.00000000 0.82948210 0.00000000
1.00000000 0.82658699 0.00000000
1.00000000 0.82339026 0.00000000
0.00000000 0.92292138 0.00000000
0.00000000 0.92353628 0.00000000
0.00000000 0.92392645 0.00000000
0.00000000 0.92409747 0.00000000
0.00000000 0.92405587 0.00000000
0.00000000 0.92380921 0.00000000
0.00000000 0.92336606 0.00000000
0.00000000 0.92273601 0.00000000
0.00000000 0.92193339 0.00000000
0.00000000 0.92102635 0.00000000
0.00000000 0.92003966 0.00000000
0.00000000 0.91897732 0.00000000
0.00000000 0.91784328 0.00000000
0.00000000 0.91664135 0.00000000
0.00000000 0.91537506 0.00000000
0.29280366 0.91350397 0.00000000
0.46562756 0.91128225 0.00000000
0.59859615 0.90878435 0.00000000
0.68916619 0.90598691 0.00000000
0.76023736 0.90286854 0.00000000
0.82015849 0.89941218 0.00000000
0.87269883 0.89560772 0.00000000
0.91986121 0.89145429 0.00000000
0.96282495 0.88696170 0.00000000
1.00000000 0.88215178 0.00000000
1.00000000 0.87901502 0.00000000
1.00000000 0.87693377 0.00000000
1.00000000 0.87478211 0.00000000
1.00000000 0.87254064 0.00000000
1.00000000 0.87019019 0.00000000
1.00000000 0.86771259 0.00000000
1.00000000 0.86509138 0.00000000
1.00000000 0.86231279 0.00000000
