resources/flame/Syncolor/Shared/transforms/camera_manufacturer_luts/arri/ARRI_Alexa_LUTs/ARRI_HDR_Lookfiles_3DLUTs_190319/3D_LUTs_for_monitor_grading_add_P3D65/ARRI_Rec2100PQ-1K-200_33.cube
LUT_3D_SIZE 5
0.00000073 0.00000073 0.00000073
0.20523733 0.06829599 0.01294967
0.43010518 0.19150739 0.05130229
0.67950674 0.37359992 0.13435456
0.75182710 0.60460291 0.27920753
0.07660623 0.19146709 0.00000073
0.19647053 0.20455117 0.00000073
0.46124262 0.26215964 0.00000073
0.72088135 0.41848834 0.13431203
0.75182710 0.61958085 0.28402380
0.27382022 0.49936318 0.00000073
0.32013337 0.51370177 0.00000073
0.51295504 0.52614406 0.00000073
0.73482655 0.55913533 0.00000073
0.75182710 0.63843099 0.00000073
0.50420199 0.75182710 0.00000073
0.50165849 0.75182710 0.00000073
0.57097549 0.74463628 0.00000073
0.71728521 0.73143866 0.00000073
0.75182710 0.73108058 0.00000073
0.66295778 0.75182710 0.00000073
0.62233309 0.75182710 0.00000073
0.62543896 0.75182710 0.00000073
0.69899912 0.75182710 0.00000073
0.75182710 0.75182710 0.00000073
0.00000073 0.00000073 0.18486859
0.18079279 0.00000073 0.14312576
0.42412265 0.18255188 0.14175637
0.67804687 0.37163058 0.17905284
0.75182710 0.59473860 0.28625301
0.02920548 0.18177347 0.18386712
0.19607037 0.19607037 0.19607037
0.46752346 0.25966780 0.21331755
0.71568582 0.41368170 0.24910590
0.75182710 0.59616513 0.32173903
0.27453713 0.50394183 0.00000073
0.32171555 0.51588913 0.00000073
0.51494105 0.52731839 0.00000073
0.72531374 0.55884569 0.21755756
0.75182710 0.62538868 0.32941430
0.49642216 0.75182710 0.00000073
0.49530528 0.75182710 0.00000073
0.57226459 0.73543273 0.00000073
0.71132917 0.72497676 0.00000073
0.75182710 0.72551073 0.00000073
0.63805965 0.75182710 0.00000073
0.60381076 0.75182710 0.00000073
0.62164327 0.75182710 0.00000073
0.69885731 0.75182710 0.00000073
0.75182710 0.75182710 0.54395278
0.00000073 0.00000073 0.27064225
0.13295203 0.00000073 0.24443409
0.40402251 0.11142180 0.25555660
0.65946065 0.35056379 0.28064879
0.75182710 0.56063815 0.33458529
0.00000073 0.00000073 0.38176035
0.00000073 0.00000073 0.40647417
0.45675052 0.00000073 0.42805035
0.69868939 0.37095566 0.44979497
0.75182710 0.55844066 0.47774122
0.14488628 0.48679948 0.48912473
0.27053608 0.49684408 0.50063602
0.51041676 0.51041676 0.51041677
0.71394154 0.54554482 0.52454054
0.75182710 0.60754102 0.54555394
0.47690554 0.75182710 0.41226461
0.48030330 0.73883877 0.45479506
0.57095383 0.72459414 0.48999757
0.70566284 0.71653290 0.52406314
0.75182710 0.71808822 0.56373172
0.61117526 0.75182710 0.00000073
0.58579300 0.75182710 0.00000073
0.61995693 0.75182710 0.39786897
0.70342911 0.75182710 0.55868934
0.75182710 0.75182710 0.72198250
0.00000073 0.00000073 0.33012607
0.00000073 0.00000073 0.32061800
0.37799530 0.00000073 0.33649355
0.62900672 0.30583687 0.36065935
0.75182710 0.51191552 0.39772146
0.00000073 0.00000073 0.48603608
0.00000073 0.00000073 0.51328652
0.42260059 0.00000073 0.53829627
0.66763812 0.00000073 0.56375425
0.75182710 0.48608341 0.58999249
0.00000073 0.28619326 0.67056813
0.00000073 0.28053938 0.68087608
0.47167552 0.35431456 0.68620959
0.69388575 0.46375974 0.68759050
0.75182710 0.56039257 0.68917038
0.29588717 0.72381723 0.72546184
0.38359820 0.70919366 0.71292441
0.55367487 0.69960242 0.70320060
0.69693910 0.69693911 0.69693912
0.75182710 0.70474291 0.69905990
0.56964394 0.75182710 0.65311888
0.55773109 0.75182710 0.65864261
0.61751275 0.75182710 0.66758275
0.72586762 0.75182710 0.71928556
0.75011583 0.75045354 0.74744747
0.00000073 0.00000073 0.37741095
0.00000073 0.00000073 0.38287774
0.34446378 0.00000073 0.40171305
0.59131979 0.17202204 0.42696167
0.75182710 0.45173894 0.46060216
0.00000073 0.00000073 0.56427449
0.00000073 0.00000073 0.58947853
0.36425395 0.00000073 0.61300934
0.63100433 0.00000073 0.63600416
0.75182710 0.26247106 0.66004656
0.00000073 0.00000073 0.75182710
0.00000073 0.00000073 0.75182710
0.33482950 0.00000073 0.75182710
0.66434152 0.00000073 0.75182710
0.75182710 0.41787010 0.75182710
0.00000073 0.62790615 0.75182710
0.00000073 0.62817431 0.75182710
0.49356395 0.63851357 0.75182710
0.68258550 0.65792649 0.75182710
0.74193053 0.70753381 0.74611220
0.39111180 0.75182710 0.75182710
0.48610875 0.75182710 0.75182710
0.65155075 0.75182710 0.75182710
0.74214987 0.74754247 0.74779402
0.75099998 0.75100000 0.75100002
