resources/flame/Syncolor/Shared/transforms/camera_manufacturer_luts/arri/ARRI_Alexa_LUTs/ARRI_HDR_Lookfiles_3DLUTs_190319/3D_LUTs_for_monitor_grading_add_P3D65/ARRI_P3D65HLG-1K-200_33.cube
LUT_3D_SIZE 9
0.00000000 0.00000000 0.00000000
0.08026141 0.00000000 0.00402169
0.18380690 0.00000000 0.00921009
0.33945735 0.00000000 0.01700933
0.58453952 0.00000000 0.02998420
0.79731100 0.00000000 0.05045860
0.98265366 0.00000000 0.08277971
1.00000000 0.00000000 0.14424731
1.00000000 0.00000000 0.26028791
0.00000000 0.03647382 0.00000000
0.03125733 0.03323224 0.00000000
0.15212872 0.02215627 0.00000000
0.33398555 0.00000000 0.01493325
0.59911908 0.00000000 0.03010124
0.81948994 0.00000000 0.05294195
1.00000000 0.00000000 0.08892308
1.00000000 0.00000000 0.15749847
1.00000000 0.00000000 0.27560207
0.00000000 0.14139167 0.00000000
0.00000000 0.14617191 0.00000000
0.13887914 0.14765386 0.00000000
0.35309484 0.13935952 0.00000000
0.63883732 0.11859484 0.00000000
0.85711824 0.05030480 0.04264434
1.00000000 0.00000000 0.08842103
1.00000000 0.00000000 0.16193042
1.00000000 0.00000000 0.27228352
0.00000000 0.33720886 0.00000000
0.00000000 0.35148003 0.00000000
0.06061823 0.36536370 0.00000000
0.34728513 0.36922746 0.00000000
0.66267755 0.35779487 0.00000000
0.88055080 0.32796795 0.00000000
1.00000000 0.27043589 0.00000000
1.00000000 0.09629957 0.12628717
1.00000000 0.00000000 0.23569665
0.00000000 0.64018572 0.00000000
0.00000000 0.65400196 0.00000000
0.00000000 0.66464992 0.00000000
0.25112016 0.67086153 0.00000000
0.64195506 0.66753858 0.00000000
0.87596840 0.65290473 0.00000000
1.00000000 0.62751557 0.00000000
1.00000000 0.60876218 0.00000000
1.00000000 0.55217863 0.07483880
0.00000000 0.87352158 0.00000000
0.00000000 0.87732516 0.00000000
0.00000000 0.87793898 0.00000000
0.00000000 0.87618342 0.00000000
0.53196910 0.87107401 0.00000000
0.83703972 0.86017807 0.00000000
1.00000000 0.84266402 0.00000000
1.00000000 0.83448887 0.00000000
1.00000000 0.82339026 0.00000000
0.00000000 1.00000000 0.00000000
0.00000000 1.00000000 0.00000000
0.00000000 1.00000000 0.00000000
0.00000000 1.00000000 0.00000000
0.00000000 1.00000000 0.00000000
0.74664150 0.99522893 0.00000000
0.95465394 0.97716274 0.00000000
1.00000000 0.96272000 0.00000000
1.00000000 0.95144244 0.00000000
0.00000000 1.00000000 0.00000000
0.00000000 1.00000000 0.00000000
0.00000000 1.00000000 0.00000000
0.00000000 1.00000000 0.00000000
0.00000000 1.00000000 0.00000000
0.55054254 1.00000000 0.00000000
0.88111334 1.00000000 0.00000000
1.00000000 1.00000000 0.00000000
1.00000000 1.00000000 0.00000000
0.00000000 1.00000000 0.00000000
0.00000000 1.00000000 0.00000000
0.00000000 1.00000000 0.00000000
0.00000000 1.00000000 0.00000000
0.00000000 1.00000000 0.00000000
0.00000000 1.00000000 0.00000000
0.78658781 1.00000000 0.00000000
0.95845481 1.00000000 0.00000000
1.00000000 1.00000000 0.00000000
0.00000000 0.00000000 0.08659707
0.06801569 0.00000000 0.05411388
0.17250574 0.00000000 0.03113669
0.33192930 0.00000000 0.02529793
0.58259402 0.00000000 0.03410916
0.79749497 0.00000000 0.05282815
0.98409129 0.00000000 0.08454566
1.00000000 0.00000000 0.14608316
1.00000000 0.00000000 0.25863108
0.00000000 0.03213779 0.03173773
0.02962013 0.02962012 0.02962012
0.15444350 0.01803197 0.02530407
0.33812196 0.00000000 0.02794444
0.60453045 0.00000000 0.03827901
0.82432563 0.00000000 0.05861052
1.00000000 0.00000000 0.09283898
1.00000000 0.00000000 0.15870849
1.00000000 0.00000000 0.26833031
0.00000000 0.14263976 0.00000000
0.00000000 0.14815744 0.00000000
0.14097689 0.14954400 0.00000000
0.36032735 0.14056836 0.00000000
0.64562674 0.11950532 0.02226505
0.85988158 0.05299217 0.05587228
1.00000000 0.00000000 0.09588863
1.00000000 0.00000000 0.16365032
1.00000000 0.00000000 0.26418886
0.00000000 0.34206592 0.00000000
0.00000000 0.35683669 0.00000000
0.05822856 0.37074909 0.00000000
0.35172976 0.37364493 0.00000000
0.66624626 0.36166537 0.00000000
0.87960497 0.33329299 0.00000000
1.00000000 0.28063503 0.04909150
1.00000000 0.15423735 0.13826038
1.00000000 0.00000000 0.23518262
0.00000000 0.64536905 0.00000000
0.00000000 0.65803753 0.00000000
0.00000000 0.66754431 0.00000000
0.25612791 0.67283309 0.00000000
0.64389554 0.66922484 0.00000000
0.87357097 0.65556403 0.00000000
1.00000000 0.63198202 0.00000000
1.00000000 0.61920322 0.00000000
1.00000000 0.58250315 0.12212178
0.00000000 0.87439885 0.00000000
0.00000000 0.87669629 0.00000000
0.00000000 0.87616687 0.00000000
0.00000000 0.87418447 0.00000000
0.54183697 0.86894452 0.00000000
0.83538248 0.85836004 0.00000000
1.00000000 0.84224444 0.00000000
1.00000000 0.83506291 0.00000000
1.00000000 0.82687132 0.00000000
0.00000000 1.00000000 0.00000000
0.00000000 1.00000000 0.00000000
0.00000000 1.00000000 0.00000000
0.00000000 1.00000000 0.00000000
0.04924646 1.00000000 0.00000000
0.75261438 0.98933809 0.00000000
0.95021759 0.97254616 0.00000000
1.00000000 0.95909134 0.00000000
1.00000000 0.94941378 0.00000000
0.00000000 1.00000000 0.00000000
0.00000000 1.00000000 0.00000000
0.00000000 1.00000000 0.00000000
0.00000000 1.00000000 0.00000000
0.00000000 1.00000000 0.00000000
0.59702752 1.00000000 0.00000000
0.88265235 1.00000000 0.00000000
1.00000000 1.00000000 0.00000000
1.00000000 1.00000000 0.00000000
0.00000000 1.00000000 0.00000000
0.00000000 1.00000000 0.00000000
0.00000000 1.00000000 0.00000000
0.00000000 1.00000000 0.00000000
0.00000000 1.00000000 0.00000000
0.00000000 1.00000000 0.00000000
0.80458040 1.00000000 0.00000000
0.95828807 1.00000000 0.00000000
1.00000000 1.00000000 0.00000000
0.00000000 0.00000000 0.16208107
0.03527583 0.00000000 0.13429242
0.15417376 0.00000000 0.09526112
0.31936157 0.00000000 0.07873896
0.57247678 0.00000000 0.07570718
0.79188725 0.00000000 0.08251056
0.98057293 0.00000000 0.10406586
1.00000000 0.00000000 0.15736424
1.00000000 0.00000000 0.25922991
0.00000000 0.00000000 0.14165695
0.00000000 0.00000000 0.14486897
0.14655133 0.00000000 0.12574894
0.33594835 0.00000000 0.11306269
0.60593777 0.00000000 0.10927582
0.82575072 0.00000000 0.11433869
1.00000000 0.00000000 0.13301927
1.00000000 0.00000000 0.18571596
1.00000000 0.00000000 0.27850499
0.00000000 0.13078557 0.12893752
0.00000000 0.13619280 0.13485127
0.13727906 0.13727906 0.13727906
0.36701206 0.12702947 0.13313366
0.65054421 0.10496075 0.13183761
0.86042274 0.00922747 0.13788402
1.00000000 0.00000000 0.15623996
1.00000000 0.00000000 0.20795744
1.00000000 0.00000000 0.29036825
0.00000000 0.34190589 0.08523085
0.00000000 0.35693641 0.09022219
0.03217973 0.37107117 0.09469592
0.35394349 0.37262711 0.10146115
0.66923772 0.35946466 0.11564738
0.87772137 0.33263960 0.13433016
1.00000000 0.28382941 0.16137887
1.00000000 0.18450524 0.21595700
1.00000000 0.00000000 0.29102406
0.00000000 0.64817884 0.00000000
0.00000000 0.65961299 0.00000000
0.00000000 0.66830737 0.00000000
0.25761984 0.67307953 0.00000000
0.64530124 0.66927164 0.00000000
0.87114002 0.65627638 0.00000000
1.00000000 0.63420371 0.08957595
1.00000000 0.62645945 0.17469026
1.00000000 0.60209132 0.25692840
0.00000000 0.87367840 0.00000000
0.00000000 0.87459048 0.00000000
0.00000000 0.87358378 0.00000000
0.00000000 0.87157980 0.00000000
0.55028549 0.86628555 0.00000000
0.83370314 0.85598455 0.00000000
1.00000000 0.84121315 0.00000000
1.00000000 0.83479912 0.00000000
1.00000000 0.82900245 0.14156785
0.00000000 1.00000000 0.00000000
0.00000000 1.00000000 0.00000000
0.00000000 1.00000000 0.00000000
0.00000000 1.00000000 0.00000000
0.19656160 0.99794819 0.00000000
0.75790628 0.98361839 0.00000000
0.94616262 0.96793230 0.00000000
1.00000000 0.95532433 0.00000000
1.00000000 0.94708123 0.00000000
0.00000000 1.00000000 0.00000000
0.00000000 1.00000000 0.00000000
0.00000000 1.00000000 0.00000000
0.00000000 1.00000000 0.00000000
0.00000000 1.00000000 0.00000000
0.63148816 1.00000000 0.00000000
0.88424850 1.00000000 0.00000000
1.00000000 1.00000000 0.00000000
1.00000000 1.00000000 0.00000000
0.00000000 1.00000000 0.00000000
0.00000000 1.00000000 0.00000000
0.00000000 1.00000000 0.00000000
0.00000000 1.00000000 0.00000000
0.00000000 1.00000000 0.00000000
0.34552555 1.00000000 0.00000000
0.82056525 1.00000000 0.00000000
0.95950237 1.00000000 0.00000000
1.00000000 1.00000000 0.59361742
0.00000000 0.00000000 0.22448838
0.00000000 0.00000000 0.19882464
0.12959238 0.00000000 0.16231562
0.30002059 0.00000000 0.14157347
0.55424264 0.00000000 0.13265531
0.78059630 0.00000000 0.13231934
0.97049014 0.00000000 0.14384663
1.00000000 0.00000000 0.18470035
1.00000000 0.00000000 0.26978493
0.00000000 0.00000000 0.24376184
0.00000000 0.00000000 0.25158794
0.11863056 0.00000000 0.24644387
0.32043228 0.00000000 0.22586789
0.59683207 0.00000000 0.21400636
0.81865278 0.00000000 0.21007181
1.00000000 0.00000000 0.21623840
1.00000000 0.00000000 0.25444001
1.00000000 0.00000000 0.32676868
0.00000000 0.04194422 0.31808428
0.00000000 0.03302027 0.33770793
0.10356424 0.00000000 0.35058364
0.36010702 0.00000000 0.32202459
0.64792071 0.00000000 0.30215469
0.85548736 0.00000000 0.29239132
1.00000000 0.00000000 0.29319208
1.00000000 0.00000000 0.33041228
1.00000000 0.00000000 0.39162409
0.00000000 0.31850996 0.31311735
0.00000000 0.33193467 0.32783177
0.00000000 0.34470971 0.34188661
0.34550988 0.34550988 0.34550988
0.67017880 0.33192926 0.34037962
0.87467771 0.30762276 0.33731831
1.00000000 0.26223164 0.34104399
1.00000000 0.17198754 0.38146143
1.00000000 0.00000000 0.43835963
0.00000000 0.64335546 0.25723400
0.00000000 0.65364520 0.26831243
0.00000000 0.66179436 0.28070551
0.24272880 0.66717281 0.29336345
0.64407947 0.66294414 0.30700722
0.86840146 0.64984875 0.32801256
1.00000000 0.63011872 0.35166875
1.00000000 0.62478730 0.39974825
1.00000000 0.60844289 0.45811022
0.00000000 0.87010458 0.00000000
0.00000000 0.86999412 0.00000000
0.00000000 0.86888428 0.00000000
0.00000000 0.86699726 0.09980919
0.55354195 0.86175923 0.17505640
0.83148111 0.85164662 0.24200879
0.99334196 0.83784941 0.30246926
1.00000000 0.83194092 0.36800961
1.00000000 0.82817706 0.43880436
0.00000000 1.00000000 0.00000000
0.00000000 1.00000000 0.00000000
0.00000000 1.00000000 0.00000000
0.00000000 1.00000000 0.00000000
0.25791175 0.99089389 0.00000000
0.76162328 0.97737994 0.00000000
0.94216873 0.96257095 0.14544536
1.00000000 0.95058198 0.29135432
1.00000000 0.94357524 0.40556015
0.00000000 1.00000000 0.00000000
0.00000000 1.00000000 0.00000000
0.00000000 1.00000000 0.00000000
0.00000000 1.00000000 0.00000000
0.00000000 1.00000000 0.00000000
0.65714100 1.00000000 0.00000000
0.88546919 1.00000000 0.00000000
1.00000000 1.00000000 0.23529995
1.00000000 1.00000000 0.44943313
0.00000000 1.00000000 0.00000000
0.00000000 1.00000000 0.00000000
0.00000000 1.00000000 0.00000000
0.00000000 1.00000000 0.00000000
0.00000000 1.00000000 0.00000000
0.49022475 1.00000000 0.00000000
0.83474189 1.00000000 0.00000000
0.96613146 1.00000000 0.57362424
1.00000000 1.00000000 0.85224044
0.00000000 0.00000000 0.27707647
0.00000000 0.00000000 0.25064205
0.09900521 0.00000000 0.22638691
0.27616815 0.00000000 0.20299790
0.52944053 0.00000000 0.18964832
0.76440343 0.00000000 0.18490715
0.95401896 0.00000000 0.19024884
1.00000000 0.00000000 0.22089680
1.00000000 0.00000000 0.29033203
0.00000000 0.00000000 0.33427713
0.00000000 0.00000000 0.34793289
0.05907891 0.00000000 0.36157764
0.29339261 0.00000000 0.34130339
0.57661183 0.00000000 0.32534934
0.80349084 0.00000000 0.31690528
0.98402829 0.00000000 0.31713076
1.00000000 0.00000000 0.34762469
1.00000000 0.00000000 0.40816967
0.00000000 0.00000000 0.48669200
0.00000000 0.00000000 0.51480969
0.00000000 0.00000000 0.54205789
0.31786027 0.00000000 0.52859324
0.62797003 0.00000000 0.50231173
0.84121297 0.00000000 0.48194630
1.00000000 0.00000000 0.47141237
1.00000000 0.00000000 0.50165162
1.00000000 0.00000000 0.54852560
0.00000000 0.23211482 0.59123986
0.00000000 0.23664083 0.61424509
0.00000000 0.24090648 0.63455831
0.30275827 0.23776808 0.64122543
0.65868818 0.22627809 0.62249671
0.86689588 0.20662236 0.60181272
1.00000000 0.15906719 0.58771151
1.00000000 0.00000000 0.60894845
1.00000000 0.00000000 0.63821012
0.00000000 0.61356224 0.60460756
0.00000000 0.62280749 0.61626586
0.00000000 0.63088246 0.62617877
0.17153646 0.63789932 0.63494844
0.63375089 0.63375090 0.63375091
0.86415931 0.62142608 0.62820839
1.00000000 0.60521617 0.62543718
1.00000000 0.60207328 0.64536652
1.00000000 0.59207147 0.67109898
0.00000000 0.85948022 0.52613469
0.00000000 0.85891001 0.54026795
0.00000000 0.85769080 0.55514343
0.00000000 0.85608067 0.57099297
0.54210567 0.85160788 0.58478928
0.82724747 0.84189524 0.59769172
0.98655281 0.82870112 0.61481644
1.00000000 0.82345282 0.64110614
1.00000000 0.82190421 0.67167705
0.00000000 1.00000000 0.23849200
0.00000000 1.00000000 0.30537331
0.00000000 1.00000000 0.36804123
0.00000000 0.99246436 0.42671367
0.27871211 0.98187920 0.48053487
0.76177684 0.96910935 0.52940051
0.93752531 0.95499111 0.57406138
1.00000000 0.94352305 0.61906484
1.00000000 0.93784259 0.66609919
0.00000000 1.00000000 0.00000000
0.00000000 1.00000000 0.00000000
0.00000000 1.00000000 0.00000000
0.00000000 1.00000000 0.03878321
0.00000000 1.00000000 0.30515282
0.67470126 1.00000000 0.43335578
0.88552901 1.00000000 0.53718183
0.99846208 1.00000000 0.61558518
1.00000000 1.00000000 0.74708752
0.00000000 1.00000000 0.00000000
0.00000000 1.00000000 0.00000000
0.00000000 1.00000000 0.00000000
0.00000000 1.00000000 0.00000000
0.00000000 1.00000000 0.00000000
0.58053309 1.00000000 0.39216415
0.86162645 1.00000000 0.62947968
0.97471242 1.00000000 0.83447163
1.00000000 1.00000000 0.94892031
0.00000000 0.00000000 0.32892381
0.00000000 0.00000000 0.30327210
0.05136289 0.00000000 0.29594858
0.24946413 0.00000000 0.27073361
0.50073998 0.00000000 0.25319606
0.74458793 0.00000000 0.24434953
0.93360906 0.00000000 0.24474416
1.00000000 0.00000000 0.26610086
1.00000000 0.00000000 0.32337492
0.00000000 0.00000000 0.41861747
0.00000000 0.00000000 0.43693961
0.00000000 0.00000000 0.45952258
0.25660007 0.00000000 0.45099761
0.54690311 0.00000000 0.43209970
0.78188100 0.00000000 0.42029161
0.96080129 0.00000000 0.41763213
1.00000000 0.00000000 0.44354005
1.00000000 0.00000000 0.50250333
0.00000000 0.00000000 0.60897008
0.00000000 0.00000000 0.63490366
0.00000000 0.00000000 0.65956133
0.24892529 0.00000000 0.66791564
0.59353557 0.00000000 0.65267600
0.81966095 0.00000000 0.63827119
0.98809229 0.00000000 0.62852976
1.00000000 0.00000000 0.64482666
1.00000000 0.00000000 0.67475795
0.00000000 0.00000000 0.76588389
0.00000000 0.00000000 0.78508341
0.00000000 0.00000000 0.80152428
0.16778266 0.00000000 0.81168948
0.62362700 0.00000000 0.79221381
0.84858120 0.00000000 0.77124043
1.00000000 0.00000000 0.75392411
1.00000000 0.00000000 0.76095586
1.00000000 0.00000000 0.77730582
0.00000000 0.51705053 0.82482564
0.00000000 0.52385580 0.83410387
0.00000000 0.53222995 0.84144070
0.00000000 0.54181947 0.84776311
0.59825481 0.53951375 0.84335717
0.85085971 0.53311911 0.82754137
1.00000000 0.52491763 0.81132293
1.00000000 0.52830780 0.81370521
1.00000000 0.52820470 0.82298855
0.00000000 0.83068234 0.82174606
0.00000000 0.82999224 0.82333840
0.00000000 0.82915859 0.82420864
0.00000000 0.82845696 0.82486264
0.49522954 0.82589746 0.82371435
0.81753404 0.81753405 0.81753406
0.97879932 0.80637551 0.81022063
1.00000000 0.80353917 0.81312526
1.00000000 0.80591650 0.82279718
0.00000000 1.00000000 0.75164969
0.00000000 0.99902334 0.75539615
0.00000000 0.98752092 0.76021000
0.00000000 0.97722425 0.76584047
0.24174283 0.96786175 0.77200117
0.75523699 0.95633126 0.77560691
0.93151616 0.94315001 0.78086283
1.00000000 0.93232707 0.79354508
1.00000000 0.92861299 0.81303474
0.00000000 1.00000000 0.61221581
0.00000000 1.00000000 0.64697754
0.00000000 1.00000000 0.67412567
0.00000000 1.00000000 0.69757989
0.00000000 1.00000000 0.71969725
0.68366535 1.00000000 0.74002142
0.88373726 1.00000000 0.76097149
0.98960744 1.00000000 0.80266449
1.00000000 0.98993776 0.89079296
0.00000000 1.00000000 0.00000000
0.00000000 1.00000000 0.33116812
0.00000000 1.00000000 0.51430111
0.00000000 1.00000000 0.61437616
0.00000000 1.00000000 0.67883048
0.65071917 1.00000000 0.73647814
0.90161839 1.00000000 0.84609841
0.98274376 1.00000000 0.94245364
0.99819710 1.00000000 0.98067647
0.00000000 0.00000000 0.37949112
0.00000000 0.00000000 0.35744844
0.00000000 0.00000000 0.36169186
0.21859802 0.00000000 0.34383127
0.46788242 0.00000000 0.32298850
0.72135896 0.00000000 0.31059235
0.90983090 0.00000000 0.30732575
1.00000000 0.00000000 0.32020819
1.00000000 0.00000000 0.37079178
0.00000000 0.00000000 0.50644624
0.00000000 0.00000000 0.52858430
0.00000000 0.00000000 0.55310675
0.20633184 0.00000000 0.56052731
0.50795870 0.00000000 0.54372562
0.75612075 0.00000000 0.53016614
0.93526314 0.00000000 0.52453887
1.00000000 0.00000000 0.54026505
1.00000000 0.00000000 0.58679619
0.00000000 0.00000000 0.69254777
0.00000000 0.00000000 0.71602410
0.00000000 0.00000000 0.73813689
0.13381471 0.00000000 0.75575898
0.54458973 0.00000000 0.74596697
0.79264984 0.00000000 0.73531785
0.96313262 0.00000000 0.72834780
1.00000000 0.00000000 0.73887153
1.00000000 0.00000000 0.76485616
0.00000000 0.00000000 0.85261098
0.00000000 0.00000000 0.87132245
0.00000000 0.00000000 0.88752019
0.00000000 0.00000000 0.90167750
0.55245219 0.00000000 0.89556698
0.81939694 0.00000000 0.87976774
0.98138273 0.00000000 0.86443181
1.00000000 0.00000000 0.86543313
1.00000000 0.00000000 0.87742637
0.00000000 0.17717234 0.97030759
0.00000000 0.15363457 0.97959648
0.00000000 0.15399154 0.98613525
0.00000000 0.18265892 0.98985597
0.51281254 0.22728886 0.98124757
0.82847644 0.27007987 0.95900983
0.98706783 0.30531875 0.93771303
1.00000000 0.33905335 0.93086295
1.00000000 0.37085804 0.93245980
0.00000000 0.76541229 0.99479885
0.00000000 0.76486426 0.99329614
0.00000000 0.76589243 0.98976330
0.00000000 0.76863490 0.98494943
0.36426681 0.77079274 0.97911461
0.79651919 0.76593667 0.96684164
0.96487151 0.76104954 0.94963363
1.00000000 0.76449803 0.93879091
1.00000000 0.77545348 0.93617474
0.00000000 0.97964574 0.97050547
0.00000000 0.96857328 0.96172762
0.00000000 0.95866347 0.95347524
0.00000000 0.95017164 0.94621612
0.00000000 0.94300660 0.94012553
0.73963989 0.93337869 0.93170609
0.92247302 0.92247303 0.92247305
1.00000000 0.91419602 0.91642352
1.00000000 0.91758525 0.92156127
0.00000000 1.00000000 0.91127443
0.00000000 1.00000000 0.90341292
0.00000000 1.00000000 0.89729016
0.00000000 1.00000000 0.89312240
0.00000000 1.00000000 0.89121137
0.68378891 1.00000000 0.88982213
0.88137215 1.00000000 0.89145485
0.98176747 0.98786555 0.91955804
1.00000000 0.98263755 0.95971505
0.00000000 1.00000000 0.81797550
0.00000000 1.00000000 0.82754351
0.00000000 1.00000000 0.83669549
0.00000000 1.00000000 0.84650498
0.00000000 1.00000000 0.85807140
0.75841408 1.00000000 0.89294076
0.94102237 1.00000000 0.94642893
0.98806207 0.99987883 0.97959161
0.99768017 0.99822554 0.99299330
0.00000000 0.00000000 0.42863833
0.00000000 0.00000000 0.41436691
0.00000000 0.00000000 0.42536307
0.18097664 0.00000000 0.42047925
0.43172063 0.00000000 0.39766663
0.69453523 0.00000000 0.38244311
0.88279308 0.00000000 0.37664457
1.00000000 0.00000000 0.38138016
1.00000000 0.00000000 0.42937744
0.00000000 0.00000000 0.58358784
0.00000000 0.00000000 0.60476233
0.00000000 0.00000000 0.62716937
0.12899271 0.00000000 0.64464943
0.45847790 0.00000000 0.63317073
0.72686162 0.00000000 0.62181862
0.90826865 0.00000000 0.61621898
1.00000000 0.00000000 0.62132741
1.00000000 0.00000000 0.65855371
0.00000000 0.00000000 0.76111087
0.00000000 0.00000000 0.78259418
0.00000000 0.00000000 0.80271693
0.00000000 0.00000000 0.82143611
0.47340011 0.00000000 0.81995408
0.76123027 0.00000000 0.81104566
0.93569285 0.00000000 0.80394978
1.00000000 0.00000000 0.80719761
1.00000000 0.00000000 0.83162737
0.00000000 0.00000000 0.91778793
0.00000000 0.00000000 0.93408785
0.00000000 0.00000000 0.94857309
0.00000000 0.00000000 0.96197358
0.43224610 0.00000000 0.96560228
0.78247774 0.00000000 0.95480749
0.95445978 0.00000000 0.94338901
1.00000000 0.00000000 0.94125774
1.00000000 0.00000000 0.95204179
0.00000000 0.00000000 1.00000000
0.00000000 0.00000000 1.00000000
0.00000000 0.00000000 1.00000000
0.00000000 0.00000000 1.00000000
0.27782798 0.00000000 1.00000000
0.78857753 0.00000000 1.00000000
0.96342505 0.00000000 1.00000000
1.00000000 0.00000000 1.00000000
1.00000000 0.00000000 1.00000000
0.00000000 0.58916226 1.00000000
0.00000000 0.59216103 1.00000000
0.00000000 0.60777218 1.00000000
0.00000000 0.62952694 1.00000000
0.00000000 0.65305426 1.00000000
0.76275221 0.66614321 1.00000000
0.94591848 0.67948974 1.00000000
1.00000000 0.69983159 1.00000000
1.00000000 0.73009764 1.00000000
0.00000000 0.92745929 1.00000000
0.00000000 0.91839616 1.00000000
0.00000000 0.91146116 1.00000000
0.00000000 0.90641115 1.00000000
0.00000000 0.90306547 1.00000000
0.71261247 0.89758419 1.00000000
0.90934339 0.89143820 1.00000000
1.00000000 0.89026899 1.00000000
1.00000000 0.91493348 0.98506684
0.00000000 1.00000000 1.00000000
0.00000000 1.00000000 1.00000000
0.00000000 1.00000000 1.00000000
0.00000000 1.00000000 1.00000000
0.00000000 1.00000000 1.00000000
0.67797044 0.99900543 0.99682685
0.89486574 0.98419137 0.98322539
0.97747846 0.97747849 0.97747852
0.99231696 0.98232456 0.98246220
0.00000000 1.00000000 1.00000000
0.00000000 1.00000000 0.99501263
0.00000000 1.00000000 0.98319430
0.00000000 1.00000000 0.97392974
0.00000000 1.00000000 0.96941624
0.85734061 1.00000000 0.97302648
0.96870302 0.99968910 0.98439348
0.99218067 0.99675560 0.99244950
0.99813873 0.99825477 0.99715326
0.00000000 0.00000000 0.47726630
0.00000000 0.00000000 0.47456100
0.00000000 0.00000000 0.48963505
0.13071789 0.00000000 0.49853191
0.39195676 0.00000000 0.47596165
0.66370578 0.00000000 0.45894273
0.85351839 0.00000000 0.45173629
1.00000000 0.00000000 0.45508372
1.00000000 0.00000000 0.49624714
0.00000000 0.00000000 0.64596963
0.00000000 0.00000000 0.66636294
0.00000000 0.00000000 0.68723509
0.00000000 0.00000000 0.70825583
0.40096622 0.00000000 0.70421295
0.69413764 0.00000000 0.69547896
0.87981342 0.00000000 0.69062737
1.00000000 0.00000000 0.69126471
1.00000000 0.00000000 0.72024866
0.00000000 0.00000000 0.81874703
0.00000000 0.00000000 0.83854900
0.00000000 0.00000000 0.85692513
0.00000000 0.00000000 0.87448431
0.37932566 0.00000000 0.88128806
0.72418607 0.00000000 0.87439024
0.90623295 0.00000000 0.86767700
1.00000000 0.00000000 0.86482484
1.00000000 0.00000000 0.88661543
0.00000000 0.00000000 0.97294537
0.00000000 0.00000000 0.98722598
0.00000000 0.00000000 1.00000000
0.00000000 0.00000000 1.00000000
0.24164886 0.00000000 1.00000000
0.73736017 0.00000000 1.00000000
0.92532713 0.00000000 1.00000000
1.00000000 0.00000000 0.99797534
1.00000000 0.00000000 1.00000000
0.00000000 0.00000000 1.00000000
0.00000000 0.00000000 1.00000000
0.00000000 0.00000000 1.00000000
0.00000000 0.00000000 1.00000000
0.00000000 0.00000000 1.00000000
0.73445609 0.00000000 1.00000000
0.93573663 0.00000000 1.00000000
1.00000000 0.00000000 1.00000000
1.00000000 0.00000000 1.00000000
0.00000000 0.00000000 1.00000000
0.00000000 0.00000000 1.00000000
0.00000000 0.00000000 1.00000000
0.00000000 0.00000000 1.00000000
0.00000000 0.00000000 1.00000000
0.71610722 0.32737185 1.00000000
0.92716960 0.47986555 1.00000000
1.00000000 0.58607551 1.00000000
1.00000000 0.67965043 1.00000000
0.00000000 0.82893507 1.00000000
0.00000000 0.82747639 1.00000000
0.00000000 0.83013295 1.00000000
0.00000000 0.83580916 1.00000000
0.00000000 0.84372205 1.00000000
0.66944574 0.84975384 1.00000000
0.89547164 0.85476120 1.00000000
0.99240763 0.88239075 1.00000000
1.00000000 0.92836673 1.00000000
0.00000000 1.00000000 1.00000000
0.00000000 1.00000000 1.00000000
0.00000000 1.00000000 1.00000000
0.00000000 0.98999937 1.00000000
0.00000000 0.98189646 1.00000000
0.71585909 0.97338682 1.00000000
0.92237427 0.96971573 1.00000000
0.97820262 0.97654700 0.99187363
0.98906354 0.98447916 0.98879559
0.00000000 1.00000000 1.00000000
0.00000000 1.00000000 1.00000000
0.00000000 1.00000000 1.00000000
0.00000000 1.00000000 1.00000000
0.65616865 1.00000000 1.00000000
0.93004422 1.00000000 0.99935662
0.98211831 0.99502599 0.99485863
0.99482428 0.99648044 0.99645839
0.99884164 0.99884168 0.99884171
