resources/flame/Syncolor/Shared/transforms/camera_manufacturer_luts/arri/ARRI_Alexa_LUTs/ARRI_HDR_Lookfiles_3DLUTs_190319/3D_LUTs_for_monitor_grading_add_P3D65/ARRI_P3D65PQ-1K-100_33.cube
LUT_3D_SIZE 33
0.00000073 0.00000073 0.00000073
0.03200717 0.00000073 0.00119519
0.06068005 0.00000073 0.00275465
0.08845930 0.00000073 0.00469080
0.11581541 0.00000073 0.00700336
0.14291289 0.00000073 0.00969557
0.16986841 0.00000073 0.01277788
0.19677009 0.00000073 0.01626558
0.22368216 0.00000073 0.02017679
0.25067697 0.00000073 0.02453596
0.27797034 0.00000073 0.02939987
0.30578963 0.00000073 0.03484368
0.33435676 0.00000073 0.04095985
0.36388930 0.00000073 0.04786013
0.39459949 0.00000073 0.05567768
0.42588251 0.00000073 0.06433566
0.45712647 0.00000073 0.07370505
0.48833851 0.00000073 0.08380852
0.51952596 0.00000073 0.09466970
0.55069454 0.00000073 0.10631260
0.58184917 0.00000073 0.11876170
0.61299409 0.00000073 0.13204201
0.64413291 0.00000073 0.14617897
0.67526878 0.00000073 0.16119847
0.70640435 0.00000073 0.17712684
0.73754192 0.00000073 0.19399083
0.75182710 0.00000073 0.21181758
0.75182710 0.00000073 0.23063464
0.75182710 0.00000073 0.25046993
0.75182710 0.00000073 0.27134785
0.75182710 0.00000073 0.29315330
0.75182710 0.00000073 0.31579252
0.75182710 0.00000073 0.33921828
0.00000073 0.01147806 0.00000073
0.00290381 0.00311797 0.00000073
0.03438510 0.00000073 0.00130718
0.06359940 0.00000073 0.00293860
0.09207665 0.00000073 0.00497343
0.12022415 0.00000073 0.00741399
0.14831108 0.00000073 0.01028027
0.17663986 0.00000073 0.01361665
0.20547729 0.00000073 0.01748426
0.23506981 0.00000073 0.02196174
0.26565118 0.00000073 0.02714682
0.29732202 0.00000073 0.03313388
0.32914243 0.00000073 0.03980299
0.36088300 0.00000073 0.04713035
0.39255491 0.00000073 0.05513646
0.42416708 0.00000073 0.06384235
0.45572668 0.00000073 0.07326952
0.48723981 0.00000073 0.08343999
0.51871413 0.00000073 0.09437708
0.55015624 0.00000073 0.10610470
0.58157156 0.00000073 0.11864712
0.61296473 0.00000073 0.13202909
0.64433977 0.00000073 0.14627581
0.67570014 0.00000073 0.16141288
0.70704880 0.00000073 0.17746631
0.73838830 0.00000073 0.19446251
0.75182710 0.00000073 0.21242826
0.75182710 0.00000073 0.23139070
0.75182710 0.00000073 0.25131106
0.75182710 0.00000073 0.27207421
0.75182710 0.00000073 0.29364147
0.75182710 0.00000073 0.31596623
0.75182710 0.00000073 0.33899189
0.00000073 0.02293388 0.00000073
0.00000073 0.01576678 0.00000073
0.00795222 0.00850677 0.00000073
0.04020182 0.00000073 0.00148887
0.07095139 0.00000073 0.00342219
0.10168901 0.00000073 0.00575871
0.13292049 0.00000073 0.00865585
0.16500732 0.00000073 0.01219182
0.19778646 0.00000073 0.01640554
0.23038884 0.00000073 0.02121856
0.26282139 0.00000073 0.02664274
0.29511498 0.00000073 0.03269587
0.32729232 0.00000073 0.03939690
0.35937060 0.00000073 0.04676558
0.39136314 0.00000073 0.05482237
0.42328043 0.00000073 0.06358822
0.45513085 0.00000073 0.07308459
0.48692114 0.00000073 0.08333327
0.51865784 0.00000073 0.09435681
0.55034866 0.00000073 0.10617898
0.58199960 0.00000073 0.11882382
0.61361580 0.00000073 0.13231578
0.64520166 0.00000073 0.14667973
0.67676101 0.00000073 0.16194093
0.70829713 0.00000073 0.17812503
0.73981286 0.00000073 0.19525802
0.75182710 0.00000073 0.21334609
0.75182710 0.00000073 0.23228971
0.75182710 0.00000073 0.25204684
0.75182710 0.00000073 0.27258070
0.75182710 0.00000073 0.29384541
0.75182710 0.00000073 0.31578537
0.75182710 0.00000073 0.33833469
0.00000073 0.03686424 0.00000073
0.00000073 0.03157361 0.00000073
0.00000073 0.02708187 0.00000073
0.02216197 0.02355310 0.00000073
0.05883543 0.02067211 0.00000073
0.09391280 0.01669947 0.00000073
0.12813889 0.00712721 0.00565881
0.16183417 0.00000073 0.01030321
0.19515934 0.00000073 0.01503929
0.22820939 0.00000073 0.02017282
0.26104521 0.00000073 0.02581799
0.29370821 0.00000073 0.03203748
0.32622785 0.00000073 0.03887399
0.35862583 0.00000073 0.04636103
0.39091862 0.00000073 0.05452739
0.42311898 0.00000073 0.06339934
0.45523693 0.00000073 0.07300174
0.48728049 0.00000073 0.08335866
0.51925621 0.00000073 0.09449379
0.55117164 0.00000073 0.10643145
0.58303380 0.00000073 0.11919630
0.61484834 0.00000073 0.13281303
0.64662015 0.00000073 0.14730656
0.67835344 0.00000073 0.16270208
0.71004762 0.00000073 0.17902279
0.74155643 0.00000073 0.19621008
0.75182710 0.00000073 0.21421228
0.75182710 0.00000073 0.23300164
0.75182710 0.00000073 0.25254209
0.75182710 0.00000073 0.27278867
0.75182710 0.00000073 0.29368695
0.75182710 0.00000073 0.31517246
0.75182710 0.00000073 0.33717023
0.00000073 0.05892349 0.00000073
0.00000073 0.05770179 0.00000073
0.00000073 0.05665391 0.00000073
0.00000073 0.05557647 0.00000073
0.05150367 0.05433169 0.00000073
0.08911288 0.05278191 0.00000073
0.12457242 0.05066686 0.00000073
0.15909502 0.04750297 0.00000073
0.19305091 0.04234964 0.00000073
0.22661572 0.03283627 0.01191899
0.25989028 0.00000073 0.02024484
0.29293852 0.00000073 0.02797116
0.32580355 0.00000073 0.03581520
0.35851583 0.00000073 0.04403510
0.39109764 0.00000073 0.05276435
0.42356571 0.00000073 0.06208678
0.45593294 0.00000073 0.07206225
0.48820939 0.00000073 0.08273750
0.52040305 0.00000073 0.09415156
0.55252111 0.00000073 0.10633897
0.58457172 0.00000073 0.11933210
0.61656127 0.00000073 0.13316119
0.64849524 0.00000073 0.14785520
0.68030489 0.00000073 0.16340502
0.71184963 0.00000073 0.17975419
0.74308795 0.00000073 0.19688458
0.75182710 0.00000073 0.21477079
0.75182710 0.00000073 0.23337897
0.75182710 0.00000073 0.25266627
0.75182710 0.00000073 0.27258037
0.75182710 0.00000073 0.29305901
0.75182710 0.00000073 0.31402957
0.75182710 0.00000073 0.33540869
0.00000073 0.09038778 0.00000073
0.00000073 0.08971867 0.00000073
0.00000073 0.08906244 0.00000073
0.00000073 0.08840441 0.00000073
0.03701582 0.08767731 0.00000073
0.08271986 0.08682829 0.00000073
0.12058610 0.08577580 0.00000073
0.15638819 0.08437343 0.00000073
0.19119594 0.08237811 0.00000073
0.22539672 0.07939628 0.00000073
0.25917894 0.07475478 0.00000073
0.29265050 0.06713138 0.01015548
0.32587952 0.05306184 0.02543074
0.35891177 0.00000073 0.03680295
0.39177943 0.00000073 0.04746895
0.42450590 0.00000073 0.05814091
0.45710867 0.00000073 0.06912336
0.48960108 0.00000073 0.08058449
0.52199351 0.00000073 0.09263254
0.55429424 0.00000073 0.10534486
0.58651198 0.00000073 0.11878208
0.61863074 0.00000073 0.13298317
0.65051664 0.00000073 0.14792044
0.68211712 0.00000073 0.16358927
0.71339325 0.00000073 0.17998205
0.74430315 0.00000073 0.19708122
0.75182710 0.00000073 0.21485932
0.75182710 0.00000073 0.23327892
0.75182710 0.00000073 0.25229247
0.75182710 0.00000073 0.27184198
0.75182710 0.00000073 0.29185885
0.75182710 0.00000073 0.31226357
0.75182710 0.00000073 0.33296558
0.00000073 0.12266620 0.00000073
0.00000073 0.12231530 0.00000073
0.00000073 0.12198546 0.00000073
0.00000073 0.12166572 0.00000073
0.00000073 0.12131560 0.00000073
0.07175813 0.12090443 0.00000073
0.11513739 0.12039494 0.00000073
0.15317928 0.11972520 0.00000073
0.18925636 0.11879240 0.00000073
0.22430641 0.11743572 0.00000073
0.25871501 0.11541077 0.00000073
0.29267805 0.11233989 0.00000073
0.32630923 0.10760359 0.00000073
0.35968056 0.10006831 0.00207020
0.39284046 0.08721159 0.03230884
0.42582294 0.06022649 0.04806324
0.45865266 0.00000073 0.06194116
0.49134799 0.00000073 0.07534371
0.52392288 0.00000073 0.08880408
0.55638538 0.00000073 0.10259536
0.58864546 0.00000073 0.11683712
0.62063347 0.00000073 0.13159999
0.65231534 0.00000073 0.14693582
0.68365362 0.00000073 0.16287106
0.71460763 0.00000073 0.17941280
0.74513357 0.00000073 0.19655217
0.75182710 0.00000073 0.21426615
0.75182710 0.00000073 0.23251870
0.75182710 0.00000073 0.25126136
0.75182710 0.00000073 0.27043356
0.75182710 0.00000073 0.28996282
0.75182710 0.00000073 0.30976489
0.75182710 0.00000073 0.32974386
0.00000073 0.15553966 0.00000073
0.00000073 0.15546347 0.00000073
0.00000073 0.15541041 0.00000073
0.00000073 0.15537177 0.00000073
0.00000073 0.15532075 0.00000073
0.04505779 0.15523645 0.00000073
0.10613798 0.15509659 0.00000073
0.14857160 0.15486890 0.00000073
0.18673236 0.15450199 0.00000073
0.22301838 0.15391530 0.00000073
0.25825935 0.15298780 0.00000073
0.29283060 0.15154182 0.00000073
0.32693145 0.14931499 0.00000073
0.36067986 0.14590666 0.00000073
0.39415118 0.14066554 0.00000073
0.42739626 0.13242036 0.00000073
0.46045082 0.11866972 0.04320395
0.49334079 0.09176822 0.06323258
0.52604030 0.00000073 0.08031925
0.55846818 0.00000073 0.09640930
0.59059593 0.00000073 0.11222195
0.62239312 0.00000073 0.12810135
0.65382480 0.00000073 0.14423296
0.68485220 0.00000073 0.16072010
0.71543310 0.00000073 0.17761670
0.74552198 0.00000073 0.19494323
0.75182710 0.00000073 0.21269509
0.75182710 0.00000073 0.23084750
0.75182710 0.00000073 0.24935830
0.75182710 0.00000073 0.26816978
0.75182710 0.00000073 0.28720990
0.75182710 0.00000073 0.30639308
0.75182710 0.00000073 0.32572074
0.00000073 0.18894730 0.00000073
0.00000073 0.18910742 0.00000073
0.00000073 0.18928934 0.00000073
0.00000073 0.18948579 0.00000073
0.00000073 0.18967788 0.00000073
0.00000073 0.18985047 0.00000073
0.08825516 0.18998803 0.00000073
0.14093548 0.19007059 0.00000073
0.18282944 0.19006888 0.00000073
0.22106115 0.18993809 0.00000073
0.25749462 0.18961087 0.00000073
0.29287313 0.18898892 0.00000073
0.32755864 0.18793121 0.00000073
0.36175126 0.18623480 0.00000073
0.39557195 0.18360097 0.00000073
0.42909883 0.17957101 0.00000073
0.46237200 0.17339835 0.00000073
0.49534683 0.16377626 0.02007411
0.52800476 0.14789910 0.05975809
0.56032656 0.11728589 0.08291693
0.59228598 0.00000073 0.10258269
0.62385254 0.00000073 0.12089741
0.65499101 0.00000073 0.13866617
0.68566169 0.00000073 0.15627368
0.71582111 0.00000073 0.17392219
0.74542226 0.00000073 0.19171780
0.75182710 0.00000073 0.20970825
0.75182710 0.00000073 0.22790169
0.75182710 0.00000073 0.24627696
0.75182710 0.00000073 0.26478956
0.75182710 0.00000073 0.28341134
0.75182710 0.00000073 0.30221369
0.75182710 0.00000073 0.32116427
0.00000073 0.22281734 0.00000073
0.00000073 0.22317839 0.00000073
0.00000073 0.22355786 0.00000073
0.00000073 0.22394945 0.00000073
0.00000073 0.22433923 0.00000073
0.00000073 0.22471577 0.00000073
0.01720363 0.22506740 0.00000073
0.12675284 0.22538019 0.00000073
0.17619211 0.22563542 0.00000073
0.21771434 0.22580585 0.00000073
0.25597263 0.22585115 0.00000073
0.29249599 0.22571253 0.00000073
0.32795873 0.22530606 0.00000073
0.36270894 0.22451327 0.00000073
0.39694466 0.22316665 0.00000073
0.43074021 0.22103632 0.00000073
0.46412491 0.21779032 0.00000073
0.49711646 0.21291640 0.00000073
0.52971422 0.20557451 0.00000073
0.56190460 0.19423650 0.04362936
0.59366451 0.17558746 0.08109536
0.62496472 0.13924335 0.10631926
0.65577042 0.00000073 0.12793548
0.68604160 0.00000073 0.14795381
0.71573393 0.00000073 0.16717877
0.74479916 0.00000073 0.18599918
0.75182710 0.00000073 0.20461459
0.75182710 0.00000073 0.22312189
0.75182710 0.00000073 0.24156157
0.75182710 0.00000073 0.26004222
0.75182710 0.00000073 0.27859365
0.75182710 0.00000073 0.29719865
0.75182710 0.00000073 0.31582698
0.00000073 0.25707204 0.00000073
0.00000073 0.25760058 0.00000073
0.00000073 0.25814287 0.00000073
0.00000073 0.25869331 0.00000073
0.00000073 0.25924120 0.00000073
0.00000073 0.25977765 0.00000073
0.00000073 0.26029346 0.00000073
0.09418774 0.26077816 0.00000073
0.16416383 0.26121863 0.00000073
0.21180110 0.26159690 0.00000073
0.25302811 0.26188724 0.00000073
0.29127004 0.26205252 0.00000073
0.32782872 0.26203986 0.00000073
0.36330706 0.26177506 0.00000073
0.39799377 0.26116191 0.00000073
0.43205103 0.26007165 0.00000073
0.46556596 0.25832373 0.00000073
0.49858132 0.25566076 0.00000073
0.53111181 0.25170486 0.00000073
0.56315338 0.24587519 0.00000073
0.59468874 0.23721430 0.00000073
0.62569175 0.22396109 0.06967148
0.65612918 0.20221408 0.10578178
0.68596150 0.15913503 0.13223097
0.71514411 0.00000073 0.15510764
0.74362796 0.00000073 0.17618693
0.75182710 0.00000073 0.19621974
0.75182710 0.00000073 0.21563908
0.75182710 0.00000073 0.23472563
0.75182710 0.00000073 0.25359603
0.75182710 0.00000073 0.27231065
0.75182710 0.00000073 0.29089299
0.75182710 0.00000073 0.30934080
0.00000073 0.29163018 0.00000073
0.00000073 0.29229413 0.00000073
0.00000073 0.29296631 0.00000073
0.00000073 0.29364164 0.00000073
0.00000073 0.29431162 0.00000073
0.00000073 0.29496910 0.00000073
0.00000073 0.29560661 0.00000073
0.00000073 0.29621587 0.00000073
0.13977036 0.29678704 0.00000073
0.20115471 0.29730741 0.00000073
0.24760731 0.29775955 0.00000073
0.28857031 0.29811734 0.00000073
0.32672831 0.29834153 0.00000073
0.36318588 0.29839166 0.00000073
0.39848230 0.29821246 0.00000073
0.43290345 0.29772724 0.00000073
0.46660557 0.29683062 0.00000073
0.49967212 0.29537781 0.00000073
0.53214267 0.29316816 0.00000073
0.56402860 0.28991805 0.00000073
0.59532229 0.28521385 0.00000073
0.62600342 0.27842217 0.00000073
0.65604139 0.26850006 0.00000073
0.68538948 0.25351840 0.09665654
0.71400149 0.22919888 0.13177463
0.74186163 0.18114498 0.15877037
0.75182710 0.00000073 0.18234807
0.75182710 0.00000073 0.20407793
0.75182710 0.00000073 0.22467819
0.75182710 0.00000073 0.24452637
0.75182710 0.00000073 0.26383215
0.75182710 0.00000073 0.28271119
0.75182710 0.00000073 0.30122649
0.00000073 0.32640841 0.00000073
0.00000073 0.32717668 0.00000073
0.00000073 0.32794708 0.00000073
0.00000073 0.32871490 0.00000073
0.00000073 0.32947325 0.00000073
0.00000073 0.33021616 0.00000073
0.00000073 0.33093739 0.00000073
0.00000073 0.33163015 0.00000073
0.04988088 0.33228670 0.00000073
0.18079026 0.33289711 0.00000073
0.23786804 0.33343751 0.00000073
0.28344227 0.33389136 0.00000073
0.32408504 0.33424370 0.00000073
0.36200833 0.33447188 0.00000073
0.39819653 0.33454304 0.00000073
0.43314955 0.33441105 0.00000073
0.46713828 0.33401265 0.00000073
0.50031198 0.33326231 0.00000073
0.53274974 0.33204499 0.00000073
0.56448458 0.33020269 0.00000073
0.59551552 0.32751504 0.00000073
0.62583222 0.32368840 0.00000073
0.65541152 0.31830217 0.00000073
0.68422595 0.31072000 0.00000073
0.71233737 0.29983182 0.06061557
0.73976514 0.28360258 0.12281309
0.75182710 0.25751482 0.15756498
0.75182710 0.20650443 0.18508482
0.75182710 0.00000073 0.20915472
0.75182710 0.00000073 0.23120797
0.75182710 0.00000073 0.25193708
0.75182710 0.00000073 0.27171915
0.75182710 0.00000073 0.29075060
0.00000073 0.36132201 0.00000073
0.00000073 0.36216427 0.00000073
0.00000073 0.36300213 0.00000073
0.00000073 0.36383122 0.00000073
0.00000073 0.36464578 0.00000073
0.00000073 0.36544067 0.00000073
0.00000073 0.36621056 0.00000073
0.00000073 0.36694972 0.00000073
0.00000073 0.36764180 0.00000073
0.13165359 0.36826685 0.00000073
0.22005128 0.36882265 0.00000073
0.27437178 0.36930512 0.00000073
0.31912238 0.36970688 0.00000073
0.35931795 0.37001574 0.00000073
0.39684732 0.37021303 0.00000073
0.43259754 0.37027170 0.00000073
0.46702630 0.37014721 0.00000073
0.50038417 0.36978315 0.00000073
0.53281377 0.36911270 0.00000073
0.56439017 0.36804779 0.00000073
0.59514624 0.36647293 0.00000073
0.62508747 0.36423651 0.00000073
0.65425246 0.36112135 0.00000073
0.68269685 0.35681090 0.00000073
0.71042111 0.35086367 0.00000073
0.73741951 0.34261258 0.00000073
0.75182710 0.33097200 0.09389315
0.75182710 0.31396849 0.14826209
0.75182710 0.28730271 0.18261319
0.75182710 0.23750680 0.21021911
0.75182710 0.00000073 0.23432051
0.75182710 0.00000073 0.25623512
0.75182710 0.00000073 0.27661416
0.00000073 0.39628546 0.00000073
0.00000073 0.39717190 0.00000073
0.00000073 0.39804719 0.00000073
0.00000073 0.39890717 0.00000073
0.00000073 0.39974688 0.00000073
0.00000073 0.40056182 0.00000073
0.00000073 0.40134224 0.00000073
0.00000073 0.40205895 0.00000073
0.00000073 0.40270897 0.00000073
0.00000073 0.40329345 0.00000073
0.18293932 0.40381306 0.00000073
0.25840286 0.40426739 0.00000073
0.31056144 0.40465305 0.00000073
0.35442258 0.40495544 0.00000073
0.39399549 0.40516378 0.00000073
0.43092279 0.40526446 0.00000073
0.46600987 0.40523713 0.00000073
0.49968921 0.40505322 0.00000073
0.53220234 0.40467419 0.00000073
0.56368334 0.40404957 0.00000073
0.59421807 0.40311281 0.00000073
0.62391010 0.40176710 0.00000073
0.65280149 0.39988611 0.00000073
0.68091235 0.39730567 0.00000073
0.70825082 0.39380837 0.00000073
0.73481652 0.38909904 0.00000073
0.75182710 0.38276265 0.00000073
0.75182710 0.37418565 0.00000073
0.75182710 0.36239952 0.12033250
0.75182710 0.34571371 0.17134961
0.75182710 0.32067901 0.20529350
0.75182710 0.27792639 0.23261132
0.75182710 0.15510962 0.25626576
0.00000073 0.43121382 0.00000073
0.00000073 0.43211437 0.00000073
0.00000073 0.43299723 0.00000073
0.00000073 0.43385827 0.00000073
0.00000073 0.43469204 0.00000073
0.00000073 0.43546650 0.00000073
0.00000073 0.43616839 0.00000073
0.00000073 0.43679972 0.00000073
0.00000073 0.43736296 0.00000073
0.00000073 0.43785707 0.00000073
0.00000073 0.43827644 0.00000073
0.22789794 0.43862391 0.00000073
0.29594534 0.43890169 0.00000073
0.34614670 0.43911026 0.00000073
0.38897531 0.43924763 0.00000073
0.42773521 0.43930843 0.00000073
0.46386975 0.43928309 0.00000073
0.49811130 0.43915694 0.00000073
0.53086291 0.43890950 0.00000073
0.56239561 0.43851364 0.00000073
0.59287906 0.43792359 0.00000073
0.62241287 0.43707905 0.00000073
0.65105834 0.43590446 0.00000073
0.67885162 0.43430521 0.00000073
0.70581179 0.43216236 0.00000073
0.73194602 0.42932466 0.00000073
0.75182710 0.42559795 0.00000073
0.75182710 0.42072756 0.00000073
0.75182710 0.41436898 0.00000073
0.75182710 0.40603681 0.00000073
0.75182710 0.39500774 0.13994316
0.75182710 0.38011574 0.18980987
0.75182710 0.35925127 0.22334649
0.00000073 0.46602199 0.00000073
0.00000073 0.46690713 0.00000073
0.00000073 0.46776778 0.00000073
0.00000073 0.46858075 0.00000073
0.00000073 0.46931341 0.00000073
0.00000073 0.46996681 0.00000073
0.00000073 0.47053549 0.00000073
0.00000073 0.47101827 0.00000073
0.00000073 0.47141981 0.00000073
0.00000073 0.47174517 0.00000073
0.00000073 0.47199963 0.00000073
0.14163953 0.47218839 0.00000073
0.26980698 0.47231618 0.00000073
0.33259423 0.47238682 0.00000073
0.38091734 0.47240266 0.00000073
0.42257894 0.47236402 0.00000073
0.46035010 0.47226864 0.00000073
0.49551930 0.47211719 0.00000073
0.52879101 0.47190143 0.00000073
0.56057093 0.47159767 0.00000073
0.59110456 0.47117568 0.00000073
0.62054443 0.47059767 0.00000073
0.64898601 0.46981709 0.00000073
0.67648809 0.46877690 0.00000073
0.70308516 0.46740795 0.00000073
0.72879502 0.46562713 0.00000073
0.75182710 0.46333413 0.00000073
0.75182710 0.46040751 0.00000073
0.75182710 0.45669919 0.00000073
0.75182710 0.45202652 0.00000073
0.75182710 0.44616007 0.00000073
0.75182710 0.43880454 0.00000073
0.75182710 0.42956662 0.14804605
0.00000073 0.50062437 0.00000073
0.00000073 0.50145647 0.00000073
0.00000073 0.50220418 0.00000073
0.00000073 0.50285242 0.00000073
0.00000073 0.50340211 0.00000073
0.00000073 0.50385678 0.00000073
0.00000073 0.50422066 0.00000073
0.00000073 0.50449870 0.00000073
0.00000073 0.50469647 0.00000073
0.00000073 0.50482009 0.00000073
0.00000073 0.50487608 0.00000073
0.00000073 0.50487114 0.00000073
0.21246850 0.50481192 0.00000073
0.30983324 0.50470465 0.00000073
0.36835399 0.50455482 0.00000073
0.41475975 0.50437141 0.00000073
0.45509153 0.50417052 0.00000073
0.49173549 0.50394623 0.00000073
0.52585440 0.50368772 0.00000073
0.55808563 0.50338040 0.00000073
0.58880416 0.50300547 0.00000073
0.61824015 0.50253926 0.00000073
0.64653792 0.50195263 0.00000073
0.67378827 0.50121099 0.00000073
0.70004710 0.50027348 0.00000073
0.72534689 0.49909268 0.00000073
0.74970384 0.49761414 0.00000073
0.75182710 0.49577624 0.00000073
0.75182710 0.49351004 0.00000073
0.75182710 0.49074078 0.00000073
0.75182710 0.48739903 0.00000073
0.75182710 0.48337685 0.00000073
0.75182710 0.47846756 0.00000073
0.00000073 0.53486568 0.00000073
0.00000073 0.53549473 0.00000073
0.00000073 0.53601635 0.00000073
0.00000073 0.53643328 0.00000073
0.00000073 0.53674905 0.00000073
0.00000073 0.53696797 0.00000073
0.00000073 0.53709509 0.00000073
0.00000073 0.53713618 0.00000073
0.00000073 0.53709768 0.00000073
0.00000073 0.53698665 0.00000073
0.00000073 0.53681066 0.00000073
0.00000073 0.53657764 0.00000073
0.00000073 0.53629570 0.00000073
0.26652529 0.53597441 0.00000073
0.34838692 0.53564267 0.00000073
0.40307352 0.53530870 0.00000073
0.44748110 0.53497068 0.00000073
0.48638640 0.53462494 0.00000073
0.52180972 0.53426561 0.00000073
0.55477684 0.53388426 0.00000073
0.58586505 0.53346944 0.00000073
0.61542013 0.53300684 0.00000073
0.64365689 0.53247893 0.00000073
0.67071105 0.53186488 0.00000073
0.69666818 0.53114059 0.00000073
0.72158085 0.53027898 0.00000073
0.74548415 0.52925549 0.00000073
0.75182710 0.52805100 0.00000073
0.75182710 0.52663420 0.00000073
0.75182710 0.52497172 0.00000073
0.75182710 0.52299355 0.00000073
0.75182710 0.52062814 0.00000073
0.75182710 0.51780454 0.00000073
0.00000073 0.56841582 0.00000073
0.00000073 0.56878847 0.00000073
0.00000073 0.56904953 0.00000073
0.00000073 0.56920252 0.00000073
0.00000073 0.56925173 0.00000073
0.00000073 0.56920224 0.00000073
0.00000073 0.56905986 0.00000073
0.00000073 0.56883115 0.00000073
0.00000073 0.56852336 0.00000073
0.00000073 0.56814437 0.00000073
0.00000073 0.56770269 0.00000073
0.00000073 0.56720727 0.00000073
0.00000073 0.56668604 0.00000073
0.05481464 0.56616510 0.00000073
0.31362747 0.56564662 0.00000073
0.38525403 0.56513196 0.00000073
0.43651113 0.56462143 0.00000073
0.47893346 0.56411410 0.00000073
0.51633533 0.56360737 0.00000073
0.55043813 0.56309702 0.00000073
0.58214831 0.56257699 0.00000073
0.61198796 0.56203923 0.00000073
0.64027474 0.56147383 0.00000073
0.66721865 0.56087968 0.00000073
0.69295334 0.56025029 0.00000073
0.71755902 0.55957120 0.00000073
0.74108474 0.55882735 0.00000073
0.75182710 0.55800400 0.00000073
0.75182710 0.55707723 0.00000073
0.75182710 0.55601064 0.00000073
0.75182710 0.55477079 0.00000073
0.75182710 0.55332333 0.00000073
0.75182710 0.55163344 0.00000073
0.00000073 0.60115417 0.00000073
0.00000073 0.60123668 0.00000073
0.00000073 0.60120353 0.00000073
0.00000073 0.60105898 0.00000073
0.00000073 0.60080807 0.00000073
0.00000073 0.60045663 0.00000073
0.00000073 0.60001119 0.00000073
0.00000073 0.59947905 0.00000073
0.00000073 0.59886821 0.00000073
0.00000073 0.59818736 0.00000073
0.00000073 0.59745569 0.00000073
0.00000073 0.59671608 0.00000073
0.00000073 0.59597557 0.00000073
0.00000073 0.59523756 0.00000073
0.23151425 0.59450510 0.00000073
0.35636727 0.59378072 0.00000073
0.42047209 0.59306616 0.00000073
0.46858053 0.59236235 0.00000073
0.50899625 0.59166921 0.00000073
0.54480912 0.59098763 0.00000073
0.57750429 0.59032853 0.00000073
0.60788460 0.58969084 0.00000073
0.63642081 0.58906995 0.00000073
0.66340328 0.58846016 0.00000073
0.68901588 0.58785503 0.00000073
0.71337599 0.58724776 0.00000073
0.73658070 0.58663156 0.00000073
0.75182710 0.58599285 0.00000073
0.75182710 0.58531123 0.00000073
0.75182710 0.58456597 0.00000073
0.75182710 0.58373653 0.00000073
0.75182710 0.58280314 0.00000073
0.75182710 0.58174743 0.00000073
0.00000073 0.63297789 0.00000073
0.00000073 0.63273551 0.00000073
0.00000073 0.63237351 0.00000073
0.00000073 0.63189686 0.00000073
0.00000073 0.63131135 0.00000073
0.00000073 0.63062347 0.00000073
0.00000073 0.62984052 0.00000073
0.00000073 0.62897047 0.00000073
0.00000073 0.62802470 0.00000073
0.00000073 0.62705231 0.00000073
0.00000073 0.62607196 0.00000073
0.00000073 0.62508768 0.00000073
0.00000073 0.62410352 0.00000073
0.00000073 0.62312339 0.00000073
0.00000073 0.62215095 0.00000073
0.30086920 0.62118950 0.00000073
0.39601946 0.62024836 0.00000073
0.45409242 0.61934118 0.00000073
0.49925559 0.61847015 0.00000073
0.53767923 0.61763652 0.00000073
0.57188248 0.61684069 0.00000073
0.60312457 0.61608227 0.00000073
0.63210999 0.61536013 0.00000073
0.65926071 0.61467257 0.00000073
0.68484379 0.61401837 0.00000073
0.70908688 0.61340166 0.00000073
0.73214687 0.61281215 0.00000073
0.75182710 0.61223544 0.00000073
0.75182710 0.61165719 0.00000073
0.75182710 0.61106345 0.00000073
0.75182710 0.61044101 0.00000073
0.75182710 0.60977795 0.00000073
0.75182710 0.60906416 0.00000073
