resources/flame/Syncolor/Shared/transforms/camera_manufacturer_luts/arri/ARRI_Alexa_LUTs/ARRI_HDR_Lookfiles_3DLUTs_190319/3D_LUTs_for_monitor_grading_add_P3D65/ARRI_P3D65HLG-1K-200_33.cube
LUT_3D_SIZE 5
0.00000000 0.00000000 0.00000000
0.18380690 0.00000000 0.00921009
0.58453952 0.00000000 0.02998420
0.98265366 0.00000000 0.08277971
1.00000000 0.00000000 0.26028791
0.00000000 0.14139167 0.00000000
0.13887914 0.14765386 0.00000000
0.63883732 0.11859484 0.00000000
1.00000000 0.00000000 0.08842103
1.00000000 0.00000000 0.27228352
0.00000000 0.64018572 0.00000000
0.00000000 0.66464992 0.00000000
0.64195506 0.66753858 0.00000000
1.00000000 0.62751557 0.00000000
1.00000000 0.55217863 0.07483880
0.00000000 1.00000000 0.00000000
0.00000000 1.00000000 0.00000000
0.00000000 1.00000000 0.00000000
0.95465394 0.97716274 0.00000000
1.00000000 0.95144244 0.00000000
0.00000000 1.00000000 0.00000000
0.00000000 1.00000000 0.00000000
0.00000000 1.00000000 0.00000000
0.78658781 1.00000000 0.00000000
1.00000000 1.00000000 0.00000000
0.00000000 0.00000000 0.16208107
0.15417376 0.00000000 0.09526112
0.57247678 0.00000000 0.07570718
0.98057293 0.00000000 0.10406586
1.00000000 0.00000000 0.25922991
0.00000000 0.13078557 0.12893752
0.13727906 0.13727906 0.13727906
0.65054421 0.10496075 0.13183761
1.00000000 0.00000000 0.15623996
1.00000000 0.00000000 0.29036825
0.00000000 0.64817884 0.00000000
0.00000000 0.66830737 0.00000000
0.64530124 0.66927164 0.00000000
1.00000000 0.63420371 0.08957595
1.00000000 0.60209132 0.25692840
0.00000000 1.00000000 0.00000000
0.00000000 1.00000000 0.00000000
0.19656160 0.99794819 0.00000000
0.94616262 0.96793230 0.00000000
1.00000000 0.94708123 0.00000000
0.00000000 1.00000000 0.00000000
0.00000000 1.00000000 0.00000000
0.00000000 1.00000000 0.00000000
0.82056525 1.00000000 0.00000000
1.00000000 1.00000000 0.59361742
0.00000000 0.00000000 0.27707647
0.09900521 0.00000000 0.22638691
0.52944053 0.00000000 0.18964832
0.95401896 0.00000000 0.19024884
1.00000000 0.00000000 0.29033203
0.00000000 0.00000000 0.48669200
0.00000000 0.00000000 0.54205789
0.62797003 0.00000000 0.50231173
1.00000000 0.00000000 0.47141237
1.00000000 0.00000000 0.54852560
0.00000000 0.61356224 0.60460756
0.00000000 0.63088246 0.62617877
0.63375089 0.63375090 0.63375091
1.00000000 0.60521617 0.62543718
1.00000000 0.59207147 0.67109898
0.00000000 1.00000000 0.23849200
0.00000000 1.00000000 0.36804123
0.27871211 0.98187920 0.48053487
0.93752531 0.95499111 0.57406138
1.00000000 0.93784259 0.66609919
0.00000000 1.00000000 0.00000000
0.00000000 1.00000000 0.00000000
0.00000000 1.00000000 0.00000000
0.86162645 1.00000000 0.62947968
1.00000000 1.00000000 0.94892031
0.00000000 0.00000000 0.37949112
0.00000000 0.00000000 0.36169186
0.46788242 0.00000000 0.32298850
0.90983090 0.00000000 0.30732575
1.00000000 0.00000000 0.37079178
0.00000000 0.00000000 0.69254777
0.00000000 0.00000000 0.73813689
0.54458973 0.00000000 0.74596697
0.96313262 0.00000000 0.72834780
1.00000000 0.00000000 0.76485616
0.00000000 0.17717234 0.97030759
0.00000000 0.15399154 0.98613525
0.51281254 0.22728886 0.98124757
0.98706783 0.30531875 0.93771303
1.00000000 0.37085804 0.93245980
0.00000000 0.97964574 0.97050547
0.00000000 0.95866347 0.95347524
0.00000000 0.94300660 0.94012553
0.92247302 0.92247303 0.92247305
1.00000000 0.91758525 0.92156127
0.00000000 1.00000000 0.81797550
0.00000000 1.00000000 0.83669549
0.00000000 1.00000000 0.85807140
0.94102237 1.00000000 0.94642893
0.99768017 0.99822554 0.99299330
0.00000000 0.00000000 0.47726630
0.00000000 0.00000000 0.48963505
0.39195676 0.00000000 0.47596165
0.85351839 0.00000000 0.45173629
1.00000000 0.00000000 0.49624714
0.00000000 0.00000000 0.81874703
0.00000000 0.00000000 0.85692513
0.37932566 0.00000000 0.88128806
0.90623295 0.00000000 0.86767700
1.00000000 0.00000000 0.88661543
0.00000000 0.00000000 1.00000000
0.00000000 0.00000000 1.00000000
0.00000000 0.00000000 1.00000000
0.93573663 0.00000000 1.00000000
1.00000000 0.00000000 1.00000000
0.00000000 0.82893507 1.00000000
0.00000000 0.83013295 1.00000000
0.00000000 0.84372205 1.00000000
0.89547164 0.85476120 1.00000000
1.00000000 0.92836673 1.00000000
0.00000000 1.00000000 1.00000000
0.00000000 1.00000000 1.00000000
0.65616865 1.00000000 1.00000000
0.98211831 0.99502599 0.99485863
0.99884164 0.99884168 0.99884171
