resources/flame/Syncolor/Shared/transforms/camera_manufacturer_luts/arri/ARRI_Alexa_LUTs/ARRI_HDR_Lookfiles_3DLUTs_190319/3D_LUTs_for_monitor_grading_add_P3D65/ARRI_Rec2100PQ-1K-100_33.cube
LUT_3D_SIZE 9
0.00000073 0.00000073 0.00000073
0.10417733 0.02791900 0.00431493
0.20523733 0.06829599 0.01294967
0.31095223 0.12096256 0.02735248
0.42992407 0.19139171 0.05125900
0.55221993 0.27507924 0.08580929
0.67553395 0.37035451 0.13262520
0.75182710 0.47700791 0.19395536
0.75182710 0.59323243 0.27109568
0.01709028 0.05720417 0.00000073
0.05089704 0.05388310 0.00000073
0.17674619 0.07132849 0.00000073
0.30281904 0.12150728 0.02147826
0.42878751 0.19241912 0.04917965
0.55491259 0.27772263 0.08587123
0.68095230 0.37505757 0.13459547
0.75182710 0.48032108 0.19573710
0.75182710 0.58860642 0.26767755
0.07321923 0.18485847 0.00000073
0.08254870 0.18567048 0.00000073
0.18125935 0.18892914 0.00000073
0.30748353 0.20224129 0.00000073
0.43590762 0.23790724 0.00000073
0.56279046 0.30173055 0.05173130
0.68499968 0.38614955 0.12345976
0.75182710 0.48002936 0.18745028
0.75182710 0.57466589 0.25366179
0.15058077 0.32073136 0.00000073
0.15584426 0.32379412 0.00000073
0.21217254 0.32722201 0.00000073
0.32186900 0.33265073 0.00000073
0.44546424 0.34496601 0.00000073
0.56759266 0.37283680 0.00000073
0.68214117 0.42217007 0.00000073
0.75182710 0.48922753 0.11994262
0.75182710 0.56420172 0.21450219
0.24426957 0.45932181 0.00000073
0.24822468 0.46260518 0.00000073
0.27511924 0.46489468 0.00000073
0.35093444 0.46680456 0.00000073
0.45774022 0.47040459 0.00000073
0.56954262 0.47957932 0.00000073
0.67538418 0.49927645 0.00000073
0.75182710 0.53257573 0.00000073
0.75182710 0.57676736 0.00000073
0.34768384 0.59388018 0.00000073
0.34824638 0.59354004 0.00000073
0.35851656 0.59168010 0.00000073
0.40036570 0.58916644 0.00000073
0.47936112 0.58754148 0.00000073
0.57468890 0.58832636 0.00000073
0.66879356 0.59384500 0.00000073
0.75182710 0.60622025 0.00000073
0.75182710 0.62606602 0.00000073
0.44977789 0.71435750 0.00000073
0.44468990 0.70793773 0.00000073
0.44483003 0.70083892 0.00000073
0.46397627 0.69395581 0.00000073
0.51449998 0.68787559 0.00000073
0.58857436 0.68348553 0.00000073
0.66813058 0.68217999 0.00000073
0.74248472 0.68470522 0.00000073
0.75182710 0.69131031 0.00000073
0.54110839 0.75182710 0.00000073
0.53052994 0.75182710 0.00000073
0.52356155 0.75182710 0.00000073
0.52904735 0.75182710 0.00000073
0.55848239 0.75182710 0.00000073
0.61115617 0.75182710 0.00000073
0.67416210 0.75182710 0.00000073
0.73581862 0.74995939 0.00000073
0.75182710 0.74899652 0.00000073
0.61754623 0.75182710 0.00000073
0.60049769 0.75182710 0.00000073
0.58685746 0.75182710 0.00000073
0.58391380 0.75182710 0.00000073
0.59953961 0.75182710 0.00000073
0.63564512 0.75182710 0.00000073
0.68380924 0.75182710 0.00000073
0.73312223 0.75182710 0.00000073
0.75182710 0.75182710 0.00000073
0.00000073 0.00000073 0.10925038
0.09173192 0.00000073 0.08634954
0.19709709 0.05857937 0.06513170
0.30771969 0.11809448 0.05627890
0.42953826 0.19078714 0.06789127
0.55235235 0.27505022 0.09405318
0.67604181 0.37072341 0.13654094
0.75182710 0.47725983 0.19575515
0.75182710 0.58998936 0.26955093
0.00545601 0.05080441 0.05087682
0.04805825 0.04805825 0.04805825
0.17783636 0.06856195 0.04665617
0.30404433 0.12112100 0.05145545
0.43018730 0.19296105 0.06629707
0.55646558 0.27872985 0.09521869
0.68077317 0.37486927 0.13910345
0.75182710 0.47686338 0.19611015
0.75182710 0.57949510 0.26278725
0.07260138 0.18492457 0.00000073
0.08179121 0.18625855 0.00000073
0.18187402 0.18937150 0.00000073
0.30961803 0.20269249 0.00000073
0.43782511 0.23877807 0.00000073
0.56286986 0.30199871 0.07558437
0.68172452 0.38388879 0.13118964
0.75182710 0.47305356 0.18843538
0.75182710 0.56268255 0.24916314
0.15109547 0.32189644 0.00000073
0.15640440 0.32516904 0.00000073
0.21251127 0.32857316 0.00000073
0.32291230 0.33364428 0.00000073
0.44611812 0.34585119 0.00000073
0.56582789 0.37324880 0.00000073
0.67694967 0.42048237 0.00000073
0.75182710 0.48359315 0.14061411
0.75182710 0.55303498 0.21837455
0.24516456 0.46069211 0.00000073
0.24884852 0.46356293 0.00000073
0.27579395 0.46536834 0.00000073
0.35192843 0.46696442 0.00000073
0.45795879 0.47057090 0.00000073
0.56767665 0.47990627 0.00000073
0.67027217 0.49909621 0.00000073
0.75182710 0.53017892 0.00000073
0.75182710 0.57030914 0.00000073
0.34727788 0.59344251 0.00000073
0.34728108 0.59226799 0.00000073
0.35806095 0.58985645 0.00000073
0.40136762 0.58746252 0.00000073
0.48037161 0.58614036 0.00000073
0.57384155 0.58740351 0.00000073
0.66474128 0.59337857 0.00000073
0.74633833 0.60567770 0.00000073
0.75182710 0.62434316 0.00000073
0.44634747 0.71050447 0.00000073
0.44101652 0.70360032 0.00000073
0.44220686 0.69658098 0.00000073
0.46371898 0.68996415 0.00000073
0.51614232 0.68434265 0.00000073
0.58946063 0.68086659 0.00000073
0.66652798 0.68046457 0.00000073
0.73773380 0.68357653 0.00000073
0.75182710 0.69026217 0.00000073
0.53446411 0.75182710 0.00000073
0.52401571 0.75182710 0.00000073
0.51818937 0.75182710 0.00000073
0.52670244 0.75182710 0.00000073
0.55933814 0.75182710 0.00000073
0.61278905 0.75182710 0.00000073
0.67426077 0.75018194 0.00000073
0.73322288 0.74718675 0.00000073
0.75182710 0.74684654 0.00000073
0.60716131 0.75182710 0.00000073
0.59042986 0.75182710 0.00000073
0.57901927 0.75182710 0.00000073
0.57949553 0.75182710 0.00000073
0.59904526 0.75182710 0.00000073
0.63739239 0.75182710 0.00000073
0.68526693 0.75182710 0.00000073
0.73241663 0.75182710 0.00000073
0.75182710 0.75182710 0.00000073
0.00000073 0.00000073 0.18163801
0.06059616 0.00000073 0.16602073
0.18572802 0.00000073 0.15257247
0.30427248 0.09524048 0.15127644
0.42774514 0.18287728 0.15827695
0.55151051 0.27182460 0.16962607
0.67588262 0.36955202 0.19019362
0.75182710 0.47493908 0.22656018
0.75182710 0.58355173 0.28185106
0.00000073 0.00000073 0.16108974
0.00000073 0.00000073 0.16701846
0.17249120 0.00000073 0.17066840
0.30316625 0.08653818 0.17416970
0.43062038 0.18324640 0.17942706
0.55667968 0.27527492 0.18803704
0.67854204 0.37166181 0.20420246
0.75182710 0.47050580 0.23382509
0.75182710 0.56717229 0.27866694
0.03114508 0.17362241 0.17257587
0.05081416 0.17451487 0.17610216
0.17772259 0.17772259 0.17772259
0.31096273 0.19315093 0.17951712
0.43860532 0.23305225 0.18455093
0.56144429 0.29827318 0.19414324
0.67642790 0.37870605 0.21165353
0.75182710 0.46437351 0.23966430
0.75182710 0.54927140 0.27800838
0.14433180 0.32045782 0.14270700
0.15008101 0.32395184 0.14383306
0.20936520 0.32749362 0.14415122
0.32299934 0.33229121 0.14881635
0.44643722 0.34449396 0.16376130
0.56346951 0.37179551 0.18378399
0.67120201 0.41744465 0.20918300
0.75182710 0.47694314 0.24089795
0.75182710 0.54100959 0.27773713
0.24341711 0.46092683 0.00000073
0.24684210 0.46330793 0.00000073
0.27476941 0.46481490 0.00000073
0.35222323 0.46633089 0.00000073
0.45804010 0.47007741 0.00000073
0.56583778 0.47957426 0.00000073
0.66498683 0.49836249 0.12696268
0.75168696 0.52748101 0.21273597
0.75182710 0.56442202 0.26747503
0.34536858 0.59203004 0.00000073
0.34491228 0.59011659 0.00000073
0.35683296 0.58762515 0.00000073
0.40208548 0.58550596 0.00000073
0.48138866 0.58455595 0.00000073
0.57316655 0.58635036 0.00000073
0.66118834 0.59285138 0.00000073
0.73958138 0.60510156 0.00000073
0.75182710 0.62277104 0.21229353
0.44195633 0.70593547 0.00000073
0.43676528 0.69896062 0.00000073
0.43931095 0.69212272 0.00000073
0.46364323 0.68587276 0.00000073
0.51806109 0.68096538 0.00000073
0.59056641 0.67847753 0.00000073
0.66527215 0.67886033 0.00000073
0.73339739 0.68247613 0.00000073
0.75182710 0.68923358 0.00000073
0.52733483 0.75182710 0.00000073
0.51714422 0.75182710 0.00000073
0.51289344 0.75182710 0.00000073
0.52497271 0.75182710 0.00000073
0.56065490 0.75182710 0.00000073
0.61472309 0.75135335 0.00000073
0.67464622 0.74674844 0.00000073
0.73098503 0.74453435 0.00000073
0.75182710 0.74472520 0.00000073
0.59635219 0.75182710 0.00000073
0.58082144 0.75182710 0.00000073
0.57184538 0.75182710 0.00000073
0.57596983 0.75182710 0.00000073
0.59940728 0.75182710 0.00000073
0.63974684 0.75182710 0.00000073
0.68714059 0.75182710 0.00000073
0.73221520 0.75182710 0.00000073
0.75182710 0.75182710 0.54051118
0.00000073 0.00000073 0.22792763
0.00000073 0.00000073 0.21800496
0.17137739 0.00000073 0.21285415
0.29887191 0.00000073 0.22091645
0.42429794 0.15761469 0.23218280
0.54925284 0.26199781 0.24518812
0.67329185 0.36408204 0.26162556
0.75182710 0.46847059 0.28475070
0.75182710 0.57265539 0.31927410
0.00000073 0.00000073 0.23710995
0.00000073 0.00000073 0.24816827
0.15512165 0.00000073 0.25866015
0.29798046 0.00000073 0.26848819
0.42846386 0.12297101 0.27835693
0.55406035 0.25721622 0.28851288
0.67337679 0.36113862 0.30014356
0.75182710 0.45907142 0.31562018
0.75182710 0.55203570 0.33815165
0.00000073 0.10427746 0.27824871
0.00000073 0.07310775 0.28890460
0.15210551 0.00000073 0.29907763
0.30526419 0.09655011 0.30588423
0.43622011 0.18874970 0.31138348
0.55766499 0.27727692 0.31758505
0.66926487 0.36524066 0.32555002
0.75182710 0.45154412 0.33706233
0.75182710 0.53316744 0.35395435
0.07860165 0.30803599 0.30375988
0.08543517 0.31024370 0.31029771
0.18821515 0.31308412 0.31529760
0.31819023 0.31819023 0.31819022
0.44531046 0.33238668 0.32174377
0.56020400 0.36232312 0.32858911
0.66454505 0.40903774 0.33854076
0.75182710 0.46688093 0.35241123
0.75182710 0.52690278 0.37056215
0.22936544 0.45733434 0.29107015
0.23281184 0.45921599 0.29461554
0.26577188 0.46057677 0.29889146
0.34897895 0.46259059 0.30391826
0.45710713 0.46661539 0.31227818
0.56382715 0.47637689 0.32738323
0.65935110 0.49519721 0.34552555
0.74229134 0.52315202 0.36603828
0.75182710 0.55777774 0.38842342
0.33881760 0.58881929 0.00000073
0.33811351 0.58642945 0.00000073
0.35217264 0.58412821 0.15065862
0.40092906 0.58240752 0.21572111
0.48162424 0.58196804 0.26093085
0.57240111 0.58435120 0.30189949
0.65801031 0.59135757 0.33869361
0.73325544 0.60364174 0.37250293
0.75182710 0.62057136 0.40478263
0.43560072 0.70065996 0.00000073
0.43059957 0.69368550 0.00000073
0.43491239 0.68708403 0.00000073
0.46286138 0.68132402 0.00000073
0.51952994 0.67744358 0.00000073
0.59152736 0.67583391 0.00000073
0.66415923 0.67688337 0.30125258
0.72933917 0.68093184 0.37215722
0.75182710 0.68777659 0.42387196
0.51910106 0.75182710 0.00000073
0.50924645 0.75182710 0.00000073
0.50732168 0.75182710 0.00000073
0.52320580 0.75182710 0.00000073
0.56198091 0.75182710 0.00000073
0.61668174 0.74709218 0.00000073
0.67519154 0.74321572 0.19991481
0.72897815 0.74168777 0.38737262
0.75182710 0.74204705 0.47137769
0.58521478 0.75182710 0.00000073
0.57128245 0.75182710 0.00000073
0.56487024 0.75182710 0.00000073
0.57295530 0.75182710 0.00000073
0.60032550 0.75182710 0.00000073
0.64251044 0.75182710 0.00000073
0.68930564 0.75182710 0.28428368
0.73361792 0.75182710 0.53109666
0.75182710 0.75182710 0.66515041
0.00000073 0.00000073 0.26102819
0.00000073 0.00000073 0.25354943
0.15476943 0.00000073 0.25487032
0.29205963 0.00000073 0.26809679
0.41966667 0.08415061 0.28283116
0.54553597 0.24435425 0.29917127
0.66778382 0.35351589 0.31726548
0.75182710 0.45749219 0.33805108
0.75182710 0.55693557 0.36367379
0.00000073 0.00000073 0.28807163
0.00000073 0.00000073 0.30324719
0.11738364 0.00000073 0.31881892
0.28911945 0.00000073 0.33417635
0.42324979 0.00000073 0.34890271
0.54836944 0.20543484 0.36286718
0.66481215 0.33861541 0.37640491
0.75182710 0.44083499 0.39038003
0.75182710 0.53275370 0.40651018
0.00000073 0.00000073 0.35101217
0.00000073 0.00000073 0.36654313
0.00000073 0.00000073 0.38128392
0.29040203 0.00000073 0.39387712
0.42897510 0.00000073 0.40420377
0.55038731 0.18740202 0.41315107
0.65997996 0.33104097 0.42189680
0.75182710 0.42874899 0.43123622
0.75182710 0.51123638 0.44180484
0.00000073 0.27043326 0.40414065
0.00000073 0.26299637 0.41624423
0.00000073 0.25627640 0.42678172
0.30004150 0.25612848 0.43555669
0.43793280 0.27805099 0.44078275
0.55426216 0.32371138 0.44516992
0.65626136 0.38312396 0.45054972
0.74437290 0.44671840 0.45733627
0.75182710 0.50788441 0.46609219
0.14690093 0.44410980 0.43513009
0.14596801 0.44418130 0.44120999
0.22045333 0.44469636 0.44573427
0.33445131 0.44702396 0.44948005
0.45219881 0.45219881 0.45219881
0.56061815 0.46406650 0.45628092
0.65311522 0.48496167 0.46372257
0.73297109 0.51376126 0.47355288
0.75182710 0.54783215 0.48575382
0.31616721 0.58138484 0.42798940
0.31589647 0.57893801 0.43124082
0.33561052 0.57686632 0.43554416
0.39372072 0.57568993 0.44110926
0.47915345 0.57622719 0.44809814
0.57083890 0.57948770 0.45803971
0.65490591 0.58709045 0.47273253
0.72708406 0.59978968 0.48907886
0.75182710 0.61650354 0.50690606
0.42343672 0.69381050 0.34540286
0.41866366 0.68686600 0.37033106
0.42573939 0.68051253 0.39418627
0.45916212 0.67562998 0.41655841
0.51938370 0.67279969 0.43737101
0.59169369 0.67207193 0.45828615
0.66287774 0.67373664 0.48101143
0.72538111 0.67822397 0.50546812
0.75182710 0.68528521 0.53088530
0.50805500 0.75182710 0.00000073
0.49887654 0.75182710 0.00000073
0.49987896 0.75182710 0.00000073
0.52020550 0.75182710 0.34125550
0.56261125 0.74727719 0.40920450
0.61827088 0.74228377 0.45514793
0.67566915 0.73914354 0.49372875
0.72704995 0.73824209 0.52992245
0.75182710 0.73729411 0.59579272
0.57322158 0.75182710 0.00000073
0.56079040 0.75182710 0.00000073
0.55721069 0.75182710 0.00000073
0.56980442 0.75182710 0.00000073
0.60140283 0.75182710 0.37721954
0.64547090 0.75182710 0.46907542
0.69491564 0.75182710 0.55015999
0.73640037 0.75182710 0.65301764
0.75039030 0.75182710 0.72039108
0.00000073 0.00000073 0.28950500
0.00000073 0.00000073 0.28483873
0.13198770 0.00000073 0.29265482
0.28419189 0.00000073 0.30752263
0.41448733 0.00000073 0.32354648
0.53994780 0.21370328 0.34044088
0.65965245 0.33779251 0.35832439
0.75182710 0.44213186 0.37796224
0.75182710 0.53751794 0.40051152
0.00000073 0.00000073 0.32861061
0.00000073 0.00000073 0.34507153
0.00000073 0.00000073 0.36218577
0.27728583 0.00000073 0.37954943
0.41580175 0.00000073 0.39661259
0.54008949 0.00000073 0.41343049
0.65329674 0.29838177 0.43007614
0.75182710 0.41503432 0.44627093
0.75182710 0.50847235 0.46235463
0.00000073 0.00000073 0.40013298
0.00000073 0.00000073 0.41876490
0.00000073 0.00000073 0.43684635
0.26626137 0.00000073 0.45360340
0.41791807 0.00000073 0.46818338
0.54056954 0.00000073 0.48085979
0.64856419 0.23061686 0.49225480
0.74322269 0.38729319 0.50263004
0.75182710 0.47943530 0.51222665
0.00000073 0.11073394 0.47245423
0.00000073 0.00000073 0.48839496
0.00000073 0.00000073 0.50227224
0.25811425 0.00000073 0.51380314
0.42401558 0.00000073 0.52287471
0.54453840 0.00000073 0.52970899
0.64547574 0.30674198 0.53539647
0.73071073 0.40412498 0.54084875
0.75182710 0.47724063 0.54701441
0.00000073 0.41593079 0.52715412
0.00000073 0.41000271 0.53647247
0.00000073 0.40587883 0.54397580
0.29188089 0.40528347 0.55019337
0.43928479 0.41084969 0.55521681
0.55253477 0.42845285 0.55752951
0.64521943 0.45694278 0.56003005
0.72305607 0.49188227 0.56416563
0.75182710 0.52961620 0.56996989
0.22366063 0.56667448 0.55362685
0.21882112 0.56299524 0.55711690
0.27214553 0.56043305 0.55958512
0.36904721 0.55957266 0.56155249
0.47050932 0.56148943 0.56389874
0.56657115 0.56657116 0.56657116
0.65105983 0.57628897 0.57103597
0.72050111 0.59086734 0.57834822
0.75182710 0.60866688 0.58775099
0.39278988 0.68315585 0.54738265
0.38888476 0.67627316 0.54906550
0.40289807 0.67050455 0.55209536
0.44776775 0.66675125 0.55666928
0.51562626 0.66508578 0.56258655
0.58997576 0.66559719 0.56962650
0.66096993 0.66814913 0.57907056
0.72131556 0.67331809 0.59235887
0.75182710 0.68104932 0.60738099
0.48980845 0.75182710 0.50449619
0.48205112 0.75182710 0.51921297
0.48711541 0.75182710 0.53311595
0.51386706 0.74612769 0.54687777
0.56153083 0.74036695 0.56098772
0.61900770 0.73618893 0.57589961
0.67578477 0.73395248 0.59263806
0.72423691 0.73251242 0.62116249
0.74646750 0.73164597 0.67407167
0.55822062 0.75182710 0.37817390
0.54731996 0.75182710 0.45800884
0.54733437 0.75182710 0.50244292
0.56558354 0.75182710 0.53559232
0.60222373 0.75182710 0.56403132
0.64987562 0.75182710 0.59431447
0.70603276 0.75182710 0.65568898
0.73995269 0.75182710 0.71446221
0.74942698 0.75064251 0.73946139
0.00000073 0.00000073 0.31403530
0.00000073 0.00000073 0.31319636
0.08607163 0.00000073 0.32616644
0.27500942 0.00000073 0.34234836
0.40828933 0.00000073 0.35935956
0.53269915 0.13701811 0.37667449
0.64925475 0.31389573 0.39437871
0.75182710 0.42173739 0.41278868
0.75182710 0.51549442 0.43289233
0.00000073 0.00000073 0.36446278
0.00000073 0.00000073 0.38209299
0.00000073 0.00000073 0.40032103
0.26068468 0.00000073 0.41832499
0.40647894 0.00000073 0.43580404
0.52981877 0.00000073 0.45266830
0.64037392 0.21319092 0.46929440
0.73956813 0.37952958 0.48617987
0.75182710 0.47842302 0.50345192
0.00000073 0.00000073 0.44089919
0.00000073 0.00000073 0.46004230
0.00000073 0.00000073 0.47835206
0.22840645 0.00000073 0.49554955
0.40458238 0.00000073 0.51163931
0.52921829 0.00000073 0.52720762
0.63555663 0.00000073 0.54186858
0.72675392 0.29753859 0.55443795
0.75182710 0.43190531 0.56513265
0.00000073 0.00000073 0.51865999
0.00000073 0.00000073 0.53634206
0.00000073 0.00000073 0.55266097
0.11024263 0.00000073 0.56746459
0.40478580 0.00000073 0.57974706
0.53210319 0.00000073 0.58935455
0.63267180 0.00000073 0.59661430
0.71644010 0.28662585 0.60279148
0.75182710 0.42262949 0.60849837
0.00000073 0.36240936 0.58874149
0.00000073 0.33292923 0.60107105
0.00000073 0.30090589 0.61119693
0.00000073 0.27671324 0.61912813
0.41719804 0.28542324 0.62476397
0.54056676 0.33211341 0.62838197
0.63505640 0.39082910 0.63092183
0.71194949 0.44708237 0.63345681
0.75182710 0.49737087 0.63655160
0.00000073 0.54266630 0.63463423
0.00000073 0.53546096 0.63978858
0.00000073 0.53064664 0.64303806
0.29889353 0.52928947 0.64499583
0.45291140 0.53221528 0.64701712
0.55822890 0.53977337 0.64918492
0.64405072 0.55381197 0.65008201
0.71256490 0.57302832 0.65160510
0.75182710 0.59455399 0.65475948
0.29545297 0.66723268 0.65224745
0.29077618 0.65953204 0.65220514
0.33628558 0.65419547 0.65216025
0.41794238 0.65134930 0.65252273
0.50503290 0.65096117 0.65348049
0.58552278 0.65310090 0.65521759
0.65751558 0.65751559 0.65751560
0.71672000 0.66475975 0.66153444
0.75182710 0.67532321 0.66964633
0.45217830 0.75182710 0.64492137
0.44708649 0.74992810 0.64510291
0.46100670 0.74192587 0.64597518
0.50041235 0.73555999 0.64808814
0.55741567 0.73079332 0.65159468
0.61855931 0.72778143 0.65655879
0.67588591 0.72652612 0.66431932
0.72132505 0.72511371 0.68625023
0.73661573 0.72861813 0.71486646
0.53546087 0.75182710 0.61753214
0.52676612 0.75182710 0.62500732
0.53254252 0.75182710 0.63302775
0.55914381 0.75182710 0.64217637
0.60255261 0.75182710 0.65263555
0.66399616 0.75182710 0.67721556
0.72018805 0.75182710 0.71360663
0.74303478 0.74840434 0.73702634
0.74970105 0.75003876 0.74703269
0.00000073 0.00000073 0.33531221
0.00000073 0.00000073 0.33969576
0.00000073 0.00000073 0.35579455
0.26391041 0.00000073 0.37306782
0.40069986 0.00000073 0.39065416
0.52378978 0.00000073 0.40828591
0.63660052 0.27525125 0.42587659
0.73865533 0.39598864 0.44380828
0.75182710 0.49018417 0.46262805
0.00000073 0.00000073 0.39621289
0.00000073 0.00000073 0.41489386
0.00000073 0.00000073 0.43371427
0.23629233 0.00000073 0.45207609
0.39509618 0.00000073 0.46972121
0.51823850 0.00000073 0.48662021
0.62662623 0.00000073 0.50328191
0.72224843 0.32129155 0.51974395
0.75182710 0.43969069 0.53598392
0.00000073 0.00000073 0.47670141
0.00000073 0.00000073 0.49600467
0.00000073 0.00000073 0.51429282
0.12780772 0.00000073 0.53130381
0.38847593 0.00000073 0.54746261
0.51681149 0.00000073 0.56289419
0.62149646 0.00000073 0.57756884
0.70918783 0.00000073 0.59143093
0.75182710 0.34735785 0.60442346
0.00000073 0.00000073 0.55724467
0.00000073 0.00000073 0.57448025
0.00000073 0.00000073 0.59043539
0.00000073 0.00000073 0.60534912
0.38066136 0.00000073 0.61899171
0.51800404 0.00000073 0.63112338
0.61924856 0.00000073 0.64083362
0.70185816 0.00000073 0.64867866
0.75182710 0.26425904 0.65497095
0.00000073 0.22598950 0.63037126
0.00000073 0.00000073 0.64437081
0.00000073 0.00000073 0.65700105
0.00000073 0.00000073 0.66700174
0.38238063 0.00000073 0.67419092
0.52608291 0.00000073 0.67940541
0.62351388 0.00000073 0.68287533
0.69990850 0.33110535 0.68521866
0.75182710 0.43887903 0.68692120
0.00000073 0.50623420 0.68942993
0.00000073 0.48942344 0.69651932
0.00000073 0.47761033 0.70090381
0.00000073 0.47365495 0.70377836
0.42164463 0.47888232 0.70579374
0.54668012 0.49351392 0.70693747
0.63505428 0.51670530 0.70696015
0.70319876 0.54510677 0.70624602
0.75182710 0.57438185 0.70565086
0.00000073 0.64485820 0.72123881
0.00000073 0.63583806 0.72140224
0.00000073 0.63032567 0.72099292
0.34678094 0.62819642 0.72020994
0.48608372 0.62938104 0.71925862
0.57915269 0.63379582 0.71838629
0.65264216 0.64129463 0.71763111
0.70973925 0.65300384 0.71533805
0.73375577 0.67365619 0.70888017
0.35415561 0.74326853 0.72917759
0.35667074 0.73363621 0.72656764
0.40241936 0.72615242 0.72395617
0.47431030 0.72069729 0.72155744
0.54920963 0.71724599 0.71959718
0.61711523 0.71602705 0.71852082
0.68075179 0.71589050 0.71724698
0.72069038 0.72069040 0.72069041
0.73395480 0.72972921 0.72952266
0.49350258 0.75182710 0.71896023
0.48983460 0.75182710 0.71628257
0.50805052 0.75182710 0.71453489
0.54942340 0.75182710 0.71409754
0.61108212 0.75182710 0.71612533
0.68782554 0.75127191 0.72502979
0.73212152 0.74527096 0.73724623
0.74562278 0.74763493 0.74527521
0.75038067 0.75045249 0.74981942
0.00000073 0.00000073 0.35431513
0.00000073 0.00000073 0.36475046
0.00000073 0.00000073 0.38204850
0.24970663 0.00000073 0.39995753
0.39160552 0.00000073 0.41795510
0.51318122 0.00000073 0.43579976
0.62243881 0.19409720 0.45343375
0.72100114 0.36190426 0.47130461
0.75182710 0.46027265 0.48941279
0.00000073 0.00000073 0.42438144
0.00000073 0.00000073 0.44374526
0.00000073 0.00000073 0.46286091
0.19615946 0.00000073 0.48138810
0.38141376 0.00000073 0.49904705
0.50587379 0.00000073 0.51618972
0.61213792 0.00000073 0.53286915
0.70401049 0.00000073 0.54896643
0.75182710 0.38255260 0.56440622
0.00000073 0.00000073 0.50793927
0.00000073 0.00000073 0.52722196
0.00000073 0.00000073 0.54529499
0.00000073 0.00000073 0.56227873
0.36823013 0.00000073 0.57843777
0.50320454 0.00000073 0.59362325
0.60659602 0.00000073 0.60766608
0.69202288 0.00000073 0.62095857
0.75182710 0.00000073 0.63404168
0.00000073 0.00000073 0.59042616
0.00000073 0.00000073 0.60722216
0.00000073 0.00000073 0.62294497
0.00000073 0.00000073 0.63735479
0.34745934 0.00000073 0.65026369
0.50301201 0.00000073 0.66188103
0.60580179 0.00000073 0.67305285
0.68725920 0.00000073 0.68286199
0.75182710 0.00000073 0.69018047
0.00000073 0.00000073 0.66491255
0.00000073 0.00000073 0.67825752
0.00000073 0.00000073 0.69008872
0.00000073 0.00000073 0.70040741
0.32640997 0.00000073 0.70975591
0.50937135 0.00000073 0.71679297
0.61122721 0.00000073 0.72142715
0.68737717 0.00000073 0.72405976
0.74600449 0.26210706 0.72498040
0.00000073 0.45309282 0.72652158
0.00000073 0.40613302 0.73530889
0.00000073 0.35562869 0.74169374
0.00000073 0.32266767 0.74608491
0.36664406 0.33866667 0.74872245
0.53192781 0.39148485 0.74964872
0.62540452 0.45036503 0.74886245
0.69328591 0.50374673 0.74653076
0.74066978 0.55237698 0.74134760
0.00000073 0.61476294 0.75182710
0.00000073 0.60233251 0.75182710
0.00000073 0.59538442 0.75182710
0.00000073 0.59419085 0.75182710
0.45752155 0.59863548 0.75182710
0.57105910 0.60820069 0.75182710
0.64775480 0.62208221 0.75182710
0.70023731 0.64885048 0.74292728
0.71606849 0.68152173 0.72034296
0.00000073 0.72262778 0.75182710
0.00000073 0.71285164 0.75182710
0.00000073 0.70598258 0.75182710
0.43113032 0.70192145 0.75182710
0.53911294 0.70060599 0.75182710
0.62398380 0.70225289 0.75182710
0.69233139 0.70999577 0.73957681
0.72313424 0.72210578 0.73088902
0.73457731 0.73255644 0.73491650
0.40021339 0.75182710 0.75182710
0.41622834 0.75182710 0.75182710
0.46941437 0.75182710 0.75182710
0.54137009 0.75182710 0.75182710
0.64012863 0.74873265 0.75127896
0.71335692 0.74148316 0.74261712
0.73883860 0.74423148 0.74448153
0.74763878 0.74833596 0.74836924
0.75099998 0.75100000 0.75100002
