resources/flame/Syncolor/Shared/transforms/camera_manufacturer_luts/arri/ARRI_Alexa_LUTs/ARRI_HDR_Lookfiles_3DLUTs_190319/3D_LUTs_for_monitor_grading_add_P3D65/ARRI_P3D65PQ-1K-200_33.cube
LUT_3D_SIZE 5
0.00000073 0.00000073 0.00000073
0.22368216 0.00000073 0.02017679
0.45731219 0.00000073 0.07376295
0.71039950 0.00000073 0.17923779
0.75182710 0.00000073 0.34836992
0.00000073 0.19565066 0.00000073
0.19812563 0.20575102 0.00000073
0.48813624 0.20187538 0.00000073
0.75181858 0.00000073 0.19071362
0.75182710 0.00000073 0.35610923
0.00000073 0.50627258 0.00000073
0.00000073 0.52040566 0.00000073
0.51567543 0.52808289 0.00000073
0.75182710 0.52794306 0.00000073
0.75182710 0.49262841 0.17326173
0.00000073 0.75182710 0.00000073
0.00000073 0.75182710 0.00000073
0.00000073 0.75136748 0.00000073
0.72021203 0.73351159 0.00000073
0.75182710 0.71809447 0.00000073
0.00000073 0.75182710 0.00000073
0.00000073 0.75182710 0.00000073
0.00000073 0.75182710 0.00000073
0.62372926 0.75182710 0.00000073
0.75182710 0.75182710 0.00000073
0.00000073 0.00000073 0.18607845
0.19776893 0.00000073 0.14433472
0.45117304 0.00000073 0.14715672
0.70893122 0.00000073 0.20673547
0.75182710 0.00000073 0.34767452
0.00000073 0.18541451 0.18374393
0.19607037 0.19607037 0.19607037
0.49452602 0.18756749 0.21589715
0.74658138 0.00000073 0.26636853
0.75182710 0.00000073 0.36730186
0.00000073 0.51084480 0.00000073
0.00000073 0.52255346 0.00000073
0.51748626 0.52914560 0.00000073
0.75182710 0.53127802 0.19511268
0.75182710 0.51562715 0.34963319
0.00000073 0.75182710 0.00000073
0.00000073 0.75182710 0.00000073
0.31359332 0.74200268 0.00000073
0.71414610 0.72698083 0.00000073
0.75182710 0.71521530 0.00000073
0.00000073 0.75182710 0.00000073
0.00000073 0.75182710 0.00000073
0.00000073 0.75182710 0.00000073
0.64298190 0.75182710 0.00000073
0.75182710 0.75182710 0.52919407
0.00000073 0.00000073 0.27217433
0.14629454 0.00000073 0.24590632
0.43050898 0.00000073 0.25786017
0.69022721 0.00000073 0.28962524
0.75182710 0.00000073 0.36727998
0.00000073 0.00000073 0.38342327
0.00000073 0.00000073 0.40820859
0.48299750 0.00000073 0.43005877
0.72943369 0.00000073 0.45354260
0.75182710 0.00000073 0.48806938
0.00000073 0.49297555 0.48889318
0.00000073 0.50264893 0.50044786
0.51041676 0.51041676 0.51041677
0.74041363 0.51604697 0.52551239
0.75182710 0.51127591 0.54901124
0.00000073 0.75182710 0.34689464
0.00000073 0.74616223 0.42379723
0.37135955 0.73084665 0.47284212
0.70788383 0.71815187 0.51470353
0.75182710 0.70941169 0.55961364
0.00000073 0.75182710 0.00000073
0.00000073 0.75182710 0.00000073
0.00000073 0.75182710 0.00000073
0.66698072 0.75182710 0.54332344
0.75182710 0.75182710 0.72131519
0.00000073 0.00000073 0.33183450
0.00000073 0.00000073 0.32230791
0.40365313 0.00000073 0.33848259
0.65952626 0.00000073 0.36491052
0.75182710 0.00000073 0.41136682
0.00000073 0.00000073 0.48797382
0.00000073 0.00000073 0.51527144
0.44599321 0.00000073 0.54037981
0.69794942 0.00000073 0.56630899
0.75182710 0.00000073 0.59410340
0.00000073 0.25984771 0.67230638
0.00000073 0.24059208 0.68262792
0.44763731 0.30429229 0.68797253
0.71851959 0.37495575 0.68946755
0.75182710 0.41443256 0.69146089
0.00000073 0.73059944 0.72519033
0.00000073 0.71575741 0.71270152
0.00000073 0.70472885 0.70303878
0.69693910 0.69693911 0.69693912
0.75182710 0.69698500 0.69930528
0.00000073 0.75182710 0.63971355
0.00000073 0.75182710 0.65030047
0.00000073 0.75182710 0.66251202
0.71521161 0.75182710 0.71839035
0.75018222 0.75050665 0.74739535
0.00000073 0.00000073 0.37923662
0.00000073 0.00000073 0.38471826
0.36885438 0.00000073 0.40369396
0.62143084 0.00000073 0.42980293
0.75182710 0.00000073 0.46677765
0.00000073 0.00000073 0.56633760
0.00000073 0.00000073 0.59157012
0.37885487 0.00000073 0.61514591
0.66040979 0.00000073 0.63831905
0.75182710 0.00000073 0.66289446
0.00000073 0.00000073 0.75182710
0.00000073 0.00000073 0.75182710
0.00000073 0.00000073 0.75182710
0.68486633 0.00000073 0.75182710
0.75182710 0.00000073 0.75182710
0.00000073 0.62943675 0.75182710
0.00000073 0.63020937 0.75182710
0.00000073 0.63902106 0.75182710
0.67647799 0.65312891 0.75182710
0.74972156 0.70436811 0.74673658
0.00000073 0.75182710 0.75182710
0.00000073 0.75182710 0.75182710
0.55575848 0.75182710 0.75182710
0.74021774 0.74788292 0.74778342
0.75099998 0.75100000 0.75100002
