resources/flame/Syncolor/Shared/transforms/camera_manufacturer_luts/arri/ARRI_Alexa_LUTs/ARRI_HDR_Lookfiles_3DLUTs_190319/3D_LUTs_for_monitor_grading_add_P3D65/ARRI_P3D65PQ-4K-100_33.cube
LUT_3D_SIZE 9
0.00000073 0.00000073 0.00000073
0.11581541 0.00000073 0.00700336
0.22368216 0.00000073 0.02017679
0.33435676 0.00000073 0.04095985
0.45712647 0.00000073 0.07370505
0.58184917 0.00000073 0.11876170
0.70640435 0.00000073 0.17712684
0.83098459 0.00000073 0.25046993
0.90257239 0.00000073 0.33921828
0.00000073 0.05892349 0.00000073
0.05150367 0.05433169 0.00000073
0.19305091 0.04234964 0.00000073
0.32580355 0.00000073 0.03581520
0.45593294 0.00000073 0.07206225
0.58457172 0.00000073 0.11933210
0.71184963 0.00000073 0.17975419
0.83452364 0.00000073 0.25266627
0.90257239 0.00000073 0.33540869
0.00000073 0.18894730 0.00000073
0.00000073 0.18967788 0.00000073
0.18282944 0.19006888 0.00000073
0.32755864 0.18793121 0.00000073
0.46237200 0.17339835 0.00000073
0.59228598 0.00000073 0.10258269
0.71582111 0.00000073 0.17392219
0.83035715 0.00000073 0.24627696
0.90257239 0.00000073 0.32116383
0.00000073 0.32640841 0.00000073
0.00000073 0.32947325 0.00000073
0.04988088 0.33228670 0.00000073
0.32408504 0.33424370 0.00000073
0.46713828 0.33401265 0.00000073
0.59548002 0.32747815 0.00000073
0.71199353 0.29944513 0.06097833
0.81699467 0.00000073 0.20877523
0.90257239 0.00000073 0.28990475
0.00000073 0.46602199 0.00000073
0.00000073 0.46931341 0.00000073
0.00000073 0.47130111 0.00000073
0.26924508 0.47180201 0.00000073
0.45935758 0.47126626 0.00000073
0.58973273 0.46978580 0.00000073
0.70162980 0.46592349 0.00000073
0.79956595 0.45560916 0.00000073
0.88359676 0.42957822 0.14804871
0.00000073 0.60046835 0.00000073
0.00000073 0.59965221 0.00000073
0.00000073 0.59741371 0.00000073
0.00000073 0.59458715 0.00000073
0.41969279 0.59230189 0.00000073
0.57810043 0.59092802 0.00000073
0.69172937 0.59059123 0.00000073
0.78562680 0.59100334 0.00000073
0.86555989 0.59127764 0.00000073
0.00000073 0.72063789 0.00000073
0.00000073 0.71507745 0.00000073
0.00000073 0.70957202 0.00000073
0.00000073 0.70492642 0.00000073
0.00000073 0.70154046 0.00000073
0.55782553 0.69984612 0.00000073
0.68724813 0.70049180 0.00000073
0.78289593 0.70333642 0.00000073
0.86094242 0.70808603 0.00000073
0.00000073 0.82683327 0.00000073
0.00000073 0.81857370 0.00000073
0.00000073 0.81105088 0.00000073
0.00000073 0.80466665 0.00000073
0.00000073 0.80044345 0.00000073
0.49964263 0.79898397 0.00000073
0.68702553 0.80011310 0.00000073
0.79042202 0.80370949 0.00000073
0.86828735 0.80975436 0.00000073
0.00000073 0.90257239 0.00000073
0.00000073 0.90257239 0.00000073
0.00000073 0.90135189 0.00000073
0.00000073 0.89460867 0.00000073
0.00000073 0.89069335 0.00000073
0.00000073 0.88942662 0.00000073
0.68761489 0.89048830 0.00000073
0.80741654 0.89360379 0.00000073
0.88559201 0.89856401 0.00000073
0.00000073 0.00000073 0.11008715
0.10228012 0.00000073 0.08712942
0.21507672 0.00000073 0.06674847
0.33099659 0.00000073 0.06267682
0.45673064 0.00000073 0.08440169
0.58198348 0.00000073 0.12354964
0.70691510 0.00000073 0.17938174
0.83128293 0.00000073 0.25149968
0.90257239 0.00000073 0.33699467
0.00000073 0.05221480 0.05081589
0.04805825 0.04805825 0.04805825
0.19423386 0.03365375 0.04790034
0.32708042 0.00000073 0.05795662
0.45736855 0.00000073 0.08318314
0.58614694 0.00000073 0.12505691
0.71166934 0.00000073 0.18211909
0.83070162 0.00000073 0.25144407
0.90257239 0.00000073 0.32890031
0.00000073 0.18900423 0.00000073
0.00000073 0.19027140 0.00000073
0.18340732 0.19048715 0.00000073
0.32982381 0.18791934 0.00000073
0.46434272 0.17320530 0.03432315
0.59236026 0.00000073 0.11234135
0.71252158 0.00000073 0.17662637
0.82209969 0.00000073 0.24359949
0.90257239 0.00000073 0.31336358
0.00000073 0.32758158 0.00000073
0.00000073 0.33085881 0.00000073
0.02305362 0.33365592 0.00000073
0.32511754 0.33523046 0.00000073
0.46776738 0.33494332 0.00000073
0.59354660 0.32923385 0.00000073
0.70656533 0.30549599 0.09553976
0.80760920 0.15937921 0.21032242
0.89585345 0.00000073 0.28450065
0.00000073 0.46739896 0.00000073
0.00000073 0.47027201 0.00000073
0.00000073 0.47166080 0.00000073
0.27177214 0.47177835 0.00000073
0.45941493 0.47127501 0.00000073
0.58755278 0.47038881 0.00000073
0.69635092 0.46790795 0.00000073
0.79024591 0.46104118 0.00000073
0.87008742 0.44455657 0.18043289
0.00000073 0.59986236 0.00000073
0.00000073 0.59824517 0.00000073
0.00000073 0.59554870 0.00000073
0.00000073 0.59299038 0.00000073
0.42412355 0.59121367 0.00000073
0.57787066 0.59063161 0.00000073
0.68812121 0.59149769 0.00000073
0.77904547 0.59360724 0.00000073
0.85600377 0.59622479 0.00000073
0.00000073 0.71699627 0.00000073
0.00000073 0.71120462 0.00000073
0.00000073 0.70603015 0.00000073
0.00000073 0.70190824 0.00000073
0.00000073 0.69924087 0.00000073
0.56349837 0.69875379 0.00000073
0.68759271 0.70073060 0.00000073
0.77993491 0.70493435 0.00000073
0.85483152 0.71120443 0.00000073
0.00000073 0.82088577 0.00000073
0.00000073 0.81280312 0.00000073
0.00000073 0.80566305 0.00000073
0.00000073 0.80016896 0.00000073
0.00000073 0.79741140 0.00000073
0.52523167 0.79729799 0.00000073
0.69294835 0.79969787 0.00000073
0.79146161 0.80457442 0.00000073
0.86562621 0.81190474 0.00000073
0.00000073 0.90257239 0.00000073
0.00000073 0.90257239 0.00000073
0.00000073 0.89483051 0.00000073
0.00000073 0.88956143 0.00000073
0.00000073 0.88702850 0.00000073
0.09711016 0.88698154 0.00000073
0.70394412 0.88912573 0.00000073
0.81355093 0.89321833 0.00000073
0.88502200 0.89753642 0.00000073
0.00000073 0.00000073 0.18283388
0.06769546 0.00000073 0.16716150
0.20299573 0.00000073 0.15381753
0.32740147 0.00000073 0.15331982
0.45488822 0.00000073 0.16295826
0.58112810 0.00000073 0.18096545
0.70675458 0.00000073 0.21442564
0.82916730 0.00000073 0.26837181
0.90257239 0.00000073 0.34066568
0.00000073 0.00000073 0.16212793
0.00000073 0.00000073 0.16810183
0.18841739 0.00000073 0.17188720
0.32614546 0.00000073 0.17599690
0.45780686 0.00000073 0.18334452
0.58636208 0.00000073 0.19768491
0.70942502 0.00000073 0.22556961
0.82424035 0.00000073 0.27160436
0.90257239 0.00000073 0.33235691
0.00000073 0.17717366 0.17239884
0.00000073 0.17796155 0.17597845
0.17772259 0.17772259 0.17772259
0.33123653 0.17404124 0.18014487
0.46513030 0.15573773 0.18733844
0.59090025 0.00000073 0.20248479
0.70718366 0.00000073 0.23029017
0.81255479 0.00000073 0.27195812
0.90257239 0.00000073 0.32408055
0.00000073 0.32605850 0.12757427
0.00000073 0.32955951 0.12826128
0.00000073 0.33249298 0.12821141
0.32489714 0.33367614 0.13508801
0.46802295 0.33310688 0.15646016
0.59095378 0.32800878 0.18519550
0.70055037 0.30728779 0.22151026
0.79740560 0.21104189 0.26508956
0.88065067 0.00000073 0.31277339
0.00000073 0.46761436 0.00000073
0.00000073 0.46995350 0.00000073
0.00000073 0.47093812 0.00000073
0.27204093 0.47092093 0.00000073
0.45924381 0.47057561 0.00000073
0.58540832 0.47021320 0.00000073
0.69092159 0.46906295 0.06051097
0.78065423 0.46526119 0.22230905
0.85735083 0.45521889 0.29121412
0.00000073 0.59827799 0.00000073
0.00000073 0.59597683 0.00000073
0.00000073 0.59331486 0.00000073
0.00000073 0.59119661 0.00000073
0.42821145 0.59000965 0.00000073
0.57783458 0.59024884 0.00000073
0.68508564 0.59231534 0.00000073
0.77313536 0.59592227 0.00000073
0.84705178 0.60056720 0.20207414
0.00000073 0.71271440 0.00000073
0.00000073 0.70711255 0.00000073
0.00000073 0.70237065 0.00000073
0.00000073 0.69887405 0.00000073
0.24122241 0.69718223 0.00000073
0.56902284 0.69798146 0.00000073
0.68835190 0.70116253 0.00000073
0.77748039 0.70660266 0.00000073
0.84917968 0.71426507 0.00000073
0.00000073 0.81468755 0.00000073
0.00000073 0.80687049 0.00000073
0.00000073 0.80029034 0.00000073
0.00000073 0.79622621 0.00000073
0.00000073 0.79484260 0.00000073
0.54638380 0.79598481 0.00000073
0.69903447 0.79956409 0.00000073
0.79291130 0.80562851 0.00000073
0.86331117 0.81412342 0.00000073
0.00000073 0.90257239 0.00000073
0.00000073 0.89551462 0.00000073
0.00000073 0.88891290 0.00000073
0.00000073 0.88504191 0.00000073
0.00000073 0.88378659 0.00000073
0.47218763 0.88485280 0.00000073
0.71928071 0.88796851 0.00000073
0.82035815 0.89238149 0.00000073
0.88322489 0.89445568 0.59860988
0.00000073 0.00000073 0.22931046
0.00000073 0.00000073 0.21935519
0.18764102 0.00000073 0.21424839
0.32175365 0.00000073 0.22264141
0.45134229 0.00000073 0.23491879
0.57883353 0.00000073 0.25062000
0.70414739 0.00000073 0.27339166
0.82357363 0.00000073 0.30850109
0.90257239 0.00000073 0.35978405
0.00000073 0.00000073 0.23849749
0.00000073 0.00000073 0.24960328
0.16926107 0.00000073 0.26017028
0.32065574 0.00000073 0.27021081
0.45556986 0.00000073 0.28072527
0.58369623 0.00000073 0.29266595
0.70422663 0.00000073 0.30859066
0.81449478 0.00000073 0.33249925
0.90257239 0.00000073 0.36782343
0.00000073 0.10163841 0.27942673
0.00000073 0.06154657 0.29015488
0.13866891 0.00000073 0.30041496
0.32487352 0.00000073 0.30739005
0.46260152 0.00000073 0.31337747
0.58703165 0.00000073 0.32092358
0.69995752 0.00000073 0.33201718
0.80173316 0.00000073 0.34956650
0.89092888 0.00000073 0.37545255
0.00000073 0.31308436 0.30345321
0.00000073 0.31525357 0.31007606
0.00000073 0.31734294 0.31514930
0.31819023 0.31819023 0.31819022
0.46664297 0.31765030 0.32217867
0.58737224 0.31281228 0.32992560
0.69359001 0.29193276 0.34196918
0.78617339 0.19720468 0.35974736
0.86448269 0.00000073 0.38345633
0.00000073 0.46388707 0.28187147
0.00000073 0.46564076 0.28551828
0.00000073 0.46638498 0.28980713
0.26016037 0.46681186 0.29497123
0.45767227 0.46666336 0.30428563
0.58307809 0.46662105 0.32171081
0.68515216 0.46676959 0.34336670
0.77146593 0.46533770 0.36872898
0.84516306 0.45987712 0.39713937
0.00000073 0.59487417 0.00000073
0.00000073 0.59217201 0.00000073
0.00000073 0.58983173 0.00000073
0.00000073 0.58828777 0.00000073
0.43014037 0.58781808 0.19743936
0.57761302 0.58888751 0.27417088
0.68248439 0.59200297 0.32809838
0.76771670 0.59693517 0.37398514
0.83853136 0.60338228 0.41662666
0.00000073 0.70779963 0.00000073
0.00000073 0.70245445 0.00000073
0.00000073 0.69820209 0.00000073
0.00000073 0.69545180 0.00000073
0.30537552 0.69505114 0.00000073
0.57381188 0.69702225 0.00000073
0.68926565 0.70126953 0.23126441
0.77537646 0.70782263 0.37281441
0.84384850 0.71677596 0.44817946
0.00000073 0.80810501 0.00000073
0.00000073 0.80061220 0.00000073
0.00000073 0.79519341 0.00000073
0.00000073 0.79253068 0.00000073
0.00000073 0.79242357 0.00000073
0.56390981 0.79472906 0.00000073
0.70505446 0.79940543 0.00000073
0.79460790 0.80653988 0.39593654
0.86030354 0.81593662 0.52411774
0.00000073 0.89659871 0.00000073
0.00000073 0.88860812 0.00000073
0.00000073 0.88339869 0.00000073
0.00000073 0.88083214 0.00000073
0.00000073 0.88073432 0.00000073
0.54402559 0.88279640 0.00000073
0.73370027 0.88676132 0.00000073
0.82970035 0.88846371 0.59644356
0.88164421 0.89028007 0.74891453
0.00000073 0.00000073 0.26252844
0.00000073 0.00000073 0.25502646
0.16971777 0.00000073 0.25638646
0.31461478 0.00000073 0.26981974
0.44657450 0.00000073 0.28511921
0.57505515 0.00000073 0.30291218
0.69860349 0.00000073 0.32438713
0.81442141 0.00000073 0.35201590
0.90257239 0.00000073 0.38883189
0.00000073 0.00000073 0.28963725
0.00000073 0.00000073 0.30486430
0.12615908 0.00000073 0.32050099
0.31123229 0.00000073 0.33598557
0.45016790 0.00000073 0.35102645
0.57790249 0.00000073 0.36578099
0.69560099 0.00000073 0.38114828
0.80167747 0.00000073 0.39883713
0.89652354 0.00000073 0.42146274
0.00000073 0.00000073 0.35258108
0.00000073 0.00000073 0.36817745
0.00000073 0.00000073 0.38298370
0.30800603 0.00000073 0.39566985
0.45491830 0.00000073 0.40619777
0.57955917 0.00000073 0.41563436
0.69057214 0.00000073 0.42548968
0.78899015 0.00000073 0.43701063
0.87353559 0.00000073 0.45101818
0.00000073 0.27325092 0.40529824
0.00000073 0.26510358 0.41749162
0.00000073 0.25611155 0.42810717
0.29136090 0.24621588 0.43697219
0.45814955 0.23902518 0.44223170
0.58092393 0.22585975 0.44657824
0.68494309 0.16344626 0.45224687
0.77357453 0.00000073 0.46007759
0.84848930 0.00000073 0.47095590
0.00000073 0.45013572 0.43467962
0.00000073 0.44992430 0.44065396
0.00000073 0.44968759 0.44482618
0.18894858 0.45022614 0.44819147
0.45076100 0.45076100 0.45076100
0.57940785 0.45201782 0.45524593
0.67876813 0.45432690 0.46394757
0.76238886 0.45535921 0.47617247
0.83321248 0.45377417 0.49192317
0.00000073 0.58714926 0.41953390
0.00000073 0.58448537 0.42308857
0.00000073 0.58251754 0.42817413
0.00000073 0.58168961 0.43520187
0.42555994 0.58236450 0.44450933
0.57625285 0.58445421 0.45778588
0.67997825 0.58847676 0.47695075
0.76249044 0.59481790 0.49874979
0.83017470 0.60315197 0.52302439
0.00000073 0.70136336 0.26570100
0.00000073 0.69629437 0.32341278
0.00000073 0.69254227 0.36608730
0.00000073 0.69092425 0.40150951
0.32448392 0.69183337 0.43285709
0.57676750 0.69496939 0.46369982
0.68992721 0.70019362 0.49660704
0.77341463 0.70779729 0.53169677
0.83864270 0.71806848 0.56828807
0.00000073 0.80075985 0.00000073
0.00000073 0.79395437 0.00000073
0.00000073 0.78991782 0.00000073
0.00000073 0.78853102 0.00000073
0.00000073 0.78961140 0.38974751
0.57786491 0.79302158 0.47116238
0.71066795 0.79875117 0.53175621
0.79635132 0.80687717 0.58596780
0.85263788 0.81634190 0.66113890
0.00000073 0.88852520 0.00000073
0.00000073 0.88191314 0.00000073
0.00000073 0.87796375 0.00000073
0.00000073 0.87658293 0.00000073
0.00000073 0.87751680 0.16046812
0.58830986 0.88046346 0.50899751
0.75337194 0.88282695 0.62392443
0.84020682 0.88251742 0.73842349
0.88201614 0.88750037 0.81887678
0.00000073 0.00000073 0.29109671
0.00000073 0.00000073 0.28641706
0.14477759 0.00000073 0.29427813
0.30634305 0.00000073 0.30928969
0.44123507 0.00000073 0.32567936
0.56937299 0.00000073 0.34348391
0.69041563 0.00000073 0.36344668
0.80185441 0.00000073 0.38724887
0.90116304 0.00000073 0.41676792
0.00000073 0.00000073 0.33029585
0.00000073 0.00000073 0.34680469
0.00000073 0.00000073 0.36397468
0.29856372 0.00000073 0.38143100
0.44244035 0.00000073 0.39869335
0.56946570 0.00000073 0.41596508
0.68399292 0.00000073 0.43357462
0.78693653 0.00000073 0.45164526
0.87777887 0.00000073 0.47098063
0.00000073 0.00000073 0.40187158
0.00000073 0.00000073 0.42056405
0.00000073 0.00000073 0.43870317
0.27963482 0.00000073 0.45552982
0.44309993 0.00000073 0.47022795
0.56943496 0.00000073 0.48315031
0.67900447 0.00000073 0.49505859
0.77410237 0.00000073 0.50630122
0.85399002 0.00000073 0.51712475
0.00000073 0.00000073 0.47405395
0.00000073 0.00000073 0.49007119
0.00000073 0.00000073 0.50401036
0.21013885 0.00000073 0.51559673
0.44175504 0.00000073 0.52452708
0.57034365 0.00000073 0.53107497
0.67367465 0.00000073 0.53660656
0.75966305 0.00000073 0.54232063
0.83236205 0.00000073 0.54944188
0.00000073 0.42046972 0.52816084
0.00000073 0.41384684 0.53725261
0.00000073 0.40848784 0.54435421
0.00000073 0.40512185 0.55020071
0.43176480 0.40382414 0.55509824
0.57006835 0.40736275 0.55774255
0.67060322 0.41381741 0.56128978
0.75270830 0.41938546 0.56740000
0.82108982 0.42349637 0.57613117
0.00000073 0.57186814 0.55169078
0.00000073 0.56805341 0.55526989
0.00000073 0.56572070 0.55827656
0.00000073 0.56532631 0.56144170
0.40549711 0.56740024 0.56575488
0.57122965 0.57122965 0.57122966
0.67662917 0.57731404 0.57945275
0.75683309 0.58622705 0.59155756
0.82158067 0.59743104 0.60683264
0.00000073 0.69109193 0.54245529
0.00000073 0.68633026 0.54688377
0.00000073 0.68341593 0.55345321
0.00000073 0.68317705 0.56240875
0.29891329 0.68549351 0.57364073
0.57597371 0.69013471 0.58702723
0.68972572 0.69654873 0.60401859
0.77134569 0.70535842 0.62611642
0.83330373 0.71734800 0.65111630
0.00000073 0.79182812 0.49043541
0.00000073 0.78627021 0.51664502
0.00000073 0.78348022 0.54109178
0.00000073 0.78327605 0.56537259
0.00000073 0.78551312 0.59049279
0.58785275 0.79008786 0.61722860
0.71543936 0.79698430 0.64657736
0.79731090 0.80525666 0.68613856
0.84314923 0.81592059 0.74493023
0.00000073 0.88029608 0.00000073
0.00000073 0.87490375 0.41502062
0.00000073 0.87209329 0.51411298
0.00000073 0.87176612 0.57448549
0.00000073 0.87363111 0.62351397
0.62604959 0.87665159 0.67140894
0.77897468 0.87527240 0.74262260
0.85051701 0.87713628 0.81083351
0.88471526 0.88767327 0.85568365
0.00000073 0.00000073 0.31569934
0.00000073 0.00000073 0.31485852
0.09260278 0.00000073 0.32787828
0.29665098 0.00000073 0.34416868
0.43483644 0.00000073 0.36143329
0.56199734 0.00000073 0.37934770
0.67993844 0.00000073 0.39837400
0.78646304 0.00000073 0.41935641
0.88168731 0.00000073 0.44384591
0.00000073 0.00000073 0.36624052
0.00000073 0.00000073 0.38391575
0.00000073 0.00000073 0.40219296
0.28062397 0.00000073 0.42026803
0.43273693 0.00000073 0.43788414
0.55898445 0.00000073 0.45503923
0.67095003 0.00000073 0.47225702
0.77065060 0.00000073 0.49023983
0.85722708 0.00000073 0.50929272
0.00000073 0.00000073 0.44274669
0.00000073 0.00000073 0.46194108
0.00000073 0.00000073 0.48029776
0.23143920 0.00000073 0.49754827
0.42866192 0.00000073 0.51372010
0.55766439 0.00000073 0.52944237
0.66578304 0.00000073 0.54439112
0.75743288 0.00000073 0.55725269
0.83356450 0.00000073 0.56830154
0.00000073 0.00000073 0.52044068
0.00000073 0.00000073 0.53818754
0.00000073 0.00000073 0.55456005
0.00000073 0.00000073 0.56937104
0.41820261 0.00000073 0.58139235
0.55665804 0.00000073 0.59061750
0.66023929 0.00000073 0.59760274
0.74510168 0.00000073 0.60385175
0.81587601 0.00000073 0.61020601
0.00000073 0.36258788 0.59014792
0.00000073 0.32916867 0.60216283
0.00000073 0.28909556 0.61186679
0.00000073 0.24484989 0.61946821
0.39514609 0.21381376 0.62506857
0.55576230 0.22517169 0.62915486
0.65988665 0.26043777 0.63288519
0.74175050 0.29405667 0.63744750
0.80828050 0.32393802 0.64343671
0.00000073 0.54674376 0.63409811
0.00000073 0.53937104 0.63943273
0.00000073 0.53479391 0.64338566
0.00000073 0.53383314 0.64675841
0.34887137 0.53655030 0.65095386
0.56001874 0.54221506 0.65612210
0.66946590 0.55210893 0.66091610
0.74966403 0.56592871 0.66732170
0.81222709 0.58265265 0.67641727
0.00000073 0.67539910 0.65298486
0.00000073 0.67004797 0.65553978
0.00000073 0.66780594 0.65887842
0.00000073 0.66869848 0.66350140
0.00000073 0.67247956 0.66968717
0.56991341 0.67892783 0.67770987
0.68744196 0.68744197 0.68744198
0.76865030 0.69882052 0.70011880
0.82257447 0.71523424 0.71764810
0.00000073 0.78000953 0.65360369
0.00000073 0.77563715 0.65986735
0.00000073 0.77411425 0.66780031
0.00000073 0.77519634 0.67808328
0.00000073 0.77875814 0.69096537
0.59362595 0.78479388 0.70654524
0.71977165 0.79301260 0.72565578
0.79799017 0.80196763 0.75679077
0.83607204 0.81694416 0.79469661
0.00000073 0.87097827 0.63995496
0.00000073 0.86669769 0.65970082
0.00000073 0.86496660 0.68053318
0.00000073 0.86564401 0.70299828
0.00000073 0.86845088 0.72737386
0.67965805 0.86774444 0.76359589
0.80485900 0.86724773 0.80965302
0.85957120 0.87588726 0.84764871
0.88874425 0.88986668 0.87872818
0.00000073 0.00000073 0.33703446
0.00000073 0.00000073 0.34142977
0.00000073 0.00000073 0.35757867
0.28488509 0.00000073 0.37493889
0.42699058 0.00000073 0.39270966
0.55292392 0.00000073 0.41075311
0.66717625 0.00000073 0.42920669
0.76975235 0.00000073 0.44876675
0.86086256 0.00000073 0.47031876
0.00000073 0.00000073 0.39806309
0.00000073 0.00000073 0.41678658
0.00000073 0.00000073 0.43565059
0.25384805 0.00000073 0.45406953
0.42083810 0.00000073 0.47181413
0.54713904 0.00000073 0.48890951
0.65705234 0.00000073 0.50595337
0.75327482 0.00000073 0.52309430
0.83523967 0.00000073 0.54038713
0.00000073 0.00000073 0.47862734
0.00000073 0.00000073 0.49797461
0.00000073 0.00000073 0.51630179
0.00000073 0.00000073 0.53335417
0.41094401 0.00000073 0.54957270
0.54470842 0.00000073 0.56510860
0.65140503 0.00000073 0.57993081
0.73958896 0.00000073 0.59378090
0.81346007 0.00000073 0.60674685
0.00000073 0.00000073 0.55913623
0.00000073 0.00000073 0.57642248
0.00000073 0.00000073 0.59241858
0.00000073 0.00000073 0.60724935
0.38662728 0.00000073 0.62054343
0.54085654 0.00000073 0.63225653
0.64603669 0.00000073 0.64168691
0.73017709 0.00000073 0.64960559
0.79916794 0.00000073 0.65653272
0.00000073 0.18036141 0.63186370
0.00000073 0.00000073 0.64548578
0.00000073 0.00000073 0.65770363
0.00000073 0.00000073 0.66744891
0.31857334 0.00000073 0.67473803
0.53771249 0.00000073 0.68061219
0.64746394 0.00000073 0.68549389
0.72973176 0.00000073 0.69004492
0.79475806 0.00000073 0.69480119
0.00000073 0.50805507 0.68938458
0.00000073 0.49042416 0.69680286
0.00000073 0.47817790 0.70210871
0.00000073 0.47375199 0.70664879
0.00000073 0.47741829 0.71109032
0.54274222 0.48853781 0.71549533
0.65955493 0.50669234 0.71969064
0.74076095 0.53058923 0.72413438
0.80182579 0.55838958 0.72974832
0.00000073 0.65295405 0.72408709
0.00000073 0.64646039 0.72704402
0.00000073 0.64423556 0.73025327
0.00000073 0.64600952 0.73399642
0.00000073 0.65145778 0.73855970
0.55885194 0.66021589 0.74427147
0.68290493 0.67201529 0.75124779
0.76316580 0.68850251 0.75810310
0.80552462 0.71636673 0.76339206
0.00000073 0.76490545 0.74333407
0.00000073 0.76107838 0.74676743
0.00000073 0.76040864 0.75125173
0.00000073 0.76272666 0.75708939
0.00000073 0.76790838 0.76459154
0.59594811 0.77595149 0.77414877
0.72957360 0.78561400 0.78493671
0.80034314 0.80034316 0.80034318
0.83483608 0.82096468 0.82116278
0.00000073 0.85926177 0.75474212
0.00000073 0.85598370 0.76240282
0.00000073 0.85540931 0.77197973
0.00000073 0.85730441 0.78373986
0.00000073 0.85849684 0.79870331
0.73387417 0.85696288 0.82014146
0.82613501 0.86333665 0.84524670
0.86871700 0.87752242 0.86924852
0.89399069 0.89419718 0.89222557
0.00000073 0.00000073 0.35608601
0.00000073 0.00000073 0.36654691
0.00000073 0.00000073 0.38389178
0.26975401 0.00000073 0.40187288
0.41757382 0.00000073 0.42001034
0.54210841 0.00000073 0.43814724
0.65287831 0.00000073 0.45636141
0.75205206 0.00000073 0.47529018
0.83876396 0.00000073 0.49510279
0.00000073 0.00000073 0.42628898
0.00000073 0.00000073 0.44569262
0.00000073 0.00000073 0.46484722
0.20820897 0.00000073 0.48342179
0.40645294 0.00000073 0.50115610
0.53445174 0.00000073 0.51843816
0.64237765 0.00000073 0.53537428
0.73494901 0.00000073 0.55190458
0.81231871 0.00000073 0.56798143
0.00000073 0.00000073 0.50992251
0.00000073 0.00000073 0.52924351
0.00000073 0.00000073 0.54734950
0.00000073 0.00000073 0.56436692
0.38817750 0.00000073 0.58057135
0.53037331 0.00000073 0.59583060
0.63605664 0.00000073 0.60988322
0.72207283 0.00000073 0.62298257
0.79380000 0.00000073 0.63586259
0.00000073 0.00000073 0.59239179
0.00000073 0.00000073 0.60922865
0.00000073 0.00000073 0.62498022
0.00000073 0.00000073 0.63919095
0.33779426 0.00000073 0.65168785
0.52362450 0.00000073 0.66288129
0.63164938 0.00000073 0.67382091
0.71517221 0.00000073 0.68378960
0.78239067 0.00000073 0.69185568
0.00000073 0.00000073 0.66638718
0.00000073 0.00000073 0.67930988
0.00000073 0.00000073 0.69075166
0.00000073 0.00000073 0.70090909
0.00000073 0.00000073 0.71052165
0.51566520 0.00000073 0.71844219
0.63391373 0.00000073 0.72473086
0.71706426 0.00000073 0.72980162
0.78073320 0.00000073 0.73400865
0.00000073 0.44967130 0.72672417
0.00000073 0.39605528 0.73602099
0.00000073 0.33049735 0.74357770
0.00000073 0.26646754 0.74988819
0.00000073 0.26601107 0.75522311
0.51798180 0.33330001 0.75970062
0.64834066 0.40503315 0.76339348
0.73100985 0.46821635 0.76653919
0.78902573 0.52895615 0.76840001
0.00000073 0.62220746 0.77304051
0.00000073 0.61227407 0.77757099
0.00000073 0.60863554 0.78152855
0.00000073 0.61137286 0.78517710
0.00000073 0.62007875 0.78874489
0.54144147 0.63405528 0.79243502
0.67776734 0.65272811 0.79633678
0.75478219 0.68443110 0.79244300
0.78936463 0.72592386 0.78515874
0.00000073 0.74549848 0.80410150
0.00000073 0.74182725 0.80683531
0.00000073 0.74208723 0.80982377
0.00000073 0.74610581 0.81334231
0.00000073 0.75370850 0.81767423
0.61386712 0.76470590 0.81988002
0.74678356 0.78132331 0.81695633
0.80568544 0.80365622 0.82179240
0.83647603 0.82764656 0.83595420
0.00000073 0.84519295 0.82638892
0.00000073 0.84273478 0.83025769
0.00000073 0.84331459 0.83531218
0.00000073 0.84586470 0.84100532
0.58440600 0.84511524 0.84285410
0.77906529 0.85009616 0.84926105
0.84255969 0.86425062 0.86397293
0.87808789 0.88162500 0.88157802
0.89999997 0.90000000 0.90000003
