resources/flame/Syncolor/Shared/transforms/camera_manufacturer_luts/arri/ARRI_Alexa_LUTs/ARRI_HDR_Lookfiles_3DLUTs_190319/3D_LUTs_for_monitor_grading_add_P3D65/ARRI_P3D65PQ-1K-200_33.cube
LUT_3D_SIZE 9
0.00000073 0.00000073 0.00000073
0.11581541 0.00000073 0.00700336
0.22368216 0.00000073 0.02017679
0.33435676 0.00000073 0.04095985
0.45731219 0.00000073 0.07376295
0.58338108 0.00000073 0.11939519
0.71039950 0.00000073 0.17923779
0.75182710 0.00000073 0.25531267
0.75182710 0.00000073 0.34836992
0.00000073 0.05892349 0.00000073
0.05204637 0.05489849 0.00000073
0.19544929 0.04521106 0.00000073
0.33110313 0.00000073 0.03621931
0.46496379 0.00000073 0.07439580
0.59796873 0.00000073 0.12464545
0.73005901 0.00000073 0.18939986
0.75182710 0.00000073 0.26814668
0.75182710 0.00000073 0.35820463
0.00000073 0.19565066 0.00000073
0.00000073 0.20055582 0.00000073
0.19812563 0.20575102 0.00000073
0.34803833 0.20905115 0.00000073
0.48813624 0.20187538 0.00000073
0.62326412 0.12191236 0.10799419
0.75181858 0.00000073 0.19071362
0.75182710 0.00000073 0.27227556
0.75182710 0.00000073 0.35610923
0.00000073 0.34902528 0.00000073
0.00000073 0.35757606 0.00000073
0.12616076 0.36584582 0.00000073
0.36231611 0.37305686 0.00000073
0.51012404 0.37779699 0.00000073
0.64258263 0.37624716 0.00000073
0.75182710 0.35558244 0.00000073
0.75182710 0.20120240 0.23667493
0.75182710 0.00000073 0.33162777
0.00000073 0.50627258 0.00000073
0.00000073 0.51420376 0.00000073
0.00000073 0.52040566 0.00000073
0.32630557 0.52496279 0.00000073
0.51567543 0.52808289 0.00000073
0.64886167 0.52962331 0.00000073
0.75182710 0.52794306 0.00000073
0.75182710 0.51877359 0.00000073
0.75182710 0.49262841 0.17326173
0.00000073 0.65459556 0.00000073
0.00000073 0.65720805 0.00000073
0.00000073 0.65763006 0.00000073
0.00000073 0.65642338 0.00000073
0.48281355 0.65444549 0.00000073
0.63867663 0.65178224 0.00000073
0.74891624 0.64820242 0.00000073
0.75182710 0.64343167 0.00000073
0.75182710 0.63665280 0.00000073
0.00000073 0.75182710 0.00000073
0.00000073 0.75182710 0.00000073
0.00000073 0.75182710 0.00000073
0.00000073 0.75182710 0.00000073
0.00000073 0.75136748 0.00000073
0.60022118 0.74210079 0.00000073
0.72021203 0.73351159 0.00000073
0.75182710 0.72556942 0.00000073
0.75182710 0.71809447 0.00000073
0.00000073 0.75182710 0.00000073
0.00000073 0.75182710 0.00000073
0.00000073 0.75182710 0.00000073
0.00000073 0.75182710 0.00000073
0.00000073 0.75182710 0.00000073
0.50497236 0.75182710 0.00000073
0.67827640 0.75182710 0.00000073
0.75182710 0.75182710 0.00000073
0.75182710 0.75182710 0.00000073
0.00000073 0.75182710 0.00000073
0.00000073 0.75182710 0.00000073
0.00000073 0.75182710 0.00000073
0.00000073 0.75182710 0.00000073
0.00000073 0.75182710 0.00000073
0.00000073 0.75182710 0.00000073
0.62372926 0.75182710 0.00000073
0.72494982 0.75182710 0.00000073
0.75182710 0.75182710 0.00000073
0.00000073 0.00000073 0.11099678
0.10087006 0.00000073 0.08448518
0.21380022 0.00000073 0.06192842
0.32988597 0.00000073 0.05797832
0.45630732 0.00000073 0.08179148
0.58350234 0.00000073 0.12343076
0.71141994 0.00000073 0.18177014
0.75182710 0.00000073 0.25713670
0.75182710 0.00000073 0.34727996
0.00000073 0.05203693 0.05146901
0.04904836 0.04904836 0.04904836
0.19750776 0.03753020 0.05095033
0.33358280 0.00000073 0.06329513
0.46785284 0.00000073 0.09028416
0.60117898 0.00000073 0.13422414
0.73163200 0.00000073 0.19473793
0.75182710 0.00000073 0.26928173
0.75182710 0.00000073 0.35358767
0.00000073 0.19693954 0.00000073
0.00000073 0.20256864 0.00000073
0.20030366 0.20769433 0.00000073
0.35208870 0.21058564 0.00000073
0.49194325 0.20321797 0.05927057
0.62514910 0.12669395 0.13154865
0.75024177 0.00000073 0.20045173
0.75182710 0.00000073 0.27385707
0.75182710 0.00000073 0.35091574
0.00000073 0.35196376 0.00000073
0.00000073 0.36072182 0.00000073
0.12281874 0.36890367 0.00000073
0.36495576 0.37558802 0.00000073
0.51223644 0.38004696 0.00000073
0.64205614 0.37911859 0.00000073
0.75182710 0.36205160 0.12899632
0.75182710 0.26525396 0.24944734
0.75182710 0.00000073 0.33126424
0.00000073 0.50923243 0.00000073
0.00000073 0.51654525 0.00000073
0.00000073 0.52210463 0.00000073
0.32975407 0.52615505 0.00000073
0.51677422 0.52908433 0.00000073
0.64746785 0.53089579 0.00000073
0.75182710 0.53016234 0.00000073
0.75182710 0.52384891 0.00000073
0.75182710 0.50636121 0.23458440
0.00000073 0.65519772 0.00000073
0.00000073 0.65677580 0.00000073
0.00000073 0.65641201 0.00000073
0.00000073 0.65505055 0.00000073
0.48677789 0.65306597 0.00000073
0.63754231 0.65054558 0.00000073
0.74376865 0.64749096 0.00000073
0.75182710 0.64378387 0.00000073
0.75182710 0.63877270 0.00000073
0.00000073 0.75182710 0.00000073
0.00000073 0.75182710 0.00000073
0.00000073 0.75182710 0.00000073
0.00000073 0.75182710 0.00000073
0.13588927 0.74667169 0.00000073
0.60287703 0.73803356 0.00000073
0.71705923 0.73023781 0.00000073
0.75182710 0.72315967 0.00000073
0.75182710 0.71675438 0.00000073
0.00000073 0.75182710 0.00000073
0.00000073 0.75182710 0.00000073
0.00000073 0.75182710 0.00000073
0.00000073 0.75182710 0.00000073
0.00000073 0.75182710 0.00000073
0.52585246 0.75182710 0.00000073
0.67918865 0.75182710 0.00000073
0.75182710 0.75182710 0.00000073
0.75182710 0.75182710 0.00000073
0.00000073 0.75182710 0.00000073
0.00000073 0.75182710 0.00000073
0.00000073 0.75182710 0.00000073
0.00000073 0.75182710 0.00000073
0.00000073 0.75182710 0.00000073
0.00000073 0.75182710 0.00000073
0.63387138 0.75182710 0.00000073
0.72484748 0.75182710 0.00000073
0.75182710 0.75182710 0.00000073
0.00000073 0.00000073 0.18607845
0.05944440 0.00000073 0.16356456
0.19776893 0.00000073 0.14433472
0.32244580 0.00000073 0.13926207
0.45117304 0.00000073 0.14715672
0.57986708 0.00000073 0.16742245
0.70893122 0.00000073 0.20673547
0.75182710 0.00000073 0.26802039
0.75182710 0.00000073 0.34767452
0.00000073 0.00000073 0.16764652
0.00000073 0.00000073 0.17062586
0.19124085 0.00000073 0.17342395
0.33268704 0.00000073 0.17873918
0.46872265 0.00000073 0.18919106
0.60216502 0.00000073 0.20816568
0.73045419 0.00000073 0.24152764
0.75182710 0.00000073 0.29319735
0.75182710 0.00000073 0.36002194
0.00000073 0.18541451 0.18374393
0.00000073 0.19120488 0.19001801
0.19607037 0.19607037 0.19607037
0.35520386 0.19785725 0.20367717
0.49452602 0.18756749 0.21589715
0.62546396 0.02921229 0.23530262
0.74658138 0.00000073 0.26636853
0.75182710 0.00000073 0.31111877
0.75182710 0.00000073 0.36730186
0.00000073 0.35196041 0.15818894
0.00000073 0.36087686 0.16522671
0.07811664 0.36907019 0.17145878
0.36612201 0.37517531 0.18281525
0.51384668 0.37909559 0.20573261
0.64083430 0.37864715 0.23529093
0.75182710 0.36406101 0.27244303
0.75182710 0.29248970 0.31754262
0.75182710 0.00000073 0.36769761
0.00000073 0.51084480 0.00000073
0.00000073 0.51746236 0.00000073
0.00000073 0.52255346 0.00000073
0.33074648 0.52631044 0.00000073
0.51748626 0.52914560 0.00000073
0.64596524 0.53113343 0.00000073
0.75182710 0.53127802 0.19511268
0.75182710 0.52744610 0.28722051
0.75182710 0.51562715 0.34963319
0.00000073 0.65470318 0.00000073
0.00000073 0.65532929 0.00000073
0.00000073 0.65463825 0.00000073
0.00000073 0.65326355 0.00000073
0.49014739 0.65132500 0.00000073
0.63634897 0.64894538 0.00000073
0.73896803 0.64643824 0.00000073
0.75182710 0.64362200 0.00000073
0.75182710 0.64008693 0.26045210
0.00000073 0.75182710 0.00000073
0.00000073 0.75182710 0.00000073
0.00000073 0.75182710 0.00000073
0.00000073 0.75071260 0.00000073
0.31359332 0.74200268 0.00000073
0.60519552 0.73409071 0.00000073
0.71414610 0.72698083 0.00000073
0.75182710 0.72066265 0.00000073
0.75182710 0.71521530 0.00000073
0.00000073 0.75182710 0.00000073
0.00000073 0.75182710 0.00000073
0.00000073 0.75182710 0.00000073
0.00000073 0.75182710 0.00000073
0.00000073 0.75182710 0.00000073
0.54222561 0.75182710 0.00000073
0.68013551 0.75182710 0.00000073
0.75182710 0.75182710 0.00000073
0.75182710 0.75182710 0.00000073
0.00000073 0.75182710 0.00000073
0.00000073 0.75182710 0.00000073
0.00000073 0.75182710 0.00000073
0.00000073 0.75182710 0.00000073
0.00000073 0.75182710 0.00000073
0.41302078 0.75182710 0.00000073
0.64298190 0.75182710 0.00000073
0.72559296 0.75182710 0.00000073
0.75182710 0.75182710 0.52919407
0.00000073 0.00000073 0.23597272
0.00000073 0.00000073 0.21649816
0.17573735 0.00000073 0.20256777
0.31084265 0.00000073 0.20328650
0.44219546 0.00000073 0.21036840
0.57260771 0.00000073 0.22410859
0.70181173 0.00000073 0.24944501
0.75182710 0.00000073 0.29234344
0.75182710 0.00000073 0.35451875
0.00000073 0.00000073 0.24977492
0.00000073 0.00000073 0.25519553
0.16808527 0.00000073 0.26184042
0.32462868 0.00000073 0.26982060
0.46426510 0.00000073 0.28012428
0.59758686 0.00000073 0.29387250
0.72365091 0.00000073 0.31395138
0.75182710 0.00000073 0.34449924
0.75182710 0.00000073 0.38829562
0.00000073 0.07860954 0.30041063
0.00000073 0.06480473 0.31062160
0.15695753 0.00000073 0.32152979
0.34913123 0.00000073 0.33029542
0.49258952 0.00000073 0.33946642
0.62235083 0.00000073 0.35130835
0.74020389 0.00000073 0.36744857
0.75182710 0.00000073 0.39029518
0.75182710 0.00000073 0.42153099
0.00000073 0.33879141 0.33592370
0.00000073 0.34719425 0.34507794
0.00000073 0.35497163 0.35355599
0.36074830 0.36074830 0.36074830
0.51375162 0.36456400 0.36896605
0.63857421 0.36443826 0.38069598
0.74839355 0.34991483 0.39627890
0.75182710 0.28170920 0.41693953
0.75182710 0.00000073 0.44283414
0.00000073 0.50832614 0.32756534
0.00000073 0.51425285 0.33540590
0.00000073 0.51900465 0.34368444
0.32061647 0.52302177 0.35238125
0.51664941 0.52578595 0.36437776
0.64412315 0.52773783 0.38331887
0.74687330 0.52873594 0.40527951
0.75182710 0.52672912 0.42957788
0.75182710 0.51879812 0.45529020
0.00000073 0.65225237 0.00000073
0.00000073 0.65217667 0.00000073
0.00000073 0.65141643 0.00000073
0.00000073 0.65013744 0.20570378
0.49115404 0.64833074 0.28500758
0.63473155 0.64611281 0.33982195
0.73438440 0.64403108 0.38321906
0.75182710 0.64196132 0.42012016
0.75182710 0.63969961 0.45332256
0.00000073 0.75182710 0.00000073
0.00000073 0.75182710 0.00000073
0.00000073 0.75182710 0.00000073
0.00000073 0.74506066 0.00000073
0.35850656 0.73705954 0.00000073
0.60660642 0.72977859 0.00000073
0.71122071 0.72323462 0.26848040
0.75182710 0.71756884 0.38348692
0.75182710 0.71299036 0.44428460
0.00000073 0.75182710 0.00000073
0.00000073 0.75182710 0.00000073
0.00000073 0.75182710 0.00000073
0.00000073 0.75182710 0.00000073
0.00000073 0.75182710 0.00000073
0.55486954 0.75182710 0.00000073
0.68086015 0.75182710 0.00000073
0.75182710 0.75182710 0.34924622
0.75182710 0.75182710 0.46801096
0.00000073 0.75182710 0.00000073
0.00000073 0.75182710 0.00000073
0.00000073 0.75182710 0.00000073
0.00000073 0.75182710 0.00000073
0.00000073 0.75182710 0.00000073
0.48007751 0.75182710 0.00000073
0.65113727 0.75182710 0.00000073
0.72980888 0.75182710 0.51922666
0.75182710 0.75182710 0.66488204
0.00000073 0.00000073 0.27217433
0.00000073 0.00000073 0.25454578
0.14629454 0.00000073 0.24590632
0.29610886 0.00000073 0.25010399
0.43050898 0.00000073 0.25786017
0.56232053 0.00000073 0.27014645
0.69022721 0.00000073 0.28962524
0.75182710 0.00000073 0.32091894
0.75182710 0.00000073 0.36727998
0.00000073 0.00000073 0.30699481
0.00000073 0.00000073 0.31472352
0.10414376 0.00000073 0.32408149
0.31003015 0.00000073 0.33483443
0.45449898 0.00000073 0.34684890
0.58786172 0.00000073 0.36061105
0.71154102 0.00000073 0.37745744
0.75182710 0.00000073 0.39951339
0.75182710 0.00000073 0.42929793
0.00000073 0.00000073 0.38342327
0.00000073 0.00000073 0.39573499
0.00000073 0.00000073 0.40820859
0.32932532 0.00000073 0.41954530
0.48299750 0.00000073 0.43005877
0.61329309 0.00000073 0.44095370
0.72943369 0.00000073 0.45354260
0.75182710 0.00000073 0.46889467
0.75182710 0.00000073 0.48806938
0.00000073 0.28398688 0.45102796
0.00000073 0.28793756 0.46240253
0.00000073 0.29161882 0.47278323
0.33343450 0.29438771 0.48193684
0.50534943 0.29856482 0.48829330
0.63249207 0.29711466 0.49503052
0.74018907 0.26880092 0.50383706
0.75182710 0.00000073 0.51501694
0.75182710 0.00000073 0.52888935
0.00000073 0.49297555 0.48889318
0.00000073 0.49811217 0.49508707
0.00000073 0.50264893 0.50044786
0.26524498 0.50708577 0.50569053
0.51041676 0.51041676 0.51041677
0.64079429 0.51331860 0.51651017
0.74041363 0.51604697 0.52551239
0.75182710 0.51596483 0.53645599
0.75182710 0.51127591 0.54901124
0.00000073 0.64535743 0.47813799
0.00000073 0.64499210 0.48394588
0.00000073 0.64418932 0.49014694
0.00000073 0.64312624 0.49688846
0.48562937 0.64183934 0.50417944
0.63176325 0.64000076 0.51345792
0.72969051 0.63822635 0.52675287
0.75182710 0.63700677 0.54095285
0.75182710 0.63611602 0.55600883
0.00000073 0.75182710 0.34689464
0.00000073 0.75182710 0.39027183
0.00000073 0.74616223 0.42379723
0.00000073 0.73810296 0.45069266
0.37135955 0.73084665 0.47284212
0.60602866 0.72420559 0.49335736
0.70788383 0.71815187 0.51470353
0.75182710 0.71308684 0.53700645
0.75182710 0.70941169 0.55961364
0.00000073 0.75182710 0.00000073
0.00000073 0.75182710 0.00000073
0.00000073 0.75182710 0.00000073
0.00000073 0.75182710 0.11482573
0.00000073 0.75182710 0.39014152
0.56381979 0.75182710 0.45671325
0.68102185 0.75182710 0.50183763
0.74986687 0.75182710 0.53938216
0.75182710 0.75165834 0.60632156
0.00000073 0.75182710 0.00000073
0.00000073 0.75182710 0.00000073
0.00000073 0.75182710 0.00000073
0.00000073 0.75182710 0.00000073
0.00000073 0.75182710 0.00000073
0.51834779 0.75182710 0.43723252
0.66698072 0.75182710 0.54332344
0.73545890 0.75182710 0.65405384
0.75182710 0.75182710 0.72131519
0.00000073 0.00000073 0.30390792
0.00000073 0.00000073 0.28864215
0.09083061 0.00000073 0.28605288
0.27916207 0.00000073 0.29171805
0.41783403 0.00000073 0.30024025
0.54996154 0.00000073 0.31191271
0.67597222 0.00000073 0.32825603
0.75182710 0.00000073 0.35215320
0.75182710 0.00000073 0.38641742
0.00000073 0.00000073 0.35173920
0.00000073 0.00000073 0.36061177
0.00000073 0.00000073 0.37118811
0.28882923 0.00000073 0.38298576
0.44082416 0.00000073 0.39561961
0.57421793 0.00000073 0.40953109
0.69527894 0.00000073 0.42555699
0.75182710 0.00000073 0.44507980
0.75182710 0.00000073 0.46922874
0.00000073 0.00000073 0.44152368
0.00000073 0.00000073 0.45539713
0.00000073 0.00000073 0.46904941
0.29161695 0.00000073 0.48198668
0.46705926 0.00000073 0.49415846
0.59990233 0.00000073 0.50616576
0.71499878 0.00000073 0.51867668
0.75182710 0.00000073 0.53209508
0.75182710 0.00000073 0.54689725
0.00000073 0.00000073 0.53247495
0.00000073 0.00000073 0.54461699
0.00000073 0.00000073 0.55515912
0.23974163 0.00000073 0.56398015
0.48644939 0.00000073 0.57135851
0.62037426 0.00000073 0.57783612
0.72769219 0.00000073 0.58448177
0.75182710 0.00000073 0.59198632
0.75182710 0.00000073 0.60090116
0.00000073 0.44827811 0.59721812
0.00000073 0.45162115 0.60307534
0.00000073 0.45567592 0.60792256
0.00000073 0.46033334 0.61227317
0.49048142 0.46512129 0.61607342
0.63083176 0.47215352 0.61774855
0.73142086 0.47933896 0.62014275
0.75182710 0.48325466 0.62419309
0.75182710 0.48325730 0.62941889
0.00000073 0.62720281 0.62220920
0.00000073 0.62675883 0.62303982
0.00000073 0.62621374 0.62344713
0.00000073 0.62575459 0.62374573
0.46506401 0.62557416 0.62435470
0.62495222 0.62495222 0.62495223
0.72396092 0.62464738 0.62678321
0.75182710 0.62544312 0.63077210
0.75182710 0.62690339 0.63631869
0.00000073 0.75122114 0.60303143
0.00000073 0.74317577 0.60378131
0.00000073 0.73502335 0.60509897
0.00000073 0.72774965 0.60700922
0.34576090 0.72134658 0.60951278
0.60155734 0.71569480 0.61259794
0.70352932 0.71035173 0.61782534
0.75182710 0.70604913 0.62680728
0.75182710 0.70368328 0.63744698
0.00000073 0.75182710 0.53234527
0.00000073 0.75182710 0.54906483
0.00000073 0.75182710 0.56258313
0.00000073 0.75182710 0.57456181
0.00000073 0.75182710 0.58609408
0.56866314 0.75182710 0.59804883
0.68019493 0.75182710 0.61133693
0.74460681 0.75182710 0.63652201
0.75182710 0.74450902 0.68630406
0.00000073 0.75182710 0.00000073
0.00000073 0.75182710 0.40502783
0.00000073 0.75182710 0.48932918
0.00000073 0.75182710 0.53336397
0.00000073 0.75182710 0.56496442
0.55200228 0.75182710 0.59598655
0.69104582 0.75182710 0.65914121
0.74080393 0.75182710 0.71700722
0.75058098 0.75174702 0.74017420
0.00000073 0.00000073 0.33183450
0.00000073 0.00000073 0.31998986
0.00000073 0.00000073 0.32230791
0.25874027 0.00000073 0.32921075
0.40365313 0.00000073 0.33848259
0.53582431 0.00000073 0.35006237
0.65952626 0.00000073 0.36491052
0.75182710 0.00000073 0.38465093
0.75182710 0.00000073 0.41136682
0.00000073 0.00000073 0.39203912
0.00000073 0.00000073 0.40195867
0.00000073 0.00000073 0.41345162
0.25670498 0.00000073 0.42563483
0.42438252 0.00000073 0.43840114
0.55842284 0.00000073 0.45199643
0.67761858 0.00000073 0.46712502
0.75182710 0.00000073 0.48457585
0.75182710 0.00000073 0.50486159
0.00000073 0.00000073 0.48797382
0.00000073 0.00000073 0.50187335
0.00000073 0.00000073 0.51527144
0.20578434 0.00000073 0.52802824
0.44599321 0.00000073 0.54037981
0.58358371 0.00000073 0.55305879
0.69794942 0.00000073 0.56630899
0.75182710 0.00000073 0.58011652
0.75182710 0.00000073 0.59410340
0.00000073 0.00000073 0.58868945
0.00000073 0.00000073 0.60123417
0.00000073 0.00000073 0.61219560
0.00000073 0.00000073 0.62184863
0.45650300 0.00000073 0.63026940
0.60359988 0.00000073 0.63752654
0.71195047 0.00000073 0.64398946
0.75182710 0.00000073 0.65059009
0.75182710 0.00000073 0.65754128
0.00000073 0.25984771 0.67230638
0.00000073 0.23981478 0.67807413
0.00000073 0.24059208 0.68262792
0.00000073 0.26578873 0.68597251
0.44763731 0.30429229 0.68797253
0.61402014 0.34324565 0.68887789
0.71851959 0.37495575 0.68946755
0.75182710 0.39774712 0.69026598
0.75182710 0.41443256 0.69146089
0.00000073 0.58796333 0.71872900
0.00000073 0.58758393 0.71775050
0.00000073 0.58813136 0.71565189
0.00000073 0.58971749 0.71291585
0.40399151 0.59186673 0.71048488
0.61074851 0.59408694 0.70824130
0.71373033 0.59789799 0.70475986
0.75182710 0.60326192 0.70199904
0.75182710 0.60958576 0.70085069
0.00000073 0.73059944 0.72519033
0.00000073 0.72275969 0.71871814
0.00000073 0.71575741 0.71270152
0.00000073 0.70976973 0.70744494
0.00000073 0.70472885 0.70303878
0.59163989 0.70059377 0.69961485
0.69693910 0.69693911 0.69693912
0.75182710 0.69476923 0.69606737
0.75182710 0.69698500 0.69930528
0.00000073 0.75182710 0.69340854
0.00000073 0.75182710 0.68880186
0.00000073 0.75182710 0.68522344
0.00000073 0.75182710 0.68279243
0.00000073 0.75182710 0.68167908
0.56912415 0.75182710 0.68205120
0.67914529 0.75182710 0.68496792
0.73895794 0.74257640 0.70232917
0.75168364 0.73994231 0.72637814
0.00000073 0.75182710 0.63971355
0.00000073 0.75182710 0.64511163
0.00000073 0.75182710 0.65030047
0.00000073 0.75182710 0.65588877
0.00000073 0.75182710 0.66251202
0.60884928 0.75182710 0.68438587
0.71521161 0.75182710 0.71839035
0.74421753 0.75124204 0.73919170
0.75018222 0.75050665 0.74739535
0.00000073 0.00000073 0.35662532
0.00000073 0.00000073 0.34964160
0.00000073 0.00000073 0.35503733
0.23187444 0.00000073 0.36301918
0.38746472 0.00000073 0.37282918
0.52000663 0.00000073 0.38456646
0.64106918 0.00000073 0.39876980
0.75113901 0.00000073 0.41649163
0.75182710 0.00000073 0.43888841
0.00000073 0.00000073 0.42845233
0.00000073 0.00000073 0.43932142
0.00000073 0.00000073 0.45120633
0.19508721 0.00000073 0.46354998
0.40451005 0.00000073 0.47631844
0.54117849 0.00000073 0.48976308
0.65926860 0.00000073 0.50452220
0.75182710 0.00000073 0.52082370
0.75182710 0.00000073 0.53882363
0.00000073 0.00000073 0.52948593
0.00000073 0.00000073 0.54303228
0.00000073 0.00000073 0.55592885
0.00000073 0.00000073 0.56809492
0.41849259 0.00000073 0.58016647
0.56542632 0.00000073 0.59234650
0.67958257 0.00000073 0.60469345
0.75182710 0.00000073 0.61746038
0.75182710 0.00000073 0.63122633
0.00000073 0.00000073 0.63291023
0.00000073 0.00000073 0.64417948
0.00000073 0.00000073 0.65425487
0.00000073 0.00000073 0.66362302
0.40980531 0.00000073 0.67235469
0.58307321 0.00000073 0.68058089
0.69463448 0.00000073 0.68814567
0.75182710 0.00000073 0.69517952
0.75182710 0.00000073 0.70163621
0.00000073 0.00000073 0.72356255
0.00000073 0.00000073 0.73001634
0.00000073 0.00000073 0.73491711
0.00000073 0.00000073 0.73813624
0.33786702 0.00000073 0.73982199
0.59121677 0.00000073 0.74074709
0.70280310 0.00000073 0.74083636
0.75182710 0.00000073 0.74015375
0.75182710 0.00000073 0.73898689
0.00000073 0.49213612 0.75182710
0.00000073 0.49360015 0.75182710
0.00000073 0.50133856 0.75182710
0.00000073 0.51244356 0.75182710
0.00000073 0.52486221 0.75182710
0.58796244 0.53803671 0.75182710
0.69957212 0.55244740 0.75182710
0.75182710 0.56808847 0.75182710
0.75182710 0.58459797 0.74900141
0.00000073 0.69499696 0.75182710
0.00000073 0.68881586 0.75182710
0.00000073 0.68410419 0.75182710
0.00000073 0.68068338 0.75182710
0.00000073 0.67842190 0.75182710
0.57496021 0.67721338 0.75182710
0.68745309 0.67707860 0.75182710
0.75182710 0.68012896 0.74853948
0.75182710 0.69570018 0.73696399
0.00000073 0.75182710 0.75182710
0.00000073 0.75182710 0.75182710
0.00000073 0.75182710 0.75182710
0.00000073 0.75182710 0.75182710
0.00000073 0.75182710 0.75136743
0.56586365 0.74585318 0.74455764
0.68582245 0.73823703 0.73766407
0.73577827 0.73577829 0.73577831
0.74547657 0.73954436 0.73962599
0.00000073 0.75182710 0.75170888
0.00000073 0.75182710 0.74321424
0.00000073 0.75182710 0.73611204
0.00000073 0.75182710 0.73055980
0.00000073 0.75182710 0.72785992
0.66539245 0.75182710 0.73278415
0.73220414 0.75058884 0.74149987
0.74661921 0.74933904 0.74677897
0.75050058 0.75056961 0.74991437
0.00000073 0.00000073 0.37923662
0.00000073 0.00000073 0.37802379
0.00000073 0.00000073 0.38471826
0.19038857 0.00000073 0.39339718
0.36885438 0.00000073 0.40369396
0.50254896 0.00000073 0.41570485
0.62143084 0.00000073 0.42980293
0.72896725 0.00000073 0.44669491
0.75182710 0.00000073 0.46677765
0.00000073 0.00000073 0.46146989
0.00000073 0.00000073 0.47289115
0.00000073 0.00000073 0.48487694
0.00000073 0.00000073 0.49723599
0.37981994 0.00000073 0.50993631
0.52283320 0.00000073 0.52350361
0.64034782 0.00000073 0.53808537
0.74150347 0.00000073 0.55368114
0.75182710 0.00000073 0.57026966
0.00000073 0.00000073 0.56633760
0.00000073 0.00000073 0.57935059
0.00000073 0.00000073 0.59157012
0.00000073 0.00000073 0.60336667
0.37885487 0.00000073 0.61514591
0.54513065 0.00000073 0.62680384
0.66040979 0.00000073 0.63831905
0.75182710 0.00000073 0.65023863
0.75182710 0.00000073 0.66289446
0.00000073 0.00000073 0.67132487
0.00000073 0.00000073 0.68138906
0.00000073 0.00000073 0.69064443
0.00000073 0.00000073 0.69909070
0.31072771 0.00000073 0.70677256
0.55903670 0.00000073 0.71402074
0.67640485 0.00000073 0.72163894
0.75182710 0.00000073 0.72942011
0.75182710 0.00000073 0.73608880
0.00000073 0.00000073 0.75182710
0.00000073 0.00000073 0.75182710
0.00000073 0.00000073 0.75182710
0.00000073 0.00000073 0.75182710
0.00000073 0.00000073 0.75182710
0.56085169 0.00000073 0.75182710
0.68486633 0.00000073 0.75182710
0.75182710 0.00000073 0.75182710
0.75182710 0.00000073 0.75182710
0.00000073 0.00000073 0.75182710
0.00000073 0.00000073 0.75182710
0.00000073 0.00000073 0.75182710
0.00000073 0.00000073 0.75182710
0.00000073 0.00000073 0.75182710
0.55350094 0.37652631 0.75182710
0.68303239 0.45855136 0.75182710
0.75182710 0.51085649 0.75182710
0.75182710 0.55733636 0.75182710
0.00000073 0.62943675 0.75182710
0.00000073 0.62849685 0.75182710
0.00000073 0.63020937 0.75182710
0.00000073 0.63387964 0.75182710
0.00000073 0.63902106 0.75182710
0.54870688 0.64539077 0.75182710
0.67647799 0.65312891 0.75182710
0.73875411 0.67429524 0.75182710
0.74972156 0.70436811 0.74673658
0.00000073 0.75182710 0.75182710
0.00000073 0.75182710 0.75182710
0.00000073 0.74558093 0.75182710
0.00000073 0.73828321 0.75182710
0.00000073 0.73261982 0.75182710
0.58332824 0.72852963 0.75182710
0.70140947 0.72924530 0.75182710
0.73626057 0.73527967 0.74437251
0.74365545 0.74093408 0.74349633
0.00000073 0.75182710 0.75182710
0.00000073 0.75182710 0.75182710
0.00000073 0.75182710 0.75182710
0.00000073 0.75182710 0.75182710
0.55575848 0.75182710 0.75182710
0.70861824 0.75003428 0.74956279
0.74021774 0.74788292 0.74778342
0.74827796 0.74926277 0.74924966
0.75099998 0.75100000 0.75100002
