resources/flame/Syncolor/Shared/transforms/camera_manufacturer_luts/arri/ARRI_Alexa_LUTs/ARRI_HDR_Lookfiles_3DLUTs_190319/3D_LUTs_for_monitor_grading_add_P3D65/ARRI_Rec2100PQ-1K-100_33.cube
LUT_3D_SIZE 5
0.00000073 0.00000073 0.00000073
0.20523733 0.06829599 0.01294967
0.42992407 0.19139171 0.05125900
0.67553395 0.37035451 0.13262520
0.75182710 0.59323243 0.27109568
0.07321923 0.18485847 0.00000073
0.18125935 0.18892914 0.00000073
0.43590762 0.23790724 0.00000073
0.68499968 0.38614955 0.12345976
0.75182710 0.57466589 0.25366179
0.24426957 0.45932181 0.00000073
0.27511924 0.46489468 0.00000073
0.45774022 0.47040459 0.00000073
0.67538418 0.49927645 0.00000073
0.75182710 0.57676736 0.00000073
0.44977789 0.71435750 0.00000073
0.44483003 0.70083892 0.00000073
0.51449998 0.68787559 0.00000073
0.66813058 0.68217999 0.00000073
0.75182710 0.69131031 0.00000073
0.61754623 0.75182710 0.00000073
0.58685746 0.75182710 0.00000073
0.59953961 0.75182710 0.00000073
0.68380924 0.75182710 0.00000073
0.75182710 0.75182710 0.00000073
0.00000073 0.00000073 0.18163801
0.18572802 0.00000073 0.15257247
0.42774514 0.18287728 0.15827695
0.67588262 0.36955202 0.19019362
0.75182710 0.58355173 0.28185106
0.03114508 0.17362241 0.17257587
0.17772259 0.17772259 0.17772259
0.43860532 0.23305225 0.18455093
0.67642790 0.37870605 0.21165353
0.75182710 0.54927140 0.27800838
0.24341711 0.46092683 0.00000073
0.27476941 0.46481490 0.00000073
0.45804010 0.47007741 0.00000073
0.66498683 0.49836249 0.12696268
0.75182710 0.56442202 0.26747503
0.44195633 0.70593547 0.00000073
0.43931095 0.69212272 0.00000073
0.51806109 0.68096538 0.00000073
0.66527215 0.67886033 0.00000073
0.75182710 0.68923358 0.00000073
0.59635219 0.75182710 0.00000073
0.57184538 0.75182710 0.00000073
0.59940728 0.75182710 0.00000073
0.68714059 0.75182710 0.00000073
0.75182710 0.75182710 0.54051118
0.00000073 0.00000073 0.26102819
0.15476943 0.00000073 0.25487032
0.41966667 0.08415061 0.28283116
0.66778382 0.35351589 0.31726548
0.75182710 0.55693557 0.36367379
0.00000073 0.00000073 0.35101217
0.00000073 0.00000073 0.38128392
0.42897510 0.00000073 0.40420377
0.65997996 0.33104097 0.42189680
0.75182710 0.51123638 0.44180484
0.14690093 0.44410980 0.43513009
0.22045333 0.44469636 0.44573427
0.45219881 0.45219881 0.45219881
0.65311522 0.48496167 0.46372257
0.75182710 0.54783215 0.48575382
0.42343672 0.69381050 0.34540286
0.42573939 0.68051253 0.39418627
0.51938370 0.67279969 0.43737101
0.66287774 0.67373664 0.48101143
0.75182710 0.68528521 0.53088530
0.57322158 0.75182710 0.00000073
0.55721069 0.75182710 0.00000073
0.60140283 0.75182710 0.37721954
0.69491564 0.75182710 0.55015999
0.75039030 0.75182710 0.72039108
0.00000073 0.00000073 0.31403530
0.08607163 0.00000073 0.32616644
0.40828933 0.00000073 0.35935956
0.64925475 0.31389573 0.39437871
0.75182710 0.51549442 0.43289233
0.00000073 0.00000073 0.44089919
0.00000073 0.00000073 0.47835206
0.40458238 0.00000073 0.51163931
0.63555663 0.00000073 0.54186858
0.75182710 0.43190531 0.56513265
0.00000073 0.36240936 0.58874149
0.00000073 0.30090589 0.61119693
0.41719804 0.28542324 0.62476397
0.63505640 0.39082910 0.63092183
0.75182710 0.49737087 0.63655160
0.29545297 0.66723268 0.65224745
0.33628558 0.65419547 0.65216025
0.50503290 0.65096117 0.65348049
0.65751558 0.65751559 0.65751560
0.75182710 0.67532321 0.66964633
0.53546087 0.75182710 0.61753214
0.53254252 0.75182710 0.63302775
0.60255261 0.75182710 0.65263555
0.72018805 0.75182710 0.71360663
0.74970105 0.75003876 0.74703269
0.00000073 0.00000073 0.35431513
0.00000073 0.00000073 0.38204850
0.39160552 0.00000073 0.41795510
0.62243881 0.19409720 0.45343375
0.75182710 0.46027265 0.48941279
0.00000073 0.00000073 0.50793927
0.00000073 0.00000073 0.54529499
0.36823013 0.00000073 0.57843777
0.60659602 0.00000073 0.60766608
0.75182710 0.00000073 0.63404168
0.00000073 0.00000073 0.66491255
0.00000073 0.00000073 0.69008872
0.32640997 0.00000073 0.70975591
0.61122721 0.00000073 0.72142715
0.74600449 0.26210706 0.72498040
0.00000073 0.61476294 0.75182710
0.00000073 0.59538442 0.75182710
0.45752155 0.59863548 0.75182710
0.64775480 0.62208221 0.75182710
0.71606849 0.68152173 0.72034296
0.40021339 0.75182710 0.75182710
0.46941437 0.75182710 0.75182710
0.64012863 0.74873265 0.75127896
0.73883860 0.74423148 0.74448153
0.75099998 0.75100000 0.75100002
