resources/flame/Syncolor/Shared/transforms/camera_manufacturer_luts/arri/ARRI_Alexa_LUTs/ARRI_HDR_Lookfiles_3DLUTs_190319/3D_LUTs_for_monitor_grading_add_P3D65/ARRI_P3D65PQ-1K-100_33.cube
LUT_3D_SIZE 9
0.00000073 0.00000073 0.00000073
0.11581541 0.00000073 0.00700336
0.22368216 0.00000073 0.02017679
0.33435676 0.00000073 0.04095985
0.45712647 0.00000073 0.07370505
0.58184917 0.00000073 0.11876170
0.70640435 0.00000073 0.17712684
0.75182710 0.00000073 0.25046993
0.75182710 0.00000073 0.33921828
0.00000073 0.05892349 0.00000073
0.05150367 0.05433169 0.00000073
0.19305091 0.04234964 0.00000073
0.32580355 0.00000073 0.03581520
0.45593294 0.00000073 0.07206225
0.58457172 0.00000073 0.11933210
0.71184963 0.00000073 0.17975419
0.75182710 0.00000073 0.25266627
0.75182710 0.00000073 0.33540869
0.00000073 0.18894730 0.00000073
0.00000073 0.18967788 0.00000073
0.18282944 0.19006888 0.00000073
0.32755864 0.18793121 0.00000073
0.46237200 0.17339835 0.00000073
0.59228598 0.00000073 0.10258269
0.71582111 0.00000073 0.17392219
0.75182710 0.00000073 0.24627696
0.75182710 0.00000073 0.32116427
0.00000073 0.32640841 0.00000073
0.00000073 0.32947325 0.00000073
0.04988088 0.33228670 0.00000073
0.32408504 0.33424370 0.00000073
0.46713828 0.33401265 0.00000073
0.59551552 0.32751504 0.00000073
0.71233737 0.29983182 0.06061557
0.75182710 0.00000073 0.20915472
0.75182710 0.00000073 0.29075060
0.00000073 0.46602199 0.00000073
0.00000073 0.46931341 0.00000073
0.00000073 0.47141981 0.00000073
0.26980698 0.47231618 0.00000073
0.46035010 0.47226864 0.00000073
0.59110456 0.47117568 0.00000073
0.70308516 0.46740795 0.00000073
0.75182710 0.45669919 0.00000073
0.75182710 0.42956662 0.14804605
0.00000073 0.60115417 0.00000073
0.00000073 0.60080807 0.00000073
0.00000073 0.59886821 0.00000073
0.00000073 0.59597557 0.00000073
0.42047209 0.59306616 0.00000073
0.57750429 0.59032853 0.00000073
0.68901588 0.58785503 0.00000073
0.75182710 0.58531123 0.00000073
0.75182710 0.58174743 0.00000073
0.00000073 0.72186515 0.00000073
0.00000073 0.71543576 0.00000073
0.00000073 0.70829307 0.00000073
0.00000073 0.70123507 0.00000073
0.00000073 0.69459589 0.00000073
0.54667170 0.68873758 0.00000073
0.67103434 0.68423926 0.00000073
0.75182710 0.68089263 0.00000073
0.75182710 0.67834435 0.00000073
0.00000073 0.75182710 0.00000073
0.00000073 0.75182710 0.00000073
0.00000073 0.75182710 0.00000073
0.00000073 0.75182710 0.00000073
0.00000073 0.75182710 0.00000073
0.46593450 0.75182710 0.00000073
0.64545881 0.75182710 0.00000073
0.73874302 0.75182710 0.00000073
0.75182710 0.74693771 0.00000073
0.00000073 0.75182710 0.00000073
0.00000073 0.75182710 0.00000073
0.00000073 0.75182710 0.00000073
0.00000073 0.75182710 0.00000073
0.00000073 0.75182710 0.00000073
0.00000073 0.75182710 0.00000073
0.60858395 0.75182710 0.00000073
0.71479117 0.75182710 0.00000073
0.75182710 0.75182710 0.00000073
0.00000073 0.00000073 0.11008715
0.10228012 0.00000073 0.08712942
0.21507672 0.00000073 0.06674847
0.33099659 0.00000073 0.06267682
0.45673064 0.00000073 0.08440169
0.58198348 0.00000073 0.12354964
0.70691510 0.00000073 0.17938174
0.75182710 0.00000073 0.25149968
0.75182710 0.00000073 0.33699467
0.00000073 0.05221480 0.05081589
0.04805825 0.04805825 0.04805825
0.19423386 0.03365375 0.04790034
0.32708042 0.00000073 0.05795662
0.45736855 0.00000073 0.08318314
0.58614694 0.00000073 0.12505691
0.71166934 0.00000073 0.18211909
0.75182710 0.00000073 0.25144407
0.75182710 0.00000073 0.32890031
0.00000073 0.18900423 0.00000073
0.00000073 0.19027140 0.00000073
0.18340732 0.19048715 0.00000073
0.32982381 0.18791934 0.00000073
0.46434272 0.17320530 0.03432315
0.59236026 0.00000073 0.11234135
0.71252158 0.00000073 0.17662637
0.75182710 0.00000073 0.24359949
0.75182710 0.00000073 0.31338777
0.00000073 0.32758158 0.00000073
0.00000073 0.33085881 0.00000073
0.02305362 0.33365592 0.00000073
0.32511754 0.33523046 0.00000073
0.46776738 0.33494332 0.00000073
0.59365727 0.32934815 0.00000073
0.70706035 0.30604114 0.09577293
0.75182710 0.16210822 0.21094582
0.75182710 0.00000073 0.28551893
0.00000073 0.46739896 0.00000073
0.00000073 0.47027515 0.00000073
0.00000073 0.47189108 0.00000073
0.27250812 0.47245679 0.00000073
0.46055737 0.47242778 0.00000073
0.58899675 0.47184879 0.00000073
0.69773587 0.46931573 0.00000073
0.75182710 0.46184016 0.00000073
0.75182710 0.44398536 0.17998122
0.00000073 0.60071471 0.00000073
0.00000073 0.59953083 0.00000073
0.00000073 0.59703064 0.00000073
0.00000073 0.59423829 0.00000073
0.42452073 0.59160447 0.00000073
0.57664061 0.58939535 0.00000073
0.68450734 0.58785828 0.00000073
0.75182710 0.58672469 0.00000073
0.75182710 0.58519689 0.00000073
0.00000073 0.71800798 0.00000073
0.00000073 0.71109212 0.00000073
0.00000073 0.70402228 0.00000073
0.00000073 0.69721126 0.00000073
0.00000073 0.69099117 0.00000073
0.55072470 0.68601863 0.00000073
0.66940723 0.68250847 0.00000073
0.75182710 0.68015693 0.00000073
0.75182710 0.67874329 0.00000073
0.00000073 0.75182710 0.00000073
0.00000073 0.75182710 0.00000073
0.00000073 0.75182710 0.00000073
0.00000073 0.75182710 0.00000073
0.00000073 0.75182710 0.00000073
0.48903534 0.75182710 0.00000073
0.64808117 0.75182710 0.00000073
0.73610877 0.74923359 0.00000073
0.75182710 0.74512662 0.00000073
0.00000073 0.75182710 0.00000073
0.00000073 0.75182710 0.00000073
0.00000073 0.75182710 0.00000073
0.00000073 0.75182710 0.00000073
0.00000073 0.75182710 0.00000073
0.00000073 0.75182710 0.00000073
0.62048058 0.75182710 0.00000073
0.71625324 0.75182710 0.00000073
0.75182710 0.75182710 0.00000073
0.00000073 0.00000073 0.18283388
0.06769546 0.00000073 0.16716150
0.20299573 0.00000073 0.15381753
0.32740147 0.00000073 0.15331982
0.45488822 0.00000073 0.16295826
0.58112810 0.00000073 0.18096545
0.70675458 0.00000073 0.21442564
0.75182710 0.00000073 0.26837181
0.75182710 0.00000073 0.34066568
0.00000073 0.00000073 0.16212793
0.00000073 0.00000073 0.16810183
0.18841739 0.00000073 0.17188720
0.32614546 0.00000073 0.17599690
0.45780686 0.00000073 0.18334452
0.58636208 0.00000073 0.19768491
0.70942502 0.00000073 0.22556961
0.75182710 0.00000073 0.27160436
0.75182710 0.00000073 0.33235691
0.00000073 0.17717366 0.17239884
0.00000073 0.17796155 0.17597845
0.17772259 0.17772259 0.17772259
0.33123653 0.17404124 0.18014487
0.46513030 0.15573773 0.18733844
0.59090025 0.00000073 0.20248479
0.70718366 0.00000073 0.23029017
0.75182710 0.00000073 0.27195812
0.75182710 0.00000073 0.32417090
0.00000073 0.32605850 0.12757427
0.00000073 0.32955951 0.12826128
0.00000073 0.33249298 0.12821141
0.32489714 0.33367614 0.13508801
0.46802493 0.33310887 0.15646234
0.59117289 0.32823182 0.18541565
0.70120759 0.30799416 0.22212481
0.75182710 0.21294044 0.26610105
0.75182710 0.00000073 0.31405872
0.00000073 0.46761436 0.00000073
0.00000073 0.46999668 0.00000073
0.00000073 0.47130401 0.00000073
0.27294827 0.47176355 0.00000073
0.46051484 0.47185504 0.00000073
0.58688232 0.47169714 0.00000073
0.69217256 0.47032736 0.06710378
0.75182710 0.46568502 0.22275506
0.75182710 0.45401445 0.29007491
0.00000073 0.59929060 0.00000073
0.00000073 0.59736333 0.00000073
0.00000073 0.59477292 0.00000073
0.00000073 0.59223120 0.00000073
0.42813469 0.58993387 0.00000073
0.57588381 0.58829037 0.00000073
0.68047622 0.58768257 0.00000073
0.75182710 0.58775445 0.00000073
0.75182710 0.58794134 0.17988723
0.00000073 0.71343079 0.00000073
0.00000073 0.70644138 0.00000073
0.00000073 0.69954381 0.00000073
0.00000073 0.69307495 0.00000073
0.22131160 0.68752506 0.00000073
0.55452305 0.68351161 0.00000073
0.66807587 0.68085664 0.00000073
0.75032372 0.67937044 0.00000073
0.75182710 0.67895459 0.00000073
0.00000073 0.75182710 0.00000073
0.00000073 0.75182710 0.00000073
0.00000073 0.75182710 0.00000073
0.00000073 0.75182710 0.00000073
0.00000073 0.75182710 0.00000073
0.50742543 0.75182710 0.00000073
0.65072589 0.75130223 0.00000073
0.73378097 0.74652465 0.00000073
0.75182710 0.74328027 0.00000073
0.00000073 0.75182710 0.00000073
0.00000073 0.75182710 0.00000073
0.00000073 0.75182710 0.00000073
0.00000073 0.75182710 0.00000073
0.00000073 0.75182710 0.00000073
0.39450016 0.75182710 0.00000073
0.63129318 0.75182710 0.00000073
0.71847274 0.75182710 0.00000073
0.75182710 0.75182710 0.52574325
0.00000073 0.00000073 0.22931046
0.00000073 0.00000073 0.21935519
0.18764102 0.00000073 0.21424839
0.32175365 0.00000073 0.22264141
0.45134229 0.00000073 0.23491879
0.57883353 0.00000073 0.25062000
0.70414739 0.00000073 0.27339166
0.75182710 0.00000073 0.30850109
0.75182710 0.00000073 0.35978405
0.00000073 0.00000073 0.23849749
0.00000073 0.00000073 0.24960328
0.16926107 0.00000073 0.26017028
0.32065574 0.00000073 0.27021081
0.45556986 0.00000073 0.28072527
0.58369623 0.00000073 0.29266595
0.70422663 0.00000073 0.30859066
0.75182710 0.00000073 0.33249925
0.75182710 0.00000073 0.36782343
0.00000073 0.10163841 0.27942673
0.00000073 0.06154657 0.29015488
0.13866891 0.00000073 0.30041496
0.32487352 0.00000073 0.30739005
0.46260152 0.00000073 0.31337747
0.58703165 0.00000073 0.32092358
0.69995752 0.00000073 0.33201718
0.75182710 0.00000073 0.34956757
0.75182710 0.00000073 0.37565512
0.00000073 0.31308436 0.30345321
0.00000073 0.31525357 0.31007606
0.00000073 0.31734294 0.31514930
0.31819023 0.31819023 0.31819022
0.46668156 0.31768871 0.32221695
0.58772527 0.31316888 0.33027499
0.69441282 0.29281664 0.34278202
0.75182710 0.19941177 0.36098276
0.75182710 0.00000073 0.38489126
0.00000073 0.46388707 0.28187147
0.00000073 0.46576331 0.28564479
0.00000073 0.46690156 0.29033906
0.26125607 0.46781006 0.29599612
0.45904329 0.46803842 0.30568905
0.58453254 0.46807715 0.32318157
0.68619817 0.46781992 0.34441542
0.75182710 0.46529856 0.36869036
0.75182710 0.45796006 0.39526548
0.00000073 0.59603259 0.00000073
0.00000073 0.59362246 0.00000073
0.00000073 0.59120738 0.00000073
0.00000073 0.58902981 0.00000073
0.42950474 0.58718909 0.19634501
0.57485302 0.58612074 0.27084478
0.67678204 0.58628520 0.32194249
0.75182710 0.58738381 0.36414595
0.75182710 0.58905148 0.40213707
0.00000073 0.70813385 0.00000073
0.00000073 0.70113973 0.00000073
0.00000073 0.69446477 0.00000073
0.00000073 0.68845286 0.00000073
0.28992676 0.68388251 0.00000073
0.55747423 0.68070678 0.00000073
0.66677643 0.67876094 0.18203078
0.74561389 0.67800693 0.33946114
0.75182710 0.67847548 0.40856023
0.00000073 0.75182710 0.00000073
0.00000073 0.75182710 0.00000073
0.00000073 0.75182710 0.00000073
0.00000073 0.75182710 0.00000073
0.00000073 0.75182710 0.00000073
0.52196027 0.75182710 0.00000073
0.65318794 0.74758150 0.00000073
0.73159275 0.74356277 0.32157227
0.75182710 0.74084784 0.45054764
0.00000073 0.75182710 0.00000073
0.00000073 0.75182710 0.00000073
0.00000073 0.75182710 0.00000073
0.00000073 0.75182710 0.00000073
0.00000073 0.75182710 0.00000073
0.46464018 0.75182710 0.00000073
0.64108353 0.75182710 0.00000073
0.72405892 0.75182710 0.51342460
0.75182710 0.75182710 0.66244907
0.00000073 0.00000073 0.26252844
0.00000073 0.00000073 0.25502646
0.16971777 0.00000073 0.25638646
0.31461478 0.00000073 0.26981974
0.44657450 0.00000073 0.28511921
0.57505515 0.00000073 0.30291218
0.69860349 0.00000073 0.32438713
0.75182710 0.00000073 0.35201590
0.75182710 0.00000073 0.38883189
0.00000073 0.00000073 0.28963725
0.00000073 0.00000073 0.30486430
0.12615908 0.00000073 0.32050099
0.31123229 0.00000073 0.33598557
0.45016790 0.00000073 0.35102645
0.57790249 0.00000073 0.36578099
0.69560099 0.00000073 0.38114828
0.75182710 0.00000073 0.39883713
0.75182710 0.00000073 0.42146274
0.00000073 0.00000073 0.35258108
0.00000073 0.00000073 0.36817745
0.00000073 0.00000073 0.38298370
0.30800603 0.00000073 0.39566985
0.45491830 0.00000073 0.40619777
0.57955917 0.00000073 0.41563436
0.69057214 0.00000073 0.42548968
0.75182710 0.00000073 0.43704497
0.75182710 0.00000073 0.45135832
0.00000073 0.27325092 0.40529824
0.00000073 0.26510358 0.41749162
0.00000073 0.25611155 0.42810717
0.29136090 0.24621588 0.43697219
0.45826491 0.23915840 0.44234682
0.58142865 0.22648826 0.44708115
0.68592737 0.16545264 0.45322926
0.75182710 0.00000073 0.46143904
0.75182710 0.00000073 0.47240590
0.00000073 0.45013982 0.43468372
0.00000073 0.45015753 0.44088686
0.00000073 0.45036378 0.44550169
0.19068721 0.45136748 0.44933236
0.45219881 0.45219881 0.45219881
0.58078634 0.45339368 0.45662074
0.67953098 0.45509045 0.46470851
0.75182710 0.45477189 0.47558986
0.75182710 0.45104897 0.48923445
0.00000073 0.58843163 0.42082725
0.00000073 0.58595616 0.42457014
0.00000073 0.58374617 0.42941034
0.00000073 0.58205424 0.43556838
0.42427944 0.58110020 0.44323980
0.57259215 0.58079023 0.45411154
0.67308261 0.58157701 0.47004244
0.75146920 0.58377600 0.48770697
0.75182710 0.58699693 0.50687156
0.00000073 0.70122248 0.26548702
0.00000073 0.69424923 0.32093744
0.00000073 0.68780071 0.36085275
0.00000073 0.68262462 0.39274058
0.30808785 0.67904462 0.41965179
0.55846946 0.67669068 0.44508154
0.66509619 0.67535423 0.47152435
0.74090777 0.67525784 0.49900367
0.75182710 0.67662392 0.52674724
0.00000073 0.75182710 0.00000073
0.00000073 0.75182710 0.00000073
0.00000073 0.75182710 0.00000073
0.00000073 0.75182710 0.00000073
0.00000073 0.75182710 0.34872996
0.53270443 0.74806058 0.42438184
0.65512856 0.74324778 0.47552123
0.72933963 0.73990607 0.51872806
0.75182710 0.73647956 0.59112875
0.00000073 0.75182710 0.00000073
0.00000073 0.75182710 0.00000073
0.00000073 0.75182710 0.00000073
0.00000073 0.75182710 0.00000073
0.00000073 0.75182710 0.00000073
0.50492757 0.75182710 0.42317003
0.65848021 0.75182710 0.53477718
0.73096276 0.75182710 0.64955895
0.75104980 0.75182710 0.71972378
0.00000073 0.00000073 0.29109671
0.00000073 0.00000073 0.28641706
0.14477759 0.00000073 0.29427813
0.30634305 0.00000073 0.30928969
0.44123507 0.00000073 0.32567936
0.56937299 0.00000073 0.34348391
0.69041563 0.00000073 0.36344668
0.75182710 0.00000073 0.38724887
0.75182710 0.00000073 0.41676792
0.00000073 0.00000073 0.33029585
0.00000073 0.00000073 0.34680469
0.00000073 0.00000073 0.36397468
0.29856372 0.00000073 0.38143100
0.44244035 0.00000073 0.39869335
0.56946570 0.00000073 0.41596508
0.68399292 0.00000073 0.43357462
0.75182710 0.00000073 0.45164526
0.75182710 0.00000073 0.47098063
0.00000073 0.00000073 0.40187158
0.00000073 0.00000073 0.42056405
0.00000073 0.00000073 0.43870317
0.27963482 0.00000073 0.45552982
0.44309993 0.00000073 0.47022795
0.56943496 0.00000073 0.48315031
0.67900447 0.00000073 0.49505859
0.75182710 0.00000073 0.50640985
0.75182710 0.00000073 0.51761715
0.00000073 0.00000073 0.47405395
0.00000073 0.00000073 0.49007119
0.00000073 0.00000073 0.50401036
0.21014264 0.00000073 0.51559953
0.44198053 0.00000073 0.52475181
0.57101066 0.00000073 0.53174072
0.67480897 0.00000073 0.53774045
0.75182710 0.00000073 0.54375802
0.75182710 0.00000073 0.55082696
0.00000073 0.42051618 0.52820684
0.00000073 0.41422092 0.53762174
0.00000073 0.40934314 0.54519553
0.00000073 0.40641718 0.55147201
0.43323962 0.40532192 0.55656592
0.57130823 0.40862712 0.55898155
0.67099758 0.41421995 0.56168384
0.75149551 0.41814064 0.56618620
0.75182710 0.41979435 0.57253975
0.00000073 0.57324793 0.55306930
0.00000073 0.56949682 0.55671209
0.00000073 0.56673319 0.55928838
0.00000073 0.56522279 0.56133822
0.40344942 0.56541378 0.56376866
0.56657115 0.56657116 0.56657116
0.66843577 0.56912276 0.57126239
0.74418872 0.57357160 0.57890539
0.75182710 0.57931512 0.58871713
0.00000073 0.69038955 0.54175169
0.00000073 0.68346458 0.54401424
0.00000073 0.67757174 0.54760299
0.00000073 0.67346940 0.55269315
0.27792025 0.67096750 0.55910509
0.55557624 0.66976488 0.56664704
0.66241713 0.66923890 0.57670009
0.73595035 0.66994320 0.59069449
0.75182710 0.67259527 0.60635128
0.00000073 0.75182710 0.47887989
0.00000073 0.75182710 0.49994132
0.00000073 0.75182710 0.51819107
0.00000073 0.75182710 0.53515478
0.00000073 0.74687756 0.55176570
0.53926739 0.74165033 0.56873111
0.65610866 0.73767578 0.58723584
0.72591195 0.73376135 0.61782495
0.75182710 0.73107893 0.67287267
0.00000073 0.75182710 0.00000073
0.00000073 0.75182710 0.36943743
0.00000073 0.75182710 0.46143251
0.00000073 0.75182710 0.51113283
0.00000073 0.75182710 0.54820104
0.54036806 0.75182710 0.58438093
0.68400644 0.75182710 0.65210170
0.73743424 0.75182710 0.71363766
0.74966675 0.75083280 0.73925997
0.00000073 0.00000073 0.31569934
0.00000073 0.00000073 0.31485852
0.09260278 0.00000073 0.32787828
0.29665098 0.00000073 0.34416868
0.43483644 0.00000073 0.36143329
0.56199734 0.00000073 0.37934770
0.67993844 0.00000073 0.39837400
0.75182710 0.00000073 0.41935641
0.75182710 0.00000073 0.44384591
0.00000073 0.00000073 0.36624052
0.00000073 0.00000073 0.38391575
0.00000073 0.00000073 0.40219296
0.28062397 0.00000073 0.42026803
0.43273693 0.00000073 0.43788414
0.55898445 0.00000073 0.45503923
0.67095003 0.00000073 0.47225702
0.75182710 0.00000073 0.49023983
0.75182710 0.00000073 0.50929272
0.00000073 0.00000073 0.44274669
0.00000073 0.00000073 0.46194108
0.00000073 0.00000073 0.48029776
0.23143920 0.00000073 0.49754827
0.42866192 0.00000073 0.51372010
0.55766439 0.00000073 0.52944237
0.66578478 0.00000073 0.54439287
0.75182710 0.00000073 0.55746884
0.75182710 0.00000073 0.56895599
0.00000073 0.00000073 0.52044068
0.00000073 0.00000073 0.53818754
0.00000073 0.00000073 0.55456005
0.00000073 0.00000073 0.56941272
0.41856715 0.00000073 0.58175177
0.55749093 0.00000073 0.59144854
0.66150486 0.00000073 0.59886752
0.74656833 0.00000073 0.60532081
0.75182710 0.00000073 0.61145858
0.00000073 0.36272516 0.59027512
0.00000073 0.32977314 0.60268534
0.00000073 0.29041695 0.61286868
0.00000073 0.24712252 0.62084222
0.39664411 0.21681670 0.62651602
0.55679418 0.22716657 0.63018573
0.65981983 0.26033226 0.63281840
0.73981954 0.29139499 0.63551493
0.75182710 0.31814998 0.63885050
0.00000073 0.54819137 0.63554209
0.00000073 0.54073668 0.64079405
0.00000073 0.53551600 0.64410518
0.00000073 0.53317197 0.64609959
0.34568914 0.53373894 0.64815170
0.55425535 0.53643913 0.65036316
0.65986575 0.54248563 0.65131677
0.73527884 0.55150694 0.65292815
0.75182710 0.56241667 0.65620491
0.00000073 0.67404944 0.65163579
0.00000073 0.66626661 0.65175993
0.00000073 0.66075410 0.65182879
0.00000073 0.65746747 0.65227252
0.00000073 0.65609039 0.65329923
0.54725810 0.65633054 0.65511282
0.65751558 0.65751559 0.65751560
0.73021827 0.66037481 0.66167221
0.75182710 0.66757381 0.66989143
0.00000073 0.75182710 0.64062172
0.00000073 0.75182710 0.64135309
0.00000073 0.74899523 0.64267806
0.00000073 0.74232553 0.64520703
0.00000073 0.73691934 0.64911888
0.54145422 0.73274558 0.65448817
0.65688441 0.72963207 0.66270471
0.72207945 0.72569892 0.68545084
0.73995297 0.72821133 0.71464704
0.00000073 0.75182710 0.60419863
0.00000073 0.75182710 0.61449010
0.00000073 0.75182710 0.62470421
0.00000073 0.75182710 0.63562750
0.00000073 0.75182710 0.64756902
0.59888051 0.75182710 0.67441110
0.70953320 0.75182710 0.71271152
0.74183444 0.74885897 0.73680861
0.74976744 0.75009187 0.74698057
0.00000073 0.00000073 0.33703446
0.00000073 0.00000073 0.34142977
0.00000073 0.00000073 0.35757867
0.28488509 0.00000073 0.37493889
0.42699058 0.00000073 0.39270966
0.55292392 0.00000073 0.41075311
0.66717625 0.00000073 0.42920669
0.75182710 0.00000073 0.44876675
0.75182710 0.00000073 0.47031876
0.00000073 0.00000073 0.39806309
0.00000073 0.00000073 0.41678658
0.00000073 0.00000073 0.43565059
0.25384805 0.00000073 0.45406953
0.42083810 0.00000073 0.47181413
0.54713904 0.00000073 0.48890951
0.65705234 0.00000073 0.50595337
0.75182710 0.00000073 0.52309430
0.75182710 0.00000073 0.54038713
0.00000073 0.00000073 0.47862734
0.00000073 0.00000073 0.49797461
0.00000073 0.00000073 0.51630179
0.00000073 0.00000073 0.53335417
0.41094401 0.00000073 0.54957270
0.54470842 0.00000073 0.56510860
0.65144255 0.00000073 0.57996831
0.73993753 0.00000073 0.59413023
0.75182710 0.00000073 0.60756657
0.00000073 0.00000073 0.55913623
0.00000073 0.00000073 0.57642248
0.00000073 0.00000073 0.59241858
0.00000073 0.00000073 0.60736973
0.38716078 0.00000073 0.62105513
0.54185191 0.00000073 0.63324825
0.64740720 0.00000073 0.64305575
0.73162768 0.00000073 0.65105724
0.75182710 0.00000073 0.65758165
0.00000073 0.18106376 0.63210382
0.00000073 0.00000073 0.64617115
0.00000073 0.00000073 0.65885329
0.00000073 0.00000073 0.66889057
0.32022603 0.00000073 0.67610814
0.53845880 0.00000073 0.68135597
0.64684721 0.00000073 0.68487764
0.72699132 0.00000073 0.68730376
0.75182710 0.00000073 0.68912360
0.00000073 0.50953965 0.69085128
0.00000073 0.49166233 0.69801841
0.00000073 0.47852663 0.70244911
0.00000073 0.47241692 0.70534912
0.00000073 0.47361093 0.70737935
0.53575688 0.48142850 0.70853595
0.64843740 0.49540470 0.70857550
0.72451564 0.51418385 0.70788584
0.75182710 0.53584917 0.70731820
0.00000073 0.65086849 0.72200228
0.00000073 0.64166637 0.72225158
0.00000073 0.63587075 0.72189044
0.00000073 0.63314198 0.72113001
0.00000073 0.63308546 0.72018620
0.53377852 0.63526575 0.71931709
0.65022634 0.63934310 0.71856844
0.72127953 0.64712952 0.71625224
0.74732291 0.66785510 0.70954792
0.00000073 0.75015194 0.72858165
0.00000073 0.74043402 0.72612445
0.00000073 0.73277465 0.72361854
0.00000073 0.72693389 0.72129599
0.00000073 0.72271668 0.71939771
0.54010400 0.72018701 0.71838188
0.66540269 0.71782408 0.71718570
0.72069038 0.72069040 0.72069042
0.73538199 0.72944973 0.72953137
0.00000073 0.75182710 0.71572276
0.00000073 0.75182710 0.71351676
0.00000073 0.75182710 0.71217214
0.00000073 0.75182710 0.71210165
0.00000073 0.75182710 0.71464988
0.65697271 0.75182710 0.72435781
0.72777321 0.74615780 0.73706880
0.74506967 0.74778950 0.74522943
0.75039477 0.75046380 0.74980856
0.00000073 0.00000073 0.35608601
0.00000073 0.00000073 0.36654691
0.00000073 0.00000073 0.38389178
0.26975401 0.00000073 0.40187288
0.41757382 0.00000073 0.42001034
0.54210841 0.00000073 0.43814724
0.65287831 0.00000073 0.45636141
0.75182710 0.00000073 0.47529018
0.75182710 0.00000073 0.49510279
0.00000073 0.00000073 0.42628898
0.00000073 0.00000073 0.44569262
0.00000073 0.00000073 0.46484722
0.20820897 0.00000073 0.48342179
0.40645294 0.00000073 0.50115610
0.53445174 0.00000073 0.51843816
0.64237765 0.00000073 0.53537428
0.73494901 0.00000073 0.55190458
0.75182710 0.00000073 0.56798143
0.00000073 0.00000073 0.50992251
0.00000073 0.00000073 0.52924351
0.00000073 0.00000073 0.54734950
0.00000073 0.00000073 0.56436692
0.38817750 0.00000073 0.58057135
0.53037331 0.00000073 0.59583060
0.63617047 0.00000073 0.60999687
0.72257297 0.00000073 0.62348323
0.75182710 0.00000073 0.63684359
0.00000073 0.00000073 0.59239179
0.00000073 0.00000073 0.60922865
0.00000073 0.00000073 0.62498400
0.00000073 0.00000073 0.63942229
0.33855717 0.00000073 0.65236194
0.52477207 0.00000073 0.66402174
0.63309095 0.00000073 0.67525985
0.71655065 0.00000073 0.68516789
0.75182710 0.00000073 0.69262314
0.00000073 0.00000073 0.66676444
0.00000073 0.00000073 0.68016017
0.00000073 0.00000073 0.69202905
0.00000073 0.00000073 0.70237635
0.00000073 0.00000073 0.71175042
0.51603910 0.00000073 0.71881303
0.63266151 0.00000073 0.72348009
0.71342066 0.00000073 0.72615910
0.75182710 0.00000073 0.72713922
0.00000073 0.45117910 0.72816342
0.00000073 0.39717294 0.73701865
0.00000073 0.33032188 0.74344568
0.00000073 0.26273474 0.74785978
0.00000073 0.25716651 0.75050793
0.50964016 0.32221928 0.75143797
0.63559683 0.39079665 0.75065230
0.71278620 0.44925820 0.74831798
0.75182710 0.50583480 0.74310318
0.00000073 0.61929877 0.75182710
0.00000073 0.60637716 0.75182710
0.00000073 0.59886664 0.75182710
0.00000073 0.59677944 0.75182710
0.00000073 0.59963804 0.75182710
0.51380094 0.60667099 0.75182710
0.64221675 0.61722823 0.75182710
0.70832677 0.64286138 0.74406161
0.72388653 0.67833963 0.72097069
0.00000073 0.72887295 0.75182710
0.00000073 0.71895296 0.75182710
0.00000073 0.71184194 0.75182710
0.00000073 0.70729535 0.75182710
0.00000073 0.70507118 0.75182710
0.56049972 0.70511113 0.75182710
0.68291421 0.71070337 0.73997605
0.72292961 0.72194228 0.73103324
0.73512016 0.73239813 0.73496129
0.00000073 0.75182710 0.75182710
0.00000073 0.75182710 0.75182710
0.00000073 0.75182710 0.75182710
0.00000073 0.75182710 0.75182710
0.54443593 0.75182710 0.75113068
0.70165800 0.74308017 0.74256672
0.73690649 0.74457196 0.74447091
0.74739616 0.74838098 0.74836784
0.75099998 0.75100000 0.75100002
