resources/flame/Syncolor/Shared/transforms/camera_manufacturer_luts/arri/ARRI_Alexa_LUTs/ARRI_HDR_Lookfiles_3DLUTs_190319/3D_LUTs_for_monitor_grading_add_P3D65/ARRI_P3D65PQ-1K-100_33.cube
LUT_3D_SIZE 5
0.00000073 0.00000073 0.00000073
0.22368216 0.00000073 0.02017679
0.45712647 0.00000073 0.07370505
0.70640435 0.00000073 0.17712684
0.75182710 0.00000073 0.33921828
0.00000073 0.18894730 0.00000073
0.18282944 0.19006888 0.00000073
0.46237200 0.17339835 0.00000073
0.71582111 0.00000073 0.17392219
0.75182710 0.00000073 0.32116427
0.00000073 0.46602199 0.00000073
0.00000073 0.47141981 0.00000073
0.46035010 0.47226864 0.00000073
0.70308516 0.46740795 0.00000073
0.75182710 0.42956662 0.14804605
0.00000073 0.72186515 0.00000073
0.00000073 0.70829307 0.00000073
0.00000073 0.69459589 0.00000073
0.67103434 0.68423926 0.00000073
0.75182710 0.67834435 0.00000073
0.00000073 0.75182710 0.00000073
0.00000073 0.75182710 0.00000073
0.00000073 0.75182710 0.00000073
0.60858395 0.75182710 0.00000073
0.75182710 0.75182710 0.00000073
0.00000073 0.00000073 0.18283388
0.20299573 0.00000073 0.15381753
0.45488822 0.00000073 0.16295826
0.70675458 0.00000073 0.21442564
0.75182710 0.00000073 0.34066568
0.00000073 0.17717366 0.17239884
0.17772259 0.17772259 0.17772259
0.46513030 0.15573773 0.18733844
0.70718366 0.00000073 0.23029017
0.75182710 0.00000073 0.32417090
0.00000073 0.46761436 0.00000073
0.00000073 0.47130401 0.00000073
0.46051484 0.47185504 0.00000073
0.69217256 0.47032736 0.06710378
0.75182710 0.45401445 0.29007491
0.00000073 0.71343079 0.00000073
0.00000073 0.69954381 0.00000073
0.22131160 0.68752506 0.00000073
0.66807587 0.68085664 0.00000073
0.75182710 0.67895459 0.00000073
0.00000073 0.75182710 0.00000073
0.00000073 0.75182710 0.00000073
0.00000073 0.75182710 0.00000073
0.63129318 0.75182710 0.00000073
0.75182710 0.75182710 0.52574325
0.00000073 0.00000073 0.26252844
0.16971777 0.00000073 0.25638646
0.44657450 0.00000073 0.28511921
0.69860349 0.00000073 0.32438713
0.75182710 0.00000073 0.38883189
0.00000073 0.00000073 0.35258108
0.00000073 0.00000073 0.38298370
0.45491830 0.00000073 0.40619777
0.69057214 0.00000073 0.42548968
0.75182710 0.00000073 0.45135832
0.00000073 0.45013982 0.43468372
0.00000073 0.45036378 0.44550169
0.45219881 0.45219881 0.45219881
0.67953098 0.45509045 0.46470851
0.75182710 0.45104897 0.48923445
0.00000073 0.70122248 0.26548702
0.00000073 0.68780071 0.36085275
0.30808785 0.67904462 0.41965179
0.66509619 0.67535423 0.47152435
0.75182710 0.67662392 0.52674724
0.00000073 0.75182710 0.00000073
0.00000073 0.75182710 0.00000073
0.00000073 0.75182710 0.00000073
0.65848021 0.75182710 0.53477718
0.75104980 0.75182710 0.71972378
0.00000073 0.00000073 0.31569934
0.09260278 0.00000073 0.32787828
0.43483644 0.00000073 0.36143329
0.67993844 0.00000073 0.39837400
0.75182710 0.00000073 0.44384591
0.00000073 0.00000073 0.44274669
0.00000073 0.00000073 0.48029776
0.42866192 0.00000073 0.51372010
0.66578478 0.00000073 0.54439287
0.75182710 0.00000073 0.56895599
0.00000073 0.36272516 0.59027512
0.00000073 0.29041695 0.61286868
0.39664411 0.21681670 0.62651602
0.65981983 0.26033226 0.63281840
0.75182710 0.31814998 0.63885050
0.00000073 0.67404944 0.65163579
0.00000073 0.66075410 0.65182879
0.00000073 0.65609039 0.65329923
0.65751558 0.65751559 0.65751560
0.75182710 0.66757381 0.66989143
0.00000073 0.75182710 0.60419863
0.00000073 0.75182710 0.62470421
0.00000073 0.75182710 0.64756902
0.70953320 0.75182710 0.71271152
0.74976744 0.75009187 0.74698057
0.00000073 0.00000073 0.35608601
0.00000073 0.00000073 0.38389178
0.41757382 0.00000073 0.42001034
0.65287831 0.00000073 0.45636141
0.75182710 0.00000073 0.49510279
0.00000073 0.00000073 0.50992251
0.00000073 0.00000073 0.54734950
0.38817750 0.00000073 0.58057135
0.63617047 0.00000073 0.60999687
0.75182710 0.00000073 0.63684359
0.00000073 0.00000073 0.66676444
0.00000073 0.00000073 0.69202905
0.00000073 0.00000073 0.71175042
0.63266151 0.00000073 0.72348009
0.75182710 0.00000073 0.72713922
0.00000073 0.61929877 0.75182710
0.00000073 0.59886664 0.75182710
0.00000073 0.59963804 0.75182710
0.64221675 0.61722823 0.75182710
0.72388653 0.67833963 0.72097069
0.00000073 0.75182710 0.75182710
0.00000073 0.75182710 0.75182710
0.54443593 0.75182710 0.75113068
0.73690649 0.74457196 0.74447091
0.75099998 0.75100000 0.75100002
