create_logik_projekt/presets/Syncolor/transforms/arri/ARRI_LogC2Video_Classic709_autodesk3d_33.3dl
0 512 1024 1536 2048 2559 3071 3583 4095
0 0 0
0 0 149
0 0 670
0 0 1577
0 0 2605
0 0 3572
0 0 4092
0 0 4095
0 0 4095
0 172 0
0 139 133
0 0 663
0 0 1575
0 0 2604
0 0 3571
0 0 4091
0 0 4095
0 0 4095
0 727 0
0 715 42
0 642 625
0 0 1562
0 0 2598
0 0 3567
0 0 4088
0 0 4095
0 0 4095
0 1684 0
0 1680 0
0 1656 373
0 1526 1495
0 1078 2566
0 0 3548
0 0 4072
0 0 4095
0 0 4095
0 2768 0
0 2766 0
0 2754 0
0 2695 1294
0 2527 2480
0 2202 3496
0 1903 4031
0 1782 4095
0 1763 4095
0 3787 0
0 3785 0
0 3778 0
0 3742 814
0 3643 2325
0 3468 3406
0 3327 3959
0 3276 4095
0 3269 4095
0 4095 0
0 4095 0
0 4095 0
0 4095 0
0 4095 2197
0 4082 3336
0 3974 3904
0 3936 4074
0 3930 4095
0 4095 0
0 4095 0
0 4095 0
0 4095 0
0 4095 2150
0 4095 3311
0 4095 3885
0 4095 4056
0 4095 4080
0 4095 0
0 4095 0
0 4095 0
0 4095 0
0 4095 2143
0 4095 3308
0 4095 3882
0 4095 4053
0 4095 4077
199 0 1
188 0 150
125 0 670
0 0 1578
0 0 2606
0 0 3572
0 0 4092
0 0 4095
0 0 4095
145 167 0
134 134 134
72 0 664
0 0 1575
0 0 2604
0 0 3571
0 0 4091
0 0 4095
0 0 4095
0 726 0
0 713 43
0 640 626
0 0 1563
0 0 2598
0 0 3567
0 0 4088
0 0 4095
0 0 4095
0 1684 0
0 1679 0
0 1656 374
0 1525 1495
0 1077 2566
0 0 3548
0 0 4073
0 0 4095
0 0 4095
0 2768 0
0 2766 0
0 2754 0
0 2694 1295
0 2526 2480
0 2202 3496
0 1902 4031
0 1781 4095
0 1762 4095
0 3786 0
0 3785 0
0 3778 0
0 3741 815
0 3643 2325
0 3468 3406
0 3327 3959
0 3276 4095
0 3268 4095
0 4095 0
0 4095 0
0 4095 0
0 4095 0
0 4095 2197
0 4082 3336
0 3974 3904
0 3936 4074
0 3930 4095
0 4095 0
0 4095 0
0 4095 0
0 4095 0
0 4095 2151
0 4095 3311
0 4095 3885
0 4095 4056
0 4095 4080
0 4095 0
0 4095 0
0 4095 0
0 4095 0
0 4095 2144
0 4095 3308
0 4095 3882
0 4095 4053
0 4095 4077
789 0 9
786 0 158
764 0 673
643 0 1579
70 0 2606
0 0 3572
0 0 4092
0 0 4095
0 0 4095
771 142 0
767 109 142
745 0 667
620 0 1576
16 0 2605
0 0 3571
0 0 4092
0 0 4095
0 0 4095
660 716 0
655 704 51
629 629 629
472 0 1564
0 0 2599
0 0 3568
0 0 4089
0 0 4095
0 0 4095
0 1680 0
0 1676 0
0 1652 380
0 1521 1496
0 1071 2567
0 0 3548
0 0 4073
0 0 4095
0 0 4095
0 2766 0
0 2764 0
0 2753 0
0 2693 1296
0 2525 2481
0 2199 3496
0 1900 4031
0 1778 4095
0 1759 4095
0 3785 0
0 3784 0
0 3777 0
0 3740 817
0 3642 2325
0 3466 3406
0 3326 3959
0 3275 4095
0 3267 4095
0 4095 0
0 4095 0
0 4095 0
0 4095 0
0 4095 2198
0 4081 3337
0 3973 3905
0 3935 4074
0 3929 4095
0 4095 0
0 4095 0
0 4095 0
0 4095 0
0 4095 2151
0 4095 3312
0 4095 3885
0 4095 4056
0 4095 4080
0 4095 0
0 4095 0
0 4095 0
0 4095 0
0 4095 2144
0 4095 3308
0 4095 3882
0 4095 4053
0 4095 4078
1799 0 51
1798 0 200
1791 0 690
1753 0 1584
1648 0 2609
1448 0 3574
1269 0 4094
1198 0 4095
1188 0 4095
1793 13 34
1792 0 183
1784 0 683
1746 0 1582
1641 0 2608
1439 0 3573
1259 0 4093
1188 0 4095
1177 0 4095
1758 666 0
1756 653 92
1749 571 646
1710 0 1569
1601 0 2602
1391 0 3569
1201 0 4090
1125 0 4095
1113 0 4095
1559 1664 0
1558 1660 0
1549 1635 408
1502 1502 1502
1370 1041 2570
1099 0 3550
821 0 4074
694 0 4095
673 0 4095
707 2758 0
702 2756 0
678 2745 0
536 2684 1303
0 2516 2484
0 2188 3498
0 1886 4032
0 1763 4095
0 1744 4095
0 3780 0
0 3779 0
0 3772 0
0 3735 830
0 3636 2329
0 3461 3408
0 3320 3961
0 3269 4095
0 3261 4095
0 4095 0
0 4095 0
0 4095 0
0 4095 0
0 4095 2202
0 4077 3338
0 3969 3906
0 3930 4075
0 3924 4095
0 4095 0
0 4095 0
0 4095 0
0 4095 0
0 4095 2155
0 4095 3314
0 4095 3887
0 4095 4057
0 4095 4082
0 4095 0
0 4095 0
0 4095 0
0 4095 0
0 4095 2148
0 4095 3310
0 4095 3884
0 4095 4055
0 4095 4079
2943 0 159
2942 0 301
2938 0 730
2920 0 1599
2872 0 2616
2789 0 3578
2723 0 4095
2700 0 4095
2697 0 4095
2940 0 143
2939 0 287
2935 0 724
2917 0 1597
2869 0 2615
2785 0 3578
2720 0 4095
2697 0 4095
2693 0 4095
2923 511 52
2922 493 201
2919 379 690
2900 0 1584
2852 0 2609
2767 0 3574
2701 0 4094
2678 0 4095
2674 0 4095
2834 1620 0
2833 1615 0
2829 1590 473
2810 1451 1518
2759 955 2577
2670 0 3554
2601 0 4078
2576 0 4095
2572 0 4095
2578 2737 0
2577 2735 0
2573 2723 0
2551 2662 1323
2491 2491 2491
2387 2159 3503
2304 1849 4036
2274 1722 4095
2270 1702 4095
2036 3768 0
2035 3766 0
2029 3759 0
1998 3722 863
1912 3623 2337
1754 3446 3413
1621 3304 3965
1571 3252 4095
1563 3245 4095
1424 4095 0
1423 4095 0
1413 4095 0
1360 4095 5
1206 4095 2211
868 4065 3343
438 3957 3910
137 3918 4079
83 3912 4095
1098 4095 0
1095 4095 0
1081 4095 0
1004 4095 0
758 4095 2165
0 4095 3319
0 4095 3891
0 4095 4061
0 4095 4085
1038 4095 0
1035 4095 0
1020 4095 0
937 4095 0
661 4095 2158
0 4095 3315
0 4095 3888
0 4095 4058
0 4095 4083
4017 0 327
4017 0 430
4015 0 793
4004 0 1624
3974 0 2628
3924 0 3586
3886 0 4095
3873 0 4095
3871 0 4095
4015 0 314
4015 0 420
4013 0 788
4002 0 1621
3972 0 2627
3922 0 3585
3884 0 4095
3871 0 4095
3869 0 4095
4005 64 233
4005 30 358
4002 0 757
3991 0 1609
3962 0 2621
3911 0 3581
3873 0 4095
3860 0 4095
3858 0 4095
3951 1541 0
3951 1537 0
3948 1510 567
3937 1359 1544
3907 787 2590
3855 0 3562
3816 0 4084
3803 0 4095
3801 0 4095
3804 2701 0
3803 2699 0
3801 2687 0
3789 2625 1354
3757 2450 2504
3702 2107 3510
3660 1784 4042
3646 1651 4095
3644 1630 4095
3535 3746 0
3535 3745 0
3532 3737 0
3519 3700 916
3483 3600 2351
3421 3421 3421
3374 3277 3971
3357 3225 4095
3355 3217 4095
3312 4095 0
3311 4095 0
3308 4095 0
3293 4095 186
3253 4095 2226
3184 4046 3352
3131 3937 3916
3113 3897 4085
3110 3892 4095
3228 4095 0
3228 4095 0
3225 4095 0
3209 4095 0
3167 4095 2181
3096 4095 3327
3040 4095 3897
3021 4093 4067
3018 4087 4091
3216 4095 0
3215 4095 0
3212 4095 0
3196 4095 0
3154 4095 2174
3082 4095 3324
3027 4095 3894
3007 4095 4065
3004 4095 4089
4095 0 422
4095 0 508
4095 0 837
4095 0 1641
4095 0 2637
4095 0 3591
4095 0 4095
4095 0 4095
4095 0 4095
4095 0 411
4095 0 499
4095 0 832
4095 0 1639
4095 0 2636
4095 0 3591
4095 0 4095
4095 0 4095
4095 0 4095
4095 0 348
4095 0 447
4095 0 802
4095 0 1627
4095 0 2630
4095 0 3587
4095 0 4095
4095 0 4095
4095 0 4095
4095 1479 0
4095 1474 50
4095 1445 629
4095 1285 1564
4095 627 2599
4095 0 3568
4095 0 4089
4095 0 4095
4095 0 4095
4095 2674 0
4095 2672 0
4095 2660 0
4095 2597 1377
4095 2419 2514
4095 2068 3516
4095 1734 4047
4095 1594 4095
4095 1572 4095
4095 3729 0
4095 3728 0
4095 3721 0
4095 3683 953
4095 3582 2362
4095 3402 3427
4095 3257 3976
4084 3204 4095
4082 3196 4095
4051 4095 0
4050 4095 0
4048 4095 0
4037 4095 313
4008 4095 2238
3959 4032 3358
3921 3921 3921
3908 3882 4090
3906 3876 4095
3990 4095 0
3990 4095 0
3988 4095 0
3977 4095 0
3947 4095 2192
3896 4095 3333
3858 4095 3902
3844 4078 4072
3842 4073 4095
3981 4095 0
3981 4095 0
3979 4095 0
3967 4095 0
3938 4095 2185
3887 4095 3330
3848 4095 3899
3835 4095 4069
3833 4095 4093
4095 0 451
4095 0 532
4095 0 851
4095 0 1648
4095 0 2640
4095 0 3593
4095 0 4095
4095 0 4095
4095 0 4095
4095 0 441
4095 0 524
4095 0 846
4095 0 1645
4095 0 2639
4095 0 3593
4095 0 4095
4095 0 4095
4095 0 4095
4095 0 382
4095 0 475
4095 0 818
4095 0 1634
4095 0 2633
4095 0 3589
4095 0 4095
4095 0 4095
4095 0 4095
4095 1456 0
4095 1451 97
4095 1422 648
4095 1257 1570
4095 560 2602
4095 0 3570
4095 0 4090
4095 0 4095
4095 0 4095
4095 2665 0
4095 2663 0
4095 2650 0
4095 2587 1385
4095 2408 2517
4095 2054 3518
4095 1716 4049
4095 1574 4095
4095 1551 4095
4095 3724 0
4095 3722 0
4095 3715 0
4095 3678 965
4095 3576 2366
4095 3395 3429
4095 3250 3978
4095 3197 4095
4095 3189 4095
4095 4095 0
4095 4095 0
4095 4095 0
4095 4095 349
4095 4095 2242
4095 4026 3360
4095 3916 3923
4095 3877 4091
4095 3871 4095
4095 4095 0
4095 4095 0
4095 4095 0
4095 4095 0
4095 4095 2196
4095 4095 3336
4086 4095 3904
4073 4073 4073
4072 4068 4095
4095 4095 0
4095 4095 0
4095 4095 0
4095 4095 0
4095 4095 2190
4095 4095 3332
4077 4095 3901
4065 4095 4071
4063 4095 4095
4095 0 455
4095 0 536
4095 0 853
4095 0 1648
4095 0 2641
4095 0 3594
4095 0 4095
4095 0 4095
4095 0 4095
4095 0 445
4095 0 528
4095 0 848
4095 0 1646
4095 0 2640
4095 0 3593
4095 0 4095
4095 0 4095
4095 0 4095
4095 0 387
4095 0 479
4095 0 820
4095 0 1634
4095 0 2634
4095 0 3589
4095 0 4095
4095 0 4095
4095 0 4095
4095 1453 0
4095 1448 104
4095 1419 651
4095 1253 1571
4095 550 2602
4095 0 3570
4095 0 4090
4095 0 4095
4095 0 4095
4095 2663 0
4095 2661 0
4095 2649 0
4095 2585 1386
4095 2406 2518
4095 2052 3518
4095 1713 4049
4095 1571 4095
4095 1548 4095
4095 3723 0
4095 3722 0
4095 3714 0
4095 3677 967
4095 3575 2366
4095 3394 3429
4095 3249 3978
4095 3196 4095
4095 3188 4095
4095 4095 0
4095 4095 0
4095 4095 0
4095 4095 354
4095 4095 2242
4095 4026 3360
4095 3915 3923
4095 3876 4092
4095 3870 4095
4095 4095 0
4095 4095 0
4095 4095 0
4095 4095 0
4095 4095 2197
4095 4095 3336
4095 4095 3904
4095 4073 4074
4095 4067 4095
4095 4095 0
4095 4095 0
4095 4095 0
4095 4095 0
4095 4095 2190
4095 4095 3332
4095 4095 3901
4095 4095 4071
4095 4095 4095
