create_logik_projekt/presets/Syncolor/transforms/arri/ARRI_LogC2Video_Classic709_autodesk3d_33.3dl
0 128 256 384 512 640 768 896 1024 1152 1280 1408 1536 1664 1792 1920 2048 2175 2303 2431 2559 2687 2815 2943 3071 3199 3327 3455 3583 3711 3839 3967 4095
0 0 0
0 0 0
0 0 0
0 0 69
0 0 149
0 0 255
0 0 379
0 0 516
0 0 670
0 0 851
0 0 1071
0 0 1317
0 0 1577
0 0 1840
0 0 2099
0 0 2354
0 0 2605
0 0 2855
0 0 3102
0 0 3346
0 0 3572
0 0 3754
0 0 3895
0 0 4006
0 0 4092
0 0 4095
0 0 4095
0 0 4095
0 0 4095
0 0 4095
0 0 4095
0 0 4095
0 0 4095
0 0 0
0 0 0
0 0 0
0 0 69
0 0 149
0 0 255
0 0 379
0 0 516
0 0 670
0 0 851
0 0 1071
0 0 1317
0 0 1577
0 0 1840
0 0 2099
0 0 2354
0 0 2605
0 0 2855
0 0 3102
0 0 3346
0 0 3572
0 0 3754
0 0 3895
0 0 4006
0 0 4092
0 0 4095
0 0 4095
0 0 4095
0 0 4095
0 0 4095
0 0 4095
0 0 4095
0 0 4095
0 0 0
0 0 0
0 0 0
0 0 69
0 0 149
0 0 255
0 0 379
0 0 516
0 0 670
0 0 851
0 0 1071
0 0 1317
0 0 1577
0 0 1840
0 0 2099
0 0 2354
0 0 2605
0 0 2855
0 0 3102
0 0 3346
0 0 3572
0 0 3754
0 0 3895
0 0 4006
0 0 4092
0 0 4095
0 0 4095
0 0 4095
0 0 4095
0 0 4095
0 0 4095
0 0 4095
0 0 4095
0 79 0
0 79 0
0 79 0
0 64 61
0 46 141
0 22 248
0 0 374
0 0 512
0 0 666
0 0 849
0 0 1069
0 0 1316
0 0 1576
0 0 1839
0 0 2098
0 0 2353
0 0 2605
0 0 2854
0 0 3101
0 0 3345
0 0 3571
0 0 3753
0 0 3894
0 0 4006
0 0 4092
0 0 4095
0 0 4095
0 0 4095
0 0 4095
0 0 4095
0 0 4095
0 0 4095
0 0 4095
0 172 0
0 172 0
0 172 0
0 157 52
0 139 133
0 115 239
0 80 368
0 28 507
0 0 663
0 0 846
0 0 1067
0 0 1314
0 0 1575
0 0 1838
0 0 2097
0 0 2352
0 0 2604
0 0 2854
0 0 3101
0 0 3345
0 0 3571
0 0 3753
0 0 3894
0 0 4005
0 0 4091
0 0 4095
0 0 4095
0 0 4095
0 0 4095
0 0 4095
0 0 4095
0 0 4095
0 0 4095
0 290 0
0 290 0
0 290 0
0 276 41
0 260 121
0 238 227
0 203 359
0 151 501
0 76 658
0 0 842
0 0 1064
0 0 1312
0 0 1573
0 0 1837
0 0 2096
0 0 2351
0 0 2604
0 0 2853
0 0 3100
0 0 3344
0 0 3571
0 0 3752
0 0 3893
0 0 4005
0 0 4091
0 0 4095
0 0 4095
0 0 4095
0 0 4095
0 0 4095
0 0 4095
0 0 4095
0 0 4095
0 421 0
0 421 0
0 421 0
0 411 24
0 399 104
0 383 210
0 359 347
0 320 492
0 255 651
0 138 837
0 0 1060
0 0 1309
0 0 1571
0 0 1835
0 0 2094
0 0 2350
0 0 2602
0 0 2852
0 0 3099
0 0 3344
0 0 3570
0 0 3752
0 0 3893
0 0 4004
0 0 4090
0 0 4095
0 0 4095
0 0 4095
0 0 4095
0 0 4095
0 0 4095
0 0 4095
0 0 4095
0 565 0
0 565 0
0 565 0
0 558 0
0 549 79
0 537 185
0 520 327
0 492 478
0 449 641
0 373 829
0 216 1055
0 0 1305
0 0 1568
0 0 1832
0 0 2092
0 0 2348
0 0 2601
0 0 2851
0 0 3098
0 0 3342
0 0 3569
0 0 3751
0 0 3892
0 0 4004
0 0 4089
0 0 4095
0 0 4095
0 0 4095
0 0 4095
0 0 4095
0 0 4095
0 0 4095
0 0 4095
0 727 0
0 727 0
0 727 0
0 722 0
0 715 42
0 706 148
0 693 297
0 673 457
0 642 625
0 590 818
0 497 1046
0 319 1298
0 0 1562
0 0 1828
0 0 2089
0 0 2345
0 0 2598
0 0 2848
0 0 3096
0 0 3341
0 0 3567
0 0 3749
0 0 3891
0 0 4002
0 0 4088
0 0 4095
0 0 4095
0 0 4095
0 0 4095
0 0 4095
0 0 4095
0 0 4095
0 0 4095
0 919 0
0 919 0
0 919 0
0 914 0
0 909 0
0 902 91
0 892 246
0 877 422
0 855 600
0 818 799
0 756 1032
0 652 1288
0 471 1554
0 83 1821
0 0 2083
0 0 2341
0 0 2594
0 0 2845
0 0 3093
0 0 3338
0 0 3565
0 0 3747
0 0 3889
0 0 4000
0 0 4086
0 0 4095
0 0 4095
0 0 4095
0 0 4095
0 0 4095
0 0 4095
0 0 4095
0 0 4095
0 1150 0
0 1150 0
0 1150 0
0 1147 0
0 1143 0
0 1138 0
0 1131 155
0 1120 360
0 1103 557
0 1077 768
0 1032 1010
0 963 1271
0 857 1541
0 696 1811
0 420 2075
0 0 2333
0 0 2588
0 0 2840
0 0 3088
0 0 3334
0 0 3561
0 0 3744
0 0 3885
0 0 3997
0 0 4083
0 0 4095
0 0 4095
0 0 4095
0 0 4095
0 0 4095
0 0 4095
0 0 4095
0 0 4095
0 1410 0
0 1410 0
0 1410 0
0 1407 0
0 1404 0
0 1401 0
0 1395 20
0 1386 249
0 1374 487
0 1354 720
0 1322 975
0 1272 1245
0 1200 1522
0 1100 1796
0 961 2062
0 758 2323
0 394 2579
0 0 2832
0 0 3081
0 0 3328
0 0 3555
0 0 3738
0 0 3880
0 0 3992
0 0 4079
0 0 4095
0 0 4095
0 0 4095
0 0 4095
0 0 4095
0 0 4095
0 0 4095
0 0 4095
0 1684 0
0 1684 0
0 1684 0
0 1682 0
0 1680 0
0 1677 0
0 1672 0
0 1666 65
0 1656 373
0 1641 648
0 1616 926
0 1579 1210
0 1526 1495
0 1454 1774
0 1362 2044
0 1241 2308
0 1078 2566
0 843 2821
0 414 3072
0 0 3319
0 0 3548
0 0 3731
0 0 3874
0 0 3986
0 0 4072
0 0 4095
0 0 4095
0 0 4095
0 0 4095
0 0 4095
0 0 4095
0 0 4095
0 0 4095
0 1961 0
0 1961 0
0 1961 0
0 1959 0
0 1958 0
0 1955 0
0 1952 0
0 1946 0
0 1938 170
0 1926 543
0 1907 859
0 1877 1163
0 1836 1460
0 1781 1746
0 1713 2022
0 1626 2289
0 1518 2550
0 1379 2807
0 1195 3059
0 934 3308
0 509 3538
0 0 3722
0 0 3865
0 0 3978
0 0 4065
0 0 4095
0 0 4095
0 0 4095
0 0 4095
0 0 4095
0 0 4095
0 0 4095
0 0 4095
0 2234 0
0 2234 0
0 2234 0
0 2232 0
0 2231 0
0 2229 0
0 2226 0
0 2221 0
0 2215 0
0 2205 380
0 2189 769
0 2165 1102
0 2131 1415
0 2088 1712
0 2033 1994
0 1966 2266
0 1885 2531
0 1785 2790
0 1661 3045
0 1506 3295
0 1320 3526
0 1120 3711
0 912 3855
0 679 3968
0 398 4055
0 9 4095
0 0 4095
0 0 4095
0 0 4095
0 0 4095
0 0 4095
0 0 4095
0 0 4095
0 2502 0
0 2502 0
0 2502 0
0 2501 0
0 2500 0
0 2498 0
0 2496 0
0 2492 0
0 2487 0
0 2478 82
0 2465 644
0 2445 1025
0 2417 1361
0 2380 1671
0 2336 1961
0 2282 2239
0 2216 2507
0 2138 2770
0 2044 3027
0 1932 3280
0 1805 3512
0 1682 3698
0 1570 3842
0 1467 3956
0 1377 4044
0 1303 4095
0 1246 4095
0 1204 4095
0 1177 4095
0 1161 4095
0 1149 4095
0 1144 4095
0 1144 4095
0 2768 0
0 2768 0
0 2768 0
0 2767 0
0 2766 0
0 2764 0
0 2762 0
0 2759 0
0 2754 0
0 2747 0
0 2736 457
0 2718 926
0 2695 1294
0 2664 1621
0 2626 1921
0 2581 2206
0 2527 2480
0 2463 2746
0 2387 3006
0 2299 3261
0 2202 3496
0 2111 3683
0 2032 3828
0 1962 3943
0 1903 4031
0 1856 4095
0 1822 4095
0 1797 4095
0 1782 4095
0 1772 4095
0 1766 4095
0 1763 4095
0 1763 4095
0 3031 0
0 3031 0
0 3031 0
0 3030 0
0 3029 0
0 3028 0
0 3026 0
0 3023 0
0 3019 0
0 3013 0
0 3002 96
0 2988 795
0 2967 1212
0 2940 1561
0 2908 1875
0 2869 2168
0 2823 2448
0 2769 2719
0 2707 2983
0 2634 3240
0 2555 3477
0 2483 3666
0 2421 3812
0 2367 3927
0 2323 4016
0 2288 4081
0 2263 4095
0 2245 4095
0 2234 4095
0 2227 4095
0 2222 4095
0 2220 4095
0 2220 4095
0 3291 0
0 3291 0
0 3291 0
0 3290 0
0 3289 0
0 3288 0
0 3287 0
0 3284 0
0 3281 0
0 3275 0
0 3266 0
0 3253 607
0 3235 1109
0 3212 1489
0 3184 1820
0 3150 2124
0 3110 2411
0 3064 2687
0 3010 2955
0 2948 3216
0 2882 3455
0 2822 3646
0 2771 3793
0 2728 3909
0 2692 3998
0 2664 4064
0 2644 4095
0 2630 4095
0 2621 4095
0 2616 4095
0 2612 4095
0 2610 4095
0 2610 4095
0 3548 0
0 3548 0
0 3548 0
0 3548 0
0 3547 0
0 3546 0
0 3544 0
0 3542 0
0 3539 0
0 3534 0
0 3526 0
0 3515 275
0 3499 977
0 3478 1404
0 3453 1756
0 3423 2073
0 3389 2369
0 3348 2652
0 3301 2924
0 3248 3189
0 3191 3431
0 3140 3624
0 3097 3772
0 3060 3889
0 3030 3979
0 3007 4046
0 2990 4093
0 2978 4095
0 2971 4095
0 2967 4095
0 2964 4095
0 2962 4095
0 2962 4095
0 3787 0
0 3787 0
0 3787 0
0 3786 0
0 3785 0
0 3784 0
0 3783 0
0 3781 0
0 3778 0
0 3774 0
0 3767 0
0 3756 0
0 3742 814
0 3723 1307
0 3701 1686
0 3674 2018
0 3643 2325
0 3607 2614
0 3565 2892
0 3518 3161
0 3468 3406
0 3423 3601
0 3385 3751
0 3353 3869
0 3327 3959
0 3307 4026
0 3292 4073
0 3282 4095
0 3276 4095
0 3272 4095
0 3270 4095
0 3269 4095
0 3269 4095
0 3978 0
0 3978 0
0 3978 0
0 3978 0
0 3977 0
0 3976 0
0 3975 0
0 3973 0
0 3970 0
0 3966 0
0 3960 0
0 3950 0
0 3937 630
0 3920 1213
0 3899 1621
0 3874 1969
0 3846 2284
0 3812 2580
0 3774 2863
0 3731 3136
0 3686 3383
0 3645 3580
0 3611 3731
0 3582 3850
0 3558 3941
0 3540 4009
0 3527 4056
0 3518 4088
0 3512 4095
0 3509 4095
0 3507 4095
0 3505 4095
0 3505 4095
0 4095 0
0 4095 0
0 4095 0
0 4095 0
0 4095 0
0 4095 0
0 4095 0
0 4095 0
0 4095 0
0 4095 0
0 4095 0
0 4095 0
0 4088 416
0 4072 1128
0 4052 1565
0 4029 1926
0 4002 2250
0 3971 2552
0 3935 2839
0 3895 3115
0 3852 3365
0 3814 3563
0 3782 3715
0 3755 3835
0 3733 3927
0 3717 3994
0 3705 4042
0 3696 4074
0 3691 4095
0 3688 4095
0 3686 4095
0 3685 4095
0 3685 4095
0 4095 0
0 4095 0
0 4095 0
0 4095 0
0 4095 0
0 4095 0
0 4095 0
0 4095 0
0 4095 0
0 4095 0
0 4095 0
0 4095 0
0 4095 122
0 4095 1050
0 4095 1515
0 4095 1889
0 4095 2221
0 4095 2528
0 4061 2818
0 4023 3097
0 3983 3349
0 3947 3548
0 3916 3702
0 3891 3822
0 3870 3914
0 3854 3982
0 3843 4030
0 3835 4063
0 3830 4083
0 3827 4095
0 3825 4095
0 3824 4095
0 3824 4095
0 4095 0
0 4095 0
0 4095 0
0 4095 0
0 4095 0
0 4095 0
0 4095 0
0 4095 0
0 4095 0
0 4095 0
0 4095 0
0 4095 0
0 4095 0
0 4095 982
0 4095 1474
0 4095 1859
0 4095 2197
0 4095 2508
0 4095 2802
0 4095 3083
0 4082 3336
0 4048 3537
0 4018 3691
0 3994 3812
0 3974 3904
0 3959 3973
0 3948 4021
0 3941 4053
0 3936 4074
0 3933 4086
0 3931 4094
0 3930 4095
0 3930 4095
0 4095 0
0 4095 0
0 4095 0
0 4095 0
0 4095 0
0 4095 0
0 4095 0
0 4095 0
0 4095 0
0 4095 0
0 4095 0
0 4095 0
0 4095 0
0 4095 926
0 4095 1442
0 4095 1836
0 4095 2179
0 4095 2493
0 4095 2789
0 4095 3072
0 4095 3326
0 4095 3528
0 4094 3682
0 4070 3804
0 4051 3897
0 4036 3965
0 4026 4014
0 4018 4046
0 4014 4067
0 4011 4079
0 4009 4087
0 4008 4091
0 4008 4091
0 4095 0
0 4095 0
0 4095 0
0 4095 0
0 4095 0
0 4095 0
0 4095 0
0 4095 0
0 4095 0
0 4095 0
0 4095 0
0 4095 0
0 4095 0
0 4095 882
0 4095 1418
0 4095 1819
0 4095 2166
0 4095 2482
0 4095 2780
0 4095 3064
0 4095 3319
0 4095 3522
0 4095 3676
0 4095 3798
0 4095 3891
0 4091 3960
0 4080 4008
0 4073 4041
0 4068 4061
0 4066 4074
0 4064 4082
0 4063 4086
0 4063 4086
0 4095 0
0 4095 0
0 4095 0
0 4095 0
0 4095 0
0 4095 0
0 4095 0
0 4095 0
0 4095 0
