create_logik_projekt/presets/Syncolor/transforms/arri/ARRI_LogC2Video_Classic709_autodesk3d_33.3dl
0 1024 2048 3071 4095
0 0 0
0 0 670
0 0 2605
0 0 4092
0 0 4095
0 727 0
0 642 625
0 0 2598
0 0 4088
0 0 4095
0 2768 0
0 2754 0
0 2527 2480
0 1903 4031
0 1763 4095
0 4095 0
0 4095 0
0 4095 2197
0 3974 3904
0 3930 4095
0 4095 0
0 4095 0
0 4095 2143
0 4095 3882
0 4095 4077
789 0 9
764 0 673
70 0 2606
0 0 4092
0 0 4095
660 716 0
629 629 629
0 0 2599
0 0 4089
0 0 4095
0 2766 0
0 2753 0
0 2525 2481
0 1900 4031
0 1759 4095
0 4095 0
0 4095 0
0 4095 2198
0 3973 3905
0 3929 4095
0 4095 0
0 4095 0
0 4095 2144
0 4095 3882
0 4095 4078
2943 0 159
2938 0 730
2872 0 2616
2723 0 4095
2697 0 4095
2923 511 52
2919 379 690
2852 0 2609
2701 0 4094
2674 0 4095
2578 2737 0
2573 2723 0
2491 2491 2491
2304 1849 4036
2270 1702 4095
1424 4095 0
1413 4095 0
1206 4095 2211
438 3957 3910
83 3912 4095
1038 4095 0
1020 4095 0
661 4095 2158
0 4095 3888
0 4095 4083
4095 0 422
4095 0 837
4095 0 2637
4095 0 4095
4095 0 4095
4095 0 348
4095 0 802
4095 0 2630
4095 0 4095
4095 0 4095
4095 2674 0
4095 2660 0
4095 2419 2514
4095 1734 4047
4095 1572 4095
4051 4095 0
4048 4095 0
4008 4095 2238
3921 3921 3921
3906 3876 4095
3981 4095 0
3979 4095 0
3938 4095 2185
3848 4095 3899
3833 4095 4093
4095 0 455
4095 0 853
4095 0 2641
4095 0 4095
4095 0 4095
4095 0 387
4095 0 820
4095 0 2634
4095 0 4095
4095 0 4095
4095 2663 0
4095 2649 0
4095 2406 2518
4095 1713 4049
4095 1548 4095
4095 4095 0
4095 4095 0
4095 4095 2242
4095 3915 3923
4095 3870 4095
4095 4095 0
4095 4095 0
4095 4095 2190
4095 4095 3901
4095 4095 4095
